;FLAVOR:Marlin
;TIME:680
;Filament used: 0.295925m
;Layer height: 0.1
;MINX:120.237
;MINY:170.752
;MINZ:0.2
;MAXX:203.095
;MAXY:185.092
;MAXZ:2.7
;Generated with Cura_SteamEngine 4.10.0
M104 S230
M105
M109 S230
M82 ;absolute extrusion mode
G28 ; home all axes
 M117 Purge extruder
 G92 E0 ; reset extruder
 G1 Z1.0 F3000 ; move z up little to prevent scratching of surface
 G1 X2 Y20 Z0.3 F5000.0 ; move to start-line position
 G1 X2 Y200.0 Z0.3 F1500.0 E15 ; draw 1st line
 G1 X2 Y200.0 Z0.4 F5000.0 ; move to side a little
 G1 X2 Y20 Z0.4 F1500.0 E30 ; draw 2nd line
 G92 E0 ; reset extruder
 G1 Z1.0 F3000 ; move z up little to prevent scratching of surface
G92 E0
G92 E0
G1 F1500 E-2
;LAYER_COUNT:26
;LAYER:0
M107
M204 S2500
;MESH:DA_shovel.2.STL
G0 F6000 X157.587 Y177.692 Z0.2
;TYPE:WALL-INNER
G1 F1500 E0
G1 F900 X161.678 Y182.189 E0.28025
G1 X188.139 Y178.496 E1.51189
G1 X188.139 Y176.888 E1.58601
G1 X161.678 Y173.195 E2.81765
G1 X157.587 Y177.692 E3.0979
G0 F6000 X158.42 Y177.692
;TYPE:WALL-OUTER
G1 F900 X161.915 Y181.534 E3.33733
G1 X187.523 Y177.96 E4.52927
G1 X187.523 Y177.424 E4.55397
G1 X161.915 Y173.85 E5.74591
G1 X158.42 Y177.692 E5.98534
G1 F1500 E3.98534
G0 F6000 X158.054 Y177.358
G0 X161.749 Y173.392
G0 X187.949 Y177.054
G0 X189.371 Y177.705
;TYPE:WALL-INNER
G1 F1500 E5.98534
G1 F900 X189.371 Y177.692 E5.98594
G1 X189.371 Y177.68 E5.98649
G1 X189.462 Y177.692 E5.9887
G1 X189.371 Y177.705 E5.98878
G0 F6000 X188.755 Y178.413
G1 F900 X188.755 Y176.972 E6.05521
G1 X193.919 Y177.692 E6.29557
G1 X188.755 Y178.413 E6.53593
G1 F1500 E4.53593
G0 F6000 X161.749 Y181.992
G0 X158.52 Y178.437
G0 X134.013 Y177.748
G1 F1500 E6.53593
G1 F900 X133.605 Y179.414 E6.615
G1 X133.343 Y180.08 E6.64799
G1 X132.993 Y180.695 E6.68061
G1 X132.559 Y181.258 E6.71338
G1 X132.057 Y181.749 E6.74575
G1 X131.493 Y182.164 E6.77803
G1 X130.876 Y182.494 E6.81028
G1 X130.218 Y182.735 E6.84259
G1 X129.508 Y182.885 E6.87604
G1 X128.762 Y182.939 E6.91052
G1 X127.494 Y182.941 E6.96897
G1 X125.135 Y182.938 E7.07772
G1 X124.386 Y182.873 E7.11238
G1 X123.696 Y182.718 E7.14498
G1 X123.014 Y182.464 E7.17853
G1 X122.395 Y182.131 E7.21093
G1 X122.085 Y181.905 E7.22861
G1 X122.085 Y173.171 E7.63124
G1 X122.963 Y172.905 E7.67353
G1 X128.756 Y172.905 E7.94058
G1 X129.551 Y172.963 E7.97732
G1 X130.294 Y173.133 E8.01246
G1 X130.99 Y173.406 E8.04693
G1 X131.638 Y173.778 E8.08137
G1 X132.216 Y174.238 E8.11542
G1 X132.731 Y174.788 E8.15016
G1 X133.156 Y175.411 E8.18492
G1 X133.48 Y176.079 E8.21915
G1 X134.013 Y177.748 E8.29991
G0 F6000 X134.653 Y177.726
G1 F900 X134.557 Y178.121 E8.31865
G1 X134.193 Y179.602 E8.38896
G1 X133.899 Y180.348 E8.42592
G1 X133.506 Y181.04 E8.46261
G1 X133.024 Y181.664 E8.49895
G1 X132.458 Y182.219 E8.5355
G1 X131.824 Y182.685 E8.57177
G1 X131.128 Y183.057 E8.60815
G1 X130.385 Y183.33 E8.64464
G1 X129.599 Y183.496 E8.68167
G1 X128.779 Y183.555 E8.71957
G1 X127.494 Y183.557 E8.77881
G1 X125.105 Y183.554 E8.88894
G1 X124.294 Y183.484 E8.92646
G1 X123.519 Y183.31 E8.96308
G1 X122.756 Y183.025 E9.00062
G1 X122.068 Y182.655 E9.03663
G1 X121.469 Y182.218 E9.07081
G1 X121.469 Y172.715 E9.50889
G1 X121.906 Y172.583 E9.52993
G1 X122.783 Y172.317 E9.57218
G1 X122.873 Y172.289 E9.57653
G1 X128.774 Y172.289 E9.84855
G1 X129.648 Y172.353 E9.88895
G1 X130.471 Y172.541 E9.92787
G1 X131.259 Y172.85 E9.96689
G1 X131.983 Y173.266 E10.00538
G1 X132.638 Y173.787 E10.04396
G1 X133.212 Y174.4 E10.08267
G1 X133.648 Y175.038 E10.1183
G1 X133.69 Y175.1 E10.12175
G1 X134.054 Y175.851 E10.16022
G1 X134.653 Y177.726 E10.25096
G0 F6000 X156.832 Y178.268
G1 F900 X135.154 Y178.268 E11.25028
G1 X134.781 Y179.79 E11.32252
G1 X134.455 Y180.616 E11.36346
G1 X134.022 Y181.38 E11.40394
G1 X133.485 Y182.075 E11.44443
G1 X132.858 Y182.689 E11.48488
G1 X132.155 Y183.206 E11.52511
G1 X132.114 Y183.227 E11.52723
G1 X131.378 Y183.621 E11.56572
G1 X130.555 Y183.924 E11.60615
G1 X129.69 Y184.107 E11.6469
G1 X128.795 Y184.171 E11.68827
G1 X127.494 Y184.173 E11.74824
G1 X125.075 Y184.17 E11.85975
G1 X124.202 Y184.095 E11.90015
G1 X123.342 Y183.902 E11.94078
G1 X122.504 Y183.589 E11.98201
G1 X121.735 Y183.175 E12.02227
G1 X121.013 Y182.648 E12.06348
G1 X120.853 Y182.5 E12.07353
G1 X120.853 Y172.257 E12.54572
G1 X122.78 Y171.673 E12.63854
G1 X128.792 Y171.673 E12.91568
G1 X129.745 Y171.743 E12.95973
G1 X130.651 Y171.95 E13.00257
G1 X131.525 Y172.292 E13.04584
G1 X132.332 Y172.756 E13.08875
G1 X133.057 Y173.333 E13.13147
G1 X133.693 Y174.013 E13.17439
G1 X134.156 Y174.692 E13.21227
G1 X134.223 Y174.787 E13.21763
G1 X134.628 Y175.623 E13.26045
G1 X135.105 Y177.116 E13.33271
G1 X156.832 Y177.116 E14.33429
G1 X161.049 Y172.484 E14.62305
G1 X196.194 Y177.388 E16.25888
G1 X198.375 Y177.692 E16.3604
G1 X196.194 Y177.996 E16.41164
G1 X161.049 Y182.901 E18.04747
G1 X156.832 Y178.268 E18.33627
G0 F6000 X156.56 Y178.884
;TYPE:WALL-OUTER
G1 F900 X135.637 Y178.884 E19.30079
G1 X135.369 Y179.978 E19.35271
G1 X135.012 Y180.884 E19.3976
G1 X134.538 Y181.72 E19.44191
G1 X133.946 Y182.486 E19.48653
G1 X133.258 Y183.159 E19.5309
G1 X132.485 Y183.727 E19.57512
G1 X131.628 Y184.185 E19.61991
G1 X130.723 Y184.518 E19.66437
G1 X129.782 Y184.718 E19.70872
G1 X128.811 Y184.787 E19.75359
G1 X127.494 Y184.789 E19.8143
G1 X125.046 Y184.786 E19.92715
G1 X124.11 Y184.706 E19.97046
G1 X123.165 Y184.494 E20.0151
G1 X122.252 Y184.153 E20.06003
G1 X121.407 Y183.698 E20.10427
G1 X120.62 Y183.123 E20.1492
G1 X120.237 Y182.77 E20.17321
G1 X120.237 Y171.799 E20.67896
G1 X122.687 Y171.057 E20.79697
G1 X128.81 Y171.057 E21.07923
G1 X129.842 Y171.133 E21.12693
G1 X130.834 Y171.359 E21.17383
G1 X131.789 Y171.733 E21.22111
G1 X132.677 Y172.244 E21.26834
G1 X133.479 Y172.882 E21.31559
G1 X134.175 Y173.626 E21.36255
G1 X134.663 Y174.342 E21.4025
G1 X134.755 Y174.473 E21.40987
G1 X135.202 Y175.395 E21.45711
G1 X135.555 Y176.5 E21.51058
G1 X156.56 Y176.5 E22.47888
G1 X160.811 Y171.829 E22.77003
G1 X202.831 Y177.692 E24.72586
G1 X160.811 Y183.556 E26.68169
G1 X156.56 Y178.884 E26.97287
G0 F6000 X156.833 Y178.265
G0 X133.384 Y177.771
;TYPE:SKIN
G1 F900 X133.028 Y179.225 E27.04188
G1 X132.794 Y179.819 E27.07131
G1 X132.488 Y180.357 E27.09984
G1 X132.101 Y180.858 E27.12903
G1 X131.669 Y181.281 E27.1569
G1 X131.167 Y181.651 E27.18565
G1 X130.627 Y181.939 E27.21386
G1 X130.049 Y182.152 E27.24226
G1 X129.42 Y182.284 E27.27188
G1 X128.745 Y182.333 E27.30308
G1 X127.494 Y182.335 E27.36075
G1 X125.162 Y182.332 E27.46825
G1 X124.482 Y182.273 E27.49972
G1 X123.863 Y182.134 E27.52896
G1 X123.261 Y181.91 E27.55857
G1 X122.724 Y181.621 E27.58669
G1 X122.691 Y181.597 E27.58857
G1 X122.691 Y173.621 E27.95625
G1 X123.053 Y173.511 E27.97369
G1 X128.74 Y173.511 E28.23585
G1 X129.462 Y173.563 E28.26922
G1 X130.109 Y173.712 E28.29983
G1 X130.732 Y173.955 E28.33065
G1 X131.293 Y174.278 E28.3605
G1 X131.8 Y174.682 E28.39038
G1 X132.261 Y175.175 E28.4215
G1 X132.632 Y175.717 E28.45177
G1 X132.916 Y176.303 E28.48179
G1 X133.384 Y177.771 E28.55282
G0 F6000 X132.383 Y176.514
G1 F900 X132.135 Y176.003 E28.57901
G1 X131.813 Y175.532 E28.60531
G1 X131.41 Y175.1 E28.63254
G1 X130.976 Y174.756 E28.65807
G1 X130.481 Y174.47 E28.68442
G1 X129.936 Y174.259 E28.71137
G1 X129.798 Y174.227 E28.7179
G1 X132.523 Y176.952 E28.89555
G0 F6000 X129.798 Y174.227
G1 F900 X129.375 Y174.127 E28.91558
G1 X128.786 Y174.086 E28.9428
G1 X132.732 Y178.032 E29.20005
G1 X132.56 Y178.731 E29.23324
G1 X127.911 Y174.082 E29.53632
G1 X127.04 Y174.082 E29.57647
G1 X132.347 Y179.39 E29.92249
G1 X132.274 Y179.574 E29.93161
G1 X132.052 Y179.965 E29.95234
G1 X126.169 Y174.082 E30.33587
G1 X125.297 Y174.082 E30.37607
G1 X131.68 Y180.464 E30.79216
G1 X131.669 Y180.478 E30.79298
G1 X131.301 Y180.839 E30.81675
G1 X131.233 Y180.889 E30.82064
G1 X124.426 Y174.082 E31.26441
G1 X123.555 Y174.082 E31.30456
G1 X130.715 Y181.242 E31.77134
G1 X130.395 Y181.413 E31.78807
G1 X130.117 Y181.515 E31.80172
G1 X123.262 Y174.661 E32.24859
G1 X123.262 Y175.532 E32.28874
G1 X129.427 Y181.696 E32.69062
G1 X129.342 Y181.715 E32.69464
G1 X128.731 Y181.76 E32.72288
G1 X128.619 Y181.76 E32.72804
G1 X123.262 Y176.403 E33.07728
G1 X123.262 Y177.274 E33.11744
G1 X127.749 Y181.761 E33.40996
G1 X127.494 Y181.761 E33.42171
G1 X126.878 Y181.761 E33.45011
G1 X123.262 Y178.145 E33.68585
G1 X123.262 Y179.016 E33.726
G1 X126.006 Y181.76 E33.90489
G1 X125.189 Y181.759 E33.94255
G1 X125.128 Y181.754 E33.94537
G1 X123.262 Y179.887 E34.06706
G1 X123.262 Y180.759 E34.10725
G1 X124.102 Y181.599 E34.16202
G1 X124.026 Y181.582 E34.16561
G1 X123.489 Y181.382 E34.19202
G1 X123.262 Y181.261 E34.20388
G0 F6000 X134.897 Y177.833
;TYPE:SKIN
G1 F900 X135.053 Y177.988 E34.2075
G0 F6000 X135.364 Y177.988
G1 F900 X134.85 Y177.474 E34.21947
G0 F6000 X135.378 Y177.691
G1 F900 X135.689 Y177.691 E34.23373
G1 X156.535 Y177.691 E35.18934
G0 F6000 X157.305 Y177.84
G1 F900 X157.195 Y177.418 E35.20261
G1 X161.198 Y173.021 E35.38344
G1 X161.385 Y172.897 E35.39027
G0 F6000 X161.287 Y172.799
G0 X156.549 Y177.394
G1 F900 X160.884 Y181.729 E35.4912
G0 F6000 X161.411 Y182.567
G1 F900 X158.202 Y179.359 E35.5659
G1 F1500 E33.5659
G0 F6000 X161.749 Y181.992
G0 X187.949 Y178.33
G0 X189.725 Y177.903
G0 X189.766 Y177.943
G1 F1500 E35.5659
G1 F900 X189.902 Y177.768 E35.57606
G0 F6000 X190.101 Y177.656
G1 F900 X190.419 Y177.662 E35.58778
G1 X191.37 Y177.681 E35.62284
G0 F6000 X191.444 Y177.754
G0 X194.182 Y177.692
G1 F900 X194.448 Y177.958 E35.62904
G0 F6000 X194.455 Y177.654
G1 F900 X194.772 Y177.66 E35.63713
G1 X196.04 Y177.683 E35.6695
G0 F6000 X196.08 Y177.724
G0 X198.495 Y177.792
G0 X198.727 Y177.881
G1 F900 X198.863 Y177.706 E35.67572
G1 X200.079 Y177.678 E35.70986
G1 X200.396 Y177.683 E35.71875
G0 F6000 X200.33 Y177.964
G1 F1500 E33.71875
;MESH:NONMESH
G0 F300 X200.33 Y177.964 Z0.3
G0 F6000 X200.329 Y177.94
G0 X161.902 Y181.571
G0 X157.349 Y177.692
;TIME_ELAPSED:64.085410
;LAYER:1
M106 S29.8
;TYPE:WALL-INNER
;MESH:DA_shovel.2.STL
G1 F1500 E35.71875
G1 F2250 X161.468 Y182.22 E35.81953
G1 X161.61 Y182.376 E35.823
G1 X188.315 Y178.649 E36.26693
G1 X188.315 Y176.735 E36.29844
G1 X161.61 Y173.008 E36.74237
G1 X161.467 Y173.165 E36.74586
G1 X157.349 Y177.692 E36.84662
G0 F7500 X157.944 Y177.692
G1 F2250 X161.779 Y181.908 E36.94045
G1 X187.875 Y178.266 E37.37425
G1 X187.875 Y177.118 E37.39315
G1 X161.779 Y173.476 E37.82696
G1 X157.944 Y177.692 E37.92079
G0 F7500 X158.539 Y177.692
;TYPE:WALL-OUTER
G1 F2250 X161.948 Y181.44 E38.0042
G1 X187.435 Y177.883 E38.42788
G1 X187.435 Y177.501 E38.43417
G1 X161.948 Y173.944 E38.85785
G1 X158.539 Y177.692 E38.94126
G1 F1500 E36.94126
G0 F7500 X158.303 Y177.476
G0 X161.85 Y181.711
G0 X188.755 Y178.36
;TYPE:WALL-INNER
G1 F1500 E38.94126
G1 F2250 X188.755 Y177.024 E38.96325
G1 X193.54 Y177.692 E39.0428
G1 X188.755 Y178.36 E39.12234
G1 F1500 E37.12234
G0 F7500 X161.85 Y181.711
G0 X159.127 Y178.712
G0 X134.801 Y177.732
G1 F1500 E39.12234
G1 F2250 X134.323 Y179.659 E39.15503
G1 X134.031 Y180.402 E39.16817
G1 X133.624 Y181.121 E39.18177
G1 X133.133 Y181.76 E39.19504
G1 X132.555 Y182.324 E39.20834
G1 X131.902 Y182.801 E39.22165
G1 X131.546 Y182.992 E39.2283
G1 X131.179 Y183.189 E39.23516
G1 X130.419 Y183.468 E39.24849
G1 X129.634 Y183.636 E39.26171
G1 X128.766 Y183.698 E39.27603
G1 X125.082 Y183.698 E39.33668
G1 X124.281 Y183.629 E39.34992
G1 X123.475 Y183.447 E39.36353
G1 X122.708 Y183.161 E39.377
G1 X122.1 Y182.833 E39.38838
G1 X122.101 Y172.372 E39.5606
G1 X122.848 Y172.146 E39.57345
G1 X128.755 Y172.146 E39.6707
G1 X129.679 Y172.216 E39.68596
G1 X130.515 Y172.404 E39.70007
G1 X131.317 Y172.718 E39.71425
G1 X132.065 Y173.151 E39.72848
G1 X132.732 Y173.68 E39.74249
G1 X133.32 Y174.311 E39.75669
G1 X133.808 Y175.02 E39.77086
G1 X134.19 Y175.806 E39.78525
G1 X134.801 Y177.732 E39.81852
G0 F7500 X156.981 Y178.092
G1 F2250 X135.165 Y178.092 E40.17769
G1 X135.083 Y178.426 E40.18335
G1 X134.744 Y179.79 E40.20649
G1 X134.427 Y180.596 E40.22075
G1 X133.992 Y181.364 E40.23528
G1 X133.463 Y182.052 E40.24957
G1 X132.839 Y182.661 E40.26393
G1 X132.133 Y183.177 E40.27832
G1 X131.753 Y183.379 E40.28541
G1 X131.361 Y183.591 E40.29275
G1 X130.57 Y183.88 E40.30661
G1 X130.541 Y183.891 E40.30712
G1 X130.512 Y183.897 E40.30761
G1 X129.694 Y184.073 E40.32139
G1 X128.783 Y184.138 E40.33642
G1 X125.067 Y184.138 E40.3976
G1 X124.212 Y184.064 E40.41173
G1 X123.349 Y183.87 E40.42629
G1 X122.526 Y183.563 E40.44075
G1 X121.759 Y183.149 E40.4551
G1 X121.66 Y183.077 E40.45712
G1 X121.661 Y172.046 E40.63873
G1 X122.784 Y171.706 E40.65805
G1 X128.775 Y171.706 E40.75668
G1 X129.742 Y171.779 E40.77265
G1 X130.646 Y171.983 E40.78791
G1 X131.508 Y172.32 E40.80314
G1 X132.313 Y172.786 E40.81846
G1 X133.032 Y173.356 E40.83356
G1 X133.665 Y174.035 E40.84885
G1 X134.189 Y174.797 E40.86407
G1 X134.598 Y175.639 E40.87948
G1 X134.608 Y175.673 E40.88007
G1 X135.122 Y177.292 E40.90803
G1 X156.978 Y177.292 E41.26787
G1 X161.134 Y172.725 E41.36953
G1 X161.428 Y172.766 E41.37442
G1 X161.639 Y172.795 E41.37713
G1 X188.344 Y176.522 E41.59353
G1 X196.725 Y177.692 E41.73285
G1 X188.345 Y178.861 E41.87215
G1 X161.64 Y182.588 E42.08854
G1 X161.43 Y182.617 E42.09124
G1 X161.135 Y182.659 E42.09615
G1 X156.981 Y178.092 E42.19779
G0 F7500 X156.786 Y178.532
G1 F2250 X135.509 Y178.532 E42.54809
G1 X135.165 Y179.921 E42.57165
G1 X134.823 Y180.79 E42.58702
G1 X134.36 Y181.607 E42.60248
G1 X133.793 Y182.344 E42.61779
G1 X133.123 Y182.998 E42.63321
G1 X132.369 Y183.55 E42.64859
G1 X131.961 Y183.767 E42.6562
G1 X131.543 Y183.993 E42.66402
G1 X130.663 Y184.315 E42.67945
G1 X129.787 Y184.502 E42.6942
G1 X129.753 Y184.51 E42.69477
G1 X128.8 Y184.578 E42.7105
G1 X125.052 Y184.578 E42.77221
G1 X124.145 Y184.499 E42.7872
G1 X123.222 Y184.292 E42.80277
G1 X122.344 Y183.965 E42.8182
G1 X121.521 Y183.52 E42.8336
G1 X121.22 Y183.301 E42.83973
G1 X121.221 Y171.72 E43.03039
G1 X122.719 Y171.266 E43.05616
G1 X128.795 Y171.266 E43.1562
G1 X129.805 Y171.342 E43.17287
G1 X130.777 Y171.562 E43.18928
G1 X131.698 Y171.922 E43.20556
G1 X132.561 Y172.421 E43.22197
G1 X133.332 Y173.032 E43.23817
G1 X134.01 Y173.759 E43.25454
G1 X134.57 Y174.574 E43.27082
G1 X135.006 Y175.472 E43.28725
G1 X135.016 Y175.506 E43.28784
G1 X135.444 Y176.852 E43.31109
G1 X156.784 Y176.852 E43.66243
G1 X160.809 Y172.43 E43.76087
G1 X160.966 Y172.257 E43.76472
G1 X198.354 Y177.475 E44.38623
G1 X199.91 Y177.692 E44.4121
G1 X198.354 Y177.909 E44.42515
G1 X161.786 Y183.012 E45.03303
G1 X160.966 Y183.128 E45.04667
G1 X156.786 Y178.532 E45.14895
G0 F7500 X156.591 Y178.972
;TYPE:WALL-OUTER
G1 F2250 X135.853 Y178.972 E45.49038
G1 X135.586 Y180.052 E45.50869
G1 X135.219 Y180.984 E45.52518
G1 X134.728 Y181.85 E45.54157
G1 X134.123 Y182.636 E45.5579
G1 X133.407 Y183.335 E45.57438
G1 X132.605 Y183.923 E45.59075
G1 X132.169 Y184.155 E45.59888
G1 X131.725 Y184.395 E45.60719
G1 X130.785 Y184.739 E45.62367
G1 X129.812 Y184.947 E45.64005
G1 X128.817 Y185.018 E45.65647
G1 X125.037 Y185.018 E45.71871
G1 X124.078 Y184.934 E45.73456
G1 X123.095 Y184.714 E45.75114
G1 X122.162 Y184.366 E45.76753
G1 X121.283 Y183.891 E45.78398
G1 X120.78 Y183.525 E45.79423
G1 X120.781 Y171.394 E45.99395
G1 X122.654 Y170.826 E46.02617
G1 X128.815 Y170.826 E46.1276
G1 X129.868 Y170.905 E46.14499
G1 X130.908 Y171.141 E46.16255
G1 X131.888 Y171.524 E46.17987
G1 X132.809 Y172.056 E46.19738
G1 X133.633 Y172.709 E46.21469
G1 X133.989 Y173.093 E46.22331
G1 X134.355 Y173.483 E46.23212
G1 X134.951 Y174.352 E46.24947
G1 X135.414 Y175.305 E46.26691
G1 X135.766 Y176.412 E46.28603
G1 X156.59 Y176.412 E46.62888
G1 X160.798 Y171.789 E46.7318
G1 X203.095 Y177.692 E47.43491
G1 X161.847 Y183.448 E48.12059
G1 X160.798 Y183.596 E48.13803
G1 X156.591 Y178.972 E48.24095
G0 F7500 X156.786 Y178.53
G0 X134.354 Y177.745
;TYPE:SKIN
G1 F1050 X133.91 Y179.536 E48.27133
G1 X133.641 Y180.218 E48.2834
G1 X133.267 Y180.879 E48.29591
G1 X132.811 Y181.474 E48.30825
G1 X132.281 Y181.99 E48.32043
G1 X131.667 Y182.439 E48.33295
G1 X131.004 Y182.794 E48.34533
G1 X130.294 Y183.055 E48.35779
G1 X129.57 Y183.21 E48.36998
G1 X128.763 Y183.268 E48.3833
G1 X125.095 Y183.268 E48.44369
