;FLAVOR:Marlin
;TIME:6553
;Filament used: 15.1932m
;Layer height: 0.3
;Generated with Cura_SteamEngine 3.6.0
M104 S220
M105
M109 S220
M82 ;absolute extrusion mode
G21 ;metric values
G90 ;absolute positioning
M82 ;set extruder to absolute mode
M107 ;start with the fan off
G28 X0 Y0 ;move X/Y to min endstops
G28 Z0 ;move Z to min endstops
G1 Z15.0 F120 ;move the platform down 15mm
G92 E0 ;zero the extruded length
G1 F200 E3 ;extrude 3mm of feed stock
G92 E0 ;zero the extruded length again
G1 F120
M117 Printing...
G5
G92 E0
G1 F2400 E-6
;LAYER_COUNT:97
;LAYER:0
M106 S255
M204 S3000
M205 X10 Y10
;MESH:Object 1
G0 F3600 X33.542 Y30.07 Z0.3
M204 S1800
M205 X8 Y8
;TYPE:WALL-INNER
G1 F2400 E0
G1 F1800 X33.014 Y30.103 E0.04342
G1 X32.563 Y30.172 E0.08086
G1 X32.119 Y30.285 E0.11846
G1 X31.692 Y30.433 E0.15555
G1 X31.275 Y30.624 E0.19319
G1 X30.882 Y30.849 E0.23036
G1 X30.508 Y31.11 E0.26779
G1 X30.159 Y31.406 E0.30534
G1 X29.843 Y31.726 E0.34225
G1 X29.563 Y32.065 E0.37834
G1 X29.341 Y32.38 E0.40996
G1 X29.115 Y32.773 E0.44717
G1 X28.925 Y33.184 E0.48433
G1 X28.772 Y33.613 E0.52171
G1 X28.659 Y34.056 E0.55923
G1 X28.586 Y34.505 E0.59656
G1 X28.555 Y34.962 E0.63416
G1 X28.567 Y35.413 E0.67118
G1 X28.617 Y35.867 E0.70867
G1 X28.711 Y36.316 E0.74632
G1 X28.844 Y36.748 E0.78341
G1 X29.015 Y37.168 E0.82063
G1 X29.226 Y37.575 E0.85825
G1 X29.469 Y37.954 E0.8952
G1 X29.747 Y38.316 E0.93266
G1 X30.059 Y38.649 E0.97011
G1 X30.401 Y38.954 E1.00772
G1 X30.767 Y39.224 E1.04504
G1 X31.154 Y39.46 E1.08224
G1 X31.564 Y39.661 E1.11972
G1 X31.989 Y39.822 E1.15702
G1 X32.424 Y39.945 E1.19412
G1 X32.874 Y40.029 E1.23169
G1 X33.33 Y40.07 E1.26926
G1 X33.782 Y40.07 E1.30636
G1 X34.239 Y40.029 E1.34401
G1 X34.689 Y39.945 E1.38158
G1 X35.125 Y39.822 E1.41876
G1 X35.546 Y39.661 E1.45575
G1 X35.958 Y39.461 E1.49334
G1 X36.347 Y39.224 E1.53072
G1 X36.713 Y38.954 E1.56805
G1 X37.053 Y38.649 E1.60553
G1 X37.363 Y38.318 E1.64275
G1 X37.642 Y37.957 E1.6802
G1 X37.888 Y37.575 E1.71748
G1 X38.098 Y37.168 E1.75507
G1 X38.269 Y36.747 E1.79236
G1 X38.402 Y36.312 E1.8297
G1 X38.494 Y35.869 E1.86683
G1 X38.547 Y35.413 E1.9045
G1 X38.555 Y34.958 E1.94185
G1 X38.526 Y34.506 E1.97902
G1 X38.453 Y34.057 E2.01636
G1 X38.342 Y33.615 E2.05376
G1 X38.189 Y33.187 E2.09106
G1 X37.998 Y32.771 E2.12863
G1 X37.769 Y32.376 E2.1661
G1 X37.506 Y32.005 E2.20342
G1 X37.213 Y31.66 E2.24057
G1 X36.888 Y31.341 E2.27794
G1 X36.532 Y31.053 E2.31552
G1 X36.156 Y30.8 E2.35271
G1 X35.755 Y30.579 E2.39029
G1 X35.335 Y30.399 E2.42779
G1 X34.907 Y30.257 E2.4648
G1 X34.463 Y30.154 E2.50221
G1 X34.013 Y30.092 E2.53949
G1 X33.542 Y30.07 E2.57818
M204 S3000
M205 X10 Y10
G0 F3600 X76.301 Y27.412
M204 S1800
M205 X8 Y8
G1 F1800 X76.312 Y43.062 E3.86257
G1 X21.119 Y43.103 E8.39223
G1 X20.769 Y43.103 E8.42095
G1 X20.769 Y42.753 E8.43954
G1 X20.758 Y27.103 E9.72393
G1 X75.951 Y27.062 E14.25358
G1 X76.301 Y27.062 E14.28231
G1 X76.301 Y27.412 E14.3009
M204 S3000
M205 X10 Y10
G0 F3600 X77 Y26.711
M204 S1800
M205 X8 Y8
G1 F1800 X77.013 Y43.761 E15.70018
G1 X20.42 Y43.804 E20.34473
G1 X20.07 Y43.804 E20.37346
G1 X20.07 Y43.454 E20.39205
G1 X20.057 Y26.404 E21.79133
G1 X76.65 Y26.361 E26.43588
G1 X77 Y26.361 E26.46461
G1 X77 Y26.711 E26.4832
M204 S3000
M205 X10 Y10
G0 F3600 X76.9 Y26.711
G0 X33.548 Y30.671
G0 X33.548 Y30.771
M204 S1800
M205 X8 Y8
G1 F1800 X33.089 Y30.8 E26.52094
G1 X32.702 Y30.859 E26.55307
G1 X32.321 Y30.956 E26.58534
G1 X31.953 Y31.084 E26.61731
G1 X31.595 Y31.247 E26.6496
G1 X31.257 Y31.441 E26.68158
G1 X30.935 Y31.665 E26.71377
G1 X30.636 Y31.919 E26.74597
G1 X30.363 Y32.196 E26.77789
G1 X30.12 Y32.49 E26.80919
G1 X29.932 Y32.757 E26.83599
G1 X29.737 Y33.095 E26.86801
G1 X29.574 Y33.449 E26.9
G1 X29.442 Y33.818 E26.93216
G1 X29.345 Y34.199 E26.96443
G1 X29.282 Y34.585 E26.99653
G1 X29.256 Y34.976 E27.02869
G1 X29.266 Y35.366 E27.0607
G1 X29.309 Y35.756 E27.0929
G1 X29.39 Y36.141 E27.12519
G1 X29.504 Y36.513 E27.15712
G1 X29.651 Y36.875 E27.18919
G1 X29.832 Y37.224 E27.22145
G1 X30.042 Y37.551 E27.25335
G1 X30.281 Y37.862 E27.28554
G1 X30.549 Y38.148 E27.3177
G1 X30.842 Y38.41 E27.34996
G1 X31.158 Y38.642 E27.38214
G1 X31.491 Y38.846 E27.41419
G1 X31.843 Y39.018 E27.44634
G1 X32.209 Y39.157 E27.47847
G1 X32.584 Y39.263 E27.51045
G1 X32.97 Y39.335 E27.54268
G1 X33.361 Y39.37 E27.57489
G1 X33.751 Y39.37 E27.6069
G1 X34.143 Y39.335 E27.6392
G1 X34.529 Y39.263 E27.67142
G1 X34.904 Y39.157 E27.70341
G1 X35.268 Y39.018 E27.73538
G1 X35.622 Y38.846 E27.76768
G1 X35.956 Y38.642 E27.7998
G1 X36.271 Y38.41 E27.83191
G1 X36.563 Y38.148 E27.86411
G1 X36.83 Y37.863 E27.89616
G1 X37.07 Y37.553 E27.92833
G1 X37.281 Y37.224 E27.96041
G1 X37.462 Y36.875 E27.99267
G1 X37.609 Y36.513 E28.02474
G1 X37.723 Y36.139 E28.05683
G1 X37.802 Y35.757 E28.08884
G1 X37.848 Y35.366 E28.12115
G1 X37.855 Y34.974 E28.15333
G1 X37.83 Y34.585 E28.18532
G1 X37.767 Y34.199 E28.21742
G1 X37.671 Y33.819 E28.24958
G1 X37.54 Y33.451 E28.28164
G1 X37.376 Y33.094 E28.31388
G1 X37.179 Y32.755 E28.34606
G1 X36.953 Y32.435 E28.37821
G1 X36.7 Y32.138 E28.41023
G1 X36.421 Y31.864 E28.44233
G1 X36.115 Y31.616 E28.47465
G1 X35.791 Y31.398 E28.5067
G1 X35.447 Y31.209 E28.53891
G1 X35.087 Y31.054 E28.57108
G1 X34.717 Y30.932 E28.60305
G1 X34.336 Y30.843 E28.63516
G1 X33.949 Y30.79 E28.66722
G1 X33.548 Y30.771 E28.70017
M204 S3000
M205 X10 Y10
G0 F3600 X33.553 Y31.422
M204 S1800
M205 X8 Y8
;TYPE:WALL-OUTER
G1 F1800 X33.159 Y31.447 E28.73257
G1 X32.831 Y31.497 E28.7598
G1 X32.508 Y31.579 E28.78715
G1 X32.195 Y31.688 E28.81435
G1 X31.892 Y31.826 E28.84167
G1 X31.605 Y31.991 E28.86884
G1 X31.332 Y32.181 E28.89614
G1 X31.079 Y32.396 E28.92339
G1 X30.846 Y32.632 E28.9506
G1 X30.637 Y32.885 E28.97754
G1 X30.48 Y33.107 E28.99985
G1 X30.315 Y33.394 E29.02702
G1 X30.176 Y33.695 E29.05423
G1 X30.064 Y34.008 E29.08151
G1 X29.982 Y34.331 E29.10886
G1 X29.929 Y34.659 E29.13613
G1 X29.907 Y34.99 E29.16336
G1 X29.915 Y35.322 E29.19061
G1 X29.952 Y35.653 E29.21794
G1 X30.02 Y35.979 E29.24527
G1 X30.117 Y36.295 E29.2724
G1 X30.242 Y36.603 E29.29968
G1 X30.395 Y36.898 E29.32696
G1 X30.574 Y37.177 E29.35416
G1 X30.777 Y37.441 E29.38149
G1 X31.004 Y37.683 E29.40872
G1 X31.252 Y37.905 E29.43604
G1 X31.52 Y38.102 E29.46334
G1 X31.804 Y38.275 E29.49063
G1 X32.102 Y38.421 E29.51786
G1 X32.413 Y38.539 E29.54516
G1 X32.732 Y38.629 E29.57236
G1 X33.059 Y38.69 E29.59966
G1 X33.39 Y38.72 E29.62694
G1 X33.722 Y38.72 E29.65419
G1 X34.054 Y38.69 E29.68154
G1 X34.381 Y38.629 E29.70884
G1 X34.7 Y38.539 E29.73605
G1 X35.01 Y38.421 E29.76327
G1 X35.31 Y38.275 E29.79065
G1 X35.593 Y38.102 E29.81787
G1 X35.86 Y37.905 E29.8451
G1 X36.108 Y37.683 E29.87242
G1 X36.335 Y37.441 E29.89965
G1 X36.538 Y37.178 E29.92692
G1 X36.718 Y36.898 E29.95424
G1 X36.871 Y36.603 E29.98151
G1 X36.996 Y36.295 E30.00879
G1 X37.093 Y35.978 E30.03599
G1 X37.16 Y35.653 E30.06323
G1 X37.199 Y35.322 E30.09058
G1 X37.205 Y34.99 E30.11783
G1 X37.183 Y34.659 E30.14506
G1 X37.13 Y34.331 E30.17233
G1 X37.048 Y34.008 E30.19967
G1 X36.937 Y33.696 E30.22685
G1 X36.798 Y33.394 E30.25414
G1 X36.631 Y33.106 E30.28146
G1 X36.439 Y32.834 E30.30878
G1 X36.224 Y32.582 E30.33597
G1 X35.987 Y32.349 E30.36324
G1 X35.728 Y32.139 E30.39061
G1 X35.453 Y31.954 E30.41781
G1 X35.161 Y31.794 E30.44514
G1 X34.856 Y31.662 E30.47241
G1 X34.541 Y31.558 E30.49964
G1 X34.218 Y31.483 E30.52685
G1 X33.889 Y31.438 E30.5541
G1 X33.553 Y31.422 E30.58171
M204 S3000
M205 X10 Y10
G0 F3600 X33.253 Y31.441
G0 X33.205 Y30.692
G0 X34.343 Y30.804
G0 X76.943 Y43.691
G0 X77.314 Y44.41
M204 S1800
M205 X8 Y8
G1 F1800 X19.421 Y44.455 E35.33295
G1 X19.406 Y26.105 E36.83893
G1 X19.406 Y25.755 E36.86765
G1 X19.756 Y25.755 E36.88624
G1 X77.649 Y25.71 E41.63748
G1 X77.664 Y44.06 E43.14346
G1 X77.664 Y44.41 E43.17218
G1 X77.314 Y44.41 E43.19077
M204 S3000
M205 X10 Y10
G0 F3600 X77.014 Y44.41
G0 X76.943 Y43.691
G0 X75.622 Y42.372
M204 S1800
M205 X8 Y8
;TYPE:SKIN
G1 F1800 X21.459 Y42.413 E47.6359
G1 X21.448 Y27.793 E48.83575
G1 X75.611 Y27.752 E53.28088
G1 X75.622 Y42.372 E54.48073
M204 S3000
M205 X10 Y10
G0 F3600 X39.071 Y36.484
M204 S1800
M205 X8 Y8
G1 F1800 X39.176 Y35.98 E54.52298
G1 X39.237 Y35.459 E54.56603
G1 X39.245 Y34.942 E54.60847
G1 X39.212 Y34.429 E54.65065
G1 X39.129 Y33.917 E54.69322
G1 X39.003 Y33.414 E54.73578
G1 X38.828 Y32.927 E54.77825
G1 X38.611 Y32.454 E54.82096
G1 X38.35 Y32.003 E54.86372
G1 X38.052 Y31.581 E54.90612
G1 X37.718 Y31.189 E54.94839
G1 X37.348 Y30.825 E54.99098
G1 X36.942 Y30.497 E55.03382
G1 X36.516 Y30.211 E55.07593
G1 X36.058 Y29.958 E55.11887
G1 X35.58 Y29.753 E55.16155
G1 X35.094 Y29.592 E55.20357
G1 X34.589 Y29.474 E55.24613
G1 X34.076 Y29.404 E55.28862
G1 X33.536 Y29.378 E55.33299
G1 X32.94 Y29.417 E55.38201
G1 X32.426 Y29.495 E55.42468
G1 X31.92 Y29.623 E55.46751
G1 X31.435 Y29.792 E55.50966
G1 X30.959 Y30.009 E55.5526
G1 X30.513 Y30.265 E55.5948
G1 X30.086 Y30.562 E55.63749
G1 X29.69 Y30.899 E55.68016
G1 X29.33 Y31.263 E55.72218
G1 X29.014 Y31.646 E55.76293
G1 X28.759 Y32.009 E55.79934
G1 X28.502 Y32.456 E55.84165
G1 X28.286 Y32.923 E55.88388
G1 X28.111 Y33.412 E55.9265
G1 X27.983 Y33.916 E55.96918
G1 X27.9 Y34.426 E56.01159
G1 X27.865 Y34.948 E56.05452
G1 X27.878 Y35.46 E56.09656
G1 X27.935 Y35.975 E56.13908
G1 X28.042 Y36.489 E56.18217
G1 X28.193 Y36.98 E56.22433
G1 X28.388 Y37.458 E56.26669
G1 X28.628 Y37.92 E56.30942
G1 X28.903 Y38.351 E56.35138
G1 X29.22 Y38.763 E56.39404
G1 X29.576 Y39.144 E56.43684
G1 X29.966 Y39.49 E56.47962
G1 X30.382 Y39.797 E56.52206
G1 X30.821 Y40.066 E56.56431
G1 X31.29 Y40.294 E56.60711
G1 X31.772 Y40.478 E56.64945
G1 X32.267 Y40.617 E56.69164
G1 X32.779 Y40.713 E56.7344
G1 X33.299 Y40.76 E56.77725
G1 X33.813 Y40.76 E56.81943
G1 X34.334 Y40.713 E56.86236
G1 X34.846 Y40.617 E56.90511
G1 X35.342 Y40.478 E56.94739
G1 X35.82 Y40.294 E56.98942
G1 X36.289 Y40.068 E57.03215
G1 X36.732 Y39.797 E57.07477
G1 X37.149 Y39.49 E57.11727
G1 X37.536 Y39.142 E57.15998
G1 X37.889 Y38.766 E57.20231
G1 X38.206 Y38.355 E57.2449
G1 X38.486 Y37.92 E57.28736
G1 X38.725 Y37.456 E57.3302
G1 X38.92 Y36.978 E57.37256
G1 X39.071 Y36.484 E57.41496
M204 S3000
M205 X10 Y10
G0 F3600 X35.641 Y38.881
G0 X34.749 Y39.221
G0 X22.288 Y42.086
M204 S1800
M205 X8 Y8
G1 F1800 X21.783 Y41.582 E57.47351
M204 S3000
M205 X10 Y10
G0 F3600 X21.782 Y40.591
M204 S1800
M205 X8 Y8
G1 F1800 X23.277 Y42.086 E57.64703
M204 S3000
M205 X10 Y10
G0 F3600 X24.266 Y42.085
M204 S1800
M205 X8 Y8
G1 F1800 X21.781 Y39.6 E57.93545
M204 S3000
M205 X10 Y10
G0 F3600 X21.781 Y38.61
M204 S1800
M205 X8 Y8
G1 F1800 X25.255 Y42.084 E58.33865
M204 S3000
M205 X10 Y10
G0 F3600 X26.244 Y42.084
M204 S1800
M205 X8 Y8
G1 F1800 X21.78 Y37.619 E58.85682
M204 S3000
M205 X10 Y10
G0 F3600 X21.779 Y36.628
M204 S1800
M205 X8 Y8
G1 F1800 X27.234 Y42.083 E59.48994
M204 S3000
M205 X10 Y10
G0 F3600 X28.223 Y42.082
M204 S1800
M205 X8 Y8
G1 F1800 X21.778 Y35.638 E60.23792
M204 S3000
M205 X10 Y10
G0 F3600 X21.778 Y34.647
M204 S1800
M205 X8 Y8
G1 F1800 X29.211 Y42.081 E61.10067
M204 S3000
M205 X10 Y10
G0 F3600 X30.201 Y42.08
M204 S1800
M205 X8 Y8
G1 F1800 X21.776 Y33.656 E62.07845
M204 S3000
M205 X10 Y10
G0 F3600 X21.776 Y32.665
M204 S1800
M205 X8 Y8
G1 F1800 X31.19 Y42.079 E63.17108
M204 S3000
M205 X10 Y10
G0 F3600 X32.179 Y42.079
M204 S1800
M205 X8 Y8
G1 F1800 X30.073 Y39.973 E63.41551
G1 X29.985 Y39.885
M204 S3000
M205 X10 Y10
G0 F3600 X28.633 Y38.533
M204 S1800
M205 X8 Y8
G1 F1800 X21.775 Y31.674 E64.21153
M204 S3000
M205 X10 Y10
G0 F3600 X21.774 Y30.684
M204 S1800
M205 X8 Y8
G1 F1800 X27.757 Y36.667 E64.90594
M204 S3000
M205 X10 Y10
G0 F3600 X27.553 Y35.472
M204 S1800
M205 X8 Y8
G1 F1800 X21.773 Y29.693 E65.57673
M204 S3000
M205 X10 Y10
G0 F3600 X21.773 Y28.702
M204 S1800
M205 X8 Y8
G1 F1800 X27.57 Y34.499 E66.24955
M204 S3000
M205 X10 Y10
G0 F3600 X27.714 Y33.654
M204 S1800
M205 X8 Y8
G1 F1800 X22.177 Y28.117 E66.89219
M204 S3000
M205 X10 Y10
G0 F3600 X23.166 Y28.116
M204 S1800
M205 X8 Y8
G1 F1800 X27.949 Y32.899 E67.44732
M204 S3000
M205 X10 Y10
G0 F3600 X28.262 Y32.222
M204 S1800
M205 X8 Y8
G1 F1800 X24.156 Y28.115 E67.92394
M204 S3000
M205 X10 Y10
G0 F3600 X25.145 Y28.115
M204 S1800
M205 X8 Y8
G1 F1800 X28.641 Y31.611 E68.3297
M204 S3000
M205 X10 Y10
G0 F3600 X29.078 Y31.058
M204 S1800
M205 X8 Y8
G1 F1800 X26.134 Y28.114 E68.67139
M204 S3000
M205 X10 Y10
G0 F3600 X27.123 Y28.113
M204 S1800
M205 X8 Y8
G1 F1800 X29.577 Y30.567 E68.95621
M204 S3000
M205 X10 Y10
G0 F3600 X30.132 Y30.132
M204 S1800
M205 X8 Y8
G1 F1800 X28.113 Y28.113 E69.19054
M204 S3000
M205 X10 Y10
G0 F3600 X29.102 Y28.112
M204 S1800
M205 X8 Y8
G1 F1800 X30.745 Y29.755 E69.38124
M204 S3000
M205 X10 Y10
G0 F3600 X31.429 Y29.449
M204 S1800
M205 X8 Y8
G1 F1800 X30.091 Y28.111 E69.53653
M204 S3000
M205 X10 Y10
G0 F3600 X31.08 Y28.111
M204 S1800
M205 X8 Y8
G1 F1800 X32.188 Y29.219 E69.66513
M204 S3000
M205 X10 Y10
G0 F3600 X33.043 Y29.084
M204 S1800
M205 X8 Y8
G1 F1800 X32.07 Y28.11 E69.77811
M204 S3000
M205 X10 Y10
G0 F3600 X33.058 Y28.108
M204 S1800
M205 X8 Y8
G1 F1800 X34.025 Y29.075 E69.89035
M204 S3000
M205 X10 Y10
G0 F3600 X34.047 Y28.108
M204 S1800
M205 X8 Y8
G1 F1800 X35.237 Y29.297 E70.02841
M204 S3000
M205 X10 Y10
G0 F3600 X35.037 Y28.107
M204 S1800
M205 X8 Y8
G1 F1800 X37.289 Y30.36 E70.28984
G1 X37.377 Y30.448
M204 S3000
M205 X10 Y10
G0 F3600 X38.291 Y31.362
M204 S1800
M205 X8 Y8
G1 F1800 X48.996 Y42.066 E71.53224
M204 S3000
M205 X10 Y10
G0 F3600 X49.985 Y42.065
M204 S1800
M205 X8 Y8
G1 F1800 X36.026 Y28.106 E73.15237
M204 S3000
M205 X10 Y10
G0 F3600 X37.015 Y28.106
M204 S1800
M205 X8 Y8
G1 F1800 X50.974 Y42.065 E74.77251
M204 S3000
M205 X10 Y10
G0 F3600 X51.963 Y42.064
M204 S1800
M205 X8 Y8
G1 F1800 X38.004 Y28.105 E76.39264
M204 S3000
M205 X10 Y10
G0 F3600 X38.994 Y28.104
M204 S1800
M205 X8 Y8
G1 F1800 X52.953 Y42.063 E78.01277
M204 S3000
M205 X10 Y10
G0 F3600 X53.942 Y42.062
M204 S1800
M205 X8 Y8
G1 F1800 X39.983 Y28.103 E79.6329
M204 S3000
M205 X10 Y10
G0 F3600 X40.972 Y28.103
M204 S1800
M205 X8 Y8
G1 F1800 X54.931 Y42.062 E81.25304
M204 S3000
M205 X10 Y10
G0 F3600 X55.92 Y42.061
M204 S1800
M205 X8 Y8
G1 F1800 X41.961 Y28.102 E82.87317
M204 S3000
M205 X10 Y10
G0 F3600 X42.951 Y28.101
M204 S1800
M205 X8 Y8
G1 F1800 X56.909 Y42.06 E84.49324
M204 S3000
M205 X10 Y10
G0 F3600 X57.898 Y42.059
M204 S1800
M205 X8 Y8
G1 F1800 X43.94 Y28.101 E86.11326
M204 S3000
M205 X10 Y10
G0 F3600 X44.929 Y28.1
M204 S1800
M205 X8 Y8
G1 F1800 X58.887 Y42.058 E87.73328
M204 S3000
M205 X10 Y10
G0 F3600 X59.877 Y42.058
M204 S1800
M205 X8 Y8
G1 F1800 X45.918 Y28.099 E89.35341
M204 S3000
M205 X10 Y10
G0 F3600 X46.908 Y28.099
M204 S1800
M205 X8 Y8
G1 F1800 X60.866 Y42.057 E90.97342
M204 S3000
M205 X10 Y10
G0 F3600 X61.855 Y42.056
M204 S1800
M205 X8 Y8
G1 F1800 X47.897 Y28.098 E92.59344
M204 S3000
M205 X10 Y10
G0 F3600 X48.886 Y28.097
M204 S1800
M205 X8 Y8
G1 F1800 X62.844 Y42.055 E94.21346
M204 S3000
M205 X10 Y10
G0 F3600 X63.834 Y42.055
M204 S1800
M205 X8 Y8
G1 F1800 X49.875 Y28.096 E95.83359
M204 S3000
M205 X10 Y10
G0 F3600 X50.865 Y28.096
M204 S1800
M205 X8 Y8
G1 F1800 X64.823 Y42.054 E97.4536
M204 S3000
M205 X10 Y10
G0 F3600 X65.812 Y42.053
M204 S1800
M205 X8 Y8
G1 F1800 X51.853 Y28.094 E99.07374
M204 S3000
M205 X10 Y10
G0 F3600 X52.842 Y28.094
M204 S1800
M205 X8 Y8
G1 F1800 X66.801 Y42.053 E100.69387
M204 S3000
M205 X10 Y10
G0 F3600 X67.791 Y42.052
M204 S1800
M205 X8 Y8
G1 F1800 X53.832 Y28.093 E102.314
M204 S3000
M205 X10 Y10
G0 F3600 X54.821 Y28.092
M204 S1800
M205 X8 Y8
G1 F1800 X68.78 Y42.051 E103.93413
M204 S3000
M205 X10 Y10
G0 F3600 X69.768 Y42.05
M204 S1800
M205 X8 Y8
G1 F1800 X55.81 Y28.091 E105.55421
M204 S3000
M205 X10 Y10
G0 F3600 X56.799 Y28.091
M204 S1800
M205 X8 Y8
G1 F1800 X70.758 Y42.049 E107.17428
M204 S3000
M205 X10 Y10
G0 F3600 X71.747 Y42.048
M204 S1800
M205 X8 Y8
G1 F1800 X57.789 Y28.09 E108.7943
M204 S3000
M205 X10 Y10
G0 F3600 X58.778 Y28.089
M204 S1800
M205 X8 Y8
G1 F1800 X72.736 Y42.048 E110.41437
M204 S3000
M205 X10 Y10
G0 F3600 X73.725 Y42.047
M204 S1800
M205 X8 Y8
G1 F1800 X59.767 Y28.089 E112.03439
M204 S3000
M205 X10 Y10
G0 F3600 X60.756 Y28.088
M204 S1800
M205 X8 Y8
