;FLAVOR:Marlin
;TIME:1356
;Filament used: 0.719898m
;Layer height: 0.2
;MINX:79.269
;MINY:12.379
;MINZ:0.3
;MAXX:113.465
;MAXY:81.679
;MAXZ:2.9
;Generated with Cura_SteamEngine 4.10.0
M104 S220
M105
M109 S220
M82 ;absolute extrusion mode
G21 ;metric values
G90 ;absolute positioning
M82 ;set extruder to absolute mode
M107 ;start with the fan off
G28 X0 Y0 ;move X/Y to min endstops
G28 Z0 ;move Z to min endstops
M501
M420 S1 ;Marlin Bed-leveling on
G1 Z15.0 F120 ;move the platform down 15mm
G92 E0 ;zero the extruded length
G1 F200 E3 ;extrude 3mm of feed stock
G92 E0 ;zero the extruded length again
G1 F120
M117 Printing...
G5
G92 E0
G92 E0
G1 F2400 E-6
;LAYER_COUNT:15
;LAYER:0
M107
M204 S3000
M205 X10 Y10
G1 F600 Z0.375
G0 F2400 X79.658 Y19.277 Z0.375
M204 S1800
M205 X8 Y8
;TYPE:SKIRT
G1 F600 Z0.3
G1 F2400 E0
G1 X79.865 Y18.592 E0.04698
G1 X80.148 Y17.935 E0.09395
G1 X80.501 Y17.313 E0.14091
G1 X80.922 Y16.735 E0.18785
G1 X81.313 Y16.295 E0.2265
G1 X81.675 Y15.922 E0.26063
G1 X82.933 Y14.664 E0.37743
G1 X83.419 Y14.193 E0.42187
G1 X83.96 Y13.725 E0.46883
G1 X84.549 Y13.32 E0.51576
G1 X85.18 Y12.983 E0.56273
G1 X85.845 Y12.719 E0.60971
G1 X86.535 Y12.53 E0.65668
G1 X87.242 Y12.42 E0.70366
G1 X87.805 Y12.388 E0.74068
G1 X88.352 Y12.379 E0.7766
G1 X95.061 Y12.379 E1.21708
G1 X95.853 Y12.39 E1.26908
G1 X96.567 Y12.44 E1.31608
G1 X97.313 Y12.568 E1.36577
G1 X99.431 Y12.992 E1.50759
G1 X102.032 Y13.437 E1.68084
G1 X104.651 Y13.809 E1.85452
G1 X105.683 Y13.942 E1.92284
G1 X106.386 Y14.073 E1.96979
G1 X107.071 Y14.282 E2.01681
G1 X107.727 Y14.566 E2.06374
G1 X108.348 Y14.921 E2.1107
G1 X108.925 Y15.343 E2.15764
G1 X109.368 Y15.738 E2.19661
G1 X109.703 Y16.063 E2.22725
G1 X110.98 Y17.34 E2.34582
G1 X111.438 Y17.812 E2.389
G1 X111.907 Y18.353 E2.43601
G1 X112.312 Y18.942 E2.48294
G1 X112.649 Y19.573 E2.52991
G1 X112.914 Y20.237 E2.57685
G1 X113.103 Y20.927 E2.62382
G1 X113.206 Y21.567 E2.66638
G1 X113.224 Y21.73 E2.67714
G1 X113.263 Y22.354 E2.71819
G1 X113.268 Y22.763 E2.74505
G1 X113.268 Y68.111 E5.72239
G1 X113.305 Y70.739 E5.89495
G1 X113.439 Y73.623 E6.08451
G1 X113.463 Y74.341 E6.13168
G1 X113.465 Y74.778 E6.16037
G1 X113.457 Y75.358 E6.19845
G1 X113.408 Y76.072 E6.24544
G1 X113.278 Y76.775 E6.29238
G1 X113.072 Y77.46 E6.33934
G1 X112.79 Y78.117 E6.38628
G1 X112.436 Y78.739 E6.43327
G1 X112.015 Y79.318 E6.48027
G1 X111.533 Y79.846 E6.52721
G1 X110.994 Y80.316 E6.57416
G1 X110.407 Y80.724 E6.6211
G1 X109.777 Y81.064 E6.6681
G1 X109.114 Y81.331 E6.71503
G1 X108.425 Y81.522 E6.76197
G1 X107.718 Y81.636 E6.80899
G1 X106.918 Y81.676 E6.86158
G1 X106.738 Y81.679 E6.8734
G1 X97.584 Y81.678 E7.47441
G1 X96.882 Y81.668 E7.5205
G1 X96.168 Y81.618 E7.5675
G1 X92.691 Y81.021 E7.79912
G1 X90.049 Y80.645 E7.97433
G1 X87.432 Y80.348 E8.14725
G1 X85.425 Y80.176 E8.27951
G1 X85.031 Y80.136 E8.30551
G1 X84.324 Y80.024 E8.35251
G1 X83.635 Y79.834 E8.39943
G1 X82.971 Y79.569 E8.44637
G1 X82.34 Y79.23 E8.4934
G1 X81.752 Y78.824 E8.54031
G1 X81.212 Y78.354 E8.58732
G1 X80.728 Y77.827 E8.63429
G1 X80.306 Y77.25 E8.68123
G1 X79.952 Y76.629 E8.72816
G1 X79.668 Y75.972 E8.77515
G1 X79.46 Y75.288 E8.82209
G1 X79.329 Y74.585 E8.86904
G1 X79.28 Y73.956 E8.91046
G1 X79.269 Y73.367 E8.94914
G1 X79.279 Y72.685 E8.99392
G1 X79.284 Y72.505 E9.00575
G1 X79.324 Y71.577 E9.06673
G1 X79.384 Y70.514 E9.13663
G1 X79.458 Y67.899 E9.30839
G1 X79.468 Y66.516 E9.3992
G1 X79.469 Y21.395 E12.36164
G1 X79.479 Y20.694 E12.40767
G1 X79.529 Y19.98 E12.45466
G1 X79.658 Y19.277 E12.50159
M204 S3000
M205 X10 Y10
G0 X80.217 Y19.349
M204 S1800
M205 X8 Y8
G1 X80.424 Y18.698 E12.54644
G1 X80.705 Y18.075 E12.59131
G1 X81.057 Y17.49 E12.63613
G1 X81.584 Y16.827 E12.69174
G1 X82.026 Y16.363 E12.73381
G1 X83.257 Y15.13 E12.84821
G1 X83.809 Y14.595 E12.89868
G1 X84.326 Y14.149 E12.94351
G1 X84.892 Y13.767 E12.98834
G1 X85.499 Y13.453 E13.03321
G1 X86.139 Y13.212 E13.07811
G1 X86.802 Y13.048 E13.12295
G1 X87.676 Y12.952 E13.18068
G1 X88.359 Y12.939 E13.22553
G1 X95.061 Y12.939 E13.66555
G1 X95.845 Y12.95 E13.71703
G1 X96.829 Y13.047 E13.78195
G1 X97.292 Y13.134 E13.81288
G1 X99.33 Y13.543 E13.94935
G1 X101.934 Y13.988 E14.1228
G1 X104.569 Y14.362 E14.29753
G1 X105.612 Y14.497 E14.36658
G1 X106.283 Y14.624 E14.41142
G1 X106.935 Y14.829 E14.4563
G1 X107.558 Y15.108 E14.50111
G1 X108.145 Y15.458 E14.54598
G1 X108.835 Y16.007 E14.60388
G1 X109.257 Y16.41 E14.64219
G1 X110.578 Y17.73 E14.7648
G1 X111.036 Y18.202 E14.80798
G1 X111.482 Y18.719 E14.85281
G1 X111.865 Y19.285 E14.89768
G1 X112.179 Y19.892 E14.94255
G1 X112.421 Y20.531 E14.98741
G1 X112.585 Y21.194 E15.03225
G1 X112.668 Y21.791 E15.07182
G1 X112.703 Y22.361 E15.10932
G1 X112.708 Y22.77 E15.13617
G1 X112.708 Y68.111 E18.11306
G1 X112.745 Y70.742 E18.28581
G1 X112.879 Y73.643 E18.47648
G1 X112.903 Y74.347 E18.52273
G1 X112.905 Y74.771 E18.55057
G1 X112.897 Y75.351 E18.58865
G1 X112.848 Y76.032 E18.63348
G1 X112.719 Y76.703 E18.67834
G1 X112.513 Y77.354 E18.72317
G1 X112.233 Y77.977 E18.76802
G1 X111.881 Y78.563 E18.8129
G1 X111.463 Y79.104 E18.85779
G1 X110.985 Y79.592 E18.90264
G1 X110.454 Y80.021 E18.94746
G1 X109.876 Y80.385 E18.9923
G1 X109.259 Y80.679 E19.03718
G1 X108.612 Y80.899 E19.08204
G1 X107.944 Y81.042 E19.12689
G1 X107.222 Y81.108 E19.1745
G1 X106.738 Y81.119 E19.20628
G1 X97.592 Y81.118 E19.80677
G1 X96.89 Y81.108 E19.85286
G1 X95.907 Y81.011 E19.91771
G1 X95.4 Y80.917 E19.95157
G1 X92.79 Y80.47 E20.12542
G1 X90.121 Y80.09 E20.30243
G1 X87.47 Y79.789 E20.4776
G1 X85.481 Y79.619 E20.60866
G1 X85.087 Y79.579 E20.63466
G1 X84.413 Y79.47 E20.67949
G1 X83.755 Y79.284 E20.72438
G1 X83.124 Y79.022 E20.76924
G1 X82.528 Y78.688 E20.8141
G1 X81.976 Y78.286 E20.85893
G1 X81.473 Y77.823 E20.90382
G1 X81.029 Y77.304 E20.94866
G1 X80.648 Y76.737 E20.99351
G1 X80.335 Y76.13 E21.03835
G1 X80.096 Y75.489 E21.08327
G1 X79.933 Y74.826 E21.12809
G1 X79.839 Y73.94 E21.18659
G1 X79.829 Y73.375 E21.22369
G1 X79.843 Y72.529 E21.27924
G1 X79.883 Y71.609 E21.3397
G1 X79.942 Y70.562 E21.40855
G1 X80.018 Y67.872 E21.58524
G1 X80.028 Y66.52 E21.67401
G1 X80.029 Y21.403 E24.63619
G1 X80.039 Y20.702 E24.68221
G1 X80.088 Y20.02 E24.72711
G1 X80.217 Y19.349 E24.77197
M204 S3000
M205 X10 Y10
G0 X80.776 Y19.425
M204 S1800
M205 X8 Y8
G1 X80.982 Y18.809 E24.81461
G1 X81.261 Y18.223 E24.85723
G1 X81.611 Y17.675 E24.89992
G1 X81.995 Y17.207 E24.93966
G1 X82.426 Y16.755 E24.98067
G1 X83.653 Y15.526 E25.09469
G1 X84.198 Y14.997 E25.14456
G1 X84.692 Y14.575 E25.18721
G1 X85.233 Y14.216 E25.22984
G1 X85.815 Y13.927 E25.27251
G1 X86.428 Y13.711 E25.31518
G1 X87.062 Y13.572 E25.35779
G1 X87.695 Y13.512 E25.39954
G1 X88.365 Y13.499 E25.44354
G1 X95.061 Y13.499 E25.88316
G1 X95.837 Y13.51 E25.93412
G1 X96.727 Y13.598 E25.99284
G1 X97.182 Y13.683 E26.02323
G1 X99.235 Y14.095 E26.16071
G1 X101.829 Y14.538 E26.33348
G1 X104.545 Y14.924 E26.51359
G1 X105.54 Y15.053 E26.57947
G1 X106.178 Y15.175 E26.62211
G1 X106.796 Y15.375 E26.66476
G1 X107.384 Y15.65 E26.70738
G1 X107.935 Y15.995 E26.75006
G1 X108.454 Y16.418 E26.79402
G1 X108.866 Y16.811 E26.83141
G1 X110.176 Y18.12 E26.95299
G1 X110.634 Y18.592 E26.99617
G1 X111.057 Y19.085 E27.03882
G1 X111.416 Y19.627 E27.08151
G1 X111.706 Y20.208 E27.12414
G1 X111.922 Y20.82 E27.16675
G1 X112.093 Y21.689 E27.2249
G1 X112.111 Y21.852 E27.23567
G1 X112.143 Y22.367 E27.26954
G1 X112.148 Y22.776 E27.2964
G1 X112.148 Y68.111 E30.27289
G1 X112.186 Y70.776 E30.44788
G1 X112.32 Y73.663 E30.63763
G1 X112.343 Y74.353 E30.68296
G1 X112.345 Y74.763 E30.70988
G1 X112.337 Y75.343 E30.74796
G1 X112.289 Y75.991 E30.79063
G1 X112.161 Y76.627 E30.83322
G1 X111.955 Y77.244 E30.87593
G1 X111.676 Y77.83 E30.91854
G1 X111.326 Y78.378 E30.96123
G1 X110.912 Y78.879 E31.0039
G1 X110.44 Y79.325 E31.04654
G1 X109.917 Y79.709 E31.08914
G1 X109.35 Y80.027 E31.13182
G1 X108.748 Y80.272 E31.17449
G1 X108.121 Y80.442 E31.21714
G1 X107.206 Y80.548 E31.27762
G1 X106.738 Y80.559 E31.30835
G1 X97.6 Y80.558 E31.90832
G1 X96.898 Y80.548 E31.95441
G1 X96.009 Y80.46 E32.01306
G1 X95.515 Y80.368 E32.04605
G1 X92.86 Y79.914 E32.2229
G1 X90.194 Y79.534 E32.39971
G1 X87.546 Y79.234 E32.57467
G1 X85.538 Y79.062 E32.70699
G1 X85.144 Y79.022 E32.73299
G1 X84.503 Y78.917 E32.77564
G1 X83.879 Y78.734 E32.81834
G1 X83.283 Y78.475 E32.861
G1 X82.724 Y78.146 E32.90359
G1 X82.208 Y77.75 E32.94629
G1 X81.746 Y77.294 E32.98891
G1 X81.343 Y76.784 E33.03159
G1 X81.005 Y76.229 E33.07425
G1 X80.738 Y75.637 E33.11689
G1 X80.546 Y75.016 E33.15957
G1 X80.432 Y74.377 E33.20218
G1 X80.39 Y73.615 E33.25229
G1 X80.389 Y73.384 E33.26746
G1 X80.399 Y72.702 E33.31224
G1 X80.403 Y72.553 E33.32202
G1 X80.442 Y71.641 E33.38196
G1 X80.502 Y70.575 E33.45206
G1 X80.578 Y67.892 E33.62828
G1 X80.588 Y66.524 E33.7181
G1 X80.589 Y21.411 E36.68002
G1 X80.599 Y20.71 E36.72605
G1 X80.648 Y20.062 E36.76871
G1 X80.776 Y19.425 E36.81137
M204 S3000
M205 X10 Y10
G1 F2400 E30.81137
;MESH:tcutter_w50mm_blade.stl
G0 X87.594 Y18.118
G0 X96.042 Y18.118
G0 X97.523 Y18.542
G0 X97.521 Y19.626
G0 X97.531 Y20.926
G0 X100.74 Y22.279
M204 S1800
M205 X8 Y8
;TYPE:WALL-INNER
G1 F2400 E36.81137
G1 F600 X100.7 Y22.239 E36.81508
G1 X100.74 Y22.239
G1 X104.056 Y22.239 E37.0328
G1 X104.908 Y23.091 E37.11191
G1 X104.908 Y73.319 E40.40965
G1 X100.74 Y73.319 E40.6833
G1 X100.7 Y73.319 E40.68593
G1 X100.74 Y73.279 E40.6868
G1 X99.24 Y71.779 E40.82607
G1 X100.74 Y70.279 E40.96535
G1 X99.24 Y68.779 E41.10463
G1 X100.74 Y67.279 E41.2439
G1 X99.24 Y65.779 E41.38318
G1 X100.74 Y64.279 E41.52246
G1 X99.24 Y62.779 E41.66173
G1 X100.74 Y61.279 E41.80101
G1 X99.24 Y59.779 E41.94029
G1 X100.74 Y58.279 E42.07956
G1 X99.24 Y56.779 E42.21884
G1 X100.74 Y55.279 E42.35811
G1 X99.24 Y53.779 E42.49739
G1 X100.74 Y52.279 E42.63667
G1 X99.24 Y50.779 E42.77594
G1 X100.74 Y49.279 E42.91522
G1 X99.24 Y47.779 E43.0545
G1 X100.74 Y46.279 E43.19377
G1 X99.24 Y44.779 E43.33305
G1 X100.74 Y43.279 E43.47233
G1 X99.24 Y41.779 E43.6116
G1 X100.74 Y40.279 E43.75088
G1 X99.24 Y38.779 E43.89015
G1 X100.74 Y37.279 E44.02943
G1 X99.24 Y35.779 E44.16871
G1 X100.74 Y34.279 E44.30798
G1 X99.24 Y32.779 E44.44726
G1 X100.74 Y31.279 E44.58654
G1 X99.24 Y29.779 E44.72581
G1 X100.74 Y28.279 E44.86509
G1 X99.24 Y26.779 E45.00437
G1 X100.74 Y25.279 E45.14364
G1 X99.24 Y23.779 E45.28292
G1 X100.74 Y22.279 E45.42219
M204 S3000
M205 X10 Y10
G0 F2400 X99.948 Y22.279
M204 S1800
M205 X8 Y8
G1 F600 X99.825 Y22.156 E45.43362
G1 X99.348 Y21.679 E45.47791
G1 X100.022 Y21.679 E45.50172
G1 X100.023 Y21.679 E45.50179
G1 X104.288 Y21.679 E45.78181
G1 X105.468 Y22.859 E45.89137
G1 X105.468 Y73.879 E49.24112
G1 X100.023 Y73.879 E49.59861
G1 X100.022 Y73.879 E49.59868
G1 X99.348 Y73.879 E49.64293
G1 X99.825 Y73.402 E49.66676
G1 X99.948 Y73.279 E49.67819
G1 X98.448 Y71.779 E49.81746
G1 X99.948 Y70.279 E49.95674
G1 X98.448 Y68.779 E50.09601
G1 X99.948 Y67.279 E50.23529
G1 X98.448 Y65.779 E50.37457
G1 X99.948 Y64.279 E50.51384
G1 X98.448 Y62.779 E50.65312
G1 X99.948 Y61.279 E50.7924
G1 X98.448 Y59.779 E50.93167
G1 X99.948 Y58.279 E51.07095
G1 X98.448 Y56.779 E51.21023
G1 X99.948 Y55.279 E51.3495
G1 X98.448 Y53.779 E51.48878
G1 X99.948 Y52.279 E51.62805
G1 X98.448 Y50.779 E51.76733
G1 X99.948 Y49.279 E51.90661
G1 X98.448 Y47.779 E52.04588
G1 X99.948 Y46.279 E52.18516
G1 X98.448 Y44.779 E52.32444
G1 X99.948 Y43.279 E52.46371
G1 X98.448 Y41.779 E52.60299
G1 X99.948 Y40.279 E52.74227
G1 X98.448 Y38.779 E52.88154
G1 X99.948 Y37.279 E53.02082
G1 X98.448 Y35.779 E53.16009
G1 X99.948 Y34.279 E53.29937
G1 X98.448 Y32.779 E53.43865
G1 X99.948 Y31.279 E53.57792
G1 X98.448 Y29.779 E53.7172
G1 X99.948 Y28.279 E53.85648
G1 X98.448 Y26.779 E53.99575
G1 X99.948 Y25.279 E54.13503
G1 X98.448 Y23.779 E54.27431
G1 X99.948 Y22.279 E54.41358
M204 S3000
M205 X10 Y10
G0 F2400 X99.156 Y22.279
M204 S1800
M205 X8 Y8
G1 F600 X98.473 Y21.596 E54.477
G1 X97.996 Y21.119 E54.52129
G1 X98.67 Y21.119 E54.54511
G1 X98.671 Y21.119 E54.54517
G1 X104.52 Y21.119 E54.92919
G1 X106.028 Y22.627 E55.06921
G1 X106.028 Y74.426 E58.4701
G1 X106.041 Y74.439 E58.47131
G1 X106.028 Y74.439
G1 X98.671 Y74.439 E58.95433
G1 X98.67 Y74.439 E58.9544
G1 X97.996 Y74.439 E58.99865
G1 X98.473 Y73.962 E59.02249
G1 X99.156 Y73.279 E59.08591
G1 X97.656 Y71.779 E59.22518
G1 X99.156 Y70.279 E59.36446
G1 X97.656 Y68.779 E59.50373
G1 X99.156 Y67.279 E59.64301
G1 X97.656 Y65.779 E59.78229
G1 X99.156 Y64.279 E59.92156
G1 X97.656 Y62.779 E60.06084
G1 X99.156 Y61.279 E60.20012
G1 X97.656 Y59.779 E60.33939
G1 X99.156 Y58.279 E60.47867
G1 X97.656 Y56.779 E60.61794
G1 X99.156 Y55.279 E60.75722
G1 X97.656 Y53.779 E60.8965
G1 X99.156 Y52.279 E61.03577
G1 X97.656 Y50.779 E61.17505
G1 X99.156 Y49.279 E61.31433
G1 X97.656 Y47.779 E61.4536
G1 X99.156 Y46.279 E61.59288
G1 X97.656 Y44.779 E61.73216
G1 X99.156 Y43.279 E61.87143
G1 X97.656 Y41.779 E62.01071
G1 X99.156 Y40.279 E62.14998
G1 X97.656 Y38.779 E62.28926
G1 X99.156 Y37.279 E62.42854
G1 X97.656 Y35.779 E62.56781
G1 X99.156 Y34.279 E62.70709
G1 X97.656 Y32.779 E62.84637
G1 X99.156 Y31.279 E62.98564
G1 X97.656 Y29.779 E63.12492
G1 X99.156 Y28.279 E63.2642
G1 X97.656 Y26.779 E63.40347
G1 X99.156 Y25.279 E63.54275
G1 X97.656 Y23.779 E63.68202
G1 X99.156 Y22.279 E63.8213
M204 S3000
M205 X10 Y10
G0 F2400 X98.505 Y22.279
M204 S1800
M205 X8 Y8
;TYPE:WALL-OUTER
G1 F600 X97.376 Y21.15 E63.92613
G1 X97.055 Y20.829 E63.95594
G1 X97.036 Y20.826 E63.9572
G1 X96.806 Y20.779 E63.97261
G1 X97.035 Y20.733 E63.9741
G1 X97.055 Y20.729
G1 X97.125 Y20.659 E63.97457
G1 X97.58 Y20.659 E63.99518
G1 X104.71 Y20.659 E64.4633
G1 X106.488 Y22.437 E64.62839
G1 X106.488 Y74.236 E68.02928
G1 X106.606 Y74.354 E68.04023
G1 X106.688 Y74.437 E68.04789
G1 X106.688 Y74.899 E68.07823
G1 X106.571 Y74.899 E68.08529
G1 X97.58 Y74.899 E68.6756
G1 X97.125 Y74.899 E68.70547
G1 X97.055 Y74.829 E68.71197
G1 X97.036 Y74.826 E68.71324
G1 X96.806 Y74.779 E68.72865
G1 X97.035 Y74.733 E68.73013
G1 X97.055 Y74.729
G1 X97.376 Y74.408 E68.75065
G1 X98.505 Y73.279 E68.85548
G1 X97.055 Y71.829 E68.99011
G1 X97.036 Y71.826 E68.99137
G1 X96.806 Y71.779 E69.00679
G1 X97.035 Y71.733 E69.00827
G1 X97.055 Y71.729
G1 X98.505 Y70.279 E69.1429
G1 X97.055 Y68.829 E69.27754
G1 X97.036 Y68.826 E69.2788
G1 X96.806 Y68.779 E69.29421
G1 X97.035 Y68.733 E69.2957
G1 X97.055 Y68.729
G1 X98.505 Y67.279 E69.43033
G1 X97.055 Y65.829 E69.56497
G1 X97.036 Y65.826 E69.56623
G1 X96.806 Y65.779 E69.58164
G1 X97.035 Y65.733 E69.58313
G1 X97.055 Y65.729
G1 X98.505 Y64.279 E69.71776
G1 X97.055 Y62.829 E69.85239
G1 X97.036 Y62.826 E69.85366
G1 X96.806 Y62.779 E69.86907
G1 X97.035 Y62.733 E69.87055
G1 X97.055 Y62.729
G1 X98.505 Y61.279 E70.00519
G1 X97.055 Y59.829 E70.13982
G1 X97.036 Y59.826 E70.14109
G1 X96.806 Y59.779 E70.1565
G1 X97.035 Y59.733 E70.15798
G1 X97.055 Y59.729
G1 X98.505 Y58.279 E70.29262
G1 X97.055 Y56.829 E70.42725
G1 X97.036 Y56.826 E70.42851
G1 X96.806 Y56.779 E70.44393
G1 X97.035 Y56.733 E70.44541
G1 X97.055 Y56.729
G1 X98.505 Y55.279 E70.58004
G1 X97.055 Y53.829 E70.71468
G1 X97.036 Y53.826 E70.71594
G1 X96.806 Y53.779 E70.73135
G1 X97.035 Y53.733 E70.73284
G1 X97.055 Y53.729
G1 X98.505 Y52.279 E70.86747
G1 X97.055 Y50.829 E71.00211
G1 X97.036 Y50.826 E71.00337
G1 X96.806 Y50.779 E71.01878
G1 X97.035 Y50.733 E71.02027
G1 X97.055 Y50.729
G1 X98.505 Y49.279 E71.1549
G1 X97.055 Y47.829 E71.28953
G1 X97.036 Y47.826 E71.2908
G1 X96.806 Y47.779 E71.30621
G1 X97.035 Y47.733 E71.30769
G1 X97.055 Y47.729
G1 X98.505 Y46.279 E71.44233
G1 X97.055 Y44.829 E71.57696
G1 X97.036 Y44.826 E71.57823
G1 X96.806 Y44.779 E71.59364
G1 X97.035 Y44.733 E71.59512
G1 X97.055 Y44.729
G1 X98.505 Y43.279 E71.72976
G1 X97.055 Y41.829 E71.86439
G1 X97.036 Y41.826 E71.86565
G1 X96.806 Y41.779 E71.88107
G1 X97.035 Y41.733 E71.88255
G1 X97.055 Y41.729
G1 X98.505 Y40.279 E72.01718
G1 X97.055 Y38.829 E72.15182
G1 X97.036 Y38.826 E72.15308
G1 X96.806 Y38.779 E72.16849
G1 X97.035 Y38.733 E72.16998
G1 X97.055 Y38.729
G1 X98.505 Y37.279 E72.30461
G1 X97.055 Y35.829 E72.43925
G1 X97.036 Y35.826 E72.44051
G1 X96.806 Y35.779 E72.45592
G1 X97.035 Y35.733 E72.45741
G1 X97.055 Y35.729
