;FLAVOR:Marlin
;TIME:3804
;Filament used: 4.63649m
;Layer height: 0.3
;MINX:12.465
;MINY:3.781
;MINZ:0.4
;MAXX:91.565
;MAXY:101.149
;MAXZ:60.1
;Generated with Cura_SteamEngine 4.10.0
M104 S220
M105
M109 S220
M82 ;absolute extrusion mode
G21 ;metric values
G90 ;absolute positioning
M82 ;set extruder to absolute mode
M107 ;start with the fan off
G28 X0 Y0 ;move X/Y to min endstops
G28 Z0 ;move Z to min endstops
M501
M420 S1 ;Marlin Bed-leveling on
G1 Z15.0 F120 ;move the platform down 15mm
G92 E0 ;zero the extruded length
G1 F200 E3 ;extrude 3mm of feed stock
G92 E0 ;zero the extruded length again
G1 F120
M117 Printing...
G5
G92 E0
G92 E0
G1 F2400 E-6
;LAYER_COUNT:200
;LAYER:0
M107
M204 S3000
M205 X10 Y10
G1 F600 Z0.475
G0 F2400 X18.465 Y11.917 Z0.475
M204 S1800
M205 X8 Y8
;TYPE:SKIRT
G1 F600 Z0.4
G1 F2400 E0
G1 X18.786 Y11.425 E0.06428
G1 X19.266 Y10.764 E0.15367
G1 X19.641 Y10.281 E0.22058
G1 X19.906 Y9.964 E0.2658
G1 X20.309 Y9.51 E0.33223
G1 X20.697 Y9.096 E0.39431
G1 X20.952 Y8.841 E0.43377
G1 X21.373 Y8.442 E0.49725
G1 X21.82 Y8.04 E0.56303
G1 X22.106 Y7.8 E0.60389
G1 X22.526 Y7.467 E0.66254
G1 X23.01 Y7.103 E0.7288
G1 X23.319 Y6.886 E0.77012
G1 X23.785 Y6.578 E0.83125
G1 X24.286 Y6.265 E0.89589
G1 X24.603 Y6.083 E0.93589
G1 X25.11 Y5.808 E0.999
G1 X25.664 Y5.525 E1.06707
G1 X26.431 Y5.181 E1.15906
G1 X27.044 Y4.933 E1.23142
G1 X27.778 Y4.675 E1.31655
G1 X27.98 Y4.611 E1.33974
G1 X28.479 Y4.461 E1.39676
G1 X28.856 Y4.359 E1.4395
G1 X29.447 Y4.218 E1.50598
G1 X30.006 Y4.099 E1.56852
G1 X30.878 Y3.959 E1.66516
G1 X31.502 Y3.883 E1.73395
G1 X31.884 Y3.849 E1.77591
G1 X32.45 Y3.815 E1.83796
G1 X32.655 Y3.806 E1.86042
G1 X33.399 Y3.784 E1.94186
G1 X33.6 Y3.781 E1.96386
G1 X39.063 Y3.783 E2.56165
G1 X40.818 Y3.82 E2.75374
G1 X41.641 Y3.875 E2.844
G1 X42.235 Y3.944 E2.90943
G1 X42.804 Y4.025 E2.97232
G1 X43.183 Y4.091 E3.01442
G1 X43.689 Y4.195 E3.07095
G1 X44.288 Y4.334 E3.13824
G1 X44.649 Y4.431 E3.17914
G1 X45.167 Y4.585 E3.23827
G1 X45.786 Y4.786 E3.30949
G1 X46.5 Y5.056 E3.39302
G1 X46.688 Y5.134 E3.41529
G1 X47.161 Y5.338 E3.47166
G1 X47.502 Y5.496 E3.51278
G1 X48.029 Y5.759 E3.57723
G1 X48.506 Y6.012 E3.63632
G1 X48.849 Y6.21 E3.67966
G1 X49.392 Y6.544 E3.74941
G1 X49.862 Y6.849 E3.81072
G1 X50.18 Y7.072 E3.85323
G1 X50.727 Y7.481 E3.92796
G1 X51.363 Y7.997 E4.01758
G1 X51.796 Y8.383 E4.08106
G1 X52.227 Y8.787 E4.1457
G1 X52.493 Y9.052 E4.18679
G1 X52.852 Y9.431 E4.24391
G1 X53.275 Y9.904 E4.31335
G1 X53.505 Y10.178 E4.35249
G1 X53.846 Y10.607 E4.41246
G1 X54.208 Y11.088 E4.47833
G1 X54.431 Y11.405 E4.52075
G1 X54.739 Y11.872 E4.58196
G1 X55.06 Y12.389 E4.64855
G1 X55.234 Y12.69 E4.6866
G1 X55.506 Y13.19 E4.74888
G1 X55.768 Y13.702 E4.81182
G1 X55.944 Y14.078 E4.85724
G1 X56.155 Y14.569 E4.91572
G1 X56.382 Y15.134 E4.98235
G1 X56.517 Y15.502 E5.02525
G1 X56.681 Y15.995 E5.0821
G1 X56.867 Y16.603 E5.15167
G1 X57.064 Y17.384 E5.23981
G1 X57.206 Y18.045 E5.31379
G1 X57.275 Y18.435 E5.35713
G1 X57.356 Y18.979 E5.41732
G1 X57.429 Y19.568 E5.48226
G1 X57.463 Y19.956 E5.52488
G1 X57.512 Y20.787 E5.61597
G1 X57.714 Y23.527 E5.91661
G1 X57.98 Y26.132 E6.20315
G1 X58.322 Y28.749 E6.49195
G1 X58.736 Y31.348 E6.77993
G1 X59.222 Y33.921 E7.06647
G1 X59.788 Y36.514 E7.35689
G1 X60.423 Y39.081 E7.64625
G1 X61.137 Y41.644 E7.93739
G1 X61.906 Y44.134 E8.22256
G1 X62.76 Y46.641 E8.51237
G1 X63.686 Y49.132 E8.80317
G1 X64.667 Y51.558 E9.08952
G1 X65.723 Y53.968 E9.37744
G1 X66.843 Y56.34 E9.66448
G1 X68.059 Y58.737 E9.9586
G1 X69.288 Y61.002 E10.24058
G1 X70.645 Y63.338 E10.5362
G1 X72.01 Y65.543 E10.81997
G1 X73.467 Y67.755 E11.10981
G1 X74.974 Y69.907 E11.3973
G1 X76.552 Y72.032 E11.68693
G1 X78.187 Y74.106 E11.97592
G1 X79.882 Y76.136 E12.26531
G1 X81.632 Y78.115 E12.55438
G1 X83.412 Y80.019 E12.8396
G1 X85.279 Y81.904 E13.12992
G1 X87.191 Y83.728 E13.41907
G1 X88.68 Y85.081 E13.63922
G1 X88.918 Y85.292 E13.67403
G1 X89.44 Y85.808 E13.75435
G1 X89.9 Y86.361 E13.83306
G1 X90.328 Y86.958 E13.91344
G1 X90.824 Y87.888 E14.02877
G1 X90.921 Y88.11 E14.05528
G1 X91.176 Y88.791 E14.13486
G1 X91.203 Y88.877 E14.14472
G1 X91.435 Y89.877 E14.25705
G1 X91.473 Y90.125 E14.28451
G1 X91.55 Y91.036 E14.38455
G1 X91.565 Y91.995 E14.4895
G1 X91.565 Y93.769 E14.68362
G1 X91.556 Y94.475 E14.76088
G1 X91.507 Y95.208 E14.84127
G1 X91.378 Y95.931 E14.92164
G1 X91.172 Y96.636 E15.00201
G1 X90.89 Y97.314 E15.08236
G1 X90.536 Y97.958 E15.16277
G1 X90.114 Y98.56 E15.24322
G1 X89.63 Y99.112 E15.32355
G1 X89.088 Y99.608 E15.40395
G1 X88.496 Y100.042 E15.48427
G1 X87.859 Y100.409 E15.56472
G1 X87.187 Y100.705 E15.64507
G1 X86.487 Y100.927 E15.72543
G1 X85.766 Y101.07 E15.80586
G1 X84.993 Y101.136 E15.89075
G1 X84.445 Y101.149 E15.95074
G1 X84.2 Y101.148 E15.97755
G1 X83.5 Y101.136 E16.05416
G1 X82.768 Y101.083 E16.13447
G1 X82.199 Y100.987 E16.19761
G1 X81.859 Y100.914 E16.23566
G1 X79.284 Y100.396 E16.52308
G1 X76.658 Y99.943 E16.81467
G1 X74.041 Y99.568 E17.10397
G1 X71.43 Y99.269 E17.39154
G1 X68.817 Y99.044 E17.67853
G1 X66.164 Y98.892 E17.96932
G1 X63.527 Y98.815 E18.25799
G1 X62.085 Y98.804 E18.41579
G1 X53.142 Y98.804 E19.39439
G1 X50.496 Y98.841 E19.68396
G1 X47.842 Y98.954 E19.97463
G1 X45.215 Y99.14 E20.26282
G1 X42.579 Y99.402 E20.55268
G1 X39.983 Y99.734 E20.83907
G1 X37.367 Y100.145 E21.12884
G1 X34.798 Y100.623 E21.41478
G1 X34.069 Y100.779 E21.49635
G1 X32.934 Y101.007 E21.62303
G1 X32.207 Y101.112 E21.70341
G1 X31.499 Y101.145 E21.78097
G1 X31.301 Y101.148 E21.80264
G1 X24.031 Y101.148 E22.59816
G1 X23.342 Y101.138 E22.67357
G1 X22.609 Y101.088 E22.75396
G1 X21.886 Y100.958 E22.83434
G1 X21.182 Y100.75 E22.91467
G1 X20.504 Y100.467 E22.99507
G1 X19.861 Y100.112 E23.07544
G1 X19.26 Y99.689 E23.15586
G1 X18.697 Y99.2 E23.23746
G1 X18.18 Y98.678 E23.31785
G1 X17.723 Y98.103 E23.39823
G1 X17.331 Y97.482 E23.47859
G1 X17.009 Y96.821 E23.55904
G1 X16.761 Y96.13 E23.63938
G1 X16.589 Y95.416 E23.71974
G1 X16.53 Y95.031 E23.76236
G1 X16.449 Y94.381 E23.83404
G1 X16.08 Y91.658 E24.13473
G1 X15.654 Y89.074 E24.4213
G1 X15.155 Y86.493 E24.70896
G1 X14.579 Y83.915 E24.99802
G1 X13.934 Y81.363 E25.28605
G1 X13.206 Y78.796 E25.57803
G1 X12.855 Y77.665 E25.70761
G1 X12.74 Y77.267 E25.75294
G1 X12.575 Y76.551 E25.83335
G1 X12.478 Y75.601 E25.93784
G1 X12.465 Y75.068 E25.99618
G1 X12.466 Y68.6 E26.70395
G1 X12.477 Y67.893 E26.78132
G1 X12.528 Y67.16 E26.86173
G1 X12.692 Y66.305 E26.95699
G1 X13.357 Y63.739 E27.24705
G1 X13.963 Y61.103 E27.54302
G1 X14.471 Y58.561 E27.82668
G1 X14.917 Y55.951 E28.11643
G1 X15.289 Y53.33 E28.40611
G1 X15.583 Y50.735 E28.69188
G1 X15.808 Y48.075 E28.98399
G1 X15.956 Y45.46 E29.2706
G1 X16.029 Y42.838 E29.55763
G1 X16.027 Y40.179 E29.84859
G1 X15.952 Y37.559 E30.1354
G1 X15.804 Y34.948 E30.42157
G1 X15.741 Y33.921 E30.53416
G1 X15.73 Y33.652 E30.56362
G1 X15.702 Y32.285 E30.71324
G1 X15.703 Y22.25 E31.81133
G1 X15.74 Y20.487 E32.00429
G1 X15.794 Y19.679 E32.0929
G1 X15.864 Y19.076 E32.15933
G1 X15.944 Y18.511 E32.22177
G1 X16.01 Y18.134 E32.26365
G1 X16.119 Y17.604 E32.32286
G1 X16.258 Y17.012 E32.3894
G1 X16.351 Y16.663 E32.42893
G1 X16.506 Y16.141 E32.48851
G1 X16.686 Y15.585 E32.55246
G1 X16.823 Y15.209 E32.59625
G1 X17.038 Y14.667 E32.66006
G1 X17.283 Y14.093 E32.72835
G1 X17.665 Y13.306 E32.82408
G1 X17.937 Y12.796 E32.88732
G1 X18.13 Y12.461 E32.92963
G1 X18.465 Y11.917 E32.99954
M204 S3000
M205 X10 Y10
G0 X19.061 Y12.284
M204 S1800
M205 X8 Y8
G1 X19.37 Y11.811 E33.06136
G1 X19.827 Y11.182 E33.14644
G1 X20.192 Y10.713 E33.21147
G1 X20.429 Y10.429 E33.25195
G1 X20.832 Y9.975 E33.31838
G1 X21.205 Y9.577 E33.37806
G1 X21.433 Y9.349 E33.41335
G1 X21.854 Y8.95 E33.47682
G1 X22.285 Y8.564 E33.54013
G1 X22.541 Y8.348 E33.57678
G1 X22.961 Y8.015 E33.63543
G1 X23.428 Y7.664 E33.69936
G1 X23.705 Y7.47 E33.73637
G1 X24.171 Y7.162 E33.79749
G1 X24.653 Y6.862 E33.85962
G1 X24.936 Y6.698 E33.89541
G1 X25.443 Y6.423 E33.95852
G1 X25.979 Y6.151 E34.02429
G1 X26.709 Y5.823 E34.11187
G1 X27.305 Y5.582 E34.18222
G1 X28 Y5.339 E34.26278
G1 X28.181 Y5.281 E34.28358
G1 X28.68 Y5.131 E34.3406
G1 X29.018 Y5.04 E34.3789
G1 X29.609 Y4.899 E34.44538
G1 X30.148 Y4.785 E34.50567
G1 X30.98 Y4.652 E34.59787
G1 X31.584 Y4.578 E34.66446
G1 X31.926 Y4.548 E34.70202
G1 X32.492 Y4.514 E34.76407
G1 X32.676 Y4.506 E34.78422
G1 X33.42 Y4.484 E34.86567
G1 X33.6 Y4.481 E34.88537
G1 X39.049 Y4.483 E35.48163
G1 X40.804 Y4.52 E35.67372
G1 X41.56 Y4.57 E35.75662
G1 X42.154 Y4.639 E35.82206
G1 X42.702 Y4.717 E35.88263
G1 X43.042 Y4.777 E35.92041
G1 X43.548 Y4.881 E35.97694
G1 X44.126 Y5.015 E36.04186
G1 X44.449 Y5.102 E36.07847
G1 X44.967 Y5.256 E36.1376
G1 X45.567 Y5.451 E36.20664
G1 X46.242 Y5.707 E36.28563
G1 X46.411 Y5.777 E36.30565
G1 X46.884 Y5.981 E36.36202
G1 X47.19 Y6.123 E36.39893
G1 X47.717 Y6.386 E36.46338
G1 X48.175 Y6.629 E36.52011
G1 X48.483 Y6.806 E36.55899
G1 X49.026 Y7.14 E36.62875
G1 X49.477 Y7.434 E36.68766
G1 X49.762 Y7.633 E36.72569
G1 X50.173 Y7.939 E36.78176
G1 X50.605 Y8.276 E36.84172
G1 X50.897 Y8.52 E36.88336
G1 X51.33 Y8.906 E36.94683
G1 X51.746 Y9.296 E37.00923
G1 X51.984 Y9.533 E37.04598
G1 X52.343 Y9.912 E37.10311
G1 X52.751 Y10.368 E37.17006
G1 X52.957 Y10.613 E37.20509
G1 X53.298 Y11.042 E37.26506
G1 X53.647 Y11.506 E37.32859
G1 X53.846 Y11.79 E37.36654
G1 X54.154 Y12.257 E37.42775
G1 X54.463 Y12.755 E37.49188
G1 X54.62 Y13.025 E37.52606
G1 X54.892 Y13.525 E37.58834
G1 X55.143 Y14.018 E37.64888
G1 X55.3 Y14.354 E37.68946
G1 X55.511 Y14.845 E37.74794
G1 X55.732 Y15.393 E37.8126
G1 X55.853 Y15.723 E37.85106
G1 X56.017 Y16.216 E37.90792
G1 X56.196 Y16.805 E37.97528
G1 X56.383 Y17.546 E38.0589
G1 X56.52 Y18.188 E38.13074
G1 X56.583 Y18.538 E38.16965
G1 X56.664 Y19.082 E38.22984
G1 X56.734 Y19.65 E38.29246
G1 X56.764 Y19.998 E38.33068
G1 X56.814 Y20.838 E38.42276
G1 X57.016 Y23.58 E38.72362
G1 X57.286 Y26.22 E39.01401
G1 X57.629 Y28.845 E39.3037
G1 X58.05 Y31.484 E39.59612
G1 X58.541 Y34.088 E39.88609
G1 X59.102 Y36.654 E40.17351
G1 X59.755 Y39.292 E40.47089
G1 X60.451 Y41.794 E40.75507
G1 X61.249 Y44.376 E41.05079
G1 X62.097 Y46.869 E41.33894
G1 X63.021 Y49.354 E41.62905
G1 X64.036 Y51.862 E41.92511
G1 X65.082 Y54.249 E42.21029
G1 X66.232 Y56.685 E42.50506
G1 X67.423 Y59.033 E42.79316
G1 X68.694 Y61.374 E43.08464
G1 X70.022 Y63.661 E43.37403
G1 X71.433 Y65.941 E43.66744
G1 X72.869 Y68.121 E43.95309
G1 X74.415 Y70.329 E44.24804
G1 X76.013 Y72.48 E44.54126
G1 X77.629 Y74.53 E44.8269
G1 X79.35 Y76.591 E45.12071
G1 X81.11 Y78.581 E45.41142
G1 X82.931 Y80.529 E45.70321
G1 X84.752 Y82.368 E45.98641
G1 X86.732 Y84.257 E46.28586
G1 X88.187 Y85.579 E46.50098
G1 X88.453 Y85.815 E46.53989
G1 X89.153 Y86.55 E46.65096
G1 X89.354 Y86.8 E46.68606
G1 X89.758 Y87.366 E46.76215
G1 X90.183 Y88.169 E46.86157
G1 X90.28 Y88.391 E46.88808
G1 X90.508 Y89.001 E46.95934
G1 X90.535 Y89.087 E46.96921
G1 X90.743 Y89.983 E47.06986
G1 X90.781 Y90.231 E47.09731
G1 X90.85 Y91.048 E47.18703
G1 X90.865 Y91.995 E47.29067
G1 X90.866 Y93.76 E47.48381
G1 X90.857 Y94.466 E47.56107
G1 X90.808 Y95.16 E47.6372
G1 X90.68 Y95.843 E47.71324
G1 X90.474 Y96.508 E47.78942
G1 X90.193 Y97.144 E47.8655
G1 X89.842 Y97.744 E47.94157
G1 X89.423 Y98.299 E48.01766
G1 X88.944 Y98.803 E48.09375
G1 X88.41 Y99.249 E48.16988
G1 X87.829 Y99.63 E48.24591
G1 X87.207 Y99.942 E48.32205
G1 X86.554 Y100.181 E48.39814
G1 X85.878 Y100.343 E48.47421
G1 X84.974 Y100.437 E48.57367
G1 X84.445 Y100.449 E48.63157
G1 X84.212 Y100.448 E48.65706
G1 X83.512 Y100.436 E48.73367
G1 X82.819 Y100.384 E48.80972
G1 X82.044 Y100.237 E48.89603
G1 X79.404 Y99.706 E49.1907
G1 X76.772 Y99.252 E49.48297
G1 X74.15 Y98.876 E49.77282
G1 X71.497 Y98.572 E50.06502
G1 X68.845 Y98.344 E50.35629
G1 X66.192 Y98.192 E50.64707
G1 X63.552 Y98.115 E50.93608
G1 X62.09 Y98.104 E51.09607
G1 X53.133 Y98.104 E52.07619
G1 X50.492 Y98.141 E52.36521
G1 X47.796 Y98.256 E52.66049
G1 X45.166 Y98.442 E52.949
G1 X42.494 Y98.707 E53.24282
G1 X39.889 Y99.04 E53.5302
G1 X37.239 Y99.457 E53.82374
G1 X34.629 Y99.942 E54.11424
G1 X33.932 Y100.093 E54.19227
G1 X32.797 Y100.321 E54.31895
G1 X31.783 Y100.436 E54.43062
G1 X31.301 Y100.448 E54.48338
G1 X24.041 Y100.448 E55.27781
G1 X23.352 Y100.438 E55.35322
G1 X22.659 Y100.388 E55.42925
G1 X21.975 Y100.259 E55.50541
G1 X21.311 Y100.052 E55.58152
G1 X20.676 Y99.77 E55.65755
G1 X20.076 Y99.418 E55.73367
G1 X19.379 Y98.873 E55.83049
G1 X19.167 Y98.681 E55.86179
G1 X18.679 Y98.186 E55.93785
G1 X18.251 Y97.637 E56.01402
G1 X17.889 Y97.043 E56.09014
G1 X17.598 Y96.412 E56.16618
G1 X17.381 Y95.751 E56.2423
G1 X17.224 Y94.944 E56.33227
G1 X17.134 Y94.221 E56.41199
G1 X16.778 Y91.594 E56.70208
G1 X16.339 Y88.931 E56.99742
G1 X15.84 Y86.352 E57.28486
G1 X15.262 Y83.762 E57.57524
G1 X14.601 Y81.146 E57.8705
G1 X13.887 Y78.631 E58.15658
G1 X13.563 Y77.589 E58.27599
G1 X13.413 Y77.072 E58.33489
G1 X13.258 Y76.394 E58.411
G1 X13.178 Y75.579 E58.50061
G1 X13.165 Y75.068 E58.55654
G1 X13.166 Y68.611 E59.26311
G1 X13.177 Y67.904 E59.34048
G1 X13.227 Y67.21 E59.41662
G1 X13.369 Y66.48 E59.498
G1 X14.05 Y63.851 E59.79517
G1 X14.646 Y61.26 E60.0861
G1 X15.157 Y58.706 E60.37111
G1 X15.608 Y56.063 E60.6645
G1 X15.982 Y53.434 E60.95508
G1 X16.283 Y50.765 E61.24899
G1 X16.506 Y48.141 E61.53716
G1 X16.654 Y45.518 E61.82464
G1 X16.729 Y42.823 E62.11965
G1 X16.727 Y40.195 E62.40723
G1 X16.65 Y37.499 E62.70236
G1 X16.502 Y34.909 E62.98623
G1 X16.439 Y33.879 E63.09915
G1 X16.429 Y33.637 E63.12566
G1 X16.403 Y32.413 E63.25962
G1 X16.402 Y22.392 E64.35618
G1 X16.403 Y22.265 E64.37008
G1 X16.44 Y20.502 E64.56304
G1 X16.489 Y19.759 E64.64452
G1 X16.559 Y19.156 E64.71094
G1 X16.637 Y18.613 E64.77097
G1 X16.696 Y18.275 E64.80852
G1 X16.805 Y17.745 E64.86773
G1 X16.938 Y17.175 E64.93178
G1 X17.022 Y16.862 E64.96724
G1 X17.177 Y16.34 E65.02682
G1 X17.351 Y15.804 E65.08849
G1 X17.473 Y15.467 E65.12771
G1 X17.688 Y14.925 E65.19151
G1 X17.925 Y14.371 E65.25745
G1 X18.291 Y13.619 E65.34896
G1 X18.553 Y13.128 E65.40986
G1 X18.726 Y12.828 E65.44776
G1 X19.061 Y12.284 E65.51767
M204 S3000
M205 X10 Y10
G0 X19.657 Y12.651
M204 S1800
M205 X8 Y8
G1 X19.954 Y12.196 E65.57712
G1 X20.388 Y11.601 E65.65771
G1 X20.743 Y11.145 E65.72095
G1 X20.953 Y10.893 E65.75684
G1 X21.356 Y10.439 E65.82327
G1 X21.713 Y10.059 E65.88033
G1 X21.915 Y9.857 E65.91159
G1 X22.336 Y9.458 E65.97506
G1 X22.749 Y9.087 E66.03581
G1 X22.976 Y8.897 E66.0682
G1 X23.396 Y8.564 E66.12685
G1 X23.846 Y8.226 E66.18844
G1 X24.091 Y8.054 E66.22119
G1 X24.557 Y7.746 E66.28232
G1 X25.02 Y7.458 E66.34198
G1 X25.27 Y7.313 E66.37361
G1 X25.777 Y7.038 E66.43672
G1 X26.293 Y6.776 E66.50005
G1 X26.987 Y6.466 E66.58322
G1 X27.565 Y6.232 E66.65146
G1 X28.223 Y6.002 E66.72773
G1 X28.383 Y5.951 E66.74611
G1 X28.882 Y5.801 E66.80312
G1 X29.18 Y5.721 E66.83689
G1 X29.771 Y5.58 E66.90337
G1 X30.29 Y5.47 E66.96143
G1 X31.082 Y5.344 E67.04918
G1 X31.665 Y5.273 E67.11345
G1 X31.968 Y5.247 E67.14672
G1 X32.697 Y5.205 E67.22663
G1 X33.441 Y5.183 E67.30808
G1 X33.6 Y5.181 E67.32548
G1 X39.034 Y5.183 E67.9201
G1 X40.789 Y5.22 E68.11218
G1 X41.479 Y5.266 E68.18785
G1 X42.073 Y5.335 E68.25329
G1 X42.601 Y5.41 E68.31165
G1 X42.901 Y5.463 E68.34498
G1 X43.569 Y5.602 E68.41964
G1 X44.25 Y5.773 E68.49648
G1 X44.768 Y5.927 E68.55561
G1 X45.348 Y6.116 E68.62236
G1 X45.984 Y6.358 E68.69683
G1 X46.134 Y6.419 E68.71455
G1 X46.607 Y6.623 E68.77091
G1 X46.877 Y6.749 E68.80352
G1 X47.404 Y7.012 E68.86797
G1 X48.116 Y7.402 E68.9568
G1 X48.659 Y7.736 E69.02656
G1 X49.092 Y8.018 E69.0831
G1 X49.344 Y8.195 E69.1168
G1 X49.755 Y8.501 E69.17287
G1 X50.173 Y8.827 E69.23088
G1 X50.431 Y9.042 E69.26763
G1 X50.864 Y9.428 E69.3311
G1 X51.265 Y9.804 E69.39125
G1 X51.476 Y10.015 E69.42391
G1 X51.835 Y10.394 E69.48103
G1 X52.227 Y10.832 E69.54535
G1 X52.409 Y11.049 E69.57634
G1 X52.75 Y11.478 E69.63631
G1 X53.086 Y11.924 E69.69741
G1 X53.262 Y12.175 E69.73096
G1 X53.57 Y12.642 E69.79217
G1 X53.867 Y13.121 E69.85385
G1 X54.005 Y13.359 E69.88395
G1 X54.277 Y13.859 E69.94623
G1 X54.518 Y14.333 E70.00442
G1 X54.657 Y14.631 E70.0404
G1 X54.923 Y15.254 E70.11453
G1 X55.188 Y15.944 E70.19541
G1 X55.399 Y16.584 E70.26915
