;FLAVOR:Marlin
;TIME:5797
;Filament used: 4.33514m
;Layer height: 0.2
;MINX:-44.214
;MINY:-83.74
;MINZ:0.2
;MAXX:28.487
;MAXY:73.853
;MAXZ:60.2
;Generated with Cura_SteamEngine 4.10.0
M104 S205
M105
M109 S205
M82 ;absolute extrusion mode
G21        ;metric values
G90        ;absolute positioning
M107       ;start with the fan off
G28   ;move to endstops

;Z-Offset Reset und dann Z +0,1 für PLA
MacroZOffset0
MacroZOffsetPlus0100

G92 E0                  ;zero the extruded length
G1 F200 E3              ;extrude 3mm of feed stock
G92 E0                  ;zero the extruded length again
G1 F120
;Put printing message on LCD screen
M117 Printing...
G92 E0
G92 E0
G1 F2400 E-6
;LAYER_COUNT:301
;LAYER:0
M107
M204 S4000
G0 F1200 X-9.719 Y-.232 Z0.2
M204 S1800
;TYPE:SKIRT
G1 F2400 E0
G1 F600 X-9.797 Y-3.022 E0.07891
G1 X-9.878 Y-4.618 E0.12409
G1 X-10.006 Y-6.785 E0.18546
G1 X-10.203 Y-9.475 E0.26171
G1 X-10.482 Y-12.222 E0.33977
G1 X-10.836 Y-14.933 E0.41706
G1 X-11.261 Y-17.598 E0.49336
G1 X-11.774 Y-20.323 E0.57175
G1 X-12.342 Y-22.93 E0.64718
G1 X-13.001 Y-25.593 E0.72474
G1 X-13.733 Y-28.224 E0.80195
G1 X-14.541 Y-30.843 E0.87943
G1 X-15.414 Y-33.411 E0.95611
G1 X-16.368 Y-35.976 E1.03348
G1 X-17.381 Y-38.481 E1.10987
G1 X-18.485 Y-41.003 E1.1877
G1 X-19.651 Y-43.476 E1.265
G1 X-20.883 Y-45.903 E1.34195
G1 X-22.169 Y-48.274 E1.4182
G1 X-23.549 Y-50.651 E1.49591
G1 X-24.969 Y-52.947 E1.57223
G1 X-26.484 Y-55.25 E1.65016
G1 X-28.042 Y-57.475 E1.72695
G1 X-29.683 Y-59.686 E1.8048
G1 X-31.356 Y-61.809 E1.88121
G1 X-33.104 Y-63.905 E1.95837
G1 X-34.904 Y-65.941 E2.0352
G1 X-36.769 Y-67.936 E2.11241
G1 X-38.683 Y-69.87 E2.18933
G1 X-40.665 Y-71.761 E2.26678
G1 X-42.365 Y-73.292 E2.33146
G1 X-42.696 Y-73.597 E2.34418
G1 X-43.06 Y-73.985 E2.35922
G1 X-43.243 Y-74.212 E2.36746
G1 X-43.547 Y-74.653 E2.38261
G1 X-43.845 Y-75.269 E2.40195
G1 X-44.026 Y-75.774 E2.41712
G1 X-44.147 Y-76.398 E2.43509
G1 X-44.205 Y-77.07 E2.45416
G1 X-44.213 Y-77.546 E2.46762
G1 X-44.214 Y-79.514 E2.52325
G1 X-44.206 Y-80.174 E2.54191
G1 X-44.159 Y-80.708 E2.55707
G1 X-44.034 Y-81.229 E2.57222
G1 X-43.833 Y-81.726 E2.58737
G1 X-43.56 Y-82.188 E2.60254
G1 X-43.221 Y-82.604 E2.61772
G1 X-42.825 Y-82.965 E2.63287
G1 X-42.379 Y-83.263 E2.64803
G1 X-41.894 Y-83.492 E2.66319
G1 X-41.38 Y-83.646 E2.67836
G1 X-40.697 Y-83.729 E2.69781
G1 X-40.155 Y-83.74 E2.71314
G1 X-39.465 Y-83.729 E2.73265
G1 X-38.748 Y-83.647 E2.75305
G1 X-37.679 Y-83.416 E2.78397
G1 X-35.003 Y-82.876 E2.86115
G1 X-32.289 Y-82.409 E2.939
G1 X-29.633 Y-82.027 E3.01487
G1 X-26.906 Y-81.716 E3.09246
G1 X-24.174 Y-81.48 E3.16999
G1 X-21.452 Y-81.324 E3.24707
G1 X-18.752 Y-81.245 E3.32343
G1 X-17.264 Y-81.234 E3.3655
G1 X-9.764 Y-81.234 E3.57753
G1 X-6.984 Y-81.273 E3.65613
G1 X-4.255 Y-81.389 E3.73335
G1 X-1.526 Y-81.583 E3.8107
G1 X1.151 Y-81.848 E3.88675
G1 X3.89 Y-82.198 E3.96482
G1 X6.568 Y-82.619 E4.04146
G1 X9.232 Y-83.114 E4.11806
G1 X11.407 Y-83.583 E4.18096
G1 X11.793 Y-83.66 E4.19209
G1 X12.396 Y-83.729 E4.20925
G1 X12.818 Y-83.739 E4.22118
G1 X20.124 Y-83.74 E4.42773
G1 X20.833 Y-83.73 E4.44778
G1 X21.367 Y-83.682 E4.46294
G1 X21.888 Y-83.556 E4.47809
G1 X22.385 Y-83.354 E4.49326
G1 X22.846 Y-83.08 E4.50842
G1 X23.426 Y-82.573 E4.5302
G1 X23.523 Y-82.468 E4.53424
G1 X23.857 Y-82.048 E4.54941
G1 X24.124 Y-81.583 E4.56457
G1 X24.32 Y-81.084 E4.57972
G1 X24.453 Y-80.46 E4.59776
G1 X24.562 Y-79.564 E4.62328
G1 X24.927 Y-76.873 E4.70005
G1 X25.372 Y-74.171 E4.77747
G1 X25.892 Y-71.491 E4.85465
G1 X26.482 Y-68.852 E4.9311
G1 X27.154 Y-66.193 E5.00864
G1 X27.895 Y-63.584 E5.08531
G1 X28.209 Y-62.571 E5.1153
G1 X28.331 Y-62.156 E5.12753
G1 X28.443 Y-61.632 E5.14267
G1 X28.485 Y-60.917 E5.16292
G1 X28.487 Y-60.809 E5.16598
G1 X28.487 Y-54.595 E5.34165
G1 X28.477 Y-53.894 E5.36147
G1 X28.424 Y-53.328 E5.37754
G1 X28.344 Y-52.967 E5.388
G1 X28.145 Y-52.244 E5.4092
G1 X27.46 Y-49.606 E5.48625
G1 X26.849 Y-46.954 E5.56319
G1 X26.315 Y-44.272 E5.6405
G1 X25.854 Y-41.57 E5.71799
G1 X25.471 Y-38.879 E5.79484
G1 X25.167 Y-36.186 E5.87146
G1 X24.936 Y-33.464 E5.94869
G1 X24.786 Y-30.787 E6.02449
G1 X24.708 Y-27.999 E6.10334
G1 X24.71 Y-25.304 E6.17953
G1 X24.79 Y-22.526 E6.2581
G1 X24.923 Y-20.121 E6.32619
G1 X24.977 Y-19.339 E6.34835
G1 X24.992 Y-18.69 E6.36671
G1 X24.992 Y-7.846 E6.67328
G1 X24.978 Y-6.841 E6.70169
G1 X24.972 Y-6.68 E6.70625
G1 X24.937 Y-6.083 E6.72316
G1 X24.919 Y-5.881 E6.72889
G1 X24.846 Y-5.259 E6.7466
G1 X24.753 Y-4.664 E6.76362
G1 X24.623 Y-4.039 E6.78167
G1 X24.483 Y-3.471 E6.79821
G1 X24.292 Y-2.834 E6.81701
G1 X24.111 Y-2.298 E6.833
G1 X23.223 Y0.038 E6.90365
G1 X22.322 Y2.624 E6.98107
G1 X21.501 Y5.216 E7.05794
G1 X20.745 Y7.863 E7.13577
G1 X20.071 Y10.488 E7.21238
G1 X19.475 Y13.146 E7.2894
G1 X18.946 Y15.841 E7.36704
G1 X18.5 Y18.516 E7.44371
G1 X18.129 Y21.201 E7.52034
G1 X17.829 Y23.946 E7.5984
G1 X17.612 Y26.636 E7.6747
G1 X17.47 Y29.362 E7.75187
G1 X17.399 Y33.037 E7.85579
G1 X17.399 Y63.034 E8.70384
G1 X17.438 Y65.819 E8.78258
G1 X17.572 Y68.697 E8.86403
G1 X17.594 Y69.345 E8.88236
G1 X17.597 Y69.714 E8.89279
G1 X17.589 Y70.294 E8.90919
G1 X17.541 Y70.828 E8.92435
G1 X17.415 Y71.349 E8.9395
G1 X17.213 Y71.846 E8.95467
G1 X16.939 Y72.307 E8.96983
G1 X16.6 Y72.722 E8.98498
G1 X16.203 Y73.083 E9.00015
G1 X15.757 Y73.38 E9.0153
G1 X15.271 Y73.608 E9.03048
G1 X14.757 Y73.761 E9.04564
G1 X14.09 Y73.843 E9.06464
G1 X13.669 Y73.853 E9.07654
G1 X4.555 Y73.853 E9.33421
G1 X3.853 Y73.843 E9.35405
G1 X3.247 Y73.782 E9.37127
G1 X2.761 Y73.692 E9.38525
G1 X0.058 Y73.229 E9.46278
G1 X-2.661 Y72.842 E9.54042
G1 X-5.369 Y72.535 E9.61747
G1 X-7.362 Y72.365 E9.67402
G1 X-7.756 Y72.325 E9.68521
G1 X-8.284 Y72.231 E9.70038
G1 X-8.792 Y72.06 E9.71553
G1 X-9.269 Y71.815 E9.73069
G1 X-9.705 Y71.502 E9.74586
G1 X-10.089 Y71.128 E9.76102
G1 X-10.413 Y70.701 E9.77617
G1 X-10.67 Y70.23 E9.79134
G1 X-10.855 Y69.727 E9.80649
G1 X-10.963 Y69.201 E9.82167
G1 X-10.999 Y68.54 E9.84039
G1 X-11.001 Y68.382 E9.84485
G1 X-10.988 Y67.599 E9.86699
G1 X-10.949 Y66.71 E9.89215
G1 X-10.889 Y65.656 E9.922
G1 X-10.81 Y62.856 E10.00119
G1 X-10.801 Y61.51 E10.03924
G1 X-10.801 Y16.405 E11.31441
G1 X-10.79 Y15.688 E11.33468
G1 X-10.761 Y15.286 E11.34608
G1 X-10.656 Y14.468 E11.36939
G1 X-10.495 Y13.345 E11.40147
G1 X-10.188 Y10.646 E11.47826
G1 X-9.953 Y7.894 E11.55635
G1 X-9.8 Y5.225 E11.63193
G1 X-9.721 Y2.463 E11.71004
G1 X-9.719 Y-.232 E11.78623
M204 S4000
G0 F1200 X-9.319 Y-.244
M204 S1800
G1 F600 X-9.396 Y-3.006 E11.86435
G1 X-9.48 Y-4.669 E11.91142
G1 X-9.606 Y-6.808 E11.972
G1 X-9.803 Y-9.494 E12.04814
G1 X-10.086 Y-12.281 E12.12734
G1 X-10.438 Y-14.977 E12.2042
G1 X-10.866 Y-17.664 E12.28113
G1 X-11.377 Y-20.376 E12.35915
G1 X-11.965 Y-23.073 E12.43718
G1 X-12.605 Y-25.659 E12.5125
G1 X-13.352 Y-28.344 E12.59129
G1 X-14.157 Y-30.953 E12.66848
G1 X-15.048 Y-33.574 E12.74674
G1 X-15.977 Y-36.075 E12.82217
G1 X-17.028 Y-38.673 E12.9014
G1 X-18.12 Y-41.168 E12.9784
G1 X-19.277 Y-43.621 E13.05507
G1 X-20.525 Y-46.081 E13.13306
G1 X-21.837 Y-48.5 E13.21086
G1 X-23.196 Y-50.84 E13.28736
G1 X-24.655 Y-53.199 E13.36578
G1 X-26.149 Y-55.47 E13.44263
G1 X-27.709 Y-57.698 E13.51952
G1 X-29.351 Y-59.909 E13.59738
G1 X-31.05 Y-62.067 E13.67503
G1 X-32.797 Y-64.16 E13.7521
G1 X-34.614 Y-66.216 E13.82967
G1 X-36.492 Y-68.226 E13.90744
G1 X-38.388 Y-70.14 E13.98361
G1 X-40.403 Y-72.064 E14.06237
G1 X-42.094 Y-73.586 E14.12669
G1 X-42.748 Y-74.236 E14.15276
G1 X-42.931 Y-74.463 E14.161
G1 X-43.216 Y-74.88 E14.17528
G1 X-43.48 Y-75.431 E14.19256
G1 X-43.648 Y-75.908 E14.20685
G1 X-43.752 Y-76.461 E14.22276
G1 X-43.805 Y-77.093 E14.24069
G1 X-43.813 Y-77.546 E14.2535
G1 X-43.814 Y-79.509 E14.309
G1 X-43.806 Y-80.169 E14.32766
G1 X-43.76 Y-80.672 E14.34194
G1 X-43.635 Y-81.162 E14.35623
G1 X-43.435 Y-81.626 E14.37052
G1 X-43.164 Y-82.053 E14.38481
G1 X-42.829 Y-82.432 E14.39911
G1 X-42.439 Y-82.753 E14.41339
G1 X-42.002 Y-83.009 E14.42771
G1 X-41.532 Y-83.193 E14.44198
G1 X-41.038 Y-83.301 E14.45628
G1 X-40.293 Y-83.339 E14.47737
G1 X-40.161 Y-83.34 E14.4811
G1 X-39.471 Y-83.329 E14.50061
G1 X-38.832 Y-83.256 E14.51879
G1 X-37.764 Y-83.025 E14.54968
G1 X-35.078 Y-82.483 E14.62715
G1 X-32.378 Y-82.018 E14.70461
G1 X-29.635 Y-81.624 E14.78295
G1 X-26.949 Y-81.318 E14.85938
G1 X-24.23 Y-81.083 E14.93653
G1 X-21.487 Y-80.926 E15.01421
G1 X-18.722 Y-80.845 E15.09241
G1 X-17.267 Y-80.834 E15.13355
G1 X-9.758 Y-80.834 E15.34583
G1 X-6.961 Y-80.874 E15.42492
G1 X-4.244 Y-80.989 E15.5018
G1 X-1.498 Y-81.184 E15.57963
G1 X1.208 Y-81.452 E15.6565
G1 X3.931 Y-81.8 E15.73411
G1 X6.632 Y-82.225 E15.81141
G1 X9.324 Y-82.725 E15.88882
G1 X11.485 Y-83.191 E15.95132
G1 X11.871 Y-83.268 E15.96244
G1 X12.407 Y-83.329 E15.97769
G1 X12.818 Y-83.339 E15.98932
G1 X20.118 Y-83.34 E16.1957
G1 X20.827 Y-83.33 E16.21574
G1 X21.331 Y-83.283 E16.23005
G1 X21.82 Y-83.157 E16.24433
G1 X22.284 Y-82.956 E16.25862
G1 X22.71 Y-82.684 E16.27291
G1 X23.133 Y-82.301 E16.28905
G1 X23.23 Y-82.196 E16.29309
G1 X23.542 Y-81.799 E16.30736
G1 X23.788 Y-81.358 E16.32164
G1 X23.962 Y-80.883 E16.33594
G1 X24.056 Y-80.411 E16.34955
G1 X24.165 Y-79.515 E16.37506
G1 X24.534 Y-76.791 E16.45278
G1 X24.978 Y-74.102 E16.52983
G1 X25.496 Y-71.433 E16.60669
G1 X26.098 Y-68.739 E16.68473
G1 X26.767 Y-66.091 E16.76195
G1 X27.506 Y-63.487 E16.83847
G1 X27.825 Y-62.459 E16.8689
G1 X27.947 Y-62.044 E16.88113
G1 X28.051 Y-61.549 E16.89543
G1 X28.086 Y-60.905 E16.91366
G1 X28.087 Y-54.6 E17.09191
G1 X28.077 Y-53.899 E17.11173
G1 X28.03 Y-53.397 E17.12599
G1 X27.958 Y-53.073 E17.13537
G1 X27.771 Y-52.394 E17.15528
G1 X27.069 Y-49.69 E17.23426
G1 X26.453 Y-47.017 E17.31181
G1 X25.92 Y-44.34 E17.38898
G1 X25.462 Y-41.657 E17.46593
G1 X25.077 Y-38.952 E17.54317
G1 X24.77 Y-36.228 E17.62067
G1 X24.537 Y-33.474 E17.6988
G1 X24.385 Y-30.764 E17.77554
G1 X24.308 Y-28.011 E17.8534
G1 X24.31 Y-25.293 E17.93024
G1 X24.389 Y-22.529 E18.00841
G1 X24.527 Y-20.051 E18.07858
G1 X24.578 Y-19.311 E18.09955
G1 X24.592 Y-18.685 E18.11725
G1 X24.592 Y-7.851 E18.42354
G1 X24.578 Y-6.846 E18.45196
G1 X24.573 Y-6.704 E18.45597
G1 X24.538 Y-6.107 E18.47288
G1 X24.522 Y-5.927 E18.47799
G1 X24.45 Y-5.317 E18.49535
G1 X24.362 Y-4.744 E18.51174
G1 X24.255 Y-4.223 E18.52678
G1 X24.1 Y-3.585 E18.54534
G1 X23.94 Y-3.048 E18.56118
G1 X23.737 Y-2.44 E18.5793
G1 X22.843 Y-0.088 E18.65044
G1 X21.939 Y2.508 E18.72815
G1 X21.123 Y5.082 E18.80449
G1 X20.365 Y7.735 E18.8825
G1 X19.672 Y10.437 E18.96136
G1 X19.083 Y13.059 E19.03733
G1 X18.553 Y15.763 E19.11523
G1 X18.108 Y18.431 E19.1917
G1 X17.729 Y21.173 E19.26996
G1 X17.435 Y23.867 E19.34657
G1 X17.212 Y26.619 E19.42463
G1 X17.07 Y29.364 E19.50234
G1 X16.999 Y33.037 E19.6062
G1 X16.999 Y63.04 E20.45441
G1 X17.038 Y65.813 E20.53282
G1 X17.172 Y68.711 E20.61484
G1 X17.194 Y69.35 E20.63291
G1 X17.197 Y69.708 E20.64303
G1 X17.189 Y70.288 E20.65943
G1 X17.142 Y70.792 E20.67374
G1 X17.016 Y71.281 E20.68802
G1 X16.815 Y71.745 E20.70231
G1 X16.543 Y72.171 E20.7166
G1 X16.208 Y72.55 E20.7309
G1 X15.817 Y72.87 E20.74519
G1 X15.381 Y73.126 E20.75948
G1 X14.909 Y73.309 E20.77379
G1 X14.415 Y73.415 E20.78808
G1 X13.759 Y73.452 E20.80665
G1 X4.56 Y73.453 E21.06672
G1 X3.858 Y73.443 E21.08657
G1 X3.32 Y73.389 E21.10185
G1 X2.835 Y73.299 E21.1158
G1 X0.105 Y72.832 E21.1941
G1 X-2.591 Y72.448 E21.27109
G1 X-5.361 Y72.133 E21.3499
G1 X-7.321 Y71.967 E21.40551
G1 X-7.715 Y71.927 E21.41671
G1 X-8.213 Y71.836 E21.43102
G1 X-8.689 Y71.668 E21.44529
G1 X-9.134 Y71.427 E21.4596
G1 X-9.535 Y71.119 E21.47389
G1 X-9.883 Y70.752 E21.48819
G1 X-10.168 Y70.335 E21.50247
G1 X-10.384 Y69.878 E21.51676
G1 X-10.525 Y69.392 E21.53107
G1 X-10.591 Y68.836 E21.5469
G1 X-10.601 Y68.388 E21.55957
G1 X-10.591 Y67.706 E21.57885
G1 X-10.55 Y66.733 E21.60638
G1 X-10.489 Y65.655 E21.63691
G1 X-10.411 Y62.893 E21.71502
G1 X-10.401 Y61.513 E21.75404
G1 X-10.401 Y16.411 E23.02912
G1 X-10.39 Y15.694 E23.04939
G1 X-10.364 Y15.336 E23.05954
G1 X-10.26 Y14.524 E23.08269
G1 X-10.096 Y13.376 E23.11547
G1 X-9.79 Y10.689 E23.19193
G1 X-9.558 Y7.975 E23.26893
G1 X-9.4 Y5.225 E23.34681
G1 X-9.321 Y2.475 E23.42459
G1 X-9.319 Y-.244 E23.50145
M204 S4000
G1 F2400 E17.50145
;MESH:tcutter_w50mm_main.stl
G0 F1200 X-2.409 Y-17.482
G0 X-1.536 Y-18.124
G0 X1.215 Y-20.628
G0 X1.209 Y-24.297
G0 X0.387 Y-24.917
M204 S1800
;TYPE:WALL-INNER
G1 F2400 E23.50145
G1 F600 X0.681 Y-24.623 E23.51321
G1 X0.387 Y-24.623 E23.51565
G1 X-1.913 Y-24.623 E23.58067
G1 X-1.913 Y-25.539 E23.60657
G1 X-.323 Y-25.54 E23.65152
G1 X0.387 Y-25.124 E23.67478
G1 X0.387 Y-24.917 E23.68063
M204 S4000
G0 F1200 X1.244 Y-24.311
G0 X1.864 Y-23.674
G0 X10.187 Y-19.639
M204 S1800
G1 F600 X10.187 Y-16.246 E23.77656
G1 X4.787 Y-16.246 E23.92922
G1 X4.787 Y-19.639 E24.02515
G1 X1.587 Y-19.639 E24.11561
G1 X1.587 Y-17.539 E24.17498
G1 X-.809 Y-17.538 E24.24272
G1 X-1.096 Y-17.831 E24.25432
G1 X-1.384 Y-18.223 E24.26807
G1 X-1.612 Y-18.646 E24.28165
G1 X-1.776 Y-19.091 E24.29506
G1 X-1.877 Y-19.56 E24.30862
G1 X-1.913 Y-20.065 E24.32294
G1 X-1.913 Y-20.077 E24.32328
G1 X-1.913 Y-20.451 E24.33385
G1 X-1.9 Y-20.451 E24.33421
G1 X-.517 Y-20.451 E24.37331
G1 X1.387 Y-20.457 E24.42714
G1 X1.387 Y-23.435 E24.51133
G1 X1.387 Y-23.917 E24.52495
G1 X1.728 Y-23.576 E24.53229
G1 X1.865 Y-23.439 E24.53777
G1 X4.087 Y-23.44 E24.60059
G1 X4.088 Y-72.019 E25.97397
G1 X4.117 Y-72.314 E25.98235
G1 X4.199 Y-72.582 E25.99028
G1 X4.321 Y-72.81 E25.99759
G1 X4.504 Y-73.031 E26.0057
G1 X4.712 Y-73.201 E26.01329
G1 X4.959 Y-73.331 E26.02118
G1 X5.216 Y-73.409 E26.02878
G1 X5.516 Y-73.439 E26.0373
G1 X9.467 Y-73.438 E26.149
G1 X9.76 Y-73.409 E26.15732
G1 X10.028 Y-73.326 E26.16526
G1 X10.261 Y-73.202 E26.17272
G1 X10.479 Y-73.022 E26.18071
G1 X10.648 Y-72.816 E26.18824
G1 X10.782 Y-72.563 E26.19634
G1 X10.858 Y-72.312 E26.20375
G1 X10.887 Y-72.012 E26.21227
G1 X10.887 Y-23.439 E27.58548
G1 X13.109 Y-23.439 E27.6483
G1 X13.246 Y-23.576 E27.65378
G1 X13.587 Y-23.917 E27.66741
G1 X13.587 Y-23.435 E27.67475
G1 X13.587 Y-20.458 E27.75891
G1 X15.489 Y-20.452 E27.81269
G1 X16.68 Y-20.451 E27.84636
G1 X16.887 Y-20.451 E27.85221
G1 X16.879 Y-20.244 E27.85596
G1 X16.852 Y-19.566 E27.87514
G1 X16.749 Y-19.087 E27.88899
G1 X16.585 Y-18.642 E27.9024
G1 X16.357 Y-18.219 E27.91599
G1 X16.07 Y-17.83 E27.92965
G1 X15.784 Y-17.539 E27.94119
G1 X13.387 Y-17.539 E28.00895
G1 X13.387 Y-19.639 E28.06832
G1 X10.187 Y-19.639 E28.15879
M204 S4000
G0 F1200 X13.765 Y-24.297
G0 X14.587 Y-24.917
M204 S1800
G1 F600 X14.587 Y-25.124 E28.16464
G1 X15.296 Y-25.539 E28.18787
G1 X16.887 Y-25.539 E28.23285
G1 X16.887 Y-24.623 E28.25874
G1 X14.588 Y-24.623 E28.32374
G1 X14.292 Y-24.622 E28.33211
G1 X14.587 Y-24.917 E28.338
M204 S4000
G0 F1200 X13.765 Y-24.297
G0 X10.359 Y-19.467
G0 X10.587 Y-19.239
M204 S1800
;TYPE:WALL-OUTER
G1 F600 X10.587 Y-15.846 E28.43392
G1 X4.387 Y-15.846 E28.6092
G1 X4.387 Y-19.239 E28.70513
G1 X1.987 Y-19.239 E28.77298
G1 X1.987 Y-17.139 E28.83235
G1 X-.962 Y-17.138 E28.91572
G1 X-1.032 Y-17.195 E28.91827
G1 X-1.407 Y-17.577 E28.9334
G1 X-1.721 Y-18.005 E28.94841
G1 X-1.976 Y-18.478 E28.9636
G1 X-2.162 Y-18.982 E28.97879
G1 X-2.274 Y-19.504 E28.99388
G1 X-2.313 Y-20.063 E29.00973
G1 X-2.313 Y-20.851 E29.032
G1 X-.518 Y-20.851 E29.08275
G1 X0.987 Y-20.856 E29.1253
G1 X0.987 Y-24.223 E29.22049
G1 X-2.313 Y-24.223 E29.31378
G1 X-2.313 Y-25.939 E29.36229
G1 X-.209 Y-25.94 E29.42178
G1 X0.224 Y-25.672 E29.43617
G1 X0.787 Y-25.359 E29.45438
G1 X0.787 Y-25.083 E29.46219
G1 X2.031 Y-23.839 E29.51192
G1 X3.687 Y-23.84 E29.55874
G1 X3.688 Y-72.039 E30.92138
G1 X3.723 Y-72.391 E30.93138
G1 X3.829 Y-72.737 E30.94161
G1 X3.989 Y-73.035 E30.95117
G1 X4.221 Y-73.316 E30.96148
G1 X4.489 Y-73.536 E30.97128
G1 X4.809 Y-73.704 E30.9815
G1 X5.134 Y-73.803 E30.9911
G1 X5.497 Y-73.839 E31.00141
G1 X9.487 Y-73.838 E31.11422
G1 X9.838 Y-73.803 E31.12419
G1 X10.186 Y-73.696 E31.13448
G1 X10.483 Y-73.537 E31.14401
G1 X10.764 Y-73.305 E31.15431
G1 X10.982 Y-73.039 E31.16403
G1 X11.154 Y-72.715 E31.1744
G1 X11.252 Y-72.391 E31.18397
G1 X11.287 Y-72.03 E31.19422
G1 X11.287 Y-23.839 E32.55664
