;FLAVOR:Marlin
;TIME:4052
;Filament used: 4.90531m
;Layer height: 0.2
;MINX:-36.8
;MINY:-45.183
;MINZ:0.2
;MAXX:35.901
;MAXY:45.526
;MAXZ:60.2
;Generated with Cura_SteamEngine 4.10.0
M104 S220
M105
M109 S220
M82 ;absolute extrusion mode
G21        ;metric values
G90        ;absolute positioning
M107       ;start with the fan off
G28   ;move to endstops
G92 E0                  ;zero the extruded length
G1 F200 E3              ;extrude 3mm of feed stock
G92 E0                  ;zero the extruded length again
G1 F120
;Put printing message on LCD screen
M117 Printing...
G92 E0
G92 E0
G1 F2700 E-7
;LAYER_COUNT:301
;LAYER:0
M107
M204 S4000
G0 F2400 X8.047 Y-2.261 Z0.2
M204 S1800
;TYPE:SKIRT
G1 F2700 E0
G1 F1200 X9.08 Y0.295 E0.08619
G1 X10.164 Y2.771 E0.1707
G1 X11.338 Y5.259 E0.25671
G1 X12.56 Y7.671 E0.34124
G1 X13.856 Y10.059 E0.42619
G1 X15.245 Y12.453 E0.51272
G1 X16.652 Y14.727 E0.59633
G1 X18.17 Y17.033 E0.68264
G1 X19.723 Y19.251 E0.76729
G1 X21.373 Y21.474 E0.85385
G1 X23.04 Y23.59 E0.93807
G1 X24.788 Y25.686 E1.0234
G1 X26.589 Y27.723 E1.1084
G1 X28.453 Y29.718 E1.19377
G1 X30.376 Y31.662 E1.27926
G1 X32.318 Y33.515 E1.36318
G1 X34.062 Y35.087 E1.43658
G1 X34.392 Y35.391 E1.45061
G1 X34.747 Y35.769 E1.46682
G1 X35.007 Y36.096 E1.47988
G1 X35.296 Y36.548 E1.49666
G1 X35.532 Y37.054 E1.51411
G1 X35.713 Y37.559 E1.53089
G1 X35.834 Y38.183 E1.55076
G1 X35.89 Y38.829 E1.57103
G1 X35.9 Y39.305 E1.58592
G1 X35.901 Y41.269 E1.64732
G1 X35.893 Y41.958 E1.66886
G1 X35.847 Y42.492 E1.68562
G1 X35.722 Y43.014 E1.7024
G1 X35.521 Y43.511 E1.71916
G1 X35.248 Y43.973 E1.73594
G1 X34.909 Y44.389 E1.75272
G1 X34.513 Y44.75 E1.76947
G1 X34.068 Y45.048 E1.78621
G1 X33.583 Y45.277 E1.80298
G1 X33.069 Y45.431 E1.81976
G1 X32.393 Y45.515 E1.84106
G1 X31.882 Y45.526 E1.85704
G1 X31.167 Y45.516 E1.87939
G1 X30.461 Y45.436 E1.90161
G1 X29.362 Y45.2 E1.93675
G1 X26.703 Y44.665 E2.02155
G1 X24.005 Y44.2 E2.10714
G1 X21.298 Y43.812 E2.19264
G1 X18.581 Y43.501 E2.27814
G1 X15.863 Y43.267 E2.36343
G1 X13.138 Y43.111 E2.44877
G1 X10.438 Y43.032 E2.53322
G1 X8.891 Y43.021 E2.58159
G1 X1.463 Y43.02 E2.81382
G1 X-1.321 Y43.059 E2.90087
G1 X-4.043 Y43.174 E2.98605
G1 X-6.775 Y43.368 E3.07168
G1 X-9.456 Y43.633 E3.1559
G1 X-12.159 Y43.978 E3.2411
G1 X-14.899 Y44.408 E3.32781
G1 X-17.54 Y44.899 E3.4118
G1 X-19.754 Y45.376 E3.4826
G1 X-20.104 Y45.446 E3.49376
G1 X-20.704 Y45.514 E3.51264
G1 X-21.115 Y45.525 E3.5255
G1 X-28.438 Y45.526 E3.75445
G1 X-29.129 Y45.516 E3.77605
G1 X-29.663 Y45.468 E3.79281
G1 X-30.184 Y45.341 E3.80958
G1 X-30.681 Y45.139 E3.82635
G1 X-31.142 Y44.865 E3.84312
G1 X-31.655 Y44.429 E3.86417
G1 X-31.772 Y44.309 E3.86941
G1 X-32.116 Y43.898 E3.88617
G1 X-32.396 Y43.441 E3.90292
G1 X-32.605 Y42.947 E3.91969
G1 X-32.768 Y42.23 E3.94268
G1 X-32.875 Y41.349 E3.97043
G1 X-33.24 Y38.653 E4.05548
G1 X-33.686 Y35.95 E4.14114
G1 X-34.205 Y33.276 E4.2263
G1 X-34.794 Y30.641 E4.31071
G1 X-35.468 Y27.982 E4.39647
G1 X-36.217 Y25.338 E4.48239
G1 X-36.522 Y24.357 E4.51451
G1 X-36.644 Y23.942 E4.52803
G1 X-36.756 Y23.418 E4.54479
G1 X-36.798 Y22.703 E4.56718
G1 X-36.8 Y22.595 E4.57055
G1 X-36.8 Y16.376 E4.76499
G1 X-36.789 Y15.669 E4.7871
G1 X-36.74 Y15.135 E4.80386
G1 X-36.661 Y14.773 E4.81545
G1 X-36.466 Y14.062 E4.8385
G1 X-35.782 Y11.428 E4.92358
G1 X-35.168 Y8.761 E5.00914
G1 X-34.626 Y6.043 E5.09579
G1 X-34.175 Y3.404 E5.17949
G1 X-33.793 Y0.712 E5.2645
G1 X-33.486 Y-2.007 E5.35005
G1 X-33.253 Y-4.756 E5.4363
G1 X-33.103 Y-7.433 E5.52013
G1 X-33.026 Y-10.185 E5.6062
G1 X-33.028 Y-12.881 E5.69049
G1 X-33.107 Y-15.641 E5.77682
G1 X-33.224 Y-17.815 E5.84489
G1 X-33.291 Y-18.862 E5.87769
G1 X-33.304 Y-19.537 E5.89879
G1 X-33.305 Y-30.366 E6.23736
G1 X-33.29 Y-31.396 E6.26956
G1 X-33.284 Y-31.556 E6.27457
G1 X-33.25 Y-32.132 E6.29261
G1 X-33.232 Y-32.332 E6.29889
G1 X-33.159 Y-32.959 E6.31862
G1 X-33.066 Y-33.552 E6.33739
G1 X-32.952 Y-34.106 E6.35507
G1 X-32.799 Y-34.732 E6.37522
G1 X-32.631 Y-35.297 E6.39365
G1 X-32.419 Y-35.922 E6.41428
G1 X-32.209 Y-36.452 E6.43211
G1 X-31.928 Y-37.089 E6.45387
G1 X-31.668 Y-37.603 E6.47188
G1 X-31.363 Y-38.159 E6.49171
G1 X-31.082 Y-38.616 E6.50848
G1 X-30.704 Y-39.183 E6.52979
G1 X-30.291 Y-39.737 E6.55139
G1 X-29.938 Y-40.173 E6.56893
G1 X-29.593 Y-40.561 E6.58516
G1 X-29.24 Y-40.936 E6.60126
G1 X-29.104 Y-41.072 E6.60728
G1 X-28.704 Y-41.451 E6.62451
G1 X-28.183 Y-41.909 E6.64619
G1 X-27.683 Y-42.304 E6.66612
G1 X-27.217 Y-42.644 E6.68415
G1 X-26.648 Y-43.017 E6.70542
G1 X-26.178 Y-43.3 E6.72257
G1 X-25.68 Y-43.57 E6.74028
G1 X-25.056 Y-43.879 E6.76205
G1 X-24.488 Y-44.123 E6.78138
G1 X-23.932 Y-44.338 E6.80002
G1 X-23.385 Y-44.52 E6.81804
G1 X-22.741 Y-44.707 E6.83901
G1 X-22.125 Y-44.852 E6.85879
G1 X-21.548 Y-44.966 E6.87718
G1 X-20.988 Y-45.048 E6.89488
G1 X-20.483 Y-45.108 E6.91078
G1 X-19.819 Y-45.154 E6.93159
G1 X-18.954 Y-45.181 E6.95864
G1 X-18.845 Y-45.183 E6.96205
G1 X-13.098 Y-45.183 E7.14173
G1 X-12.103 Y-45.169 E7.17284
G1 X-11.944 Y-45.163 E7.17782
G1 X-11.361 Y-45.129 E7.19607
G1 X-11.161 Y-45.112 E7.20235
G1 X-10.603 Y-45.048 E7.21991
G1 X-9.924 Y-44.944 E7.24139
G1 X-9.4 Y-44.837 E7.25811
G1 X-8.74 Y-44.676 E7.27935
G1 X-8.187 Y-44.511 E7.29739
G1 X-7.553 Y-44.297 E7.31831
G1 X-7.023 Y-44.087 E7.33613
G1 X-6.386 Y-43.806 E7.3579
G1 X-5.872 Y-43.546 E7.37591
G1 X-5.329 Y-43.247 E7.39529
G1 X-4.767 Y-42.9 E7.41594
G1 X-4.274 Y-42.569 E7.4345
G1 X-3.764 Y-42.188 E7.45441
G1 X-3.296 Y-41.812 E7.47318
G1 X-2.922 Y-41.479 E7.48883
G1 X-2.541 Y-41.12 E7.5052
G1 X-2.403 Y-40.982 E7.5113
G1 X-2.024 Y-40.582 E7.52853
G1 X-1.567 Y-40.062 E7.55017
G1 X-1.245 Y-39.657 E7.56635
G1 X-.836 Y-39.101 E7.58793
G1 X-.524 Y-38.629 E7.60562
G1 X-.255 Y-38.193 E7.62163
G1 X0.073 Y-37.601 E7.64279
G1 X0.323 Y-37.108 E7.66008
G1 X0.6 Y-36.481 E7.68151
G1 X0.836 Y-35.875 E7.70184
G1 X1.116 Y-35.024 E7.72985
G1 X1.219 Y-34.664 E7.74155
G1 X1.37 Y-34.035 E7.76178
G1 X1.491 Y-33.426 E7.78119
G1 X1.585 Y-32.775 E7.80176
G1 X1.649 Y-32.183 E7.82037
G1 X1.693 Y-31.433 E7.84386
G1 X1.891 Y-28.715 E7.92906
G1 X2.166 Y-26.025 E8.0136
G1 X2.522 Y-23.285 E8.09999
G1 X2.946 Y-20.626 E8.18417
G1 X3.459 Y-17.904 E8.27077
G1 X4.025 Y-15.306 E8.3539
G1 X4.694 Y-12.601 E8.44102
G1 X5.419 Y-9.996 E8.52556
G1 X6.221 Y-7.396 E8.61063
G1 X7.1 Y-4.809 E8.69605
G1 X8.047 Y-2.261 E8.78103
M204 S4000
G0 F2400 X7.673 Y-2.12
M204 S1800
G1 F1200 X8.702 Y0.426 E8.86689
G1 X9.807 Y2.952 E8.95309
G1 X10.984 Y5.446 E9.03931
G1 X12.188 Y7.823 E9.12262
G1 X13.516 Y10.271 E9.20969
G1 X14.893 Y12.643 E9.29544
G1 X16.321 Y14.952 E9.38032
G1 X17.852 Y17.277 E9.46735
G1 X19.406 Y19.497 E9.55207
G1 X21.023 Y21.675 E9.63688
G1 X22.734 Y23.848 E9.72335
G1 X24.481 Y25.941 E9.80859
G1 X26.299 Y27.998 E9.89442
G1 X28.177 Y30.007 E9.9804
G1 X30.08 Y31.932 E10.06503
G1 X32.075 Y33.836 E10.15125
G1 X33.791 Y35.381 E10.22344
G1 X34.437 Y36.022 E10.25189
G1 X34.687 Y36.336 E10.26444
G1 X35.052 Y36.957 E10.28696
G1 X35.167 Y37.216 E10.29582
G1 X35.335 Y37.693 E10.31163
G1 X35.439 Y38.246 E10.32922
G1 X35.491 Y38.853 E10.34827
G1 X35.5 Y39.305 E10.36241
G1 X35.501 Y41.264 E10.42365
G1 X35.493 Y41.953 E10.44519
G1 X35.447 Y42.457 E10.46102
G1 X35.322 Y42.947 E10.47683
G1 X35.122 Y43.411 E10.49262
G1 X34.852 Y43.838 E10.50842
G1 X34.517 Y44.217 E10.52423
G1 X34.127 Y44.538 E10.54003
G1 X33.691 Y44.795 E10.55585
G1 X33.22 Y44.979 E10.57166
G1 X32.726 Y45.087 E10.58747
G1 X32.021 Y45.125 E10.60954
G1 X31.887 Y45.126 E10.61373
G1 X31.172 Y45.116 E10.63609
G1 X30.545 Y45.045 E10.65582
G1 X29.446 Y44.809 E10.69096
G1 X26.778 Y44.272 E10.77605
G1 X24.058 Y43.803 E10.86234
G1 X21.329 Y43.412 E10.94853
G1 X18.628 Y43.103 E11.03353
G1 X15.919 Y42.87 E11.11854
G1 X13.173 Y42.713 E11.20453
G1 X10.408 Y42.632 E11.29101
G1 X8.893 Y42.621 E11.33838
G1 X1.457 Y42.62 E11.57086
G1 X-1.342 Y42.66 E11.65838
G1 X-4.057 Y42.774 E11.74334
G1 X-6.803 Y42.969 E11.82941
G1 X-9.513 Y43.237 E11.91455
G1 X-12.235 Y43.584 E12.00034
G1 X-14.928 Y44.007 E12.08557
G1 X-17.626 Y44.508 E12.17136
G1 X-19.832 Y44.984 E12.24192
G1 X-20.182 Y45.054 E12.25308
G1 X-20.716 Y45.115 E12.26988
G1 X-21.115 Y45.125 E12.28236
G1 X-28.432 Y45.126 E12.51112
G1 X-29.123 Y45.116 E12.53273
G1 X-29.627 Y45.068 E12.54856
G1 X-30.116 Y44.943 E12.56434
G1 X-30.58 Y44.741 E12.58016
G1 X-31.006 Y44.469 E12.59596
G1 X-31.485 Y44.03 E12.61627
G1 X-31.808 Y43.641 E12.63208
G1 X-32.066 Y43.206 E12.64789
G1 X-32.253 Y42.736 E12.66371
G1 X-32.371 Y42.182 E12.68142
G1 X-32.478 Y41.301 E12.70916
G1 X-32.848 Y38.572 E12.79527
G1 X-33.29 Y35.892 E12.88019
G1 X-33.81 Y33.211 E12.96557
G1 X-34.41 Y30.527 E13.05155
G1 X-35.076 Y27.898 E13.13634
G1 X-35.836 Y25.215 E13.22353
G1 X-36.138 Y24.245 E13.25529
G1 X-36.26 Y23.83 E13.26881
G1 X-36.364 Y23.335 E13.28463
G1 X-36.399 Y22.691 E13.30479
G1 X-36.4 Y16.382 E13.50204
G1 X-36.389 Y15.675 E13.52415
G1 X-36.341 Y15.172 E13.53994
G1 X-36.275 Y14.879 E13.54933
G1 X-36.08 Y14.168 E13.57238
G1 X-35.391 Y11.513 E13.65814
G1 X-34.773 Y8.832 E13.74416
G1 X-34.241 Y6.161 E13.82931
G1 X-33.779 Y3.461 E13.91495
G1 X-33.399 Y0.776 E13.99973
G1 X-33.089 Y-1.962 E14.08588
G1 X-32.856 Y-4.71 E14.1721
G1 X-32.703 Y-7.424 E14.25709
G1 X-32.626 Y-10.173 E14.34307
G1 X-32.628 Y-12.892 E14.42808
G1 X-32.708 Y-15.685 E14.51543
G1 X-32.824 Y-17.836 E14.58278
G1 X-32.891 Y-18.876 E14.61536
G1 X-32.904 Y-19.541 E14.63616
G1 X-32.905 Y-30.361 E14.97444
G1 X-32.89 Y-31.391 E15.00665
G1 X-32.884 Y-31.533 E15.01109
G1 X-32.85 Y-32.109 E15.02913
G1 X-32.835 Y-32.286 E15.03468
G1 X-32.763 Y-32.902 E15.05407
G1 X-32.674 Y-33.471 E15.07208
G1 X-32.538 Y-34.125 E15.09297
G1 X-32.415 Y-34.618 E15.10885
G1 X-32.217 Y-35.28 E15.13045
G1 X-32.047 Y-35.775 E15.14682
G1 X-31.837 Y-36.305 E15.16464
G1 X-31.571 Y-36.909 E15.18527
G1 X-31.316 Y-37.414 E15.20296
G1 X-31.022 Y-37.949 E15.22205
G1 X-30.691 Y-38.485 E15.24174
G1 X-30.383 Y-38.945 E15.25905
G1 X-30.038 Y-39.41 E15.27715
G1 X-29.639 Y-39.907 E15.29708
G1 X-29.225 Y-40.371 E15.31652
G1 X-28.829 Y-40.782 E15.33437
G1 X-28.352 Y-41.232 E15.35487
G1 X-27.934 Y-41.596 E15.3722
G1 X-27.521 Y-41.924 E15.38869
G1 X-26.997 Y-42.31 E15.40903
G1 X-26.522 Y-42.623 E15.42682
G1 X-25.987 Y-42.948 E15.44639
G1 X-25.402 Y-43.264 E15.46718
G1 X-24.897 Y-43.512 E15.48477
G1 X-24.428 Y-43.715 E15.50074
G1 X-23.805 Y-43.958 E15.52165
G1 X-23.159 Y-44.172 E15.54293
G1 X-22.649 Y-44.318 E15.55951
G1 X-22.043 Y-44.461 E15.57898
G1 X-21.49 Y-44.57 E15.5966
G1 X-20.834 Y-44.665 E15.61732
G1 X-20.261 Y-44.726 E15.63534
G1 X-19.7 Y-44.759 E15.65291
G1 X-18.942 Y-44.782 E15.67662
G1 X-13.104 Y-44.783 E15.85914
G1 X-12.109 Y-44.769 E15.89025
G1 X-11.968 Y-44.764 E15.89466
G1 X-11.385 Y-44.73 E15.91292
G1 X-11.206 Y-44.714 E15.91854
G1 X-10.648 Y-44.65 E15.9361
G1 X-10.004 Y-44.552 E15.95647
G1 X-9.375 Y-44.422 E15.97655
G1 X-8.854 Y-44.292 E15.99334
G1 X-8.215 Y-44.1 E16.0142
G1 X-7.7 Y-43.925 E16.0312
G1 X-7.17 Y-43.715 E16.04903
G1 X-6.566 Y-43.449 E16.06966
G1 X-6.061 Y-43.194 E16.08735
G1 X-5.538 Y-42.907 E16.106
G1 X-5.065 Y-42.616 E16.12336
G1 X-4.512 Y-42.248 E16.14413
G1 X-4.079 Y-41.926 E16.161
G1 X-3.562 Y-41.513 E16.18169
G1 X-3.116 Y-41.114 E16.2004
G1 X-2.693 Y-40.707 E16.21875
G1 X-2.243 Y-40.23 E16.23925
G1 X-1.88 Y-39.813 E16.25654
G1 X-1.558 Y-39.408 E16.27271
G1 X-1.169 Y-38.881 E16.29319
G1 X-.857 Y-38.409 E16.31088
G1 X-.513 Y-37.841 E16.33164
G1 X-.233 Y-37.323 E16.35005
G1 X0.047 Y-36.753 E16.36991
G1 X0.263 Y-36.25 E16.38702
G1 X0.456 Y-35.75 E16.40378
G1 X0.733 Y-34.908 E16.43149
G1 X0.83 Y-34.571 E16.44245
G1 X0.981 Y-33.942 E16.46268
G1 X1.095 Y-33.368 E16.48098
G1 X1.188 Y-32.728 E16.50119
G1 X1.25 Y-32.159 E16.51909
G1 X1.291 Y-31.455 E16.54114
G1 X1.496 Y-28.647 E16.62916
G1 X1.77 Y-25.965 E16.71345
G1 X2.124 Y-23.242 E16.7993
G1 X2.551 Y-20.56 E16.88421
G1 X3.063 Y-17.843 E16.97065
G1 X3.646 Y-15.17 E17.05618
G1 X4.298 Y-12.535 E17.14105
G1 X5.038 Y-9.876 E17.22734
G1 X5.843 Y-7.267 E17.3127
G1 X6.732 Y-4.65 E17.39912
G1 X7.673 Y-2.12 E17.48351
M204 S4000
G1 F2700 E10.48351
;MESH:tcutter_w50mm_main.stl
G0 F2400 X-2.996 Y-15.389
G0 X-3.52 Y-16.101
G0 X-3.367 Y-16.74
M204 S1800
;TYPE:WALL-INNER
G1 F2700 E17.48351
G1 F1200 X-3.472 Y-16.648 E17.48787
G1 X-3.378 Y-16.749 E17.4879
G1 X-3.283 Y-16.85 E17.49222
G1 X-3.367 Y-16.74 E17.49229
M204 S4000
G0 F2400 X-4.736 Y-15.901
M204 S1800
G1 F1200 X-4.825 Y-15.877 E17.49517
G1 X-4.739 Y-15.908 E17.49518
G1 X-4.506 Y-15.993 E17.50293
G1 X-4.736 Y-15.901 E17.50298
M204 S4000
G0 F2400 X-5.391 Y-15.729
M204 S1800
G1 F1200 X-5.704 Y-15.688 E17.51285
G1 X-5.395 Y-15.747 E17.51306
G1 X-5.122 Y-15.8 E17.52175
G1 X-5.391 Y-15.729 E17.52194
M204 S4000
G0 F2400 X-5.761 Y-15.681
M204 S1800
G1 F1200 X-5.838 Y-15.671 E17.52437
G1 X-8 Y-15.671 E17.59196
G1 X-8 Y-15.679 E17.59221
G1 X-5.839 Y-15.68 E17.59364
G1 X-5.761 Y-15.681 E17.59368
M204 S4000
G0 F2400 X-4.931 Y-16.013
G0 X-3.768 Y-16.585
G0 X-2.791 Y-18.797
G0 X-2.806 Y-31.868
G0 X-3.1 Y-33.53
G0 X-3.681 Y-35.127
G0 X-4.52 Y-36.577
G0 X-5.61 Y-37.876
G0 X-6.899 Y-38.955
G0 X-8.359 Y-39.799
G0 X-9.949 Y-40.376
G0 X-11.608 Y-40.669
G0 X-19.991 Y-40.669
G0 X-21.648 Y-40.376
G0 X-23.238 Y-39.799
G0 X-24.699 Y-38.955
G0 X-25.994 Y-37.87
G0 X-27.077 Y-36.577
G0 X-27.922 Y-35.113
G0 X-28.497 Y-33.53
G0 X-28.791 Y-31.867
G0 X-28.811 Y-18.796
G0 X-28.407 Y-17.597
G0 X-27.333 Y-16.268
G0 X-26.146 Y-15.907
G0 X-24.172 Y-15.673
M204 S1800
G1 F1200 X-25.753 Y-15.671 E17.64311
G1 X-25.808 Y-15.678 E17.64484
G1 X-25.754 Y-15.678
G1 X-24.173 Y-15.682 E17.64586
G1 X-23.6 Y-15.681 E17.66377
G1 X-23.6 Y-15.673 E17.66402
G1 X-24.172 Y-15.673 E17.66442
M204 S4000
G0 F2400 X-26.203 Y-15.746
M204 S1800
G1 F1200 X-25.948 Y-15.696 E17.67254
G1 X-26.206 Y-15.73 E17.67272
G1 X-26.417 Y-15.787 E17.67955
G1 X-26.203 Y-15.746 E17.67965
M204 S4000
G0 F2400 X-27.028 Y-15.971
M204 S1800
G1 F1200 X-26.85 Y-15.905 E17.68559
G1 X-27.033 Y-15.955 E17.68569
G1 X-27.181 Y-16.027 E17.69082
G1 X-27.028 Y-15.971 E17.69088
M204 S4000
G0 F2400 X-27.527 Y-16.201
M204 S1800
G1 F1200 X-27.489 Y-16.177 E17.69228
G1 X-27.529 Y-16.196
G1 X-27.686 Y-16.303 E17.6982
G1 X-27.527 Y-16.201 E17.69821
M204 S4000
G0 F2400 X-28.407 Y-17.597
G0 X-28.811 Y-18.796
G0 X-28.791 Y-31.867
G0 X-28.497 Y-33.53
G0 X-27.916 Y-35.127
G0 X-27.077 Y-36.577
G0 X-25.994 Y-37.87
G0 X-24.699 Y-38.955
G0 X-23.238 Y-39.799
G0 X-21.648 Y-40.376
G0 X-19.991 Y-40.669
G0 X-11.608 Y-40.669
G0 X-9.949 Y-40.376
G0 X-8.359 Y-39.799
G0 X-6.899 Y-38.955
G0 X-5.603 Y-37.868
G0 X-4.52 Y-36.577
G0 X-3.675 Y-35.113
G0 X-3.1 Y-33.53
G0 X-2.806 Y-31.868
G0 X-2.749 Y-18.755
G0 X-2.819 Y-18.825
M204 S1800
;TYPE:WALL-OUTER
G1 F1200 X-2.825 Y-21.436 E17.77984
G1 X-2.808 Y-25.024 E17.89202
G1 X-2.808 Y-31.029 E18.07976
G1 X-2.845 Y-31.865 E18.10592
G1 X-2.955 Y-32.699 E18.13222
G1 X-3.138 Y-33.52 E18.15852
G1 X-3.39 Y-34.321 E18.18477
G1 X-3.712 Y-35.1 E18.21113
G1 X-4.1 Y-35.846 E18.23742
G1 X-4.552 Y-36.555 E18.2637
G1 X-5.065 Y-37.222 E18.29001
G1 X-5.632 Y-37.842 E18.31628
G1 X-6.253 Y-38.411 E18.34261
G1 X-6.522 Y-38.62 E18.35326
G1 X-6.921 Y-38.923 E18.36893
G1 X-7.63 Y-39.374 E18.3952
G1 X-8.375 Y-39.763 E18.42147
G1 X-9.153 Y-40.085 E18.4478
G1 X-9.955 Y-40.337 E18.47408
G1 X-10.776 Y-40.52 E18.50038
G1 X-11.114 Y-40.566 E18.51104
G1 X-11.611 Y-40.63 E18.52671
G1 X-12.446 Y-40.666 E18.55284
G1 X-19.151 Y-40.667 E18.76247
G1 X-19.988 Y-40.63 E18.78866
G1 X-20.821 Y-40.52 E18.81493
G1 X-21.642 Y-40.337 E18.84123
G1 X-22.443 Y-40.085 E18.86748
G1 X-23.222 Y-39.763 E18.89384
G1 X-23.968 Y-39.375 E18.92013
G1 X-24.677 Y-38.923 E18.94642
G1 X-25.345 Y-38.411 E18.97273
G1 X-25.965 Y-37.842 E18.99904
G1 X-26.533 Y-37.222 E19.02533
G1 X-26.742 Y-36.953 E19.03598
G1 X-27.045 Y-36.555 E19.05162
G1 X-27.496 Y-35.846 E19.07789
G1 X-27.885 Y-35.1 E19.10419
G1 X-28.207 Y-34.322 E19.13052
G1 X-28.459 Y-33.52 E19.1568
G1 X-28.642 Y-32.699 E19.1831
G1 X-28.688 Y-32.361 E19.19376
G1 X-28.752 Y-31.864 E19.20943
G1 X-28.789 Y-31.029 E19.23556
G1 X-28.79 Y-25.025 E19.42327
G1 X-28.774 Y-21.438 E19.53542
G1 X-28.78 Y-18.825 E19.61711
G1 X-28.735 Y-18.811 E19.61859
