;FLAVOR:Marlin
;TIME:4070
;Filament used: 4.90532m
;Layer height: 0.2
;MINX:-13.852
;MINY:-56.964
;MINZ:0.2
;MAXX:58.849
;MAXY:33.745
;MAXZ:60.2
;Generated with Cura_SteamEngine 4.10.0
M104 S220
M105
M109 S220
M82 ;absolute extrusion mode
G21        ;metric values
G90        ;absolute positioning
M107       ;start with the fan off
G28   ;move to endstops
G92 E0                  ;zero the extruded length
G1 F200 E3              ;extrude 3mm of feed stock
G92 E0                  ;zero the extruded length again
G1 F120
;Put printing message on LCD screen
M117 Printing...
G92 E0
G92 E0
G1 F2700 E-7
;LAYER_COUNT:301
;LAYER:0
M107
M204 S4000
G0 F2400 X-12.219 Y-3.035 Z0.2
M204 S1800
;TYPE:SKIRT
G1 F2700 E0
G1 F1200 X-11.69 Y-5.674 E0.08415
G1 X-11.227 Y-8.389 E0.17026
G1 X-10.845 Y-11.071 E0.25495
G1 X-10.539 Y-13.779 E0.34016
G1 X-10.308 Y-16.503 E0.42563
G1 X-10.156 Y-19.193 E0.50986
G1 X-10.079 Y-21.958 E0.59634
G1 X-10.081 Y-24.653 E0.6806
G1 X-10.16 Y-27.413 E0.76693
G1 X-10.274 Y-29.538 E0.83346
G1 X-10.341 Y-30.587 E0.86632
G1 X-10.356 Y-31.321 E0.88928
G1 X-10.357 Y-42.188 E1.22903
G1 X-10.343 Y-43.148 E1.25904
G1 X-10.337 Y-43.303 E1.26389
G1 X-10.303 Y-43.892 E1.28234
G1 X-10.286 Y-44.095 E1.28871
G1 X-10.222 Y-44.653 E1.30627
G1 X-10.117 Y-45.338 E1.32794
G1 X-10.004 Y-45.887 E1.34546
G1 X-9.85 Y-46.516 E1.36571
G1 X-9.68 Y-47.086 E1.3843
G1 X-9.471 Y-47.703 E1.40467
G1 X-9.261 Y-48.233 E1.42249
G1 X-8.982 Y-48.867 E1.44415
G1 X-8.72 Y-49.386 E1.46233
G1 X-8.442 Y-49.889 E1.48029
G1 X-8.012 Y-50.584 E1.50584
G1 X-7.763 Y-50.953 E1.51976
G1 X-7.332 Y-51.531 E1.5423
G1 X-6.987 Y-51.959 E1.55949
G1 X-6.652 Y-52.335 E1.57524
G1 X-6.294 Y-52.715 E1.59156
G1 X-6.156 Y-52.853 E1.59766
G1 X-5.756 Y-53.232 E1.61489
G1 X-5.235 Y-53.69 E1.63658
G1 X-4.735 Y-54.085 E1.6565
G1 X-4.271 Y-54.424 E1.67446
G1 X-3.789 Y-54.742 E1.69252
G1 X-3.233 Y-55.079 E1.71284
G1 X-2.738 Y-55.348 E1.73046
G1 X-2.114 Y-55.657 E1.75223
G1 X-1.604 Y-55.877 E1.76959
G1 X-1.004 Y-56.11 E1.78972
G1 X-.294 Y-56.343 E1.81308
G1 X0.153 Y-56.472 E1.82762
G1 X0.788 Y-56.625 E1.84805
G1 X1.4 Y-56.747 E1.86756
G1 X1.96 Y-56.829 E1.88525
G1 X2.645 Y-56.905 E1.9068
G1 X3.172 Y-56.936 E1.9233
G1 X4.026 Y-56.962 E1.95002
G1 X4.133 Y-56.964 E1.95336
G1 X9.528 Y-56.962 E2.12203
G1 X11.286 Y-56.925 E2.17701
G1 X11.785 Y-56.892 E2.19264
G1 X12.45 Y-56.814 E2.21358
G1 X12.965 Y-56.733 E2.22988
G1 X13.731 Y-56.573 E2.25434
G1 X14.094 Y-56.482 E2.26604
G1 X14.949 Y-56.228 E2.29393
G1 X15.375 Y-56.082 E2.30801
G1 X15.928 Y-55.864 E2.32659
G1 X16.551 Y-55.591 E2.34786
G1 X17.1 Y-55.315 E2.36707
G1 X17.58 Y-55.049 E2.38423
G1 X18.276 Y-54.619 E2.4098
G1 X18.644 Y-54.371 E2.42368
G1 X19.133 Y-54.008 E2.44272
G1 X19.652 Y-53.593 E2.46349
G1 X20.026 Y-53.26 E2.47915
G1 X20.407 Y-52.901 E2.49552
G1 X20.545 Y-52.763 E2.50162
G1 X20.924 Y-52.363 E2.51885
G1 X21.378 Y-51.846 E2.54036
G1 X21.771 Y-51.349 E2.56017
G1 X22.115 Y-50.877 E2.57843
G1 X22.496 Y-50.298 E2.6001
G1 X22.771 Y-49.839 E2.61683
G1 X23.04 Y-49.344 E2.63444
G1 X23.272 Y-48.886 E2.65049
G1 X23.548 Y-48.262 E2.67182
G1 X23.784 Y-47.656 E2.69216
G1 X24.062 Y-46.81 E2.72
G1 X24.167 Y-46.445 E2.73187
G1 X24.318 Y-45.816 E2.75209
G1 X24.44 Y-45.201 E2.7717
G1 X24.534 Y-44.547 E2.79235
G1 X24.597 Y-43.965 E2.81066
G1 X24.641 Y-43.221 E2.83396
G1 X24.838 Y-40.53 E2.91832
G1 X25.117 Y-37.783 E3.00464
G1 X25.473 Y-35.061 E3.09047
G1 X25.893 Y-32.417 E3.17417
G1 X26.407 Y-29.69 E3.26093
G1 X26.973 Y-27.092 E3.34406
G1 X27.637 Y-24.409 E3.43047
G1 X28.374 Y-21.757 E3.51653
G1 X29.172 Y-19.169 E3.6012
G1 X30.047 Y-16.594 E3.68623
G1 X30.994 Y-14.047 E3.77118
G1 X32.027 Y-11.491 E3.85737
G1 X33.117 Y-9.001 E3.94236
G1 X34.27 Y-6.554 E4.02693
G1 X35.508 Y-4.113 E4.1125
G1 X36.823 Y-1.688 E4.19874
G1 X38.152 Y0.602 E4.28152
G1 X39.615 Y2.967 E4.36847
G1 X41.116 Y5.248 E4.45384
G1 X42.669 Y7.466 E4.53849
G1 X44.319 Y9.689 E4.62504
G1 X45.969 Y11.784 E4.70842
G1 X47.751 Y13.921 E4.79541
G1 X49.534 Y15.938 E4.87958
G1 X51.399 Y17.934 E4.96499
G1 X53.321 Y19.877 E5.05043
G1 X55.282 Y21.748 E5.13517
G1 X57.015 Y23.31 E5.20811
G1 X57.344 Y23.614 E5.22212
G1 X57.708 Y24.004 E5.2388
G1 X57.879 Y24.217 E5.24734
G1 X58.183 Y24.659 E5.26411
G1 X58.486 Y25.29 E5.28599
G1 X58.665 Y25.795 E5.30274
G1 X58.78 Y26.381 E5.32141
G1 X58.838 Y27.045 E5.34225
G1 X58.848 Y27.524 E5.35723
G1 X58.849 Y29.488 E5.41863
G1 X58.841 Y30.177 E5.44018
G1 X58.795 Y30.711 E5.45693
G1 X58.67 Y31.233 E5.47372
G1 X58.469 Y31.73 E5.49048
G1 X58.196 Y32.192 E5.50725
G1 X57.857 Y32.608 E5.52403
G1 X57.461 Y32.969 E5.54079
G1 X57.016 Y33.267 E5.55753
G1 X56.531 Y33.496 E5.5743
G1 X56.017 Y33.65 E5.59107
G1 X55.341 Y33.734 E5.61237
G1 X54.83 Y33.745 E5.62835
G1 X54.115 Y33.735 E5.65071
G1 X53.409 Y33.655 E5.67292
G1 X52.31 Y33.419 E5.70806
G1 X49.651 Y32.884 E5.79286
G1 X46.953 Y32.419 E5.87846
G1 X44.246 Y32.031 E5.96396
G1 X41.529 Y31.72 E6.04946
G1 X38.811 Y31.486 E6.13475
G1 X36.086 Y31.33 E6.22008
G1 X33.386 Y31.251 E6.30453
G1 X31.903 Y31.24 E6.3509
G1 X24.395 Y31.24 E6.58563
G1 X21.615 Y31.279 E6.67256
G1 X18.886 Y31.395 E6.75796
G1 X16.157 Y31.589 E6.84349
G1 X13.48 Y31.854 E6.9276
G1 X10.741 Y32.204 E7.01393
G1 X8.063 Y32.625 E7.09868
G1 X5.384 Y33.123 E7.18387
G1 X3.215 Y33.591 E7.25325
G1 X2.846 Y33.665 E7.26501
G1 X2.244 Y33.733 E7.28395
G1 X1.833 Y33.744 E7.29681
G1 X-5.49 Y33.745 E7.52576
G1 X-6.181 Y33.735 E7.54736
G1 X-6.715 Y33.687 E7.56413
G1 X-7.236 Y33.56 E7.58089
G1 X-7.733 Y33.358 E7.59767
G1 X-8.194 Y33.084 E7.61443
G1 X-8.707 Y32.648 E7.63548
G1 X-8.824 Y32.528 E7.64072
G1 X-9.168 Y32.117 E7.65748
G1 X-9.448 Y31.66 E7.67423
G1 X-9.657 Y31.166 E7.691
G1 X-9.82 Y30.449 E7.71399
G1 X-9.927 Y29.568 E7.74174
G1 X-10.292 Y26.872 E7.8268
G1 X-10.736 Y24.181 E7.91207
G1 X-11.257 Y21.495 E7.99761
G1 X-11.846 Y18.86 E8.08202
G1 X-12.52 Y16.201 E8.16779
G1 X-13.269 Y13.557 E8.2537
G1 X-13.574 Y12.576 E8.28582
G1 X-13.696 Y12.161 E8.29935
G1 X-13.808 Y11.637 E8.3161
G1 X-13.85 Y10.922 E8.33849
G1 X-13.852 Y10.814 E8.34187
G1 X-13.852 Y4.595 E8.5363
G1 X-13.841 Y3.887 E8.55844
G1 X-13.792 Y3.353 E8.5752
G1 X-13.713 Y2.993 E8.58673
G1 X-13.532 Y2.332 E8.60815
G1 X-12.836 Y-.342 E8.69454
G1 X-12.219 Y-3.035 E8.78092
M204 S4000
G0 F2400 X-11.83 Y-2.939
M204 S1800
G1 F1200 X-11.286 Y-5.655 E8.86752
G1 X-10.835 Y-8.301 E8.95144
G1 X-10.451 Y-11.001 E9.0367
G1 X-10.141 Y-13.737 E9.12279
G1 X-9.909 Y-16.48 E9.20885
G1 X-9.756 Y-19.197 E9.29393
G1 X-9.679 Y-21.946 E9.37991
G1 X-9.681 Y-24.664 E9.46489
G1 X-9.761 Y-27.457 E9.55225
G1 X-9.874 Y-29.56 E9.61809
G1 X-9.941 Y-30.601 E9.65071
G1 X-9.956 Y-31.325 E9.67335
G1 X-9.957 Y-42.183 E10.01282
G1 X-9.943 Y-43.143 E10.04283
G1 X-9.938 Y-43.28 E10.04712
G1 X-9.904 Y-43.869 E10.06557
G1 X-9.888 Y-44.05 E10.07125
G1 X-9.824 Y-44.608 E10.08881
G1 X-9.725 Y-45.257 E10.10933
G1 X-9.59 Y-45.906 E10.13006
G1 X-9.467 Y-46.402 E10.14603
G1 X-9.297 Y-46.972 E10.16463
G1 X-9.099 Y-47.556 E10.18391
G1 X-8.889 Y-48.086 E10.20173
G1 X-8.625 Y-48.687 E10.22226
G1 X-8.367 Y-49.197 E10.24013
G1 X-8.102 Y-49.679 E10.25732
G1 X-7.724 Y-50.292 E10.27984
G1 X-7.442 Y-50.715 E10.29573
G1 X-7.069 Y-51.217 E10.31529
G1 X-6.688 Y-51.693 E10.33435
G1 X-6.288 Y-52.14 E10.3531
G1 X-5.881 Y-52.563 E10.37145
G1 X-5.404 Y-53.013 E10.39196
G1 X-4.986 Y-53.377 E10.40929
G1 X-4.573 Y-53.705 E10.42577
G1 X-4.05 Y-54.09 E10.44608
G1 X-3.568 Y-54.408 E10.46413
G1 X-3.042 Y-54.728 E10.48338
G1 X-2.547 Y-54.997 E10.50099
G1 X-1.955 Y-55.289 E10.52163
G1 X-1.363 Y-55.543 E10.54177
G1 X-.879 Y-55.73 E10.55799
G1 X-.178 Y-55.96 E10.58106
G1 X0.246 Y-56.083 E10.59486
G1 X0.881 Y-56.236 E10.61528
G1 X1.458 Y-56.351 E10.63368
G1 X2.108 Y-56.445 E10.65421
G1 X2.668 Y-56.505 E10.67182
G1 X3.289 Y-56.541 E10.69127
G1 X4.038 Y-56.563 E10.7147
G1 X9.453 Y-56.563 E10.88399
G1 X11.277 Y-56.525 E10.94103
G1 X11.739 Y-56.495 E10.95551
G1 X12.393 Y-56.418 E10.9761
G1 X12.883 Y-56.341 E10.9916
G1 X13.649 Y-56.181 E11.01607
G1 X13.98 Y-56.099 E11.02673
G1 X14.835 Y-55.845 E11.05462
G1 X15.229 Y-55.71 E11.06764
G1 X15.782 Y-55.492 E11.08622
G1 X16.372 Y-55.233 E11.10637
G1 X16.91 Y-54.964 E11.12517
G1 X17.37 Y-54.709 E11.14162
G1 X18.057 Y-54.284 E11.16687
G1 X18.405 Y-54.049 E11.18
G1 X18.964 Y-53.633 E11.20179
G1 X19.386 Y-53.294 E11.21871
G1 X19.832 Y-52.895 E11.23742
G1 X20.255 Y-52.488 E11.25577
G1 X20.634 Y-52.088 E11.273
G1 X21.065 Y-51.598 E11.2934
G1 X21.45 Y-51.11 E11.31284
G1 X21.781 Y-50.657 E11.33038
G1 X22.095 Y-50.182 E11.34818
G1 X22.42 Y-49.648 E11.36772
G1 X22.689 Y-49.153 E11.38534
G1 X22.995 Y-48.534 E11.40692
G1 X23.211 Y-48.031 E11.42404
G1 X23.404 Y-47.531 E11.4408
G1 X23.68 Y-46.693 E11.46838
G1 X23.778 Y-46.352 E11.47947
G1 X23.929 Y-45.723 E11.4997
G1 X24.044 Y-45.143 E11.51818
G1 X24.137 Y-44.5 E11.53849
G1 X24.197 Y-43.941 E11.55607
G1 X24.238 Y-43.242 E11.57796
G1 X24.438 Y-40.511 E11.66358
G1 X24.721 Y-37.724 E11.75116
G1 X25.074 Y-35.023 E11.83632
G1 X25.499 Y-32.347 E11.92103
G1 X26.011 Y-29.629 E12.00751
G1 X26.594 Y-26.956 E12.09304
G1 X27.248 Y-24.312 E12.1782
G1 X27.982 Y-21.67 E12.26392
G1 X28.79 Y-19.052 E12.34958
G1 X29.681 Y-16.431 E12.43613
G1 X30.62 Y-13.905 E12.52039
G1 X31.649 Y-11.36 E12.60621
G1 X32.76 Y-8.82 E12.69289
G1 X33.916 Y-6.368 E12.77764
G1 X35.157 Y-3.92 E12.86345
G1 X36.46 Y-1.517 E12.94891
G1 X37.826 Y0.836 E13.03398
G1 X39.274 Y3.177 E13.12004
G1 X40.798 Y5.492 E13.20669
G1 X42.352 Y7.712 E13.29141
G1 X43.969 Y9.89 E13.37622
G1 X45.669 Y12.049 E13.46214
G1 X47.429 Y14.16 E13.54806
G1 X49.244 Y16.213 E13.63374
G1 X51.123 Y18.223 E13.71976
G1 X53.026 Y20.147 E13.80437
G1 X55.02 Y22.051 E13.89057
G1 X56.744 Y23.604 E13.96311
G1 X57.396 Y24.255 E13.99192
G1 X57.567 Y24.468 E14.00046
G1 X57.852 Y24.886 E14.01627
G1 X58.12 Y25.451 E14.03582
G1 X58.287 Y25.929 E14.05165
G1 X58.385 Y26.445 E14.06808
G1 X58.439 Y27.07 E14.08769
G1 X58.448 Y27.524 E14.10189
G1 X58.449 Y29.483 E14.16313
G1 X58.441 Y30.172 E14.18467
G1 X58.395 Y30.676 E14.2005
G1 X58.27 Y31.166 E14.21631
G1 X58.07 Y31.63 E14.2321
G1 X57.8 Y32.057 E14.2479
G1 X57.465 Y32.436 E14.26371
G1 X57.075 Y32.757 E14.27951
G1 X56.639 Y33.014 E14.29533
G1 X56.168 Y33.198 E14.31114
G1 X55.674 Y33.306 E14.32695
G1 X54.969 Y33.344 E14.34902
G1 X54.835 Y33.345 E14.35321
G1 X54.12 Y33.335 E14.37557
G1 X53.493 Y33.264 E14.3953
G1 X52.394 Y33.028 E14.43044
G1 X49.726 Y32.491 E14.51553
G1 X47.006 Y32.022 E14.60182
G1 X44.277 Y31.631 E14.68801
G1 X41.576 Y31.322 E14.77301
G1 X38.867 Y31.089 E14.85802
G1 X36.121 Y30.932 E14.94401
G1 X33.356 Y30.851 E15.03049
G1 X31.906 Y30.84 E15.07583
G1 X24.389 Y30.84 E15.31084
G1 X21.592 Y30.88 E15.3983
G1 X18.875 Y30.995 E15.48332
G1 X16.129 Y31.19 E15.56939
G1 X13.423 Y31.458 E15.65441
G1 X10.7 Y31.806 E15.74023
G1 X7.999 Y32.231 E15.82572
G1 X5.299 Y32.733 E15.91158
G1 X3.136 Y33.199 E15.98075
G1 X2.767 Y33.273 E15.99252
G1 X2.232 Y33.334 E16.00935
G1 X1.833 Y33.344 E16.02183
G1 X-5.484 Y33.345 E16.2506
G1 X-6.175 Y33.335 E16.2722
G1 X-6.679 Y33.287 E16.28803
G1 X-7.168 Y33.162 E16.30381
G1 X-7.632 Y32.96 E16.31963
G1 X-8.058 Y32.688 E16.33543
G1 X-8.537 Y32.249 E16.35575
G1 X-8.86 Y31.86 E16.37156
G1 X-9.118 Y31.425 E16.38737
G1 X-9.305 Y30.955 E16.40318
G1 X-9.423 Y30.401 E16.42089
G1 X-9.53 Y29.52 E16.44864
G1 X-9.9 Y26.791 E16.53474
G1 X-10.342 Y24.111 E16.61966
G1 X-10.862 Y21.43 E16.70504
G1 X-11.462 Y18.746 E16.79103
G1 X-12.128 Y16.117 E16.87582
G1 X-12.888 Y13.434 E16.963
G1 X-13.19 Y12.464 E16.99476
G1 X-13.312 Y12.049 E17.00829
G1 X-13.416 Y11.554 E17.0241
G1 X-13.451 Y10.91 E17.04427
G1 X-13.452 Y4.601 E17.24151
G1 X-13.441 Y3.893 E17.26365
G1 X-13.393 Y3.39 E17.27945
G1 X-13.328 Y3.099 E17.28877
G1 X-13.136 Y2.397 E17.31153
G1 X-12.445 Y-.258 E17.3973
G1 X-11.83 Y-2.939 E17.4833
M204 S4000
G1 F2700 E10.4833
;MESH:tcutter_w50mm_main.stl
G0 F2400 X-9.638 Y3.279
G0 X-9.638 Y4.558
G0 X-8.852 Y4.544
M204 S1800
;TYPE:WALL-INNER
G1 F2700 E17.4833
G1 F1200 X-8.852 Y10.544 E17.67088
G1 X-9.652 Y10.544 E17.69589
G1 X-9.652 Y4.544 E17.88348
G1 X-8.852 Y4.544 E17.90849
M204 S4000
G0 F2400 X-8.452 Y4.144
M204 S1800
;TYPE:WALL-OUTER
G1 F1200 X-8.452 Y10.944 E18.12109
G1 X-10.052 Y10.944 E18.17111
G1 X-10.052 Y4.144 E18.38371
G1 X-8.452 Y4.144 E18.43374
M204 S4000
G0 F2400 X-8.452 Y4.344
G0 X-9.083 Y4.775
M204 S1800
;TYPE:SKIN
G1 F1200 X-9.224 Y4.917 E18.44025
G1 X-9.251 Y7.153 E18.51305
G1 X-9.251 Y9.981 E18.60511
G1 X-9.312 Y10.203 E18.61261
M204 S4000
G0 F2400 X-9.252 Y10.059
G1 F2700 E11.61261
G0 F2400 X-7.587 Y10.53
G0 X-5.832 Y10.53
G0 X1.148 Y26.64
M204 S1800
;TYPE:WALL-INNER
G1 F2700 E18.61261
G1 F1200 X1.148 Y29.144 E18.6909
G1 X-5.052 Y29.145 E18.88474
G1 X-5.252 Y29.145 E18.89099
G1 X-5.252 Y28.945 E18.89504
G1 X-5.252 Y-3.056 E19.89553
G1 X0.049 Y-3.057 E20.06127
G1 X0.249 Y-3.057 E20.06752
G1 X0.249 Y-2.857 E20.07157
G1 X0.248 Y23.089 E20.88276
G1 X0.305 Y23.729 E20.90285
G1 X0.484 Y24.391 E20.92429
G1 X0.776 Y25.01 E20.94569
G1 X1.173 Y25.572 E20.9672
G1 X1.667 Y26.056 E20.98882
G1 X1.962 Y26.258 E21
G1 X2.235 Y26.445 E21.01034
G1 X2.668 Y26.64 E21.02519
G1 X2.235 Y26.64 E21.02824
G1 X1.904 Y26.64 E21.03606
G1 X1.148 Y26.64 E21.05969
M204 S4000
G0 F2400 X0.843 Y23.427
G0 X0.649 Y-3.257
M204 S1800
G1 F1200 X0.648 Y23.071 E21.88283
G1 X0.7 Y23.658 E21.90125
G1 X0.861 Y24.252 E21.92049
G1 X1.123 Y24.808 E21.93971
G1 X1.479 Y25.312 E21.959
G1 X1.922 Y25.746 E21.97839
G1 X2.432 Y26.095 E21.99771
G1 X2.993 Y26.348 E22.01695
G1 X3.592 Y26.499 E22.03626
G1 X4.123 Y26.543 E22.05292
G1 X54.113 Y26.544 E23.61584
G1 X54.394 Y26.613 E23.62488
G1 X54.444 Y26.664 E23.62712
G1 X54.581 Y26.804 E23.63324
G1 X54.644 Y27.038 E23.64082
G1 X54.581 Y27.038
G1 X54.384 Y27.038 E23.6458
G1 X35.281 Y27.037 E24.24305
G1 X31.862 Y27.04 E24.34994
G1 X1.548 Y27.04 E25.29769
G1 X1.548 Y29.544 E25.37598
G1 X-5.452 Y29.545 E25.59483
G1 X-5.652 Y29.545 E25.60109
G1 X-5.652 Y29.345 E25.60513
G1 X-5.652 Y-3.456 E26.63064
G1 X0.449 Y-3.457 E26.82139
G1 X0.649 Y-3.457 E26.82764
G1 X0.649 Y-3.257 E26.83169
M204 S4000
G0 F2400 X1.049 Y-3.657
M204 S1800
;TYPE:WALL-OUTER
G1 F1200 X1.048 Y23.053 E27.66676
G1 X1.095 Y23.587 E27.68352
G1 X1.238 Y24.113 E27.70057
G1 X1.47 Y24.606 E27.7176
G1 X1.785 Y25.052 E27.73467
G1 X2.177 Y25.436 E27.75183
G1 X2.629 Y25.745 E27.76895
G1 X3.125 Y25.969 E27.78596
G1 X3.658 Y26.103 E27.80314
G1 X4.14 Y26.143 E27.81826
G1 X54.139 Y26.144 E29.38146
G1 X54.39 Y26.179 E29.38938
G1 X54.595 Y26.263 E29.39631
G1 X54.78 Y26.406 E29.40362
G1 X54.933 Y26.607 E29.41152
G1 X55.016 Y26.811 E29.4184
G1 X55.048 Y27.044 E29.42576
G1 X55.049 Y29.745 E29.5102
G1 X55.049 Y29.945 E29.51645
G1 X54.849 Y29.945 E29.5205
G1 X54.348 Y29.944 E29.53617
G1 X54.348 Y27.438 E29.61452
G1 X35.281 Y27.437 E30.21064
G1 X31.862 Y27.44 E30.31753
G1 X1.948 Y27.44 E31.25278
G1 X1.948 Y29.944 E31.33106
G1 X-5.852 Y29.945 E31.57493
G1 X-6.052 Y29.945 E31.58118
G1 X-6.052 Y29.745 E31.58523
G1 X-6.052 Y-3.856 E32.63575
G1 X0.849 Y-3.857 E32.8515
G1 X1.049 Y-3.857 E32.85776
G1 X1.049 Y-3.657 E32.86181
M204 S4000
G0 F2400 X1.049 Y-3.457
G0 X0.749 Y-3.458
G0 X-.141 Y-2.667
M204 S1800
;TYPE:SKIN
G1 F1200 X-.142 Y23.106 E33.66759
G1 X-0.081 Y23.798 E33.68931
G1 X0.117 Y24.526 E33.71289
G1 X0.438 Y25.207 E33.73643
G1 X0.875 Y25.826 E33.76012
G1 X1.309 Y26.25 E33.77909
G1 X0.758 Y26.25 E33.79632
G1 X0.758 Y28.754 E33.8746
G1 X-4.862 Y28.755 E34.05031
G1 X-4.862 Y-2.666 E35.03267
G1 X-.141 Y-2.667 E35.18027
M204 S4000
G0 F2400 X-.789 Y-2.486
M204 S1800
G1 F1200 X-.321 Y-2.018 E35.20096
M204 S4000
G0 F2400 X-.321 Y-1.452
M204 S1800
G1 F1200 X-1.354 Y-2.486 E35.24666
M204 S4000
G0 F2400 X-1.92 Y-2.486
M204 S1800
G1 F1200 X-.321 Y-.886 E35.31738
M204 S4000
G0 F2400 X-.321 Y-.321
M204 S1800
G1 F1200 X-2.486 Y-2.486 E35.41311
M204 S4000
G0 F2400 X-3.051 Y-2.486
M204 S1800
G1 F1200 X-.321 Y0.244 E35.53381
M204 S4000
G0 F2400 X-.321 Y0.81
M204 S1800
G1 F1200 X-3.617 Y-2.486 E35.67954
M204 S4000
G0 F2400 X-4.183 Y-2.486
M204 S1800
G1 F1200 X-.321 Y1.376 E35.8503
M204 S4000
G0 F2400 X-.321 Y1.941
M204 S1800
G1 F1200 X-4.681 Y-2.419 E36.04308
M204 S4000
