;FLAVOR:Marlin
;TIME:1550
;Filament used: 0.733248m
;Layer height: 0.1
;MINX:-14.3
;MINY:-31.85
;MINZ:0.1
;MAXX:14.298
;MAXY:31.85
;MAXZ:3
;Generated with Cura_SteamEngine 4.10.0
M104 S205
M105
M109 S205
M82 ;absolute extrusion mode
G21        ;metric values
G90        ;absolute positioning
M107       ;start with the fan off
G28   ;move to endstops

;Z-Offset Reset und dann Z +0,1 für PLA
MacroZOffset0
MacroZOffsetPlus0100

G92 E0                  ;zero the extruded length
G1 F200 E3              ;extrude 3mm of feed stock
G92 E0                  ;zero the extruded length again
G1 F120
;Put printing message on LCD screen
M117 Printing...
G92 E0
G92 E0
G1 F2400 E-6
;LAYER_COUNT:30
;LAYER:0
M107
M204 S4000
G0 F1200 X-14.1 Y19.507 Z0.1
M204 S1800
;TYPE:SKIRT
G1 F2400 E0
G1 F600 X-14.1 Y-25.594 E0.70503
G1 X-14.09 Y-26.295 E0.71599
G1 X-14.042 Y-26.83 E0.72439
G1 X-13.916 Y-27.351 E0.73277
G1 X-13.713 Y-27.847 E0.74114
G1 X-13.439 Y-28.308 E0.74953
G1 X-12.996 Y-28.837 E0.76031
G1 X-12.714 Y-29.128 E0.76665
G1 X-11.486 Y-30.354 E0.79377
G1 X-11 Y-30.825 E0.80435
G1 X-10.589 Y-31.169 E0.81273
G1 X-10.13 Y-31.447 E0.82112
G1 X-9.636 Y-31.655 E0.8295
G1 X-9.116 Y-31.786 E0.83788
G1 X-8.617 Y-31.838 E0.84572
G1 X-7.982 Y-31.85 E0.85565
G1 X-1.256 Y-31.85 E0.9608
G1 X-.555 Y-31.84 E0.97175
G1 X0.052 Y-31.779 E0.98129
G1 X0.484 Y-31.699 E0.98816
G1 X2.57 Y-31.281 E1.02142
G1 X5.224 Y-30.827 E1.06351
G1 X7.927 Y-30.443 E1.10619
G1 X8.956 Y-30.31 E1.1224
G1 X9.482 Y-30.202 E1.1308
G1 X9.985 Y-30.017 E1.13918
G1 X10.455 Y-29.759 E1.14756
G1 X10.943 Y-29.379 E1.15723
G1 X11.325 Y-29.016 E1.16546
G1 X12.603 Y-27.739 E1.19371
G1 X13.061 Y-27.267 E1.20399
G1 X13.404 Y-26.855 E1.21237
G1 X13.683 Y-26.397 E1.22075
G1 X13.891 Y-25.903 E1.22913
G1 X14.055 Y-25.155 E1.2411
G1 X14.095 Y-24.641 E1.24916
G1 X14.1 Y-24.232 E1.25555
G1 X14.1 Y21.031 E1.96312
G1 X14.139 Y23.816 E2.00666
G1 X14.273 Y26.694 E2.0517
G1 X14.295 Y27.342 E2.06183
G1 X14.298 Y27.711 E2.0676
G1 X14.29 Y28.291 E2.07667
G1 X14.242 Y28.825 E2.08505
G1 X14.116 Y29.346 E2.09343
G1 X13.914 Y29.843 E2.10181
G1 X13.64 Y30.304 E2.1102
G1 X13.301 Y30.719 E2.11857
G1 X12.904 Y31.08 E2.12696
G1 X12.458 Y31.377 E2.13534
G1 X11.972 Y31.605 E2.14373
G1 X11.458 Y31.758 E2.15211
G1 X10.791 Y31.84 E2.16262
G1 X10.37 Y31.85 E2.1692
G1 X1.256 Y31.85 E2.31168
G1 X0.554 Y31.84 E2.32265
G1 X-0.052 Y31.779 E2.33217
G1 X-.538 Y31.689 E2.3399
G1 X-3.241 Y31.226 E2.38277
G1 X-5.96 Y30.839 E2.4257
G1 X-8.668 Y30.532 E2.4683
G1 X-10.661 Y30.362 E2.49957
G1 X-11.055 Y30.322 E2.50576
G1 X-11.583 Y30.228 E2.51415
G1 X-12.091 Y30.057 E2.52252
G1 X-12.568 Y29.812 E2.53091
G1 X-13.004 Y29.499 E2.5393
G1 X-13.388 Y29.125 E2.54768
G1 X-13.712 Y28.698 E2.55606
G1 X-13.969 Y28.227 E2.56444
G1 X-14.154 Y27.724 E2.57282
G1 X-14.262 Y27.198 E2.58122
G1 X-14.298 Y26.537 E2.59156
G1 X-14.3 Y26.379 E2.59403
G1 X-14.287 Y25.596 E2.60628
G1 X-14.248 Y24.707 E2.62019
G1 X-14.188 Y23.653 E2.63669
G1 X-14.109 Y20.853 E2.68048
G1 X-14.1 Y19.507 E2.70152
M204 S4000
G0 F1200 X-13.7 Y19.51
M204 S1800
G1 F600 X-13.7 Y-25.589 E3.40652
G1 X-13.69 Y-26.29 E3.41748
G1 X-13.643 Y-26.793 E3.42537
G1 X-13.517 Y-27.283 E3.43328
G1 X-13.315 Y-27.746 E3.44118
G1 X-13.043 Y-28.173 E3.44909
G1 X-12.702 Y-28.566 E3.45723
G1 X-12.431 Y-28.845 E3.46331
G1 X-11.208 Y-30.067 E3.49033
G1 X-10.722 Y-30.538 E3.50091
G1 X-10.332 Y-30.86 E3.50882
G1 X-9.897 Y-31.117 E3.51672
G1 X-9.426 Y-31.302 E3.52463
G1 X-8.932 Y-31.41 E3.53253
G1 X-8.386 Y-31.445 E3.54109
G1 X-7.977 Y-31.45 E3.54748
G1 X-1.261 Y-31.45 E3.65247
G1 X-.56 Y-31.44 E3.66343
G1 X-0.021 Y-31.386 E3.67189
G1 X0.405 Y-31.307 E3.67867
G1 X2.489 Y-30.889 E3.71189
G1 X5.172 Y-30.43 E3.75444
G1 X7.845 Y-30.051 E3.79665
G1 X8.905 Y-29.914 E3.81335
G1 X9.4 Y-29.809 E3.82126
G1 X9.872 Y-29.629 E3.82916
G1 X10.31 Y-29.376 E3.83707
G1 X10.823 Y-28.945 E3.84754
G1 X11.073 Y-28.703 E3.85298
G1 X12.316 Y-27.46 E3.88046
G1 X12.774 Y-26.988 E3.89074
G1 X13.096 Y-26.599 E3.89864
G1 X13.353 Y-26.164 E3.90653
G1 X13.538 Y-25.693 E3.91444
G1 X13.658 Y-25.111 E3.92373
G1 X13.7 Y-24.227 E3.93757
G1 X13.7 Y21.037 E4.64515
G1 X13.739 Y23.81 E4.6885
G1 X13.873 Y26.708 E4.73385
G1 X13.895 Y27.347 E4.74385
G1 X13.898 Y27.705 E4.74944
G1 X13.89 Y28.285 E4.75851
G1 X13.843 Y28.789 E4.76642
G1 X13.717 Y29.278 E4.77432
G1 X13.516 Y29.742 E4.78222
G1 X13.244 Y30.168 E4.79012
G1 X12.909 Y30.547 E4.79803
G1 X12.518 Y30.867 E4.80593
G1 X12.082 Y31.123 E4.81383
G1 X11.61 Y31.306 E4.82174
G1 X11.116 Y31.412 E4.82964
G1 X10.46 Y31.449 E4.83991
G1 X1.261 Y31.45 E4.98372
G1 X0.559 Y31.44 E4.99469
G1 X0.021 Y31.386 E5.00314
G1 X-.464 Y31.296 E5.01085
G1 X-3.194 Y30.829 E5.05415
G1 X-5.89 Y30.445 E5.09672
G1 X-8.66 Y30.13 E5.1403
G1 X-10.62 Y29.964 E5.17105
G1 X-11.014 Y29.924 E5.17724
G1 X-11.512 Y29.833 E5.18515
G1 X-11.988 Y29.665 E5.19304
G1 X-12.433 Y29.424 E5.20096
G1 X-12.834 Y29.116 E5.20886
G1 X-13.182 Y28.749 E5.21677
G1 X-13.467 Y28.332 E5.22466
G1 X-13.683 Y27.875 E5.23256
G1 X-13.824 Y27.389 E5.24047
G1 X-13.89 Y26.833 E5.24923
G1 X-13.9 Y26.385 E5.25623
G1 X-13.89 Y25.703 E5.26689
G1 X-13.849 Y24.73 E5.28212
G1 X-13.788 Y23.652 E5.299
G1 X-13.71 Y20.89 E5.34219
G1 X-13.7 Y19.51 E5.36376
M204 S4000
G1 F2400 E-0.63624
;MESH:tcutter_w50mm_blade.stl
G0 F1200 X-11.353 Y27.403
G0 X-1.165 Y27.714
G0 X-.27 Y27.739
G0 X0.687 Y27.762
G0 X2.206 Y26.25
G0 X2.449 Y2.25
M204 S1800
;TYPE:WALL-INNER
G1 F2400 E5.36376
G1 F600 X2.308 Y2.109 E5.36688
G1 X1.089 Y0.891 E5.39382
G1 X0.948 Y0.75 E5.39693
G1 X1.089 Y0.609 E5.39895
G1 X2.308 Y-.609 E5.42589
G1 X2.449 Y-.75 E5.429
G1 X2.308 Y-.891 E5.43102
G1 X1.089 Y-2.109 E5.45795
G1 X0.948 Y-2.25 E5.46107
G1 X1.089 Y-2.391 E5.46308
G1 X2.308 Y-3.609 E5.49002
G1 X2.449 Y-3.75 E5.49314
G1 X2.308 Y-3.891 E5.49515
G1 X1.089 Y-5.109 E5.52209
G1 X0.948 Y-5.25 E5.52521
G1 X1.089 Y-5.391 E5.52722
G1 X2.308 Y-6.609 E5.55416
G1 X2.449 Y-6.75 E5.55727
G1 X2.308 Y-6.891 E5.55929
G1 X1.089 Y-8.109 E5.58622
G1 X0.948 Y-8.25 E5.58934
G1 X1.089 Y-8.391 E5.59135
G1 X2.308 Y-9.609 E5.61829
G1 X2.449 Y-9.75 E5.62141
G1 X2.308 Y-9.891 E5.62342
G1 X1.089 Y-11.109 E5.65036
G1 X0.948 Y-11.25 E5.65348
G1 X1.089 Y-11.391 E5.65549
G1 X2.308 Y-12.609 E5.68243
G1 X2.449 Y-12.75 E5.68554
G1 X2.308 Y-12.891 E5.68756
G1 X1.089 Y-14.109 E5.7145
G1 X0.948 Y-14.25 E5.71761
G1 X1.089 Y-14.391 E5.71963
G1 X2.308 Y-15.609 E5.74656
G1 X2.449 Y-15.75 E5.74968
G1 X2.308 Y-15.891 E5.75169
G1 X1.089 Y-17.109 E5.77863
G1 X0.948 Y-17.25 E5.78175
G1 X1.089 Y-17.391 E5.78376
G1 X2.308 Y-18.609 E5.8107
G1 X2.449 Y-18.75 E5.81382
G1 X2.308 Y-18.891 E5.81583
G1 X1.089 Y-20.109 E5.84277
G1 X0.948 Y-20.25 E5.84588
G1 X1.089 Y-20.391 E5.8479
G1 X2.308 Y-21.609 E5.87483
G1 X2.449 Y-21.75 E5.87795
G1 X2.308 Y-21.891 E5.87996
G1 X1.089 Y-23.109 E5.9069
G1 X0.948 Y-23.25 E5.91002
G1 X1.089 Y-23.391 E5.91203
G1 X2.308 Y-24.609 E5.93897
G1 X2.449 Y-24.75 E5.94209
G1 X2.308 Y-24.891 E5.9441
G1 X1.389 Y-25.809 E5.96441
G1 X1.048 Y-26.15 E5.97194
G1 X1.53 Y-26.15 E5.976
G1 X1.531 Y-26.15 E5.97602
G1 X8.252 Y-26.15 E6.08108
G1 X9.9 Y-24.502 E6.11751
G1 X9.9 Y27.299 E6.92728
G1 X10.1 Y27.498 E6.93169
G1 X10.1 Y27.65 E6.93407
G1 X9.9 Y27.65 E6.9359
G1 X1.531 Y27.65 E7.06673
G1 X1.53 Y27.65 E7.06674
G1 X1.048 Y27.65 E7.07428
G1 X1.389 Y27.309 E7.07833
G1 X2.308 Y26.391 E7.09864
G1 X2.449 Y26.25 E7.10176
G1 X2.308 Y26.109 E7.10377
G1 X1.089 Y24.891 E7.13071
G1 X0.948 Y24.75 E7.13383
G1 X1.089 Y24.609 E7.13584
G1 X2.308 Y23.391 E7.16278
G1 X2.449 Y23.25 E7.16589
G1 X2.308 Y23.109 E7.16791
G1 X1.089 Y21.891 E7.19484
G1 X0.948 Y21.75 E7.19796
G1 X1.089 Y21.609 E7.19997
G1 X2.308 Y20.391 E7.22691
G1 X2.449 Y20.25 E7.23003
G1 X2.308 Y20.109 E7.23204
G1 X1.089 Y18.891 E7.25898
G1 X0.948 Y18.75 E7.2621
G1 X1.089 Y18.609 E7.26411
G1 X2.308 Y17.391 E7.29105
G1 X2.449 Y17.25 E7.29416
G1 X2.308 Y17.109 E7.29618
G1 X1.089 Y15.891 E7.32311
G1 X0.948 Y15.75 E7.32623
G1 X1.089 Y15.609 E7.32824
G1 X2.308 Y14.391 E7.35518
G1 X2.449 Y14.25 E7.3583
G1 X2.308 Y14.109 E7.36031
G1 X1.089 Y12.891 E7.38725
G1 X0.948 Y12.75 E7.39037
G1 X1.089 Y12.609 E7.39238
G1 X2.308 Y11.391 E7.41932
G1 X2.449 Y11.25 E7.42244
G1 X2.308 Y11.109 E7.42445
G1 X1.089 Y9.891 E7.45139
G1 X0.948 Y9.75 E7.4545
G1 X1.089 Y9.609 E7.45652
G1 X2.308 Y8.391 E7.48345
G1 X2.449 Y8.25 E7.48657
G1 X2.308 Y8.109 E7.48858
G1 X1.089 Y6.891 E7.51552
G1 X0.948 Y6.75 E7.51864
G1 X1.089 Y6.609 E7.52065
G1 X2.308 Y5.391 E7.54759
G1 X2.449 Y5.25 E7.55071
G1 X2.308 Y5.109 E7.55272
G1 X1.089 Y3.891 E7.57966
G1 X0.948 Y3.75 E7.58277
G1 X1.089 Y3.609 E7.58479
G1 X2.308 Y2.391 E7.61172
G1 X2.449 Y2.25 E7.61374
M204 S4000
G0 F1200 X1.883 Y2.25
M204 S1800
;TYPE:WALL-OUTER
G1 F600 X0.599 Y0.966 E7.64212
G1 X0.503 Y0.946 E7.64366
G1 X-.3 Y0.786 E7.65646
G1 X-.3 Y0.714 E7.65758
G1 X0.503 Y0.554 E7.66523
G1 X0.599 Y0.534 E7.66676
G1 X1.883 Y-.75 E7.69515
G1 X0.599 Y-2.034 E7.72353
G1 X0.503 Y-2.054 E7.72507
G1 X-.3 Y-2.214 E7.73787
G1 X-.3 Y-2.286 E7.73899
G1 X0.503 Y-2.446 E7.74664
G1 X0.599 Y-2.466 E7.74817
G1 X1.883 Y-3.75 E7.77656
G1 X0.599 Y-5.034 E7.80494
G1 X0.503 Y-5.054 E7.80648
G1 X-.3 Y-5.214 E7.81928
G1 X-.3 Y-5.286 E7.8204
G1 X0.503 Y-5.446 E7.82805
G1 X0.599 Y-5.466 E7.82958
G1 X1.883 Y-6.75 E7.85797
G1 X0.599 Y-8.034 E7.88635
G1 X0.503 Y-8.054 E7.88789
G1 X-.3 Y-8.214 E7.90069
G1 X-.3 Y-8.286 E7.90181
G1 X0.503 Y-8.446 E7.90946
G1 X0.599 Y-8.466 E7.91099
G1 X1.883 Y-9.75 E7.93938
G1 X0.599 Y-11.034 E7.96777
G1 X0.503 Y-11.054 E7.9693
G1 X-.3 Y-11.214 E7.9821
G1 X-.3 Y-11.286 E7.98322
G1 X0.503 Y-11.446 E7.99087
G1 X0.599 Y-11.466 E7.9924
G1 X1.883 Y-12.75 E8.02079
G1 X0.599 Y-14.034 E8.04918
G1 X0.503 Y-14.054 E8.05071
G1 X-.3 Y-14.214 E8.06351
G1 X-.3 Y-14.286 E8.06463
G1 X0.503 Y-14.446 E8.07228
G1 X0.599 Y-14.466 E8.07381
G1 X1.883 Y-15.75 E8.1022
G1 X0.599 Y-17.034 E8.13059
G1 X0.503 Y-17.054 E8.13212
G1 X-.3 Y-17.214 E8.14492
G1 X-.3 Y-17.286 E8.14604
G1 X0.503 Y-17.446 E8.15369
G1 X0.599 Y-17.466 E8.15522
G1 X1.883 Y-18.75 E8.18361
G1 X0.599 Y-20.034 E8.212
G1 X0.503 Y-20.054 E8.21353
G1 X-.3 Y-20.214 E8.22633
G1 X-.3 Y-20.286 E8.22745
G1 X0.503 Y-20.446 E8.2351
G1 X0.599 Y-20.466 E8.23664
G1 X1.883 Y-21.75 E8.26502
G1 X0.599 Y-23.034 E8.29341
G1 X0.503 Y-23.054 E8.29494
G1 X-.3 Y-23.214 E8.30774
G1 X-.3 Y-23.286 E8.30886
G1 X0.503 Y-23.446 E8.31651
G1 X0.599 Y-23.466 E8.31805
G1 X1.883 Y-24.75 E8.34643
G1 X0.599 Y-26.034 E8.37482
G1 X0.503 Y-26.054 E8.37635
G1 X-.3 Y-26.214 E8.38915
G1 X-.3 Y-26.286 E8.39028
G1 X0.503 Y-26.446 E8.39792
G1 X0.599 Y-26.466 E8.39946
G1 X0.682 Y-26.55 E8.4013
G1 X8.418 Y-26.55 E8.52223
G1 X10.3 Y-24.668 E8.56384
G1 X10.3 Y27.133 E9.37361
G1 X10.5 Y27.332 E9.37802
G1 X10.5 Y28.05 E9.38924
G1 X0.682 Y28.05 E9.54272
G1 X0.599 Y27.966 E9.54456
G1 X0.503 Y27.946 E9.5461
G1 X-.3 Y27.786 E9.5589
G1 X-.3 Y27.714 E9.56002
G1 X0.503 Y27.554 E9.56767
G1 X0.599 Y27.534 E9.5692
G1 X1.883 Y26.25 E9.59759
G1 X0.599 Y24.966 E9.62597
G1 X0.503 Y24.946 E9.62751
G1 X-.3 Y24.786 E9.64031
G1 X-.3 Y24.714 E9.64143
G1 X0.503 Y24.554 E9.64908
G1 X0.599 Y24.534 E9.65061
G1 X1.883 Y23.25 E9.679
G1 X0.599 Y21.966 E9.70739
G1 X0.503 Y21.946 E9.70892
G1 X-.3 Y21.786 E9.72172
G1 X-.3 Y21.714 E9.72284
G1 X0.503 Y21.554 E9.73049
G1 X0.599 Y21.534 E9.73202
G1 X1.883 Y20.25 E9.76041
G1 X0.599 Y18.966 E9.7888
G1 X0.503 Y18.946 E9.79033
G1 X-.3 Y18.786 E9.80313
G1 X-.3 Y18.714 E9.80425
G1 X0.503 Y18.554 E9.8119
G1 X0.599 Y18.534 E9.81343
G1 X1.883 Y17.25 E9.84182
G1 X0.599 Y15.966 E9.87021
G1 X0.503 Y15.946 E9.87174
G1 X-.3 Y15.786 E9.88454
G1 X-.3 Y15.714 E9.88566
G1 X0.503 Y15.554 E9.89331
G1 X0.599 Y15.534 E9.89484
G1 X1.883 Y14.25 E9.92323
G1 X0.599 Y12.966 E9.95162
G1 X0.503 Y12.946 E9.95315
G1 X-.3 Y12.786 E9.96595
G1 X-.3 Y12.714 E9.96707
G1 X0.503 Y12.554 E9.97472
G1 X0.599 Y12.534 E9.97626
G1 X1.883 Y11.25 E10.00464
G1 X0.599 Y9.966 E10.03303
G1 X0.503 Y9.946 E10.03456
G1 X-.3 Y9.786 E10.04736
G1 X-.3 Y9.714 E10.04848
G1 X0.503 Y9.554 E10.05613
G1 X0.599 Y9.534 E10.05767
G1 X1.883 Y8.25 E10.08605
G1 X0.599 Y6.966 E10.11444
G1 X0.503 Y6.946 E10.11597
G1 X-.3 Y6.786 E10.12877
G1 X-.3 Y6.714 E10.1299
G1 X0.503 Y6.554 E10.13754
G1 X0.599 Y6.534 E10.13908
G1 X1.883 Y5.25 E10.16746
G1 X0.599 Y3.966 E10.19585
G1 X0.503 Y3.946 E10.19738
G1 X-.3 Y3.786 E10.21018
G1 X-.3 Y3.714 E10.21131
G1 X0.503 Y3.554 E10.21895
G1 X0.599 Y3.534 E10.22049
G1 X1.883 Y2.25 E10.24887
M204 S4000
G0 F1200 X1.742 Y2.109
G0 X1.954 Y1.898
G0 X3.001 Y2.25
M204 S1800
;TYPE:SKIN
G1 F600 X1.498 Y0.75 E10.28207
G1 X3.001 Y-.75 E10.31526
G1 X1.498 Y-2.25 E10.34845
G1 X3.001 Y-3.75 E10.38165
G1 X1.498 Y-5.25 E10.41484
G1 X3.001 Y-6.75 E10.44804
G1 X1.498 Y-8.25 E10.48123
G1 X3.001 Y-9.75 E10.51443
G1 X1.498 Y-11.25 E10.54762
G1 X3.001 Y-12.75 E10.58081
G1 X1.498 Y-14.25 E10.61401
G1 X3.001 Y-15.75 E10.6472
G1 X1.498 Y-17.25 E10.6804
G1 X3.001 Y-18.75 E10.71359
G1 X1.498 Y-20.25 E10.74679
G1 X3.001 Y-21.75 E10.77998
G1 X1.498 Y-23.25 E10.81317
G1 X3.001 Y-24.75 E10.84637
G1 X1.989 Y-25.76 E10.86872
G1 X8.092 Y-25.76 E10.96412
G1 X9.51 Y-24.342 E10.99547
G1 X9.51 Y27.26 E11.80213
G1 X1.989 Y27.26 E11.9197
G1 X3.001 Y26.25 E11.94205
G1 X1.498 Y24.75 E11.97524
G1 X3.001 Y23.25 E12.00844
G1 X1.498 Y21.75 E12.04163
G1 X3.001 Y20.25 E12.07482
G1 X1.498 Y18.75 E12.10802
G1 X3.001 Y17.25 E12.14121
G1 X1.498 Y15.75 E12.17441
G1 X3.001 Y14.25 E12.2076
G1 X1.498 Y12.75 E12.2408
G1 X3.001 Y11.25 E12.27399
G1 X1.498 Y9.75 E12.30718
G1 X3.001 Y8.25 E12.34038
G1 X1.498 Y6.75 E12.37357
G1 X3.001 Y5.25 E12.40677
G1 X1.498 Y3.75 E12.43996
G1 X3.001 Y2.25 E12.47315
M204 S4000
G0 F1200 X2.59 Y26.914
M204 S1800
G1 F600 X2.754 Y27.078 E12.47678
M204 S4000
G0 F1200 X2.872 Y26.631
M204 S1800
G1 F600 X3.319 Y27.078 E12.48666
M204 S4000
G0 F1200 X3.885 Y27.078
M204 S1800
G1 F600 X3.155 Y26.348 E12.5028
G1 X3.085 Y26.278
M204 S4000
G0 F1200 X4.451 Y27.078
M204 S1800
G1 F600 X1.938 Y24.565 E12.55836
M204 S4000
G0 F1200 X2.221 Y24.282
M204 S1800
G1 F600 X5.016 Y27.078 E12.62016
M204 S4000
G0 F1200 X5.582 Y27.078
M204 S1800
G1 F600 X2.503 Y23.999 E12.68823
M204 S4000
G0 F1200 X2.787 Y23.717
M204 S1800
G1 F600 X6.148 Y27.078 E12.76253
M204 S4000
G0 F1200 X6.713 Y27.078
M204 S1800
G1 F600 X3.07 Y23.434 E12.84308
G1 X3 Y23.364
M204 S4000
G0 F1200 X1.852 Y21.651
M204 S1800
G1 F600 X7.279 Y27.078 E12.96305
M204 S4000
G0 F1200 X7.845 Y27.078
M204 S1800
G1 F600 X2.135 Y21.368 E13.08929
M204 S4000
G0 F1200 X2.418 Y21.085
M204 S1800
G1 F600 X8.411 Y27.078 E13.22178
M204 S4000
G0 F1200 X8.976 Y27.078
M204 S1800
G1 F600 X2.701 Y20.803 E13.3605
M204 S4000
G0 F1200 X2.984 Y20.52
M204 S1800
G1 F600 X9.33 Y26.866 E13.50079
M204 S4000
G0 F1200 X9.33 Y26.3
M204 S1800
G1 F600 X1.766 Y18.736 E13.66801
M204 S4000
G0 F1200 X2.049 Y18.454
M204 S1800
G1 F600 X9.33 Y25.735 E13.82898
M204 S4000
G0 F1200 X9.33 Y25.169
M204 S1800
G1 F600 X2.332 Y18.171 E13.98368
M204 S4000
G0 F1200 X2.615 Y17.889
M204 S1800
G1 F600 X9.33 Y24.603 E14.13212
M204 S4000
G0 F1200 X9.33 Y24.038
M204 S1800
G1 F600 X2.898 Y17.606 E14.27432
M204 S4000
G0 F1200 X3.181 Y17.323
M204 S1800
G1 F600 X9.33 Y23.472 E14.41026
M204 S4000
G0 F1200 X9.33 Y22.906
M204 S1800
G1 F600 X1.963 Y15.54 E14.57311
M204 S4000
G0 F1200 X2.246 Y15.257
M204 S1800
G1 F600 X9.33 Y22.341 E14.72972
M204 S4000
G0 F1200 X9.33 Y21.775
M204 S1800
G1 F600 X2.53 Y14.975 E14.88005
M204 S4000
G0 F1200 X2.812 Y14.692
M204 S1800
G1 F600 X9.33 Y21.209 E15.02413
M204 S4000
G0 F1200 X9.33 Y20.643
M204 S1800
G1 F600 X3.095 Y14.409 E15.16196
G1 X3.025 Y14.339
M204 S4000
G0 F1200 X1.878 Y12.626
M204 S1800
G1 F600 X9.33 Y20.078 E15.32671
M204 S4000
G0 F1200 X9.33 Y19.512
M204 S1800
G1 F600 X2.16 Y12.343 E15.48521
M204 S4000
G0 F1200 X2.443 Y12.06
M204 S1800
G1 F600 X9.33 Y18.946 E15.63745
M204 S4000
G0 F1200 X9.33 Y18.381
M204 S1800
G1 F600 X2.727 Y11.778 E15.78342
M204 S4000
G0 F1200 X3.01 Y11.495
M204 S1800
G1 F600 X9.33 Y17.815 E15.92314
M204 S4000
G0 F1200 X9.33 Y17.249
M204 S1800
G1 F600 X1.791 Y9.711 E16.0898
M204 S4000
G0 F1200 X2.074 Y9.428
M204 S1800
G1 F600 X9.33 Y16.684 E16.25021
M204 S4000
G0 F1200 X9.33 Y16.118
M204 S1800
