; generated by PrusaSlicer 2.6.1+win64 on 2023-12-04 at 15:42:59 UTC

; 

; external perimeters extrusion width = 0.42mm
; perimeters extrusion width = 0.45mm
; infill extrusion width = 0.45mm
; solid infill extrusion width = 0.45mm
; top infill extrusion width = 0.42mm
; first layer extrusion width = 0.50mm

M201 X1000 Y1000 Z1000 E5000 ; sets maximum accelerations, mm/sec^2
M203 X200 Y200 Z12 E120 ; sets maximum feedrates, mm / sec
M204 S1250 T1250 ; sets acceleration (S) and retract acceleration (R), mm/sec^2
M205 X8.00 Y8.00 Z0.40 E1.50 ; sets the jerk limits, mm/sec
M205 S0 T0 ; sets the minimum extruding and travel feed rate, mm/sec
;TYPE:Custom
; Initial setups
G90 ; use absolute coordinates
M83 ; extruder relative mode
M220 S100 ; reset speed factor to 100%
M221 S100 ; reset extrusion rate to 100%

; Set the heating
M190 S60 ; wait for bed to heat up
M104 S210 ; start nozzle heating but don't wait

; Home
G1 Z3 F3000 ; move z up little to prevent scratching of surface
G28 ; home all axes
G1 X3 Y3 F5000 ; move to corner of the bed to avoid ooze over centre

; Wait for final heating
M109 S210 ; wait for the nozzle to heat up
M190 S60 ; wait for the bed to heat up

; Return to prime position, Prime line routine
G92 E0 ; Reset Extruder
G1 Z3 F3000 ; move z up little to prevent scratching of surface
G1 X10 Y.5 Z0.25 F5000.0 ; Move to start position
G1 X100 Y.5 Z0.25 F1500.0 E15 ; Draw the first line
G1 X100 Y.2 Z0.25 F5000.0 ; Move to side a little
G1 X10 Y.2 Z0.25 F1500.0 E30 ; Draw the second line
G92 E0 ; Reset Extruder
M221 S95
G21 ; set units to millimeters
G90 ; use absolute coordinates
M83 ; use relative distances for extrusion
; Filament gcode
M107
;LAYER_CHANGE
;Z:0.4
;HEIGHT:0.4
;BEFORE_LAYER_CHANGE
;0.4
G92 E0
G1 E-.8 F2400
G1 Z.6 F4800
;AFTER_LAYER_CHANGE
;0.4
M204 S20000
G1 X154.062 Y153.821
G1 Z.4
G1 E.8 F2400
M204 S1250
;TYPE:External perimeter
;WIDTH:0.5
G1 F1200
G1 X154.217 Y153.827 E.01015
G1 X155.072 Y153.968 E.0567
G1 X155.631 Y154.12 E.0379
G1 X156.179 Y154.318 E.03812
G1 X156.7 Y154.556 E.03748
G1 X157.455 Y154.998 E.05724
G1 X157.923 Y155.342 E.038
G1 X158.358 Y155.718 E.03762
G1 X158.766 Y156.135 E.03817
G1 X159.135 Y156.578 E.03772
G1 X159.47 Y157.055 E.03814
G1 X159.762 Y157.554 E.03783
G1 X160.123 Y158.344 E.05683
G1 X160.309 Y158.894 E.03799
G1 X160.449 Y159.455 E.03783
G1 X160.527 Y159.999 E.03596
G1 X160.587 Y160.644 E.04239
G1 X160.574 Y161.47 E.05405
G1 X160.449 Y162.337 E.05732
G1 X160.308 Y162.9 E.03798
G1 X160.124 Y163.445 E.03764
G1 X159.892 Y163.981 E.03822
G1 X159.622 Y164.489 E.03764
G1 X159.307 Y164.979 E.03811
G1 X158.955 Y165.44 E.03795
G1 X158.36 Y166.071 E.05675
G1 X157.921 Y166.452 E.03803
G1 X157.451 Y166.796 E.03811
G1 X156.962 Y167.097 E.03757
G1 X156.172 Y167.477 E.05736
G1 X155.635 Y167.671 E.03736
G1 X154.787 Y167.883 E.05719
G1 X154.212 Y167.966 E.03801
G1 X153.638 Y168.001 E.03763
G1 X153.054 Y167.989 E.03822
G1 X152.48 Y167.93 E.03776
G1 X151.909 Y167.824 E.038
G1 X151.349 Y167.672 E.03797
G1 X150.539 Y167.36 E.0568
G1 X150.022 Y167.098 E.03792
G1 X149.525 Y166.793 E.03815
G1 X149.062 Y166.454 E.03755
G1 X148.415 Y165.869 E.05707
G1 X147.845 Y165.212 E.05691
G1 X147.511 Y164.737 E.03799
G1 X147.219 Y164.238 E.03783
G1 X146.858 Y163.447 E.05689
G1 X146.672 Y162.898 E.03793
G1 X146.532 Y162.337 E.03783
G1 X146.408 Y161.475 E.05698
G1 X146.384 Y160.894 E.03805
G1 X146.407 Y160.322 E.03746
G1 X146.532 Y159.455 E.05732
G1 X146.672 Y158.892 E.03796
G1 X146.857 Y158.346 E.03772
G1 X147.089 Y157.811 E.03816
G1 X147.359 Y157.303 E.03764
G1 X147.674 Y156.813 E.03811
G1 X148.026 Y156.352 E.03795
G1 X148.621 Y155.721 E.05675
G1 X149.06 Y155.34 E.03803
G1 X149.53 Y154.996 E.03811
G1 X150.019 Y154.695 E.03757
G1 X150.809 Y154.315 E.05736
G1 X151.346 Y154.121 E.03736
G1 X152.194 Y153.909 E.05719
G1 X152.769 Y153.826 E.03801
G1 X153.341 Y153.791 E.0375
G1 X153.943 Y153.816 E.03942
G1 X154.136 Y153.956 F4800
M204 S20000
G1 X154.046 Y154.234
M204 S1250
;TYPE:Perimeter
G1 F1200
G1 X154.174 Y154.24 E.00838
G1 X154.983 Y154.373 E.05364
G1 X155.506 Y154.515 E.03546
G1 X156.023 Y154.702 E.03597
G1 X156.509 Y154.924 E.03496
G1 X157.227 Y155.345 E.05446
G1 X157.665 Y155.666 E.03553
G1 X158.074 Y156.02 E.03539
G1 X158.459 Y156.413 E.036
G1 X158.805 Y156.83 E.03545
G1 X159.121 Y157.279 E.03593
G1 X159.394 Y157.746 E.03539
G1 X159.737 Y158.497 E.05402
G1 X159.912 Y159.011 E.03553
G1 X160.042 Y159.535 E.03533
G1 X160.16 Y160.355 E.05421
G1 X160.173 Y161.136 E.05111
G1 X160.161 Y161.432 E.01938
G1 X160.042 Y162.257 E.05454
G1 X159.911 Y162.783 E.03547
G1 X159.737 Y163.296 E.03544
G1 X159.519 Y163.801 E.03599
G1 X159.264 Y164.279 E.03545
G1 X158.967 Y164.741 E.03594
G1 X158.638 Y165.171 E.03543
G1 X158.073 Y165.772 E.05397
G1 X157.663 Y166.128 E.03553
G1 X157.22 Y166.452 E.03591
G1 X156.763 Y166.733 E.0351
G1 X156.011 Y167.095 E.05461
G1 X155.514 Y167.275 E.03459
G1 X154.707 Y167.476 E.05442
G1 X154.169 Y167.553 E.03556
G1 X153.629 Y167.586 E.0354
G1 X153.08 Y167.575 E.03593
G1 X152.539 Y167.52 E.03558
G1 X152.001 Y167.42 E.0358
G1 X151.478 Y167.278 E.03546
G1 X150.707 Y166.981 E.05406
G1 X150.224 Y166.737 E.03541
G1 X149.756 Y166.449 E.03596
G1 X149.324 Y166.132 E.03506
G1 X148.711 Y165.579 E.05402
G1 X148.172 Y164.957 E.05385
G1 X147.86 Y164.513 E.03551
G1 X147.587 Y164.046 E.03539
G1 X147.243 Y163.295 E.05405
G1 X147.069 Y162.781 E.03551
G1 X146.939 Y162.257 E.03533
G1 X146.821 Y161.437 E.05421
G1 X146.799 Y160.894 E.03556
G1 X146.82 Y160.359 E.03503
G1 X146.939 Y159.535 E.05447
G1 X147.07 Y159.009 E.03547
G1 X147.244 Y158.495 E.03551
G1 X147.462 Y157.991 E.03593
G1 X147.717 Y157.513 E.03545
G1 X148.014 Y157.051 E.03594
G1 X148.343 Y156.621 E.03543
G1 X148.908 Y156.02 E.05397
G1 X149.318 Y155.664 E.03553
G1 X149.761 Y155.34 E.03591
G1 X150.218 Y155.059 E.0351
G1 X150.97 Y154.697 E.05461
G1 X151.467 Y154.517 E.03459
G1 X152.274 Y154.316 E.05442
G1 X152.812 Y154.239 E.03556
G1 X153.345 Y154.206 E.03494
G1 X153.926 Y154.23 E.03805
;WIPE_START
G1 F3840
G1 X154.174 Y154.24 E-.14737
G1 X154.983 Y154.373 E-.48679
G1 X155.253 Y154.446 E-.16584
;WIPE_END
G1 Z1 F4800
M204 S20000
G1 X156.888 Y155.338
G1 Z.4
G1 E.8 F2400
M204 S1250
;TYPE:Solid infill
;WIDTH:0.508083
G1 F1200
G1 X158.197 Y156.649 E.12358
G1 X158.525 Y157.044 E.03425
G1 X158.824 Y157.47 E.03472
G1 X159.081 Y157.908 E.03388
G1 X159.267 Y158.314 E.02979
G1 X156.058 Y155.105 E.30274
G1 X155.4 Y154.851 E.04705
G1 X155.135 Y154.779 E.01832
G1 X159.609 Y159.253 E.42208
G1 X159.696 Y159.603 E.02406
G1 X159.753 Y159.994 E.02636
G1 X154.391 Y154.632 E.50585
G1 X154.138 Y154.591 E.0171
G1 X153.736 Y154.574 E.02684
G1 X159.82 Y160.659 E.57401
G1 X159.816 Y161.251 E.03949
G1 X153.136 Y154.571 E.63019
G1 X152.593 Y154.626 E.03641
G1 X159.754 Y161.787 E.67557
G1 X159.669 Y162.299 E.03462
G1 X152.094 Y154.724 E.71462
G1 X151.616 Y154.843 E.03286
G1 X159.543 Y162.77 E.74783
G1 X159.389 Y163.214 E.03135
G1 X151.174 Y154.998 E.77505
G1 X150.765 Y155.186 E.03003
G1 X159.209 Y163.63 E.7966
G1 X159.003 Y164.021 E.02948
G1 X150.364 Y155.382 E.815
G1 X149.994 Y155.61 E.02899
G1 X158.775 Y164.39 E.82835
G1 X158.526 Y164.739 E.0286
G1 X149.647 Y155.86 E.83764
G1 X149.319 Y156.129 E.0283
G1 X158.255 Y165.065 E.84302
G1 X157.966 Y165.373 E.02817
G1 X149.014 Y156.421 E.84453
G1 X148.724 Y156.729 E.02822
G1 X157.66 Y165.664 E.84297
G1 X157.332 Y165.934 E.02834
G1 X148.454 Y157.055 E.83759
G1 X148.205 Y157.404 E.0286
G1 X156.985 Y166.183 E.82825
G1 X156.615 Y166.411 E.02899
G1 X147.977 Y157.773 E.81491
G1 X147.771 Y158.164 E.02948
G1 X156.214 Y166.607 E.79651
G1 X155.805 Y166.795 E.03003
G1 X147.591 Y158.58 E.77495
G1 X147.437 Y159.024 E.03135
G1 X155.362 Y166.949 E.74764
G1 X154.885 Y167.069 E.03281
G1 X147.311 Y159.495 E.71453
G1 X147.226 Y160.008 E.03469
G1 X154.385 Y167.167 E.67538
G1 X153.842 Y167.221 E.0364
G1 X147.165 Y160.544 E.62991
G1 X147.161 Y161.136 E.03949
G1 X153.251 Y167.227 E.57458
G1 X152.6 Y167.172 E.04358
G1 X147.229 Y161.801 E.5067
G1 X147.285 Y162.189 E.02615
G1 X147.373 Y162.543 E.02433
G1 X151.842 Y167.012 E.4216
G1 X151.587 Y166.943 E.01762
G1 X150.919 Y166.685 E.04777
G1 X147.717 Y163.484 E.30203
G1 X147.9 Y163.884 E.02934
G1 X148.157 Y164.322 E.03388
G1 X148.45 Y164.74 E.03405
G1 X148.93 Y165.294 E.0489
G1 X150.105 Y166.469 E.11085
;LAYER_CHANGE
;Z:0.8
;HEIGHT:0.4
;BEFORE_LAYER_CHANGE
;0.8
G92 E0
;WIPE_START
G1 F3840
G1 X149.152 Y165.516 E-.8
;WIPE_END
G1 Z1 F4800
;AFTER_LAYER_CHANGE
;0.8
M104 S200 ; set temperature
M204 S20000
G1 X154.033 Y153.456
G1 Z.8
G1 E.8 F2400
M204 S1250
;TYPE:External perimeter
;WIDTH:0.42
G1 F2880
G1 X154.242 Y153.467 E.01105
G1 X154.88 Y153.56 E.03404
G1 X155.376 Y153.684 E.02699
G1 X156.043 Y153.888 E.03682
G1 X156.788 Y154.209 E.04283
G1 X157.377 Y154.53 E.03541
G1 X157.916 Y154.893 E.03431
G1 X158.564 Y155.434 E.04456
G1 X159.045 Y155.918 E.03602
G1 X159.547 Y156.548 E.04253
G1 X159.919 Y157.115 E.0358
G1 X160.288 Y157.835 E.04271
G1 X160.549 Y158.485 E.03698
G1 X160.721 Y159.062 E.03179
G1 X160.876 Y159.883 E.04411
G1 X160.943 Y160.613 E.0387
G1 X160.956 Y160.963 E.01849
G1 X160.908 Y161.742 E.0412
G1 X160.806 Y162.388 E.03453
G1 X160.637 Y163.056 E.03638
G1 X160.342 Y163.862 E.04531
G1 X159.963 Y164.617 E.0446
G1 X159.587 Y165.206 E.03689
G1 X159.187 Y165.722 E.03447
G1 X158.648 Y166.295 E.04153
G1 X158.145 Y166.734 E.03525
G1 X157.582 Y167.14 E.03664
G1 X156.896 Y167.54 E.04192
G1 X156.27 Y167.825 E.03631
G1 X155.483 Y168.091 E.04386
G1 X154.887 Y168.231 E.03232
G1 X154.208 Y168.328 E.03621
G1 X153.707 Y168.347 E.02647
G1 X152.881 Y168.33 E.04362
G1 X152.184 Y168.247 E.03706
G1 X151.19 Y167.999 E.05408
G1 X150.461 Y167.72 E.04121
G1 X149.856 Y167.418 E.0357
G1 X149.266 Y167.051 E.03668
G1 X148.638 Y166.57 E.04176
G1 X148.139 Y166.103 E.03608
G1 X147.715 Y165.627 E.03365
G1 X147.234 Y164.97 E.04299
G1 X146.888 Y164.383 E.03597
G1 X146.549 Y163.645 E.04287
G1 X146.333 Y163.022 E.03481
G1 X146.176 Y162.394 E.03417
G1 X146.053 Y161.546 E.04524
G1 X146.025 Y160.829 E.03788
G1 X146.073 Y160.05 E.0412
G1 X146.175 Y159.404 E.03453
G1 X146.344 Y158.736 E.03638
G1 X146.638 Y157.93 E.04529
G1 X147.018 Y157.174 E.04467
G1 X147.394 Y156.585 E.03689
G1 X147.775 Y156.092 E.03289
G1 X148.306 Y155.524 E.04105
G1 X148.837 Y155.057 E.03733
G1 X149.328 Y154.697 E.03214
G1 X150.065 Y154.262 E.04518
G1 X150.711 Y153.966 E.03751
G1 X151.498 Y153.7 E.04386
G1 X152.094 Y153.561 E.03231
G1 X152.773 Y153.464 E.03621
G1 X153.59 Y153.43 E.04317
G1 X153.913 Y153.449 E.01708
G1 X154.131 Y153.64 F4800
M204 S20000
G1 X153.989 Y153.806
M204 S1250
;TYPE:Perimeter
;WIDTH:0.45
G1 X154.489 Y153.856 E.02891
G1 X155.291 Y154.023 E.04713
G1 X155.923 Y154.216 E.03802
G1 X156.636 Y154.524 E.04468
G1 X157.196 Y154.828 E.03666
G1 X157.708 Y155.173 E.03552
G1 X158.329 Y155.692 E.04656
G1 X158.785 Y156.151 E.03722
G1 X159.265 Y156.754 E.04434
G1 X159.618 Y157.292 E.03702
G1 X159.971 Y157.981 E.04454
G1 X160.219 Y158.599 E.03831
G1 X160.382 Y159.147 E.03289
G1 X160.53 Y159.933 E.04601
G1 X160.594 Y160.626 E.04004
G1 X160.58 Y161.387 E.04379
G1 X160.511 Y162.017 E.03646
G1 X160.388 Y162.617 E.03524
G1 X160.162 Y163.339 E.04353
G1 X159.814 Y164.135 E.04998
G1 X159.464 Y164.749 E.04066
G1 X159.115 Y165.245 E.03489
G1 X158.628 Y165.806 E.04274
G1 X158.161 Y166.256 E.03731
G1 X157.661 Y166.653 E.03673
G1 X157.015 Y167.067 E.04414
G1 X156.44 Y167.364 E.03723
G1 X155.676 Y167.658 E.0471
G1 X155.09 Y167.825 E.03506
G1 X154.516 Y167.931 E.03358
G1 X153.693 Y167.998 E.04751
G1 X152.904 Y167.982 E.0454
G1 X152.251 Y167.904 E.03784
G1 X151.694 Y167.765 E.03303
G1 X150.907 Y167.517 E.04747
G1 X150.309 Y167.254 E.03758
G1 X149.748 Y166.94 E.03699
G1 X149.13 Y166.507 E.04341
G1 X148.602 Y166.058 E.03988
G1 X148.196 Y165.642 E.03344
G1 X147.716 Y165.038 E.04439
G1 X147.363 Y164.5 E.03702
G1 X147.01 Y163.811 E.04454
G1 X146.762 Y163.193 E.03831
G1 X146.599 Y162.645 E.03289
G1 X146.451 Y161.859 E.04601
G1 X146.387 Y161.166 E.04004
G1 X146.401 Y160.405 E.04379
G1 X146.47 Y159.775 E.03646
G1 X146.593 Y159.175 E.03524
G1 X146.819 Y158.453 E.04353
G1 X147.167 Y157.657 E.04998
G1 X147.525 Y157.029 E.04159
G1 X147.856 Y156.559 E.03307
G1 X148.32 Y156.02 E.04092
G1 X148.851 Y155.51 E.04236
G1 X149.277 Y155.168 E.03143
G1 X149.935 Y154.744 E.04503
G1 X150.534 Y154.432 E.03886
G1 X151.305 Y154.134 E.04756
G1 X151.891 Y153.967 E.03506
G1 X152.47 Y153.86 E.03387
G1 X153.263 Y153.793 E.04579
G1 X153.869 Y153.799 E.03487
;WIPE_START
G1 F3840
G1 X154.489 Y153.856 E-.36968
G1 X155.199 Y154.004 E-.43032
;WIPE_END
G1 Z1.4 F4800
M204 S20000
G1 X150.225 Y154.91
G1 Z.8
G1 E.8 F2400
M204 S1250
;TYPE:Solid infill
;WIDTH:0.765841
G1 F2880
G1 X150.165 Y154.85 E.00912
G1 X150.083 Y154.872 E.00912
G1 X150.061 Y154.954 E.00912
G1 X150.121 Y155.014 E.00912
G1 X150.203 Y154.992 E.00912
G1 X150.158 Y155.012 E.00529
;WIDTH:0.720721
G1 X150.113 Y155.032 E.00494
;WIDTH:0.6756
G1 X150.068 Y155.052 E.00459
;WIDTH:0.63048
G1 X150.023 Y155.072 E.00424
;WIDTH:0.58536
G1 X149.978 Y155.092 E.00389
;WIDTH:0.54024
G1 X149.933 Y155.112 E.00354
;WIDTH:0.49512
G1 X149.888 Y155.132 E.00318
;WIDTH:0.45
G1 X147.72 Y157.3 E.17639
;WIDTH:0.49512
G1 X147.699 Y157.345 E.00321
;WIDTH:0.54024
G1 X147.679 Y157.391 E.0036
;WIDTH:0.58536
G1 X147.659 Y157.436 E.00389
;WIDTH:0.63048
G1 X147.639 Y157.481 E.00424
;WIDTH:0.6756
G1 X147.619 Y157.527 E.00467
;WIDTH:0.720721
G1 X147.599 Y157.572 E.00494
;WIDTH:0.765841
G1 X147.579 Y157.618 E.00539
G1 X147.496 Y157.64 E.00922
G1 X147.436 Y157.579 E.00919
G1 X147.458 Y157.497 E.00912
G1 X147.54 Y157.475 E.00912
G1 X147.601 Y157.535 E.00919
;WIPE_START
G1 F3840
G1 X147.54 Y157.475 E-.0508
G1 X147.458 Y157.497 E-.05041
G1 X147.436 Y157.579 E-.05041
G1 X147.496 Y157.64 E-.0508
G1 X147.579 Y157.618 E-.05098
G1 X147.599 Y157.572 E-.02978
G1 X147.619 Y157.527 E-.02924
G1 X147.639 Y157.481 E-.02978
G1 X147.659 Y157.436 E-.02924
G1 X147.679 Y157.391 E-.02924
G1 X147.699 Y157.345 E-.02978
G1 X147.72 Y157.3 E-.02948
G1 X148.125 Y156.895 E-.34006
;WIPE_END
G1 Z1.4 F4800
M204 S20000
G1 X147.083 Y158.665
G1 Z.8
G1 E.8 F2400
M204 S1250
G1 F2880
G1 X147.001 Y158.687 E.00912
G1 X146.941 Y158.627 E.00912
G1 X146.963 Y158.545 E.00912
G1 X147.045 Y158.523 E.00912
G1 X147.105 Y158.583 E.00912
G1 X147.117 Y158.549 E.00387
;WIDTH:0.720721
G1 X147.129 Y158.515 E.00362
;WIDTH:0.6756
G1 X147.14 Y158.482 E.00324
;WIDTH:0.63048
G1 X147.152 Y158.448 E.0031
;WIDTH:0.58536
G1 X147.164 Y158.415 E.00277
;WIDTH:0.54024
G1 X147.176 Y158.381 E.00259
;WIDTH:0.49512
G1 X147.187 Y158.347 E.00231
;WIDTH:0.45
G1 X150.955 Y154.579 E.30657
;WIDTH:0.49512
G1 X151 Y154.565 E.00305
;WIDTH:0.54024
G1 X151.045 Y154.55 E.00341
;WIDTH:0.58536
G1 X151.09 Y154.536 E.00372
;WIDTH:0.63048
G1 X151.135 Y154.522 E.00406
;WIDTH:0.6756
G1 X151.18 Y154.507 E.00442
;WIDTH:0.720721
G1 X151.225 Y154.493 E.00473
;WIDTH:0.765841
G1 X151.27 Y154.479 E.00506
G1 X151.188 Y154.501 E.00912
G1 X151.128 Y154.441 E.00912
G1 X151.15 Y154.358 E.00922
G1 X151.232 Y154.336 E.00912
G1 X151.292 Y154.397 E.00919
;WIDTH:0.45
G1 X151.726 Y154.324 E.02532
G1 X146.925 Y159.125 E.39062
G1 X146.782 Y159.783 E.03874
G1 X152.378 Y154.186 E.45534
G1 X152.964 Y154.116 E.03395
G1 X146.713 Y160.366 E.50856
G1 X146.687 Y160.908 E.03122
G1 X153.501 Y154.093 E.55444
G1 X153.996 Y154.113 E.0285
G1 X146.706 Y161.403 E.59313
G1 X146.764 Y161.86 E.0265
G1 X154.46 Y154.165 E.62612
G1 X154.896 Y154.243 E.02548
G1 X146.833 Y162.306 E.65602
G1 X146.936 Y162.718 E.02443
G1 X155.308 Y154.346 E.68117
G1 X155.704 Y154.466 E.02381
G1 X147.06 Y163.109 E.70326
G1 X147.2 Y163.484 E.02303
G1 X156.082 Y154.603 E.72262
G1 X156.431 Y154.769 E.02223
G1 X147.362 Y163.837 E.73783
G1 X147.534 Y164.181 E.02213
G1 X156.778 Y154.936 E.75215
G1 X157.099 Y155.131 E.02161
G1 X147.725 Y164.505 E.76269
G1 X147.934 Y164.811 E.02132
G1 X157.408 Y155.336 E.77087
G1 X157.704 Y155.555 E.02118
G1 X148.151 Y165.108 E.77725
G1 X148.385 Y165.389 E.02104
G1 X157.981 Y155.794 E.78071
G1 X158.251 Y156.039 E.02098
G1 X148.63 Y165.66 E.78279
G1 X148.896 Y165.909 E.02096
