; generated by PrusaSlicer 2.6.1+win64 on 2023-12-04 at 15:45:44 UTC

; 

; external perimeters extrusion width = 0.42mm
; perimeters extrusion width = 0.45mm
; infill extrusion width = 0.45mm
; solid infill extrusion width = 0.45mm
; top infill extrusion width = 0.42mm
; first layer extrusion width = 0.50mm

M201 X1000 Y1000 Z1000 E5000 ; sets maximum accelerations, mm/sec^2
M203 X200 Y200 Z12 E120 ; sets maximum feedrates, mm / sec
M204 S1250 T1250 ; sets acceleration (S) and retract acceleration (R), mm/sec^2
M205 X8.00 Y8.00 Z0.40 E1.50 ; sets the jerk limits, mm/sec
M205 S0 T0 ; sets the minimum extruding and travel feed rate, mm/sec
;TYPE:Custom
; Initial setups
G90 ; use absolute coordinates
M83 ; extruder relative mode
M220 S100 ; reset speed factor to 100%
M221 S100 ; reset extrusion rate to 100%

; Set the heating
M190 S60 ; wait for bed to heat up
M104 S210 ; start nozzle heating but don't wait

; Home
G1 Z3 F3000 ; move z up little to prevent scratching of surface
G28 ; home all axes
G1 X3 Y3 F5000 ; move to corner of the bed to avoid ooze over centre

; Wait for final heating
M109 S210 ; wait for the nozzle to heat up
M190 S60 ; wait for the bed to heat up

; Return to prime position, Prime line routine
G92 E0 ; Reset Extruder
G1 Z3 F3000 ; move z up little to prevent scratching of surface
G1 X10 Y.5 Z0.25 F5000.0 ; Move to start position
G1 X100 Y.5 Z0.25 F1500.0 E15 ; Draw the first line
G1 X100 Y.2 Z0.25 F5000.0 ; Move to side a little
G1 X10 Y.2 Z0.25 F1500.0 E30 ; Draw the second line
G92 E0 ; Reset Extruder
M221 S95
G21 ; set units to millimeters
G90 ; use absolute coordinates
M83 ; use relative distances for extrusion
; Filament gcode
M107
;LAYER_CHANGE
;Z:0.4
;HEIGHT:0.4
;BEFORE_LAYER_CHANGE
;0.4
G92 E0
G1 E-.8 F2400
G1 Z.6 F4800
;AFTER_LAYER_CHANGE
;0.4
M204 S20000
G1 X148.266 Y154.752
G1 Z.4
G1 E.8 F2400
M204 S1250
;TYPE:External perimeter
;WIDTH:0.5
G1 F1200
G1 X147.584 Y154.463 E.04847
G1 X146.824 Y153.959 E.05967
G1 X146.142 Y153.297 E.06219
G1 X145.595 Y152.52 E.06217
G1 X145.19 Y151.618 E.0647
G1 X144.978 Y150.731 E.05967
G1 X144.932 Y149.829 E.0591
G1 X145.059 Y148.84 E.06524
G1 X145.362 Y147.939 E.0622
G1 X145.828 Y147.11 E.06222
G1 X146.44 Y146.383 E.06218
G1 X147.177 Y145.783 E.06218
G1 X148.041 Y145.317 E.06423
G1 X148.956 Y145.033 E.06269
G1 X149.843 Y144.928 E.05844
G1 X150.346 Y144.936 E.03292
G1 X151.276 Y145.088 E.06166
G1 X152.169 Y145.412 E.06216
G1 X152.987 Y145.897 E.06222
G1 X153.699 Y146.526 E.06216
G1 X154.315 Y147.332 E.06638
G1 X154.715 Y148.123 E.058
G1 X154.948 Y148.916 E.05408
G1 X155.044 Y149.649 E.04837
G1 X155.071 Y150.058 E.02682
G1 X154.99 Y150.927 E.05711
G1 X154.729 Y151.841 E.06219
G1 X154.317 Y152.663 E.06016
G1 X153.699 Y153.474 E.06672
G1 X153.018 Y154.08 E.05965
G1 X152.204 Y154.572 E.06223
G1 X151.313 Y154.902 E.06217
G1 X150.337 Y155.064 E.06473
G1 X149.426 Y155.043 E.05962
G1 X148.496 Y154.847 E.06219
G1 X148.376 Y154.798 E.00848
G1 X147.699 Y155.228 F4800
M204 S20000
G1 X148.347 Y155.227
M204 S1250
;TYPE:Perimeter
G1 F1200
G1 X147.355 Y154.808 E.07046
G1 X146.595 Y154.304 E.05967
G1 X145.852 Y153.594 E.06724
G1 X145.255 Y152.757 E.06727
G1 X144.787 Y151.714 E.0748
G1 X144.575 Y150.827 E.05967
G1 X144.516 Y149.801 E.06724
G1 X144.649 Y148.782 E.06724
G1 X144.97 Y147.805 E.06729
G1 X145.468 Y146.906 E.06724
G1 X146.124 Y146.115 E.06724
G1 X146.916 Y145.461 E.06721
G1 X147.904 Y144.927 E.07348
G1 X148.907 Y144.622 E.06859
G1 X149.794 Y144.517 E.05844
G1 X150.354 Y144.522 E.03664
G1 X151.343 Y144.679 E.06552
G1 X152.312 Y145.023 E.06728
G1 X153.199 Y145.541 E.06721
G1 X153.975 Y146.216 E.0673
G1 X154.515 Y146.899 E.05697
G1 X154.684 Y147.145 E.01953
G1 X155.085 Y147.935 E.05797
G1 X155.346 Y148.801 E.05918
G1 X155.411 Y149.13 E.02194
G1 X155.487 Y149.942 E.05336
G1 X155.402 Y150.966 E.06723
G1 X155.127 Y151.956 E.06723
G1 X154.687 Y152.85 E.0652
G1 X154.16 Y153.561 E.05791
G1 X153.975 Y153.784 E.01896
G1 X153.293 Y154.39 E.0597
G1 X152.847 Y154.67 E.03446
G1 X152.417 Y154.927 E.03278
G1 X151.456 Y155.291 E.06724
G1 X150.328 Y155.478 E.07481
G1 X149.416 Y155.457 E.05969
G1 X148.461 Y155.263 E.06376
;WIPE_START
G1 F3840
G1 X147.355 Y154.808 E-.71009
G1 X147.229 Y154.724 E-.08991
;WIPE_END
G1 Z1 F4800
M204 S20000
G1 X184.678 Y151.34
G1 Z.4
G1 E.8 F2400
M204 S1250
;TYPE:External perimeter
;WIDTH:0.729471
G1 F1200
G1 X184.4 Y151.095 E.03768
;WIPE_START
G1 F3840
G1 X184.678 Y151.34 E-.22002
;WIPE_END
G1 E-.57998 F2400
G1 Z1 F4800
M204 S20000
G1 X175.084 Y173.514
G1 Z.4
G1 E.8 F2400
M204 S1250
;WIDTH:0.622535
G1 F1200
G1 X174.939 Y173.537 E.01245
;WIDTH:0.600002
G1 X174.688 Y173.665 E.02289
;WIDTH:0.553625
G1 X174.437 Y173.793 E.02082
;WIDTH:0.507249
G1 X174.064 Y174.12 E.03302
;WIDTH:0.5
G1 X173.843 Y174.443 E.02561
G1 X173.676 Y174.964 E.0358
G1 X173.687 Y175.51 E.03573
G1 X173.875 Y176.023 E.03575
G1 X174.193 Y176.427 E.03364
G1 X174.62 Y176.709 E.03348
G1 X175.014 Y176.824 E.02686
G1 X175.432 Y176.861 E.02746
;WIDTH:0.52762
G1 X175.692 Y176.797 E.01869
;WIDTH:0.555241
G1 X175.952 Y176.734 E.01984
;WIDTH:0.595383
G1 X176.043 Y176.676 E.00869
;WIDTH:0.635525
G1 X176.134 Y176.618 E.00937
;WIDTH:0.675667
G1 X176.224 Y176.56 E.00998
;WIDTH:0.71581
G1 X176.315 Y176.502 E.01074
;WIDTH:0.755952
G1 X176.405 Y176.444 E.01134
G1 X176.352 Y176.539 E.01152
;WIDTH:0.71581
G1 X176.299 Y176.634 E.01083
;WIDTH:0.675667
G1 X176.245 Y176.73 E.01026
;WIDTH:0.635525
G1 X176.192 Y176.825 E.00945
;WIDTH:0.595383
G1 X176.138 Y176.92 E.0088
;WIDTH:0.555241
G1 X176.061 Y177.221 E.02304
;WIDTH:0.52762
G1 X175.983 Y177.522 E.0217
;WIDTH:0.5
G1 X175.33 Y178.125 E.05816
G1 X173.924 Y179.329 E.12112
G1 X173.203 Y179.418 E.04753
G1 X172.734 Y179.644 E.03406
G1 X172.424 Y180.036 E.0327
G1 X172.168 Y180.678 E.04522
G1 X171.442 Y181.191 E.05817
G1 X169.892 Y182.2 E.12101
G1 X169.33 Y182.182 E.03679
G1 X168.835 Y182.278 E.03299
G1 X168.535 Y182.458 E.02289
G1 X168.241 Y182.833 E.03118
G1 X167.971 Y183.311 E.03592
G1 X166.325 Y184.148 E.12082
G1 X165.518 Y184.522 E.0582
G1 X164.798 Y184.421 E.04757
G1 X164.299 Y184.511 E.03318
G1 X163.886 Y184.817 E.03363
G1 X163.474 Y185.369 E.04507
G1 X161.859 Y185.943 E.11215
G1 X160.879 Y186.252 E.06723
G1 X160.17 Y186.057 E.04811
G1 X159.667 Y186.085 E.03296
G1 X159.223 Y186.331 E.03321
G1 X158.741 Y186.826 E.04521
G1 X156.931 Y187.21 E.12107
G1 X156.056 Y187.362 E.05811
G1 X155.543 Y187.129 E.03687
G1 X155.082 Y187.035 E.03078
G1 X154.694 Y187.082 E.02557
G1 X154.259 Y187.331 E.0328
G1 X153.855 Y187.652 E.03376
G1 X152.014 Y187.796 E.12083
G1 X151.126 Y187.832 E.05815
G1 X151.022 Y187.771 E.00789
;WIDTH:0.54604
G1 X150.777 Y187.626 E.0207
;WIDTH:0.592081
G1 X150.532 Y187.481 E.02277
;WIDTH:0.635521
G1 X150.414 Y187.451 E.01057
;WIDTH:0.678961
G1 X150.297 Y187.422 E.0113
;WIDTH:0.722401
G1 X150.18 Y187.393 E.01212
;WIDTH:0.765841
G1 X150.063 Y187.364 E.01295
G1 X150.157 Y187.368 E.01011
;WIDTH:0.734297
G1 X150.252 Y187.373 E.00975
;WIDTH:0.702753
G1 X150.383 Y187.337 E.01324
;WIDTH:0.653893
G1 X150.515 Y187.301 E.01228
;WIDTH:0.605034
G1 X150.647 Y187.265 E.01122
;WIDTH:0.556174
G1 X150.779 Y187.23 E.01015
;WIDTH:0.507315
G1 X151.191 Y186.954 E.03302
;WIDTH:0.5
G1 X151.451 Y186.661 E.02563
G1 X151.681 Y186.165 E.03577
G1 X151.737 Y185.62 E.03585
G1 X151.614 Y185.089 E.03566
G1 X151.325 Y184.626 E.03571
G1 X150.926 Y184.293 E.034
G1 X150.455 Y184.107 E.03313
G1 X150.115 Y184.065 E.02242
G1 X149.575 Y184.143 E.0357
G1 X149.106 Y184.378 E.03432
G1 X148.75 Y184.732 E.03285
G1 X148.519 Y185.17 E.0324
G1 X148.436 Y185.495 E.02195
G1 X148.449 Y185.999 E.03299
G1 X148.616 Y186.498 E.03443
G1 X148.798 Y186.779 E.02191
G1 X149.202 Y187.132 E.0351
;WIDTH:0.541545
G1 X149.329 Y187.184 E.00988
;WIDTH:0.583091
G1 X149.455 Y187.236 E.01071
;WIDTH:0.624636
G1 X149.581 Y187.287 E.01157
;WIDTH:0.666182
G1 X149.708 Y187.339 E.01258
;WIDTH:0.712654
G1 X149.839 Y187.351 E.01303
;WIDTH:0.759126
G1 X149.97 Y187.362 E.01398
G1 X149.854 Y187.392 E.01274
;WIDTH:0.715069
G1 X149.738 Y187.422 E.01191
;WIDTH:0.671012
G1 X149.622 Y187.451 E.01105
;WIDTH:0.626955
G1 X149.506 Y187.481 E.01024
;WIDTH:0.582898
G1 X149.209 Y187.657 E.02711
;WIDTH:0.541449
G1 X148.912 Y187.833 E.02485
;WIDTH:0.5
G1 X148.023 Y187.798 E.05821
G1 X146.178 Y187.656 E.12108
G1 X145.615 Y187.214 E.04683
G1 X145.135 Y187.038 E.03345
G1 X144.617 Y187.095 E.0341
G1 X143.983 Y187.368 E.04517
G1 X143.106 Y187.217 E.05823
G1 X141.297 Y186.835 E.12098
G1 X140.912 Y186.424 E.03685
G1 X140.494 Y186.142 E.03299
G1 X140.155 Y186.058 E.02285
G1 X139.682 Y186.114 E.03117
G1 X139.153 Y186.261 E.03592
G1 X137.397 Y185.69 E.12082
G1 X136.562 Y185.383 E.05821
G1 X136.113 Y184.793 E.04851
G1 X135.695 Y184.51 E.03303
G1 X135.2 Y184.438 E.03273
G1 X134.517 Y184.537 E.04516
G1 X132.846 Y183.74 E.12114
G1 X132.059 Y183.327 E.05815
G1 X131.695 Y182.688 E.04812
G1 X131.32 Y182.351 E.03299
G1 X130.831 Y182.211 E.03328
G1 X130.143 Y182.221 E.04502
G1 X128.704 Y181.289 E.11218
G1 X127.863 Y180.7 E.06718
G1 X127.665 Y180.174 E.03677
G1 X127.406 Y179.782 E.03074
G1 X127.098 Y179.54 E.02563
G1 X126.613 Y179.408 E.03289
G1 X126.102 Y179.35 E.03365
G1 X124.698 Y178.15 E.12085
G1 X124.044 Y177.547 E.05821
G1 X124.015 Y177.433 E.0077
;WIDTH:0.532749
G1 X123.95 Y177.183 E.01824
;WIDTH:0.565498
G1 X123.884 Y176.932 E.01967
;WIDTH:0.613418
G1 X123.818 Y176.816 E.01112
;WIDTH:0.661338
G1 X123.751 Y176.7 E.01218
;WIDTH:0.709258
G1 X123.685 Y176.585 E.01306
;WIDTH:0.757178
G1 X123.618 Y176.469 E.01421
G1 X123.723 Y176.55 E.01407
;WIDTH:0.709258
G1 X123.828 Y176.63 E.013
;WIDTH:0.661338
G1 X123.933 Y176.71 E.012
;WIDTH:0.613418
G1 X124.038 Y176.79 E.011
;WIDTH:0.565498
G1 X124.297 Y176.875 E.02066
;WIDTH:0.532749
G1 X124.557 Y176.96 E.01931
;WIDTH:0.5
G1 X125.103 Y176.949 E.03573
G1 X125.616 Y176.761 E.03575
G1 X126.04 Y176.417 E.03573
G1 X126.33 Y175.953 E.0358
G1 X126.453 Y175.422 E.03566
G1 X126.397 Y174.877 E.03585
G1 X126.167 Y174.382 E.03571
G1 X125.789 Y173.988 E.03573
G1 X125.303 Y173.737 E.03579
G1 X124.762 Y173.659 E.03576
G1 X124.226 Y173.759 E.03568
G1 X123.75 Y174.029 E.03581
G1 X123.4 Y174.417 E.03419
G1 X123.196 Y174.877 E.03293
G1 X123.14 Y175.42 E.03572
;WIDTH:0.531269
G1 X123.203 Y175.686 E.01924
;WIDTH:0.562538
G1 X123.266 Y175.953 E.02066
;WIDTH:0.60268
G1 X123.324 Y176.043 E.00874
;WIDTH:0.642822
G1 X123.382 Y176.134 E.0095
;WIDTH:0.682964
G1 X123.44 Y176.224 E.0101
;WIDTH:0.723107
G1 X123.498 Y176.315 E.01086
;WIDTH:0.763249
G1 X123.556 Y176.405 E.01146
G1 X123.461 Y176.352 E.01164
;WIDTH:0.723107
G1 X123.366 Y176.298 E.011
;WIDTH:0.682964
G1 X123.27 Y176.245 E.01034
;WIDTH:0.642822
G1 X123.175 Y176.191 E.00962
;WIDTH:0.60268
G1 X123.08 Y176.138 E.00888
;WIDTH:0.562538
G1 X122.779 Y176.061 E.0234
;WIDTH:0.531269
G1 X122.478 Y175.983 E.02188
;WIDTH:0.5
G1 X121.875 Y175.33 E.05816
G1 X120.671 Y173.924 E.12112
G1 X120.579 Y173.194 E.04814
G1 X120.359 Y172.738 E.03313
G1 X119.964 Y172.424 E.03302
G1 X119.322 Y172.168 E.04522
G1 X118.809 Y171.442 E.05817
G1 X117.8 Y169.892 E.12101
G1 X117.818 Y169.33 E.03679
G1 X117.722 Y168.835 E.03299
G1 X117.494 Y168.484 E.02739
G1 X117.066 Y168.166 E.03489
G1 X116.691 Y167.971 E.02766
G1 X115.913 Y166.449 E.11184
G1 X115.478 Y165.517 E.0673
G1 X115.578 Y164.782 E.04853
G1 X115.482 Y164.288 E.03293
G1 X115.183 Y163.886 E.03278
G1 X114.631 Y163.474 E.04507
G1 X114.057 Y161.859 E.11215
G1 X113.748 Y160.879 E.06723
G1 X113.943 Y160.17 E.04811
G1 X113.915 Y159.667 E.03296
G1 X113.669 Y159.223 E.03321
G1 X113.175 Y158.742 E.04511
G1 X112.817 Y157.066 E.11214
G1 X112.639 Y156.055 E.06717
G1 X112.871 Y155.543 E.03678
G1 X112.965 Y155.082 E.03078
G1 X112.918 Y154.694 E.02557
G1 X112.668 Y154.257 E.03294
G1 X112.348 Y153.856 E.03357
G1 X112.258 Y152.836 E.067
G1 X112.168 Y151.124 E.11217
G1 X112.231 Y151.019 E.00801
;WIDTH:0.545634
G1 X112.375 Y150.775 E.02058
;WIDTH:0.591269
G1 X112.519 Y150.532 E.02255
;WIDTH:0.634707
G1 X112.549 Y150.414 E.01056
;WIDTH:0.678145
G1 X112.578 Y150.297 E.01128
;WIDTH:0.721583
G1 X112.607 Y150.18 E.01211
;WIDTH:0.765022
G1 X112.636 Y150.063 E.01293
G1 X112.632 Y150.158 E.0102
;WIDTH:0.733371
G1 X112.628 Y150.252 E.00962
;WIDTH:0.70172
G1 X112.663 Y150.384 E.01329
;WIDTH:0.652911
G1 X112.699 Y150.516 E.01226
;WIDTH:0.604102
G1 X112.735 Y150.647 E.01112
;WIDTH:0.555293
G1 X112.77 Y150.779 E.01013
;WIDTH:0.506485
G1 X113.046 Y151.191 E.03296
;WIDTH:0.5
G1 X113.339 Y151.451 E.02563
G1 X113.835 Y151.681 E.03577
G1 X114.379 Y151.737 E.03578
G1 X114.911 Y151.614 E.03573
G1 X115.374 Y151.325 E.03571
G1 X115.719 Y150.901 E.03577
G1 X115.907 Y150.388 E.03575
G1 X115.925 Y149.87 E.03391
G1 X115.782 Y149.383 E.03321
G1 X115.506 Y148.971 E.03245
G1 X115.213 Y148.711 E.02563
G1 X114.717 Y148.481 E.03577
G1 X114.206 Y148.42 E.03367
G1 X113.705 Y148.522 E.03345
G1 X113.23 Y148.793 E.03578
G1 X112.868 Y149.202 E.03574
;WIDTH:0.543224
G1 X112.816 Y149.328 E.00985
;WIDTH:0.586448
G1 X112.764 Y149.455 E.01085
;WIDTH:0.629672
G1 X112.712 Y149.581 E.01171
;WIDTH:0.672896
G1 X112.659 Y149.707 E.01268
;WIDTH:0.719368
G1 X112.649 Y149.838 E.01315
;WIDTH:0.765841
G1 X112.638 Y149.97 E.01423
G1 X112.608 Y149.854 E.01287
;WIDTH:0.721784
G1 X112.579 Y149.738 E.01201
;WIDTH:0.677727
G1 X112.549 Y149.621 E.01129
;WIDTH:0.63367
G1 X112.52 Y149.505 E.01035
;WIDTH:0.589614
G1 X112.343 Y149.209 E.02745
;WIDTH:0.544807
G1 X112.167 Y148.912 E.02503
;WIDTH:0.5
G1 X112.202 Y148.023 E.05821
G1 X112.344 Y146.178 E.12108
G1 X112.791 Y145.606 E.0475
G1 X112.963 Y145.114 E.0341
G1 X112.905 Y144.617 E.03274
G1 X112.632 Y143.983 E.04517
G1 X112.783 Y143.106 E.05823
G1 X113.165 Y141.297 E.12098
G1 X113.576 Y140.912 E.03685
G1 X113.858 Y140.494 E.03299
G1 X113.945 Y140.085 E.02736
G1 X113.867 Y139.558 E.03486
G1 X113.739 Y139.154 E.02773
G1 X114.266 Y137.528 E.11184
G1 X114.617 Y136.562 E.06725
G1 X115.207 Y136.112 E.04855
G1 X115.49 Y135.695 E.03297
G1 X115.562 Y135.2 E.03273
G1 X115.463 Y134.518 E.04509
G1 X116.199 Y132.97 E.11215
G1 X116.674 Y132.058 E.06728
G1 X117.312 Y131.695 E.04803
G1 X117.649 Y131.32 E.03299
G1 X117.789 Y130.831 E.03328
G1 X117.779 Y130.143 E.04502
G1 X118.711 Y128.704 E.11218
G1 X119.3 Y127.863 E.06718
G1 X119.826 Y127.665 E.03677
G1 X120.218 Y127.406 E.03074
G1 X120.454 Y127.106 E.02498
G1 X120.574 Y126.683 E.02877
G1 X120.65 Y126.104 E.03821
G1 X121.758 Y124.802 E.11186
G1 X122.453 Y124.044 E.06729
G1 X122.568 Y124.015 E.00776
;WIDTH:0.532748
G1 X122.818 Y123.95 E.01824
;WIDTH:0.565497
G1 X123.068 Y123.884 E.01959
;WIDTH:0.61486
G1 X123.187 Y123.815 E.0115
;WIDTH:0.664224
G1 X123.306 Y123.745 E.01262
;WIDTH:0.713587
G1 X123.425 Y123.676 E.01364
;WIDTH:0.762951
G1 X123.543 Y123.607 E.01462
G1 X123.464 Y123.706 E.01355
;WIDTH:0.718578
G1 X123.384 Y123.806 E.0128
;WIDTH:0.674206
G1 X123.305 Y123.906 E.01185
;WIDTH:0.629833
G1 X123.225 Y124.006 E.01101
;WIDTH:0.585461
G1 X123.136 Y124.254 E.0208
;WIDTH:0.54273
G1 X123.047 Y124.503 E.01909
;WIDTH:0.5
G1 X123.04 Y125.036 E.03488
G1 X123.186 Y125.509 E.03239
G1 X123.367 Y125.813 E.02315
G1 X123.746 Y126.167 E.03393
G1 X124.193 Y126.38 E.0324
G1 X124.578 Y126.453 E.02564
G1 X125.123 Y126.397 E.03585
G1 X125.618 Y126.167 E.03571
G1 X126.012 Y125.789 E.03573
G1 X126.263 Y125.303 E.03579
G1 X126.344 Y124.794 E.03372
G1 X126.263 Y124.29 E.0334
G1 X126.04 Y123.847 E.03245
G1 X125.824 Y123.59 E.02197
G1 X125.426 Y123.321 E.03143
G1 X124.904 Y123.154 E.03586
G1 X124.568 Y123.139 E.02201
;WIDTH:0.531269
G1 X124.308 Y123.202 E.01883
;WIDTH:0.562538
G1 X124.047 Y123.266 E.02024
;WIDTH:0.60268
G1 X123.957 Y123.324 E.00874
;WIDTH:0.642822
G1 X123.866 Y123.382 E.0095
;WIDTH:0.682964
G1 X123.776 Y123.44 E.0101
;WIDTH:0.723107
G1 X123.685 Y123.498 E.01086
;WIDTH:0.763249
G1 X123.595 Y123.556 E.01146
G1 X123.648 Y123.461 E.01164
;WIDTH:0.723107
G1 X123.702 Y123.366 E.011
;WIDTH:0.682964
G1 X123.755 Y123.27 E.01034
;WIDTH:0.642822
G1 X123.809 Y123.175 E.00962
;WIDTH:0.60268
G1 X123.862 Y123.08 E.00888
;WIDTH:0.562538
G1 X123.939 Y122.78 E.02333
;WIDTH:0.531269
G1 X124.017 Y122.48 E.02181
;WIDTH:0.5
G1 X125.289 Y121.332 E.11211
