; generated by PrusaSlicer 2.6.1+win64 on 2023-11-03 at 12:44:42 UTC


;
;
; 

; external perimeters extrusion width = 0.42mm
; perimeters extrusion width = 0.45mm
; infill extrusion width = 0.45mm
; solid infill extrusion width = 0.45mm
; top infill extrusion width = 0.42mm
; first layer extrusion width = 0.50mm

;TYPE:Custom
G90 ; use absolute coordinates
M83 ; extruder relative mode
M140 S60 ; set bed temp
M190 S60 ; wait for bed temp
M104 S215 ; set extruder temp
M109 S215 ; wait for extruder temp
G28                                        ; move X/Y/Z to min endstops
G1 Z0.28                                   ; lift nozzle a bit 
G92 E0 
G1 Y3 F2400                                    ; zero the extruded length 
G1 X180  E40 F500                       ; Extrude 25mm of filament in a 5cm line. 
G92 E0                                     ; zero the extruded length again 
G1 E-0.2 F3000                                ; Retract a little 
G1 X181 F4000                              ; Quickly wipe away from the filament line
M117
G21 ; set units to millimeters
G90 ; use absolute coordinates
M82 ; use absolute distances for extrusion
G92 E0
; Filament gcode
M106 S255
;LAYER_CHANGE
;Z:0.25
;HEIGHT:0.25
; BEFORE_LAYER_CHANGE 0 @ 0.25mm
G1 E-2.5 F4800
G92 E0
G1 Z-1.48 F18000
; AFTER_LAYER_CHANGE 0 @ 0.25mm
M204 S20000
G1 X113.804 Y98.919
G1 E2.5 F4800
M204 S5000
;TYPE:External perimeter
;WIDTH:0.499999
G1 X113.327 Y98.977 E2.52073
G1 X112.767 Y98.991 E2.5449
G1 X112.213 Y98.953 E2.56886
G1 X111.673 Y98.865 E2.59247
G1 X111.113 Y98.72 E2.61743
G1 X110.587 Y98.528 E2.64159
G1 X110.081 Y98.287 E2.66577
G1 X109.624 Y98.015 E2.68872
G1 X109.147 Y97.67 E2.71412
G1 X108.728 Y97.298 E2.73829
G1 X108.345 Y96.889 E2.76247
G1 X108.002 Y96.446 E2.78664
G1 X107.703 Y95.972 E2.81082
G1 X107.448 Y95.473 E2.835
G1 X107.242 Y94.952 E2.85917
G1 X107.086 Y94.414 E2.88334
G1 X106.98 Y93.864 E2.90751
G1 X106.927 Y93.306 E2.93169
G1 X106.926 Y92.803 E2.95339
G1 X106.977 Y92.188 E2.98002
G1 X107.081 Y91.637 E3.00421
G1 X107.236 Y91.099 E3.02837
G1 X107.44 Y90.577 E3.05255
G1 X107.692 Y90.077 E3.07671
G1 X107.99 Y89.602 E3.1009
G1 X108.315 Y89.179 E3.12392
G1 X108.713 Y88.747 E3.14926
G1 X109.131 Y88.374 E3.17343
G1 X109.582 Y88.042 E3.19759
G1 X110.062 Y87.753 E3.22176
G1 X110.567 Y87.511 E3.24592
G1 X111.093 Y87.317 E3.27011
G1 X111.635 Y87.173 E3.29431
G1 X112.711 Y87.044 E3.34107
G1 X113.307 Y87.053 E3.36679
G1 X113.863 Y87.117 E3.39094
G1 X114.411 Y87.234 E3.41512
G1 X114.946 Y87.401 E3.4393
G1 X115.462 Y87.617 E3.46343
G1 X115.957 Y87.881 E3.48763
G1 X116.424 Y88.19 E3.51179
G1 X116.86 Y88.542 E3.53597
G1 X117.262 Y88.933 E3.56017
G1 X117.625 Y89.359 E3.58432
G1 X117.946 Y89.818 E3.60849
G1 X118.195 Y90.254 E3.63015
G1 X118.454 Y90.816 E3.65685
G1 X118.636 Y91.346 E3.68103
G1 X118.767 Y91.891 E3.70521
G1 X118.846 Y92.445 E3.72935
G1 X118.873 Y93.005 E3.75354
G1 X118.848 Y93.565 E3.77773
G1 X118.771 Y94.12 E3.8019
G1 X118.641 Y94.665 E3.82607
;WIDTH:0.544724
G1 X118.603 Y94.849 E3.83499
;WIDTH:0.58945
G1 X118.564 Y95.033 E3.84473
;WIDTH:0.634176
G1 X118.525 Y95.217 E3.85528
;WIDTH:0.647659
G1 X118.3 Y95.737 E3.88781
G1 X118.186 Y95.89 E3.89877
;WIDTH:0.598439
G1 X118.072 Y96.042 E3.90878
;WIDTH:0.549219
G1 X117.958 Y96.195 E3.91792
;WIDTH:0.499999
G1 X117.638 Y96.655 E3.9421
G1 X117.276 Y97.083 E3.96629
G1 X116.876 Y97.475 E3.99045
G1 X116.441 Y97.828 E4.01462
G1 X115.975 Y98.139 E4.03879
G1 X115.481 Y98.404 E4.06298
G1 X114.493 Y98.772 E4.10847
G1 X113.864 Y98.912 E4.13627
M204 S20000
G1 X113.669 Y99.296 F18000
;WIPE_START
G1 F14400
G1 X113.327 Y98.977 E3.96498
G1 X112.767 Y98.991 E3.78759
G1 X112.213 Y98.953 E3.61174
G1 X111.673 Y98.865 E3.43848
G1 X111.113 Y98.72 E3.2553
G1 X110.587 Y98.528 E3.07798
G1 X110.081 Y98.287 E2.9005
G1 X109.624 Y98.015 E2.73209
G1 X109.147 Y97.67 E2.54567
G1 X108.728 Y97.298 E2.36824
G1 X108.345 Y96.889 E2.1908
G1 X108.002 Y96.446 E2.01338
G1 X107.703 Y95.972 E1.83591
G1 X107.448 Y95.473 E1.65846
G1 X107.422 Y95.408 E1.63627
;WIPE_END
G92 E0
G1 X147.785 Y94.551 F18000
G1 E2.5 F4800
M204 S5000
;WIDTH:0.568078
G1 X147.588 Y94.383 E2.51287
;WIDTH:0.524778
G1 X147.39 Y94.215 E2.5247
;WIDTH:0.497296
G1 X147.277 Y94.091 E2.53189
M204 S20000
;WIPE_START
G1 F14400
G1 X147.39 Y94.215 E2.47876
G1 X147.588 Y94.383 E2.39653
G1 X147.785 Y94.551 E2.31454
;WIPE_END
G1 E.03189 F4800
G92 E0
G1 X138.779 Y116.537 F18000
G1 E2.5 F4800
M204 S5000
;WIDTH:0.499999
G1 X139.108 Y116.499 E2.51429
G1 X139.479 Y116.393 E2.53094
G1 X140.102 Y116.327 E2.55797
G1 X140.705 Y116.176 E2.58479
G1 X141.152 Y115.894 E2.60759
G1 X141.685 Y115.244 E2.64386
;WIDTH:0.511658
G1 X142.158 Y114.685 E2.67628
;WIDTH:0.529318
G1 X142.851 Y113.983 E2.72164
G1 X143.375 Y113.278 E2.76203
;WIDTH:0.536054
G1 X143.638 Y112.808 E2.78714
;WIDTH:0.568209
G1 X143.901 Y112.338 E2.81393
G1 X144.039 Y111.979 E2.83306
;WIDTH:0.539326
G1 X144.176 Y111.621 E2.85106
;WIDTH:0.510443
G1 X144.506 Y110.996 E2.88227
;WIDTH:0.522477
G1 X144.799 Y110.587 E2.90507
;WIDTH:0.571974
G1 X145.137 Y110.175 E2.93177
G1 X145.3 Y109.929 E2.94656
;WIDTH:0.542118
G1 X145.462 Y109.684 E2.96043
;WIDTH:0.512261
G1 X145.86 Y108.91 E2.99901
;WIDTH:0.536069
G1 X146.009 Y108.511 E3.01887
;WIDTH:0.569058
G1 X146.158 Y108.112 E3.04009
G1 X146.253 Y107.72 E3.06018
;WIDTH:0.541203
G1 X146.348 Y107.328 E3.07919
;WIDTH:0.513348
G1 X146.582 Y106.734 E3.10756
;WIDTH:0.523087
G1 X146.861 Y106.215 E3.1343
;WIDTH:0.524104
G1 X147.284 Y105.457 E3.17377
G1 X147.6 Y104.646 E3.21335
;WIDTH:0.533836
G1 X147.722 Y104.145 E3.23728
;WIDTH:0.568567
G1 X147.845 Y103.643 E3.26301
G1 X147.881 Y103.275 E3.28141
;WIDTH:0.540362
G1 X147.918 Y102.907 E3.29881
;WIDTH:0.512157
G1 X148.05 Y102.34 E3.32461
;WIDTH:0.526333
G1 X148.291 Y101.663 E3.35744
;WIDTH:0.544489
G1 X148.56 Y101.047 E3.38933
G1 X148.782 Y100.208 E3.43051
;WIDTH:0.539306
G1 X148.918 Y99.236 E3.47658
G1 X148.92 Y98.669 E3.5032
;WIDTH:0.53255
G1 X148.922 Y98.03 E3.53278
;WIDTH:0.503932
G1 X149.074 Y96.867 E3.58383
;WIDTH:0.499999
G1 X149.017 Y96.373 E3.60529
G1 X148.819 Y95.932 E3.62615
G1 X148.228 Y95.226 E3.66587
;WIDTH:0.529241
G1 X148.025 Y94.91 E3.68314
;WIDTH:0.558482
G1 X147.821 Y94.594 E3.70149
G1 X147.973 Y94.623 E3.70904
;WIDTH:0.530221
G1 X148.124 Y94.653 E3.71613
;WIDTH:0.50196
G1 X148.994 Y94.816 E3.75449
;WIDTH:0.499999
G1 X149.383 Y94.735 E3.77163
G1 X149.785 Y94.424 E3.79356
G1 X150.08 Y93.968 E3.81699
G1 X150.281 Y93.541 E3.83735
G1 X150.591 Y94.081 E3.86421
G1 X150.335 Y94.897 E3.90111
G1 X149.996 Y95.73 E3.93991
G1 X149.838 Y96.237 E3.96282
G1 X149.794 Y96.603 E3.97872
G1 X149.643 Y97.019 E3.99781
;WIDTH:0.503932
G1 X149.444 Y97.514 E4.02103
;WIDTH:0.506584
G1 X149.365 Y98.139 E4.04861
;WIDTH:0.536555
G1 X149.403 Y98.543 E4.06755
;WIDTH:0.566525
G1 X149.441 Y98.948 E4.08772
G1 X149.374 Y99.448 E4.11273
;WIDTH:0.526089
G1 X149.213 Y100.346 E4.15439
;WIDTH:0.535612
G1 X149.08 Y100.91 E4.18139
;WIDTH:0.566994
G1 X148.946 Y101.474 E4.21016
G1 X148.656 Y102 E4.23996
;WIDTH:0.522936
G1 X148.45 Y102.54 E4.26618
;WIDTH:0.517273
G1 X148.364 Y103.033 E4.28861
;WIDTH:0.54292
G1 X148.361 Y103.351 E4.30365
;WIDTH:0.568567
G1 X148.358 Y103.669 E4.31948
G1 X148.261 Y104.016 E4.33741
;WIDTH:0.539907
G1 X148.005 Y104.836 E4.37779
;WIDTH:0.533049
G1 X147.783 Y105.455 E4.40826
;WIDTH:0.567767
G1 X147.562 Y106.073 E4.44088
G1 X147.225 Y106.512 E4.46838
;WIDTH:0.518951
G1 X146.957 Y106.981 E4.49268
;WIDTH:0.515269
G1 X146.754 Y107.577 E4.52077
;WIDTH:0.542164
G1 X146.709 Y107.892 E4.5358
;WIDTH:0.569058
G1 X146.663 Y108.207 E4.55166
G1 X146.464 Y108.675 E4.577
;WIDTH:0.524502
G1 X146.249 Y109.136 E4.60015
;WIDTH:0.516044
G1 X145.837 Y109.956 E4.64117
;WIDTH:0.544009
G1 X145.698 Y110.221 E4.65535
;WIDTH:0.571974
G1 X145.56 Y110.485 E4.67028
G1 X145.169 Y110.875 E4.69795
;WIDTH:0.522477
G1 X144.839 Y111.307 E4.72259
;WIDTH:0.523154
G1 X144.551 Y111.915 E4.75312
;WIDTH:0.568209
G1 X144.39 Y112.494 E4.78301
G1 X144.21 Y112.813 E4.80123
;WIDTH:0.540976
G1 X143.721 Y113.569 E4.84364
;WIDTH:0.535437
G1 X143.339 Y114.102 E4.87418
;WIDTH:0.567444
G1 X142.957 Y114.635 E4.90675
G1 X142.688 Y114.85 E4.92385
;WIDTH:0.537962
G1 X142.419 Y115.066 E4.94
;WIDTH:0.508479
G1 X142.028 Y115.521 E4.96638
;WIDTH:0.499348
G1 X141.874 Y115.824 E4.98102
;WIDTH:0.499999
G1 X141.6 Y116.443 E5.01023
G1 X141.371 Y116.771 E5.02749
G1 X141.138 Y117.239 E5.05005
G1 X140.757 Y118.156 E5.09289
G1 X140.359 Y118.888 E5.12884
G1 X139.805 Y119.031 E5.15353
G1 X139.952 Y118.616 E5.17253
G1 X140.108 Y117.971 E5.20116
G1 X140.049 Y117.541 E5.21989
G1 X139.844 Y117.229 E5.236
G1 X139.207 Y116.733 E5.27083
G1 X138.834 Y116.562 E5.28853
M204 S20000
G1 X139.108 Y116.575 F18000
;WIPE_START
G1 F14400
G1 X139.108 Y116.499 E5.1995
G1 X139.479 Y116.393 E5.07732
G1 X140.102 Y116.327 E4.87893
G1 X140.705 Y116.176 E4.68208
G1 X141.152 Y115.894 E4.51472
G1 X141.685 Y115.244 E4.24853
G1 X142.158 Y114.685 E4.01665
G1 X142.851 Y113.983 E3.70428
G1 X143.375 Y113.278 E3.42612
G1 X143.638 Y112.808 E3.25557
G1 X143.901 Y112.338 E3.08502
G1 X144.039 Y111.979 E2.96323
G1 X144.176 Y111.621 E2.84185
G1 X144.255 Y111.472 E2.78853
;WIPE_END
G92 E0
G1 X138.954 Y119.844 F18000
G1 E2.5 F4800
M204 S5000
G1 X138.797 Y120.422 E2.52584
G1 X138.041 Y120.818 E2.56266
G1 X137.217 Y121.149 E2.60097
G1 X136.679 Y121.406 E2.62669
G1 X136.44 Y121.48 E2.63748
G1 X135.871 Y121.565 E2.6623
G1 X135.329 Y121.78 E2.68746
G1 X134.957 Y122.052 E2.70734
G1 X134.698 Y122.352 E2.72444
G1 X134.469 Y122.737 E2.74377
G1 X134.308 Y123.126 E2.76193
G1 X133.83 Y123.464 E2.78719
G1 X132.545 Y124.303 E2.8534
G1 X131.732 Y124.356 E2.88855
G1 X131.117 Y124.594 E2.917
G1 X130.605 Y125.034 E2.94613
G1 X130.201 Y125.659 E2.97824
G1 X128.832 Y126.352 E3.04444
G1 X128.295 Y126.601 E3.06998
G1 X127.463 Y126.55 E3.10594
G1 X126.838 Y126.703 E3.1337
G1 X126.274 Y127.072 E3.16278
G1 X125.791 Y127.64 E3.19495
G1 X125.236 Y127.844 E3.22046
G1 X123.784 Y128.321 E3.2864
G1 X123.409 Y128.219 E3.30317
G1 X123.026 Y128.168 E3.31984
G1 X122.601 Y128.175 E3.33818
G1 X122.111 Y128.307 E3.36007
G1 X121.589 Y128.618 E3.38629
G1 X121.16 Y129.026 E3.41183
G1 X119.661 Y129.341 E3.47792
G1 X119.085 Y129.441 E3.50314
G1 X118.724 Y129.29 E3.52002
G1 X118.354 Y129.19 E3.53656
G1 X117.875 Y129.142 E3.55733
G1 X117.353 Y129.239 E3.58024
G1 X116.824 Y129.475 E3.60523
G1 X116.399 Y129.81 E3.62858
G1 X116.189 Y129.924 E3.63889
G1 X115.226 Y130.323 E3.68386
;WIDTH:0.542163
G1 X114.953 Y130.406 E3.69733
;WIDTH:0.584326
G1 X114.025 Y130.694 E3.74717
;WIDTH:0.563637
G1 X113.601 Y130.444 E3.77143
G1 X114.543 Y129.951 E3.82384
;WIDTH:0.563184
G1 X114.793 Y129.71 E3.84094
;WIDTH:0.531592
G1 X115.043 Y129.469 E3.85698
;WIDTH:0.499999
G1 X115.259 Y129.125 E3.87451
G1 X115.403 Y128.726 E3.89281
G1 X115.451 Y128.293 E3.91161
G1 X115.376 Y127.85 E3.931
G1 X115.211 Y127.446 E3.94983
G1 X114.966 Y127.084 E3.96869
G1 X114.666 Y126.776 E3.98724
G1 X114.319 Y126.524 E4.00574
G1 X113.936 Y126.333 E4.02421
G1 X113.527 Y126.208 E4.04266
G1 X113.103 Y126.152 E4.06111
G1 X112.675 Y126.167 E4.07959
G1 X112.256 Y126.252 E4.09804
G1 X111.856 Y126.404 E4.1165
G1 X111.546 Y126.586 E4.13201
G1 X111.159 Y126.896 E4.1534
G1 X110.882 Y127.223 E4.17189
G1 X110.669 Y127.6 E4.19057
G1 X110.538 Y128.016 E4.20939
G1 X110.506 Y128.451 E4.22821
G1 X110.604 Y128.891 E4.24766
G1 X110.78 Y129.265 E4.26549
G1 X111.039 Y129.584 E4.28322
G1 X111.357 Y129.847 E4.30102
G1 X112.351 Y130.411 E4.35033
G1 X111.831 Y130.71 E4.37621
G1 X111.017 Y130.454 E4.41303
G1 X110.215 Y130.112 E4.45065
G1 X109.638 Y129.907 E4.47707
G1 X109.416 Y129.79 E4.4879
G1 X108.955 Y129.448 E4.51267
G1 X108.412 Y129.215 E4.53816
G1 X107.964 Y129.146 E4.55772
G1 X107.555 Y129.176 E4.57541
G1 X107.134 Y129.286 E4.59418
G1 X106.745 Y129.447 E4.61234
G1 X106.168 Y129.348 E4.6376
G1 X104.666 Y129.033 E4.70381
G1 X104.055 Y128.495 E4.73893
G1 X103.411 Y128.225 E4.76906
G1 X102.777 Y128.177 E4.79649
G1 X102.05 Y128.334 E4.82858
G1 X100.592 Y127.856 E4.89478
G1 X100.037 Y127.652 E4.92029
G1 X99.485 Y127.028 E4.95623
G1 X98.934 Y126.694 E4.98403
G1 X98.274 Y126.556 E5.01312
G1 X97.533 Y126.616 E5.0452
G1 X96.15 Y125.952 E5.11139
G1 X95.632 Y125.68 E5.13663
G1 X95.437 Y125.342 E5.15347
G1 X95.203 Y125.035 E5.17012
G1 X94.897 Y124.739 E5.18849
G1 X94.458 Y124.486 E5.21035
G1 X93.868 Y124.336 E5.23662
G1 X93.276 Y124.321 E5.26217
G1 X92.057 Y123.527 E5.32494
G1 X91.516 Y123.147 E5.35346
G1 X91.367 Y122.786 E5.37031
G1 X91.177 Y122.455 E5.38678
G1 X90.876 Y122.085 E5.40736
G1 X90.438 Y121.782 E5.43034
G1 X89.893 Y121.573 E5.45552
G1 X89.355 Y121.509 E5.4789
G1 X89.126 Y121.442 E5.48919
G1 X88.163 Y121.043 E5.53416
;WIDTH:0.542163
G1 X87.912 Y120.909 E5.5476
;WIDTH:0.584327
G1 X87.051 Y120.456 E5.59751
;WIDTH:0.563637
G1 X86.928 Y119.979 E5.62179
G1 X87.944 Y120.297 E5.67427
;WIDTH:0.563187
G1 X88.291 Y120.303 E5.69136
;WIDTH:0.531593
G1 X88.638 Y120.309 E5.70739
;WIDTH:0.499999
G1 X89.033 Y120.22 E5.72486
G1 X89.416 Y120.039 E5.74314
G1 X89.758 Y119.768 E5.76197
G1 X90.019 Y119.399 E5.78147
G1 X90.187 Y118.998 E5.80023
G1 X90.274 Y118.538 E5.82043
G1 X90.262 Y118.036 E5.8421
G1 X90.126 Y117.467 E5.86734
G1 X89.871 Y116.932 E5.89291
G1 X89.611 Y116.593 E5.91134
G1 X89.269 Y116.278 E5.9314
G1 X88.752 Y115.978 E5.95719
G1 X88.204 Y115.798 E5.98208
G1 X87.711 Y115.744 E6.00348
G1 X87.283 Y115.78 E6.02201
G1 X86.867 Y115.895 E6.04063
G1 X86.48 Y116.097 E6.05946
G1 X86.149 Y116.383 E6.07833
G1 X85.908 Y116.762 E6.09771
G1 X85.768 Y117.151 E6.11555
G1 X85.725 Y117.56 E6.13329
G1 X85.764 Y117.971 E6.1511
G1 X86.068 Y119.073 E6.20042
G1 X85.49 Y118.916 E6.22626
G1 X85.094 Y118.16 E6.26308
G1 X84.77 Y117.351 E6.30068
G1 X84.506 Y116.798 E6.32712
G1 X84.432 Y116.558 E6.33796
G1 X84.347 Y115.99 E6.36274
G1 X84.132 Y115.448 E6.3879
G1 X83.86 Y115.076 E6.40778
G1 X83.551 Y114.809 E6.4254
G1 X83.175 Y114.588 E6.44422
G1 X82.786 Y114.426 E6.4624
G1 X82.448 Y113.948 E6.48766
G1 X81.609 Y112.664 E6.55384
G1 X81.556 Y111.851 E6.58899
G1 X81.292 Y111.204 E6.61914
G1 X80.878 Y110.723 E6.64652
G1 X80.253 Y110.32 E6.67861
G1 X79.593 Y109.019 E6.74155
G1 X79.311 Y108.414 E6.77035
G1 X79.362 Y107.582 E6.80631
G1 X79.209 Y106.957 E6.83407
G1 X78.84 Y106.393 E6.86315
G1 X78.274 Y105.911 E6.89523
G1 X77.789 Y104.535 E6.95818
G1 X77.591 Y103.905 E6.98667
G1 X77.693 Y103.528 E7.00352
G1 X77.744 Y103.148 E7.02006
G1 X77.737 Y102.72 E7.03853
G1 X77.605 Y102.23 E7.06042
G1 X77.294 Y101.707 E7.08667
G1 X76.886 Y101.278 E7.11221
G1 X76.586 Y99.854 E7.175
G1 X76.472 Y99.203 E7.20351
G1 X76.622 Y98.843 E7.22034
G1 X76.722 Y98.475 E7.23679
G1 X76.77 Y97.994 E7.25765
G1 X76.673 Y97.472 E7.28056
G1 X76.437 Y96.943 E7.30555
G1 X76.102 Y96.517 E7.32893
G1 X75.988 Y96.308 E7.3392
G1 X75.589 Y95.345 E7.38417
;WIDTH:0.542163
G1 X75.506 Y95.072 E7.39764
;WIDTH:0.584326
G1 X75.218 Y94.144 E7.44748
;WIDTH:0.563636
G1 X75.468 Y93.719 E7.47179
G1 X75.961 Y94.662 E7.52425
;WIDTH:0.563181
G1 X76.202 Y94.912 E7.54135
;WIDTH:0.53159
G1 X76.443 Y95.162 E7.55739
;WIDTH:0.499999
G1 X76.786 Y95.378 E7.57488
G1 X77.185 Y95.521 E7.59317
G1 X77.618 Y95.57 E7.61197
G1 X78.063 Y95.495 E7.63144
G1 X78.466 Y95.33 E7.65023
G1 X78.828 Y95.085 E7.66909
G1 X79.136 Y94.785 E7.68764
G1 X79.388 Y94.438 E7.70614
G1 X79.595 Y94.009 E7.72669
G1 X79.736 Y93.398 E7.75374
G1 X79.745 Y92.807 E7.77924
G1 X79.671 Y92.428 E7.7959
G1 X79.508 Y91.975 E7.81667
G1 X79.327 Y91.666 E7.83212
G1 X79.016 Y91.278 E7.85357
G1 X78.688 Y91.001 E7.87209
G1 X78.313 Y90.788 E7.8907
G1 X77.896 Y90.657 E7.90956
G1 X77.46 Y90.625 E7.92842
G1 X77.022 Y90.723 E7.94778
G1 X76.647 Y90.899 E7.96565
G1 X76.328 Y91.157 E7.98335
G1 X76.065 Y91.476 E8.00119
G1 X75.501 Y92.47 E8.0505
G1 X75.202 Y91.95 E8.07638
G1 X75.458 Y91.136 E8.1132
G1 X75.8 Y90.334 E8.15082
G1 X76.005 Y89.757 E8.17724
G1 X76.122 Y89.535 E8.18807
G1 X76.464 Y89.073 E8.21287
G1 X76.697 Y88.53 E8.23836
G1 X76.766 Y88.082 E8.25792
G1 X76.736 Y87.674 E8.27557
G1 X76.626 Y87.253 E8.29434
G1 X76.465 Y86.864 E8.3125
G1 X76.564 Y86.287 E8.33776
G1 X76.879 Y84.785 E8.40397
G1 X77.417 Y84.173 E8.43913
