; generated by PrusaSlicer 2.6.1+win64 on 2023-12-04 at 15:39:09 UTC


;
;
; 

; external perimeters extrusion width = 0.42mm
; perimeters extrusion width = 0.45mm
; infill extrusion width = 0.45mm
; solid infill extrusion width = 0.45mm
; top infill extrusion width = 0.42mm
; first layer extrusion width = 0.50mm

;TYPE:Custom
G90 ; use absolute coordinates
M83 ; extruder relative mode
M140 S60 ; set bed temp
M190 S60 ; wait for bed temp
M104 S210 ; set extruder temp
M109 S210 ; wait for extruder temp
G28                                        ; move X/Y/Z to min endstops
G1 Z0.28                                   ; lift nozzle a bit 
G92 E0 
G1 Y3 F2400                                    ; zero the extruded length 
G1 X180  E40 F500                       ; Extrude 25mm of filament in a 5cm line. 
G92 E0                                     ; zero the extruded length again 
G1 E-0.2 F3000                                ; Retract a little 
G1 X181 F4000                              ; Quickly wipe away from the filament line
M117
G21 ; set units to millimeters
G90 ; use absolute coordinates
M82 ; use absolute distances for extrusion
G92 E0
; Filament gcode
M107
;LAYER_CHANGE
;Z:0.24
;HEIGHT:0.24
; BEFORE_LAYER_CHANGE 0 @ 0.24mm
G1 E-2.5 F4800
G92 E0
G1 Z-1.44 F18000
; AFTER_LAYER_CHANGE 0 @ 0.24mm
M204 S20000
G1 X107.719 Y108.295
G1 E2.5 F4800
M204 S5000
;TYPE:Skirt/Brim
;WIDTH:0.5
G1 F1440
G1 X108.344 Y107.674 E2.53746
G1 X108.682 Y107.381 E2.55648
G1 X109.218 Y106.967 E2.58527
G1 X109.955 Y106.484 E2.62273
G1 X110.345 Y106.265 E2.64175
G1 X110.953 Y105.967 E2.67054
G1 X111.772 Y105.643 E2.70798
G1 X112.199 Y105.507 E2.72703
G1 X112.854 Y105.337 E2.7558
G1 X113.722 Y105.185 E2.79326
G1 X114.167 Y105.138 E2.81228
G1 X114.843 Y105.103 E2.84106
G1 X115.644 Y105.123 E2.87512
G1 X116.537 Y105.222 E2.91332
G1 X117.063 Y105.321 E2.93607
G1 X117.628 Y105.457 E2.96078
G1 X118.49 Y105.738 E2.99932
G1 X119.34 Y106.106 E3.0387
G1 X120.162 Y106.555 E3.07852
G1 X120.93 Y107.075 E3.11795
G1 X121.349 Y107.408 E3.1407
G1 X121.784 Y107.792 E3.16537
G1 X122.393 Y108.418 E3.2025
G1 X122.682 Y108.76 E3.22154
G1 X123.091 Y109.299 E3.25031
G1 X123.528 Y109.976 E3.28457
G1 X123.976 Y110.832 E3.32564
G1 X124.353 Y111.762 E3.3683
G1 X124.597 Y112.577 E3.40447
G1 X124.771 Y113.42 E3.44106
G1 X124.832 Y113.864 E3.46011
G1 X124.887 Y114.544 E3.48911
G1 X124.887 Y115.459 E3.52801
G1 X124.833 Y116.133 E3.55676
G1 X124.772 Y116.576 E3.57577
G1 X124.601 Y117.406 E3.6118
G1 X124.482 Y117.837 E3.63081
G1 X124.267 Y118.479 E3.65959
G1 X123.931 Y119.267 E3.69601
G1 X123.526 Y120.027 E3.73262
G1 X123.163 Y120.598 E3.76139
G1 X122.902 Y120.961 E3.7804
G1 X122.363 Y121.615 E3.81643
G1 X122.056 Y121.941 E3.83547
G1 X121.565 Y122.407 E3.86425
G1 X120.881 Y122.962 E3.9017
G1 X120.515 Y123.219 E3.92071
G1 X119.94 Y123.577 E3.94951
G1 X119.195 Y123.965 E3.98522
G1 X118.417 Y124.29 E4.02107
G1 X117.993 Y124.434 E4.04011
G1 X117.341 Y124.617 E4.0689
G1 X116.443 Y124.792 E4.1078
G1 X115.77 Y124.868 E4.13659
G1 X115.323 Y124.893 E4.15562
G1 X114.442 Y124.882 E4.19308
G1 X113.764 Y124.82 E4.22202
G1 X113.321 Y124.755 E4.24106
G1 X112.467 Y124.568 E4.27823
G1 X111.813 Y124.37 E4.30728
G1 X111.392 Y124.217 E4.32632
G1 X110.624 Y123.878 E4.36201
G1 X109.887 Y123.475 E4.39772
G1 X109.313 Y123.1 E4.42687
G1 X108.868 Y122.768 E4.45047
G1 X108.287 Y122.273 E4.48292
G1 X107.802 Y121.794 E4.5119
G1 X107.502 Y121.461 E4.53095
G1 X106.961 Y120.775 E4.56809
G1 X106.582 Y120.206 E4.59716
G1 X106.355 Y119.82 E4.6162
G1 X105.977 Y119.069 E4.65194
G1 X105.666 Y118.293 E4.68748
G1 X105.461 Y117.641 E4.71654
G1 X105.351 Y117.207 E4.73557
G1 X105.194 Y116.347 E4.77274
G1 X105.125 Y115.667 E4.8018
G1 X105.104 Y115.219 E4.82087
G1 X105.12 Y114.4 E4.8557
G1 X105.205 Y113.578 E4.89083
G1 X105.279 Y113.137 E4.90984
G1 X105.429 Y112.476 E4.93866
G1 X105.697 Y111.62 E4.97679
G1 X105.895 Y111.123 E4.99953
G1 X106.136 Y110.596 E5.02417
G1 X106.538 Y109.866 E5.0596
G1 X107.006 Y109.164 E5.09547
G1 X107.278 Y108.809 E5.11448
G1 X107.68 Y108.341 E5.14071
M204 S20000
G1 X108.02 Y108.633 F18000
M204 S5000
G1 F1440
G1 X108.643 Y108.008 E5.17823
G1 X108.962 Y107.732 E5.19616
G1 X109.485 Y107.327 E5.22428
G1 X110.181 Y106.872 E5.25963
G1 X110.548 Y106.665 E5.27754
G1 X111.143 Y106.374 E5.3057
G1 X111.916 Y106.068 E5.34104
G1 X112.317 Y105.94 E5.35894
G1 X112.958 Y105.774 E5.38709
G1 X113.777 Y105.63 E5.42244
G1 X114.196 Y105.585 E5.44036
G1 X114.857 Y105.552 E5.4685
G1 X115.623 Y105.571 E5.50108
G1 X116.463 Y105.664 E5.53701
G1 X116.964 Y105.758 E5.55868
G1 X117.514 Y105.891 E5.58274
G1 X118.322 Y106.154 E5.61886
G1 X119.135 Y106.505 E5.65651
G1 X119.937 Y106.943 E5.69536
G1 X120.657 Y107.431 E5.73234
G1 X121.056 Y107.748 E5.754
G1 X121.48 Y108.123 E5.77806
G1 X122.056 Y108.715 E5.81318
G1 X122.329 Y109.036 E5.83109
G1 X122.728 Y109.563 E5.85919
G1 X123.146 Y110.21 E5.89194
G1 X123.573 Y111.03 E5.93124
G1 X123.933 Y111.92 E5.97206
G1 X124.164 Y112.696 E6.00648
G1 X124.328 Y113.489 E6.04091
G1 X124.386 Y113.907 E6.05885
G1 X124.44 Y114.572 E6.08721
G1 X124.44 Y115.432 E6.12377
G1 X124.386 Y116.09 E6.15184
G1 X124.329 Y116.507 E6.16973
G1 X124.167 Y117.294 E6.20389
G1 X124.055 Y117.7 E6.2218
G1 X123.844 Y118.327 E6.24992
G1 X123.522 Y119.082 E6.28481
G1 X123.143 Y119.793 E6.31906
G1 X122.788 Y120.351 E6.34718
G1 X122.542 Y120.693 E6.36509
G1 X122.031 Y121.313 E6.39925
G1 X121.743 Y121.62 E6.41715
G1 X121.263 Y122.076 E6.4453
G1 X120.617 Y122.599 E6.48064
G1 X120.272 Y122.842 E6.49858
G1 X119.711 Y123.192 E6.52669
G1 X118.997 Y123.562 E6.56088
G1 X118.265 Y123.868 E6.59461
G1 X117.866 Y124.004 E6.61253
G1 X117.228 Y124.183 E6.6407
G1 X116.384 Y124.347 E6.67725
G1 X115.726 Y124.421 E6.7054
G1 X115.306 Y124.445 E6.72328
G1 X114.474 Y124.435 E6.75865
G1 X113.812 Y124.374 E6.78691
G1 X113.395 Y124.312 E6.80483
G1 X112.589 Y124.137 E6.83989
G1 X111.949 Y123.943 E6.86832
G1 X111.553 Y123.798 E6.88625
G1 X110.83 Y123.479 E6.91985
G1 X110.124 Y123.094 E6.95404
G1 X109.564 Y122.729 E6.98246
G1 X109.143 Y122.414 E7.00481
G1 X108.596 Y121.948 E7.03536
G1 X108.122 Y121.479 E7.06371
G1 X107.84 Y121.166 E7.08162
G1 X107.329 Y120.518 E7.1167
G1 X106.959 Y119.962 E7.14509
G1 X106.745 Y119.599 E7.163
G1 X106.39 Y118.893 E7.1966
G1 X106.091 Y118.15 E7.23065
G1 X105.891 Y117.513 E7.25903
G1 X105.788 Y117.104 E7.27696
G1 X105.639 Y116.292 E7.31206
G1 X105.572 Y115.628 E7.34043
G1 X105.553 Y115.206 E7.35839
G1 X105.568 Y114.436 E7.39113
G1 X105.648 Y113.645 E7.42493
G1 X105.718 Y113.23 E7.44282
G1 X105.865 Y112.584 E7.47099
G1 X106.117 Y111.778 E7.50689
G1 X106.305 Y111.304 E7.52857
G1 X106.54 Y110.79 E7.5526
G1 X106.926 Y110.091 E7.58655
G1 X107.366 Y109.431 E7.62027
G1 X107.622 Y109.096 E7.63819
G1 X107.981 Y108.678 E7.66162
M204 S20000
G1 X108.321 Y108.97 F18000
M204 S5000
G1 F1440
G1 X108.943 Y108.342 E7.6992
G1 X109.241 Y108.083 E7.71599
G1 X109.753 Y107.687 E7.74351
G1 X110.407 Y107.259 E7.77674
G1 X110.752 Y107.065 E7.79357
G1 X111.332 Y106.78 E7.82104
G1 X112.06 Y106.493 E7.85431
G1 X112.436 Y106.372 E7.8711
G1 X113.062 Y106.21 E7.89859
G1 X113.832 Y106.075 E7.93182
G1 X114.225 Y106.033 E7.94862
G1 X114.871 Y106 E7.97612
G1 X115.601 Y106.019 E8.00717
G1 X116.389 Y106.107 E8.04088
G1 X116.864 Y106.196 E8.06143
G1 X117.4 Y106.325 E8.08487
G1 X118.173 Y106.577 E8.11944
G1 X118.947 Y106.912 E8.1553
G1 X119.712 Y107.332 E8.1924
G1 X120.385 Y107.787 E8.22694
G1 X120.764 Y108.088 E8.24752
G1 X121.177 Y108.453 E8.27095
G1 X121.719 Y109.011 E8.30402
G1 X121.975 Y109.312 E8.32082
G1 X122.366 Y109.827 E8.34831
G1 X122.763 Y110.444 E8.3795
G1 X123.17 Y111.227 E8.41702
G1 X123.513 Y112.077 E8.45599
G1 X123.727 Y112.796 E8.48788
G1 X123.885 Y113.558 E8.52096
G1 X123.939 Y113.95 E8.53778
G1 X123.992 Y114.599 E8.56546
G1 X123.992 Y115.404 E8.59968
G1 X123.94 Y116.047 E8.62711
G1 X123.885 Y116.438 E8.6439
G1 X123.733 Y117.182 E8.67618
G1 X123.628 Y117.563 E8.69298
G1 X123.422 Y118.176 E8.72047
G1 X123.121 Y118.881 E8.75306
G1 X122.76 Y119.56 E8.78575
G1 X122.413 Y120.105 E8.81322
G1 X122.182 Y120.425 E8.83
G1 X121.699 Y121.011 E8.86228
G1 X121.429 Y121.299 E8.87906
G1 X120.96 Y121.745 E8.90658
G1 X120.352 Y122.237 E8.93983
G1 X120.029 Y122.464 E8.95661
G1 X119.481 Y122.806 E8.98407
G1 X118.816 Y123.152 E9.01594
G1 X118.112 Y123.446 E9.04837
G1 X117.738 Y123.574 E9.06518
G1 X117.116 Y123.749 E9.09265
G1 X116.326 Y123.903 E9.12687
G1 X115.683 Y123.975 E9.15438
G1 X115.288 Y123.996 E9.1712
G1 X114.506 Y123.987 E9.20445
G1 X113.859 Y123.928 E9.23207
G1 X113.468 Y123.87 E9.24887
G1 X112.71 Y123.705 E9.28185
G1 X112.085 Y123.516 E9.30961
G1 X111.714 Y123.38 E9.32641
G1 X111.02 Y123.073 E9.35867
G1 X110.362 Y122.714 E9.39054
G1 X109.815 Y122.357 E9.41831
G1 X109.417 Y122.059 E9.43945
G1 X108.905 Y121.624 E9.46801
G1 X108.443 Y121.165 E9.4957
G1 X108.178 Y120.872 E9.5125
G1 X107.698 Y120.262 E9.5455
G1 X107.336 Y119.719 E9.57324
G1 X107.135 Y119.378 E9.59007
G1 X106.795 Y118.7 E9.62232
G1 X106.516 Y118.007 E9.65408
G1 X106.321 Y117.385 E9.68179
G1 X106.224 Y117.001 E9.69863
G1 X106.085 Y116.238 E9.7316
G1 X106.019 Y115.589 E9.75933
G1 X106.001 Y115.194 E9.77614
G1 X106.016 Y114.454 E9.80761
G1 X106.092 Y113.712 E9.83932
G1 X106.157 Y113.323 E9.85609
G1 X106.3 Y112.692 E9.8836
G1 X106.537 Y111.935 E9.91732
G1 X106.715 Y111.486 E9.93785
G1 X106.945 Y110.984 E9.96133
G1 X107.305 Y110.331 E9.99303
G1 X107.727 Y109.697 E10.02541
G1 X107.967 Y109.384 E10.04218
G1 X108.282 Y109.016 E10.06277
M204 S20000
G1 X108.623 Y109.308 F18000
M204 S5000
G1 F1440
G1 X109.243 Y108.675 E10.10044
G1 X109.521 Y108.433 E10.11611
G1 X110.02 Y108.047 E10.14293
G1 X110.634 Y107.646 E10.17411
G1 X110.955 Y107.465 E10.18978
G1 X111.522 Y107.187 E10.21663
G1 X112.204 Y106.917 E10.24781
G1 X112.555 Y106.805 E10.26347
G1 X113.165 Y106.647 E10.29026
G1 X113.888 Y106.52 E10.32147
G1 X114.254 Y106.48 E10.33712
G1 X114.885 Y106.448 E10.36398
G1 X115.58 Y106.467 E10.39354
G1 X116.315 Y106.549 E10.42498
G1 X116.765 Y106.633 E10.44444
G1 X117.286 Y106.759 E10.46723
G1 X118.005 Y106.993 E10.49938
G1 X118.74 Y107.311 E10.53343
G1 X119.487 Y107.72 E10.56964
G1 X120.113 Y108.144 E10.60178
G1 X120.471 Y108.429 E10.62123
G1 X120.874 Y108.784 E10.64406
G1 X121.383 Y109.307 E10.67509
G1 X121.622 Y109.588 E10.69077
G1 X122.003 Y110.091 E10.7176
G1 X122.38 Y110.678 E10.74726
G1 X122.767 Y111.424 E10.78299
G1 X123.093 Y112.235 E10.82015
G1 X123.294 Y112.914 E10.85025
G1 X123.442 Y113.627 E10.88121
G1 X123.493 Y113.992 E10.89688
G1 X123.544 Y114.626 E10.92392
G1 X123.544 Y115.377 E10.95585
G1 X123.493 Y116.004 E10.98259
G1 X123.442 Y116.369 E10.99826
G1 X123.298 Y117.071 E11.02873
G1 X123.201 Y117.426 E11.04438
G1 X123 Y118.024 E11.0712
G1 X122.713 Y118.695 E11.10223
G1 X122.378 Y119.326 E11.1326
G1 X122.038 Y119.858 E11.15944
G1 X121.823 Y120.157 E11.1751
G1 X121.367 Y120.71 E11.20557
G1 X121.115 Y120.979 E11.22124
G1 X120.658 Y121.413 E11.24803
G1 X120.088 Y121.875 E11.27922
G1 X119.787 Y122.087 E11.29487
G1 X119.251 Y122.421 E11.32172
G1 X118.617 Y122.75 E11.35209
G1 X117.96 Y123.024 E11.38235
G1 X117.611 Y123.144 E11.39804
G1 X117.003 Y123.314 E11.42488
G1 X116.267 Y123.458 E11.45676
G1 X115.639 Y123.528 E11.48362
G1 X115.272 Y123.548 E11.49925
G1 X114.538 Y123.54 E11.53046
G1 X113.906 Y123.482 E11.55744
G1 X113.542 Y123.427 E11.57309
G1 X112.831 Y123.273 E11.60402
G1 X112.222 Y123.088 E11.63108
G1 X111.875 Y122.961 E11.64679
G1 X111.226 Y122.675 E11.67694
G1 X110.599 Y122.333 E11.7073
G1 X110.066 Y121.986 E11.73434
G1 X109.692 Y121.705 E11.75423
G1 X109.215 Y121.299 E11.78086
G1 X108.763 Y120.851 E11.80792
G1 X108.516 Y120.577 E11.8236
G1 X108.066 Y120.006 E11.85451
G1 X107.713 Y119.476 E11.88158
G1 X107.526 Y119.158 E11.89726
G1 X107.207 Y118.524 E11.92743
G1 X106.942 Y117.865 E11.95763
G1 X106.751 Y117.257 E11.98472
G1 X106.661 Y116.899 E12.00041
G1 X106.53 Y116.184 E12.03131
G1 X106.466 Y115.55 E12.0584
G1 X106.449 Y115.182 E12.07406
G1 X106.464 Y114.473 E12.10421
G1 X106.535 Y113.779 E12.13387
G1 X106.596 Y113.416 E12.14952
G1 X106.735 Y112.8 E12.17637
G1 X106.957 Y112.092 E12.20791
G1 X107.125 Y111.667 E12.22734
G1 X107.349 Y111.179 E12.25017
G1 X107.693 Y110.557 E12.28039
G1 X108.088 Y109.964 E12.31068
G1 X108.583 Y109.354 E12.34408
M204 S20000
G1 X108.924 Y109.646 F18000
M204 S5000
G1 F1440
G1 X109.057 Y109.491 E12.35276
G1 X109.543 Y109.009 E12.38186
G1 X109.801 Y108.784 E12.39641
G1 X110.287 Y108.407 E12.42256
G1 X110.861 Y108.033 E12.45169
G1 X111.158 Y107.865 E12.4662
G1 X111.711 Y107.594 E12.49238
G1 X112.348 Y107.342 E12.5215
G1 X112.673 Y107.237 E12.53602
G1 X113.269 Y107.083 E12.56219
G1 X113.944 Y106.965 E12.59132
G1 X114.284 Y106.928 E12.60586
G1 X114.898 Y106.897 E12.632
G1 X115.558 Y106.915 E12.66007
G1 X116.241 Y106.992 E12.68929
G1 X116.665 Y107.07 E12.70762
G1 X117.173 Y107.193 E12.72984
G1 X117.837 Y107.409 E12.75953
G1 X118.534 Y107.709 E12.79179
G1 X119.262 Y108.108 E12.82708
G1 X119.841 Y108.501 E12.85683
G1 X120.179 Y108.769 E12.87517
G1 X120.571 Y109.114 E12.89737
G1 X121.046 Y109.604 E12.92638
G1 X121.268 Y109.864 E12.94091
G1 X121.64 Y110.354 E12.96706
G1 X121.996 Y110.911 E12.99516
G1 X122.364 Y111.62 E13.02912
G1 X122.672 Y112.391 E13.06442
G1 X122.861 Y113.032 E13.09283
G1 X122.999 Y113.697 E13.1217
G1 X123.046 Y114.036 E13.13625
G1 X123.096 Y114.653 E13.16257
G1 X123.096 Y115.35 E13.1922
G1 X123.047 Y115.961 E13.21826
G1 X122.999 Y116.3 E13.23282
G1 X122.863 Y116.96 E13.26147
G1 X122.774 Y117.29 E13.276
G1 X122.577 Y117.873 E13.30216
G1 X122.312 Y118.494 E13.33086
G1 X121.994 Y119.093 E13.35969
G1 X121.664 Y119.611 E13.3858
G1 X121.464 Y119.888 E13.40033
G1 X121.035 Y120.409 E13.42902
G1 X120.801 Y120.658 E13.44355
G1 X120.355 Y121.082 E13.46971
G1 X119.823 Y121.513 E13.49882
G1 X119.544 Y121.71 E13.51334
G1 X119.021 Y122.036 E13.53954
G1 X118.436 Y122.339 E13.56755
G1 X117.806 Y122.603 E13.59659
G1 X117.483 Y122.714 E13.61111
G1 X116.891 Y122.88 E13.63725
G1 X116.208 Y123.013 E13.66683
G1 X115.596 Y123.082 E13.69301
G1 X115.255 Y123.1 E13.70753
G1 X114.57 Y123.092 E13.73665
G1 X113.954 Y123.036 E13.76295
G1 X113.616 Y122.985 E13.77748
G1 X112.953 Y122.841 E13.80632
G1 X112.358 Y122.661 E13.83275
G1 X112.037 Y122.543 E13.84729
G1 X111.416 Y122.268 E13.87616
G1 X110.837 Y121.953 E13.90418
G1 X110.318 Y121.614 E13.93053
G1 X109.968 Y121.35 E13.94917
G1 X109.524 Y120.974 E13.97391
G1 X109.083 Y120.537 E14.0003
G1 X108.855 Y120.283 E14.01481
G1 X108.434 Y119.75 E14.04369
G1 X108.089 Y119.233 E14.07011
G1 X107.917 Y118.938 E14.08463
G1 X107.612 Y118.331 E14.11351
G1 X107.367 Y117.722 E14.14142
G1 X107.181 Y117.129 E14.16784
G1 X107.098 Y116.797 E14.18239
G1 X106.975 Y116.129 E14.21127
G1 X106.912 Y115.511 E14.23768
G1 X106.898 Y115.17 E14.25219
G1 X106.911 Y114.509 E14.2803
G1 X106.979 Y113.845 E14.30868
G1 X107.035 Y113.508 E14.3232
G1 X107.171 Y112.908 E14.34936
G1 X107.377 Y112.25 E14.37867
G1 X107.536 Y111.848 E14.39705
G1 X107.753 Y111.373 E14.41925
G1 X108.08 Y110.782 E14.44797
G1 X108.449 Y110.23 E14.4762
G1 X108.885 Y109.691 E14.50567
M204 S20000
G1 X109.225 Y109.983 F18000
M204 S5000
G1 F1440
G1 X109.391 Y109.79 E14.51649
G1 X109.844 Y109.342 E14.54358
G1 X110.081 Y109.134 E14.55699
G1 X110.555 Y108.768 E14.58245
G1 X111.088 Y108.419 E14.60954
G1 X111.362 Y108.264 E14.62292
G1 X111.9 Y108 E14.6484
G1 X112.493 Y107.767 E14.67549
G1 X112.792 Y107.67 E14.68885
G1 X113.373 Y107.52 E14.71436
G1 X114 Y107.41 E14.74142
G1 X114.313 Y107.376 E14.75481
G1 X114.912 Y107.345 E14.78031
G1 X115.535 Y107.363 E14.80681
G1 X116.167 Y107.434 E14.83385
G1 X116.566 Y107.508 E14.8511
G1 X117.059 Y107.627 E14.87266
G1 X117.67 Y107.826 E14.89998
G1 X118.329 Y108.108 E14.93045
G1 X119.037 Y108.496 E14.96477
G1 X119.569 Y108.857 E14.9921
G1 X119.887 Y109.109 E15.00935
G1 X120.267 Y109.445 E15.03091
G1 X120.71 Y109.901 E15.05794
G1 X120.915 Y110.14 E15.07133
G1 X121.277 Y110.618 E15.09682
G1 X121.613 Y111.144 E15.12336
G1 X121.952 Y111.797 E15.15464
G1 X122.252 Y112.548 E15.18902
G1 X122.428 Y113.149 E15.21564
G1 X122.556 Y113.767 E15.24247
