; generated by PrusaSlicer 2.6.1+win64 on 2023-12-04 at 19:52:52 UTC


;
;
; 

; external perimeters extrusion width = 0.42mm
; perimeters extrusion width = 0.45mm
; infill extrusion width = 0.45mm
; solid infill extrusion width = 0.45mm
; top infill extrusion width = 0.42mm
; first layer extrusion width = 0.50mm

;TYPE:Custom
G90 ; use absolute coordinates
M83 ; extruder relative mode
M140 S60 ; set bed temp
M190 S60 ; wait for bed temp
M104 S210 ; set extruder temp
M109 S210 ; wait for extruder temp
G28                                        ; move X/Y/Z to min endstops
G1 Z0.28                                   ; lift nozzle a bit 
G92 E0 
G1 Y3 F2400                                    ; zero the extruded length 
G1 X180  E40 F500                       ; Extrude 25mm of filament in a 5cm line. 
G92 E0                                     ; zero the extruded length again 
G1 E-0.2 F3000                                ; Retract a little 
G1 X181 F4000                              ; Quickly wipe away from the filament line
M117
G21 ; set units to millimeters
G90 ; use absolute coordinates
M82 ; use absolute distances for extrusion
G92 E0
; Filament gcode
M107
;LAYER_CHANGE
;Z:0.24
;HEIGHT:0.24
; BEFORE_LAYER_CHANGE 0 @ 0.24mm
G1 E-2.5 F4800
G92 E0
G1 Z-1.44 F18000
; AFTER_LAYER_CHANGE 0 @ 0.24mm
M204 S20000
G1 X119.772 Y116.693
G1 E2.5 F4800
M204 S5000
;TYPE:External perimeter
;WIDTH:0.499999
G1 F1440
G1 X119.73 Y116.84 E2.5065
G1 X119.318 Y117.661 E2.54555
G1 X118.698 Y118.476 E2.58908
G1 X118.019 Y119.079 E2.62769
G1 X117.206 Y119.571 E2.66809
G1 X116.315 Y119.902 E2.7085
G1 X115.336 Y120.064 E2.75069
G1 X114.427 Y120.043 E2.78935
G1 X113.497 Y119.847 E2.82976
G1 X112.583 Y119.462 E2.87192
G1 X111.826 Y118.96 E2.91054
G1 X111.143 Y118.298 E2.95098
G1 X110.596 Y117.521 E2.99138
G1 X110.268 Y116.801 E3.02502
G1 X110.189 Y116.616 E3.03357
G1 X109.977 Y115.729 E3.07234
G1 X109.93 Y114.783 E3.11261
G1 X110.061 Y113.831 E3.15346
G1 X110.362 Y112.94 E3.19344
G1 X110.827 Y112.112 E3.23381
G1 X111.527 Y111.308 E3.27913
G1 X112.175 Y110.784 E3.31456
G1 X113.011 Y110.331 E3.35498
G1 X113.957 Y110.033 E3.39715
G1 X114.849 Y109.928 E3.43533
G1 X115.354 Y109.936 E3.4568
G1 X116.274 Y110.087 E3.49644
G1 X117.168 Y110.411 E3.53687
G1 X117.985 Y110.896 E3.57726
G1 X118.698 Y111.524 E3.61765
G1 X119.325 Y112.353 E3.66184
G1 X119.714 Y113.121 E3.69844
G1 X119.949 Y113.917 E3.73372
G1 X120.044 Y114.65 E3.76514
G1 X120.072 Y115.057 E3.78248
G1 X119.99 Y115.926 E3.81959
G1 X119.788 Y116.635 E3.85093
M204 S20000
G1 X119.881 Y116.799 F18000
G1 X120.128 Y117.03
M204 S5000
;TYPE:Perimeter
G1 F1440
G1 X119.718 Y117.864 E3.89044
G1 X119.189 Y118.58 E3.92829
G1 X118.996 Y118.811 E3.94109
G1 X118.317 Y119.415 E3.97972
G1 X117.436 Y119.956 E4.02367
G1 X116.469 Y120.323 E4.06764
G1 X115.325 Y120.512 E4.11693
G1 X114.417 Y120.491 E4.15554
G1 X113.403 Y120.286 E4.19952
G1 X112.754 Y120.026 E4.22924
G1 X112.335 Y119.836 E4.2488
G1 X111.578 Y119.333 E4.28744
G1 X110.83 Y118.619 E4.3314
G1 X110.228 Y117.778 E4.37537
G1 X109.753 Y116.72 E4.42467
G1 X109.542 Y115.837 E4.46327
G1 X109.482 Y114.804 E4.50726
G1 X109.62 Y113.746 E4.55262
G1 X109.937 Y112.796 E4.5952
G1 X110.437 Y111.891 E4.63916
G1 X110.877 Y111.353 E4.66871
G1 X111.245 Y110.959 E4.69163
G1 X111.893 Y110.435 E4.72706
G1 X112.799 Y109.936 E4.77103
G1 X113.905 Y109.588 E4.82032
G1 X114.796 Y109.482 E4.85847
G1 X115.355 Y109.488 E4.88224
G1 X116.347 Y109.645 E4.92494
G1 X117.322 Y109.99 E4.96891
G1 X118.216 Y110.511 E5.0129
G1 X118.996 Y111.189 E5.05684
G1 X119.542 Y111.878 E5.09421
G1 X119.725 Y112.15 E5.10815
G1 X120.115 Y112.918 E5.14477
G1 X120.38 Y113.793 E5.18364
G1 X120.445 Y114.125 E5.19802
G1 X120.522 Y114.937 E5.2327
G1 X120.436 Y115.968 E5.27668
G1 X120.155 Y116.976 E5.32117
M204 S20000
;WIPE_START
G1 F14400
G1 X119.718 Y117.864 E5.00776
G1 X119.189 Y118.58 E4.72586
G1 X118.996 Y118.811 E4.63054
G1 X118.317 Y119.415 E4.34276
G1 X117.436 Y119.956 E4.01537
G1 X116.469 Y120.323 E3.68784
G1 X115.325 Y120.512 E3.32066
G1 X114.417 Y120.491 E3.03305
G1 X113.761 Y120.358 E2.82117
;WIPE_END
G92 E0
G1 X88.384 Y88.736 F18000
G1 E2.5 F4800
M204 S5000
;TYPE:External perimeter
;WIDTH:0.479858
G1 F1440
G1 X88.617 Y88.527 E2.51271
M204 S20000
;WIPE_START
G1 F14400
G1 X88.384 Y88.736 E2.41359
;WIPE_END
G1 E.01271 F4800
G92 E0
G1 X141.261 Y88.38 F18000
G1 E2.5 F4800
M204 S5000
;WIDTH:0.480754
G1 F1440
G1 X141.499 Y88.643 E2.51443
M204 S20000
;WIPE_START
G1 F14400
G1 X141.261 Y88.38 E2.40211
;WIPE_END
G1 E.01443 F4800
G92 E0
G1 X139.861 Y138.562 F18000
G1 E2.5 F4800
M204 S5000
;WIDTH:0.53528
G1 F1440
G1 X139.364 Y138.813 E2.52553
;WIDTH:0.499999
G1 X138.964 Y139.197 E2.5491
G1 X138.711 Y139.691 E2.5727
G1 X138.631 Y140.241 E2.59633
G1 X138.735 Y140.786 E2.61992
G1 X139.01 Y141.269 E2.64355
G1 X139.405 Y141.625 E2.66616
G1 X139.868 Y141.829 E2.68767
G1 X140.42 Y141.887 E2.71127
G1 X140.962 Y141.763 E2.73491
G1 X141.385 Y141.478 E2.75659
G1 X141.108 Y141.978 E2.78089
G1 X140.982 Y142.523 E2.80467
G1 X139.607 Y143.76 E2.8833
G1 X138.924 Y144.33 E2.92112
G1 X138.189 Y144.422 E2.95261
G1 X137.737 Y144.641 E2.97396
G1 X137.424 Y145.036 E2.99539
G1 X137.169 Y145.677 E3.02472
G1 X135.643 Y146.725 E3.10342
G1 X134.891 Y147.201 E3.14126
G1 X134.162 Y147.195 E3.17225
G1 X133.676 Y147.354 E3.19399
G1 X133.312 Y147.706 E3.21552
G1 X132.976 Y148.307 E3.24479
G1 X131.399 Y149.112 E3.32006
G1 X130.517 Y149.522 E3.36141
G1 X129.827 Y149.423 E3.39104
G1 X129.56 Y149.438 E3.40241
G1 X129.173 Y149.579 E3.41992
G1 X128.797 Y149.915 E3.44136
G1 X128.471 Y150.371 E3.46519
G1 X126.728 Y150.987 E3.54378
G1 X125.879 Y151.252 E3.58159
G1 X125.174 Y151.058 E3.61268
G1 X124.663 Y151.086 E3.63444
G1 X124.223 Y151.331 E3.65585
G1 X123.742 Y151.826 E3.68519
G1 X122.874 Y152.022 E3.72302
G1 X121.056 Y152.362 E3.80165
G1 X120.546 Y152.131 E3.82545
G1 X120.088 Y152.036 E3.84534
G1 X119.704 Y152.08 E3.86177
G1 X119.334 Y152.286 E3.87977
G1 X118.855 Y152.652 E3.9054
G1 X117.014 Y152.796 E3.98391
G1 X116.125 Y152.832 E4.02174
G1 X115.532 Y152.48 E4.05106
G1 X115.066 Y152.378 E4.07134
;WIDTH:0.488973
G1 X115.324 Y152.388 E4.08205
;WIDTH:0.499999
G1 X115.855 Y152.223 E4.10569
G1 X116.299 Y151.89 E4.12928
G1 X116.612 Y151.432 E4.15286
G1 X116.759 Y150.896 E4.17649
G1 X116.724 Y150.342 E4.20009
G1 X116.484 Y149.798 E4.22537
G1 X116.143 Y149.413 E4.24723
G1 X115.659 Y149.14 E4.27085
G1 X115.114 Y149.038 E4.29442
G1 X114.564 Y149.118 E4.31805
G1 X114.071 Y149.373 E4.34165
G1 X113.687 Y149.774 E4.36525
G1 X113.454 Y150.278 E4.38886
G1 X113.393 Y150.797 E4.41108
G1 X113.496 Y151.303 E4.43303
G1 X113.77 Y151.786 E4.45664
G1 X114.186 Y152.154 E4.48025
G1 X114.7 Y152.363 E4.50384
;WIDTH:0.492048
G1 X114.971 Y152.376 E4.51517
;WIDTH:0.499999
G1 X114.505 Y152.48 E4.53547
G1 X113.912 Y152.834 E4.56483
G1 X113.023 Y152.798 E4.60266
G1 X111.177 Y152.656 E4.68137
G1 X110.618 Y152.216 E4.71161
G1 X110.139 Y152.038 E4.73333
G1 X109.618 Y152.095 E4.75561
G1 X108.984 Y152.368 E4.78496
G1 X108.106 Y152.217 E4.82283
G1 X106.295 Y151.835 E4.90152
G1 X105.774 Y151.308 E4.93303
G1 X105.322 Y151.083 E4.9545
G1 X104.822 Y151.075 E4.97576
G1 X104.158 Y151.263 E5.0051
G1 X102.397 Y150.69 E5.08383
G1 X101.562 Y150.383 E5.12165
G1 X101.143 Y149.825 E5.15132
G1 X100.944 Y149.647 E5.16267
G1 X100.571 Y149.473 E5.18017
G1 X100.067 Y149.445 E5.20163
G1 X99.515 Y149.537 E5.22542
G1 X98.709 Y149.165 E5.26316
G1 X97.058 Y148.326 E5.34189
G1 X96.698 Y147.691 E5.37292
G1 X96.321 Y147.352 E5.39447
G1 X95.832 Y147.212 E5.41609
G1 X95.143 Y147.221 E5.44538
G1 X93.658 Y146.258 E5.52063
G1 X92.862 Y145.699 E5.56198
G1 X92.599 Y145.043 E5.59203
G1 X92.281 Y144.654 E5.61339
G1 X91.791 Y144.434 E5.63622
G1 X91.107 Y144.353 E5.6655
G1 X89.76 Y143.205 E5.74074
G1 X89.044 Y142.547 E5.78208
G1 X88.89 Y141.944 E5.80854
G1 X88.747 Y141.634 E5.82305
;WIDTH:0.48154
G1 X88.594 Y141.47 E5.83219
;WIDTH:0.499999
G1 X89.026 Y141.819 E5.8558
G1 X89.555 Y141.987 E5.8794
G1 X90.11 Y141.975 E5.903
G1 X90.632 Y141.783 E5.92665
G1 X91.062 Y141.433 E5.95022
G1 X91.356 Y140.962 E5.97382
G1 X91.48 Y140.42 E5.99746
G1 X91.422 Y139.868 E6.02106
G1 X91.188 Y139.365 E6.04465
G1 X90.803 Y138.964 E6.06828
G1 X90.309 Y138.711 E6.09188
G1 X89.759 Y138.631 E6.11551
G1 X89.214 Y138.735 E6.1391
G1 X88.731 Y139.01 E6.16273
G1 X88.375 Y139.405 E6.18534
G1 X88.171 Y139.868 E6.20685
G1 X88.113 Y140.42 E6.23045
G1 X88.237 Y140.962 E6.25409
G1 X88.525 Y141.389 E6.27599
G1 X88.022 Y141.108 E6.30048
G1 X87.477 Y140.982 E6.32426
G1 X86.24 Y139.607 E6.40289
G1 X85.67 Y138.924 E6.44071
G1 X85.578 Y138.189 E6.4722
G1 X85.359 Y137.737 E6.49355
G1 X84.964 Y137.424 E6.51498
G1 X84.323 Y137.169 E6.54431
G1 X83.275 Y135.643 E6.62301
G1 X82.799 Y134.891 E6.66085
G1 X82.802 Y134.15 E6.69235
G1 X82.643 Y133.671 E6.71381
G1 X82.294 Y133.312 E6.7351
G1 X81.693 Y132.976 E6.76437
G1 X80.888 Y131.399 E6.83964
G1 X80.478 Y130.517 E6.88099
G1 X80.577 Y129.827 E6.91062
G1 X80.562 Y129.56 E6.92199
G1 X80.421 Y129.173 E6.9395
G1 X80.085 Y128.797 E6.96094
G1 X79.631 Y128.472 E6.98468
G1 X79.039 Y126.806 E7.05985
G1 X78.748 Y125.878 E7.1012
G1 X78.942 Y125.174 E7.13225
G1 X78.915 Y124.666 E7.15388
G1 X78.669 Y124.223 E7.17542
G1 X78.175 Y123.743 E7.2047
G1 X77.806 Y122.011 E7.27999
G1 X77.639 Y121.056 E7.32121
G1 X77.869 Y120.546 E7.34499
G1 X77.964 Y120.088 E7.36488
G1 X77.92 Y119.704 E7.38131
G1 X77.714 Y119.334 E7.39931
G1 X77.348 Y118.855 E7.42494
G1 X77.204 Y117.014 E7.50345
G1 X77.168 Y116.125 E7.54128
G1 X77.52 Y115.532 E7.5706
G1 X77.622 Y115.066 E7.59088
;WIDTH:0.489032
G1 X77.612 Y115.324 E7.60159
;WIDTH:0.499999
G1 X77.777 Y115.855 E7.62523
G1 X78.11 Y116.299 E7.64882
G1 X78.568 Y116.612 E7.6724
G1 X79.104 Y116.759 E7.69603
G1 X79.658 Y116.724 E7.71963
G1 X80.202 Y116.484 E7.74491
G1 X80.587 Y116.143 E7.76677
G1 X80.86 Y115.659 E7.79039
G1 X80.962 Y115.114 E7.81396
G1 X80.882 Y114.564 E7.83759
G1 X80.627 Y114.071 E7.86119
G1 X80.226 Y113.687 E7.88479
G1 X79.722 Y113.454 E7.9084
G1 X79.203 Y113.393 E7.93062
G1 X78.697 Y113.496 E7.95257
G1 X78.214 Y113.77 E7.97618
G1 X77.846 Y114.186 E7.99979
G1 X77.637 Y114.7 E8.02338
;WIDTH:0.491647
G1 X77.624 Y114.971 E8.0347
;WIDTH:0.499999
G1 X77.52 Y114.505 E8.055
G1 X77.166 Y113.912 E8.08436
G1 X77.202 Y113.023 E8.12219
G1 X77.344 Y111.177 E8.2009
G1 X77.784 Y110.618 E8.23114
G1 X77.962 Y110.139 E8.25286
G1 X77.905 Y109.618 E8.27514
G1 X77.632 Y108.984 E8.30449
G1 X77.783 Y108.106 E8.34236
G1 X78.165 Y106.295 E8.42105
G1 X78.692 Y105.774 E8.45256
G1 X78.917 Y105.322 E8.47403
G1 X78.925 Y104.822 E8.49529
G1 X78.737 Y104.158 E8.52463
G1 X79.31 Y102.397 E8.60336
G1 X79.617 Y101.562 E8.64118
G1 X80.175 Y101.143 E8.67085
G1 X80.353 Y100.944 E8.6822
G1 X80.527 Y100.571 E8.6997
G1 X80.555 Y100.067 E8.72116
G1 X80.464 Y99.517 E8.74486
G1 X81.224 Y97.92 E8.82005
G1 X81.674 Y97.058 E8.86139
G1 X82.309 Y96.698 E8.89242
G1 X82.649 Y96.319 E8.91407
G1 X82.788 Y95.832 E8.9356
G1 X82.779 Y95.143 E8.96489
G1 X83.742 Y93.658 E9.04014
G1 X84.301 Y92.862 E9.08149
G1 X84.977 Y92.588 E9.1125
G1 X85.362 Y92.259 E9.13403
G1 X85.566 Y91.791 E9.15573
G1 X85.647 Y91.107 E9.18501
G1 X86.795 Y89.76 E9.26025
G1 X87.453 Y89.044 E9.30159
G1 X88.128 Y88.869 E9.33124
;WIDTH:0.495901
G1 X88.366 Y88.749 E9.34247
;WIDTH:0.48388
G1 X88.336 Y88.794 E9.34469
;WIDTH:0.499999
G1 X88.075 Y89.284 E9.36829
G1 X87.996 Y89.833 E9.39187
G1 X88.099 Y90.379 E9.41549
G1 X88.374 Y90.861 E9.43908
G1 X88.791 Y91.228 E9.4627
G1 X89.345 Y91.444 E9.48798
G1 X89.858 Y91.474 E9.50983
G1 X90.393 Y91.326 E9.53343
G1 X90.851 Y91.012 E9.55704
G1 X91.183 Y90.567 E9.58064
G1 X91.352 Y90.038 E9.60425
G1 X91.34 Y89.482 E9.62789
G1 X91.148 Y88.961 E9.6515
G1 X90.824 Y88.551 E9.67372
G1 X90.393 Y88.267 E9.69566
G1 X89.858 Y88.119 E9.71926
G1 X89.304 Y88.152 E9.74285
G1 X88.793 Y88.369 E9.76645
;WIDTH:0.489645
G1 X88.617 Y88.527 E9.77627
;WIDTH:0.499999
G1 X88.892 Y88.022 E9.80072
G1 X89.018 Y87.479 E9.82442
G1 X90.331 Y86.295 E9.89958
G1 X91.077 Y85.67 E9.94095
G1 X91.783 Y85.586 E9.97118
G1 X92.247 Y85.373 E9.99289
G1 X92.576 Y84.964 E10.01521
G1 X92.831 Y84.323 E10.04454
G1 X94.357 Y83.275 E10.12324
G1 X95.109 Y82.799 E10.16108
G1 X95.85 Y82.802 E10.19258
G1 X96.329 Y82.643 E10.21404
G1 X96.688 Y82.294 E10.23533
G1 X97.025 Y81.691 E10.2647
G1 X98.675 Y80.852 E10.34339
G1 X99.483 Y80.478 E10.38124
G1 X100.173 Y80.577 E10.41087
G1 X100.44 Y80.562 E10.42224
G1 X100.827 Y80.421 E10.43975
G1 X101.203 Y80.085 E10.46119
G1 X101.528 Y79.63 E10.48496
G1 X102.439 Y79.296 E10.52621
G1 X104.123 Y78.748 E10.6015
G1 X104.826 Y78.942 E10.6325
G1 X105.332 Y78.916 E10.65404
G1 X105.777 Y78.669 E10.67568
G1 X106.258 Y78.174 E10.70502
G1 X107.207 Y77.962 E10.74636
G1 X108.946 Y77.639 E10.82156
G1 X109.454 Y77.869 E10.84527
G1 X109.909 Y77.964 E10.86503
G1 X110.296 Y77.92 E10.88159
G1 X110.729 Y77.677 E10.9027
G1 X111.145 Y77.348 E10.92525
G1 X112.986 Y77.204 E11.00376
G1 X113.875 Y77.168 E11.04159
G1 X114.468 Y77.52 E11.07091
G1 X114.702 Y77.568 E11.08107
;WIDTH:0.474749
G1 X114.936 Y77.615 E11.09065
G1 X114.669 Y77.643 E11.10142
;WIDTH:0.499999
G1 X114.403 Y77.67 E11.11279
G1 X113.909 Y77.925 E11.13642
G1 X113.525 Y78.326 E11.16002
G1 X113.292 Y78.83 E11.18363
G1 X113.236 Y79.383 E11.20726
G1 X113.362 Y79.923 E11.23083
G1 X113.656 Y80.394 E11.25443
G1 X114.088 Y80.744 E11.27807
G1 X114.609 Y80.934 E11.30165
G1 X115.164 Y80.945 E11.32525
G1 X115.693 Y80.775 E11.34887
G1 X116.138 Y80.442 E11.3725
G1 X116.451 Y79.983 E11.39612
G1 X116.597 Y79.448 E11.4197
G1 X116.562 Y78.894 E11.4433
G1 X116.349 Y78.381 E11.46691
G1 X115.975 Y77.962 E11.49079
G1 X115.498 Y77.691 E11.51411
G1 X115.248 Y77.654 E11.52485
;WIDTH:0.472606
G1 X114.998 Y77.616 E11.53494
G1 X115.243 Y77.569 E11.5449
;WIDTH:0.499999
G1 X115.489 Y77.522 E11.55555
G1 X116.086 Y77.167 E11.58508
G1 X117.938 Y77.264 E11.66392
G1 X118.823 Y77.344 E11.7017
G1 X119.407 Y77.798 E11.73315
G1 X119.882 Y77.963 E11.75453
G1 X120.383 Y77.905 E11.77597
G1 X121.016 Y77.632 E11.80528
G1 X121.894 Y77.783 E11.84315
G1 X123.705 Y78.165 E11.92184
G1 X124.226 Y78.692 E11.95335
G1 X124.678 Y78.917 E11.97482
G1 X125.178 Y78.925 E11.99608
G1 X125.841 Y78.738 E12.02537
G1 X127.525 Y79.283 E12.10062
G1 X128.439 Y79.617 E12.14199
G1 X128.857 Y80.175 E12.17163
G1 X129.056 Y80.353 E12.18298
G1 X129.429 Y80.527 E12.20048
G1 X129.933 Y80.555 E12.22194
G1 X130.483 Y80.464 E12.24564
G1 X132.08 Y81.224 E12.32083
G1 X132.942 Y81.674 E12.36217
G1 X133.302 Y82.309 E12.3932
G1 X133.681 Y82.649 E12.41485
G1 X134.168 Y82.788 E12.43638
G1 X134.857 Y82.779 E12.46567
G1 X136.342 Y83.742 E12.54092
G1 X137.138 Y84.301 E12.58227
G1 X137.412 Y84.977 E12.61328
G1 X137.741 Y85.362 E12.63481
G1 X138.209 Y85.566 E12.65651
G1 X138.893 Y85.647 E12.68579
G1 X140.24 Y86.795 E12.76103
G1 X140.956 Y87.453 E12.80237
G1 X141.131 Y88.128 E12.83202
;WIDTH:0.495851
G1 X141.251 Y88.366 E12.84325
;WIDTH:0.484365
G1 X141.207 Y88.335 E12.84546
;WIDTH:0.499999
G1 X140.716 Y88.075 E12.86908
G1 X140.167 Y87.996 E12.89266
G1 X139.621 Y88.099 E12.91628
G1 X139.139 Y88.374 E12.93987
G1 X138.772 Y88.791 E12.96349
G1 X138.556 Y89.345 E12.98877
G1 X138.526 Y89.858 E13.01062
G1 X138.674 Y90.393 E13.03422
G1 X138.988 Y90.851 E13.05783
G1 X139.433 Y91.183 E13.08143
G1 X139.962 Y91.352 E13.10504
G1 X140.518 Y91.34 E13.12868
G1 X141.039 Y91.148 E13.15229
G1 X141.449 Y90.824 E13.17451
G1 X141.733 Y90.393 E13.19645
G1 X141.881 Y89.858 E13.22005
G1 X141.848 Y89.304 E13.24364
G1 X141.63 Y88.793 E13.26726
;WIDTH:0.488605
G1 X141.499 Y88.643 E13.27551
;WIDTH:0.499999
G1 X141.978 Y88.892 E13.29846
G1 X142.523 Y89.018 E13.32224
G1 X143.18 Y89.732 E13.36349
G1 X144.33 Y91.078 E13.43875
G1 X144.414 Y91.783 E13.46893
G1 X144.627 Y92.247 E13.49064
G1 X145.036 Y92.576 E13.51296
G1 X145.677 Y92.831 E13.54229
G1 X146.725 Y94.357 E13.62099
G1 X147.201 Y95.109 E13.65883
G1 X147.195 Y95.838 E13.68982
G1 X147.351 Y96.321 E13.7114
G1 X147.706 Y96.688 E13.73311
G1 X148.307 Y97.024 E13.76238
G1 X149.112 Y98.601 E13.83765
G1 X149.522 Y99.483 E13.879
G1 X149.423 Y100.173 E13.90863
