;FLAVOR:Marlin
;TIME:2286
;Filament used: 1.26217m
;Layer height: 0.15
;MINX:11.832
;MINY:-24.91
;MINZ:0.2
;MAXX:56.079
;MAXY:19.337
;MAXZ:12.95
;Generated with Cura_SteamEngine 4.10.0
M104 S210
M105
M109 S210
M82 ;absolute extrusion mode
G21        ;metric values
G90        ;absolute positioning
M107       ;start with the fan off
G28   ;move to endstops

;Z-Offset Reset und dann Z +0,1 für PLA
;MacroZOffset0
;MacroZOffsetPlus0100

G92 E0                  ;zero the extruded length
G1 F200 E3              ;extrude 3mm of feed stock
G92 E0                  ;zero the extruded length again
G1 F150.0
;Put printing message on LCD screen
M117 Printing...
G92 E0
G92 E0
G1 F2400 E-6
;LAYER_COUNT:86
;LAYER:0
M107
M204 S3000
G0 F900 X11.902 Y-1.033 Z0.2
M204 S2000
;TYPE:SKIRT
G1 F2400 E0
G1 F300 X11.852 Y-1.845 E0.03085
G1 X11.839 Y-2.224 E0.04523
G1 X11.832 Y-2.999 E0.07461
G1 X11.835 Y-3.219 E0.08295
G1 X11.867 Y-4.058 E0.11479
G1 X11.881 Y-4.28 E0.12322
G1 X11.95 Y-5.084 E0.15382
G1 X11.973 Y-5.293 E0.16179
G1 X12.069 Y-6.024 E0.18975
G1 X12.101 Y-6.232 E0.19773
G1 X12.25 Y-7.072 E0.23007
G1 X12.293 Y-7.288 E0.23843
G1 X12.465 Y-8.048 E0.26797
G1 X12.517 Y-8.255 E0.27606
G1 X12.73 Y-9.03 E0.30654
G1 X12.792 Y-9.236 E0.31469
G1 X13.05 Y-10.03 E0.34635
G1 X13.121 Y-10.234 E0.35454
G1 X13.396 Y-10.964 E0.38412
G1 X13.48 Y-11.17 E0.39255
G1 X13.789 Y-11.884 E0.42205
G1 X13.915 Y-12.156 E0.43342
G1 X14.193 Y-12.733 E0.4577
G1 X14.37 Y-13.077 E0.47237
G1 X14.731 Y-13.737 E0.5009
G1 X14.838 Y-13.922 E0.509
G1 X15.258 Y-14.613 E0.53966
G1 X15.371 Y-14.79 E0.54762
G1 X15.822 Y-15.462 E0.57831
G1 X15.944 Y-15.635 E0.58633
G1 X16.382 Y-16.228 E0.61429
G1 X16.587 Y-16.491 E0.62693
G1 X17.084 Y-17.1 E0.65674
G1 X17.226 Y-17.265 E0.66499
G1 X17.755 Y-17.855 E0.69504
G1 X17.906 Y-18.016 E0.70341
G1 X18.461 Y-18.579 E0.73338
G1 X18.61 Y-18.724 E0.74126
G1 X19.211 Y-19.282 E0.77236
G1 X19.372 Y-19.424 E0.7805
G1 X19.964 Y-19.925 E0.8099
G1 X20.128 Y-20.058 E0.81791
G1 X20.785 Y-20.565 E0.84938
G1 X20.967 Y-20.699 E0.85795
G1 X21.608 Y-21.146 E0.88758
G1 X21.786 Y-21.264 E0.89567
G1 X22.486 Y-21.706 E0.92706
G1 X22.676 Y-21.82 E0.93547
G1 X23.383 Y-22.221 E0.96628
G1 X23.561 Y-22.317 E0.97395
G1 X24.134 Y-22.61 E0.99835
G1 X24.561 Y-22.815 E1.01631
G1 X25.103 Y-23.062 E1.0389
G1 X25.442 Y-23.206 E1.05286
G1 X26.163 Y-23.493 E1.08229
G1 X26.364 Y-23.568 E1.09042
G1 X27.101 Y-23.823 E1.11999
G1 X27.313 Y-23.891 E1.12843
G1 X28.059 Y-24.11 E1.15791
G1 X28.365 Y-24.191 E1.16992
G1 X29.104 Y-24.37 E1.19875
G1 X29.294 Y-24.412 E1.20612
G1 X30.079 Y-24.568 E1.23647
G1 X30.298 Y-24.606 E1.2449
G1 X31.086 Y-24.724 E1.27511
G1 X31.3 Y-24.751 E1.28329
G1 X32.088 Y-24.832 E1.31332
G1 X32.318 Y-24.85 E1.32207
G1 X33.182 Y-24.896 E1.35488
G1 X33.389 Y-24.903 E1.36273
G1 X34.163 Y-24.91 E1.39208
G1 X34.383 Y-24.907 E1.40042
G1 X35.196 Y-24.876 E1.43127
G1 X35.399 Y-24.863 E1.43898
G1 X36.267 Y-24.791 E1.47201
G1 X36.461 Y-24.769 E1.47941
G1 X37.194 Y-24.673 E1.50744
G1 X37.405 Y-24.641 E1.51553
G1 X38.238 Y-24.493 E1.54761
G1 X38.449 Y-24.45 E1.55578
G1 X39.229 Y-24.274 E1.5861
G1 X39.446 Y-24.22 E1.59457
G1 X40.184 Y-24.015 E1.62362
G1 X40.465 Y-23.929 E1.63476
G1 X41.193 Y-23.693 E1.66378
G1 X41.445 Y-23.603 E1.67392
G1 X42.145 Y-23.339 E1.70229
G1 X42.346 Y-23.258 E1.7105
G1 X43.084 Y-22.94 E1.74097
G1 X43.285 Y-22.848 E1.74936
G1 X44.039 Y-22.48 E1.78117
G1 X44.228 Y-22.382 E1.78924
G1 X44.895 Y-22.018 E1.81805
G1 X45.083 Y-21.91 E1.82627
G1 X45.743 Y-21.509 E1.85555
G1 X45.906 Y-21.405 E1.86289
G1 X46.444 Y-21.047 E1.88739
G1 X46.888 Y-20.735 E1.90796
G1 X47.37 Y-20.378 E1.93071
G1 X47.707 Y-20.115 E1.94692
G1 X48.15 Y-19.757 E1.96851
G1 X48.445 Y-19.505 E1.98322
G1 X49.029 Y-18.981 E2.01297
G1 X49.187 Y-18.834 E2.02116
G1 X49.752 Y-18.278 E2.05121
G1 X49.894 Y-18.131 E2.05896
G1 X50.425 Y-17.559 E2.08855
G1 X50.608 Y-17.35 E2.09909
G1 X51.106 Y-16.764 E2.12825
G1 X51.246 Y-16.59 E2.13671
G1 X51.73 Y-15.96 E2.16684
G1 X51.858 Y-15.784 E2.17509
G1 X52.314 Y-15.131 E2.20529
G1 X52.448 Y-14.927 E2.21454
G1 X52.771 Y-14.421 E2.2373
G1 X53.032 Y-13.986 E2.25654
G1 X53.392 Y-13.357 E2.28402
G1 X53.501 Y-13.154 E2.29275
G1 X53.854 Y-12.46 E2.32228
G1 X53.946 Y-12.269 E2.33032
G1 X54.22 Y-11.664 E2.3555
G1 X54.365 Y-11.32 E2.36965
G1 X54.667 Y-10.565 E2.40048
G1 X54.745 Y-10.356 E2.40894
G1 X54.989 Y-9.65 E2.43727
G1 X55.055 Y-9.443 E2.4455
G1 X55.265 Y-8.73 E2.47369
G1 X55.348 Y-8.423 E2.48574
G1 X55.538 Y-7.65 E2.51593
G1 X55.595 Y-7.39 E2.52602
G1 X55.736 Y-6.675 E2.55365
G1 X55.773 Y-6.462 E2.56185
G1 X55.897 Y-5.633 E2.59363
G1 X55.924 Y-5.416 E2.60192
G1 X56.001 Y-4.661 E2.6307
G1 X56.018 Y-4.438 E2.63918
G1 X56.065 Y-3.565 E2.67233
G1 X56.072 Y-3.355 E2.68029
G1 X56.079 Y-2.577 E2.70979
G1 X56.076 Y-2.356 E2.71817
G1 X56.045 Y-1.548 E2.74883
G1 X56.032 Y-1.345 E2.75655
G1 X55.966 Y-.539 E2.78721
G1 X55.943 Y-.316 E2.79571
G1 X55.844 Y0.444 E2.82477
G1 X55.811 Y0.659 E2.83302
G1 X55.661 Y1.502 E2.86548
G1 X55.619 Y1.709 E2.87349
G1 X55.448 Y2.469 E2.90303
G1 X55.394 Y2.684 E2.91143
G1 X55.181 Y3.458 E2.94187
G1 X55.119 Y3.664 E2.95003
G1 X54.86 Y4.46 E2.98177
G1 X54.79 Y4.662 E2.98987
G1 X54.515 Y5.392 E3.01945
G1 X54.432 Y5.596 E3.0278
G1 X54.127 Y6.3 E3.05689
G1 X54.022 Y6.529 E3.06645
G1 X53.705 Y7.186 E3.0941
G1 X53.549 Y7.487 E3.10696
G1 X53.189 Y8.149 E3.13553
G1 X53.078 Y8.342 E3.14397
G1 X52.656 Y9.037 E3.1748
G1 X52.541 Y9.217 E3.1829
G1 X52.091 Y9.887 E3.2135
G1 X51.97 Y10.059 E3.22148
G1 X51.529 Y10.656 E3.24962
G1 X51.395 Y10.829 E3.25792
G1 X50.832 Y11.521 E3.29174
G1 X50.688 Y11.69 E3.30016
G1 X50.172 Y12.266 E3.32948
G1 X50.02 Y12.427 E3.33788
G1 X49.433 Y13.023 E3.3696
G1 X49.284 Y13.168 E3.37748
G1 X48.709 Y13.702 E3.40723
G1 X48.546 Y13.847 E3.41551
G1 X47.944 Y14.356 E3.4454
G1 X47.778 Y14.49 E3.45349
G1 X47.173 Y14.956 E3.48244
G1 X47.019 Y15.069 E3.48968
G1 X46.325 Y15.558 E3.52187
G1 X46.075 Y15.723 E3.53323
G1 X45.422 Y16.135 E3.56251
G1 X45.237 Y16.246 E3.57069
G1 X44.54 Y16.642 E3.60108
G1 X44.356 Y16.741 E3.60901
G1 X43.635 Y17.109 E3.6397
G1 X43.437 Y17.205 E3.64804
G1 X42.708 Y17.535 E3.67838
G1 X42.504 Y17.621 E3.68678
G1 X41.743 Y17.923 E3.71782
G1 X41.536 Y18 E3.72619
G1 X40.749 Y18.27 E3.75774
G1 X40.544 Y18.335 E3.7659
G1 X39.799 Y18.553 E3.79533
G1 X39.597 Y18.607 E3.80326
G1 X38.812 Y18.799 E3.8339
G1 X38.602 Y18.845 E3.84205
G1 X37.838 Y18.995 E3.87157
G1 X37.626 Y19.032 E3.87973
G1 X36.808 Y19.154 E3.91109
G1 X36.585 Y19.182 E3.91961
G1 X35.827 Y19.258 E3.9485
G1 X35.64 Y19.273 E3.95561
G1 X34.889 Y19.318 E3.98414
G1 X34.522 Y19.33 E3.99806
G1 X33.739 Y19.337 E4.02775
G1 X33.522 Y19.334 E4.03598
G1 X32.721 Y19.304 E4.06637
G1 X32.508 Y19.291 E4.07446
G1 X31.702 Y19.224 E4.10513
G1 X31.483 Y19.201 E4.11348
G1 X30.718 Y19.101 E4.14273
G1 X30.506 Y19.068 E4.15086
G1 X29.673 Y18.92 E4.18294
G1 X29.457 Y18.876 E4.1913
G1 X28.69 Y18.702 E4.22112
G1 X28.486 Y18.651 E4.2291
G1 X27.692 Y18.433 E4.26032
G1 X27.486 Y18.371 E4.26847
G1 X26.63 Y18.092 E4.30261
G1 X25.763 Y17.766 E4.33773
G1 X25.564 Y17.686 E4.34586
G1 X24.845 Y17.376 E4.37555
G1 X24.648 Y17.285 E4.38378
G1 X23.897 Y16.919 E4.41546
G1 X23.709 Y16.822 E4.42348
G1 X23.022 Y16.448 E4.45314
G1 X22.831 Y16.338 E4.46149
G1 X22.169 Y15.936 E4.49086
G1 X22.011 Y15.836 E4.49795
G1 X21.494 Y15.493 E4.52147
G1 X21.077 Y15.2 E4.5408
G1 X20.551 Y14.814 E4.56554
G1 X20.239 Y14.572 E4.58051
G1 X19.643 Y14.085 E4.60969
G1 X19.486 Y13.951 E4.61752
G1 X18.903 Y13.43 E4.64716
G1 X18.735 Y13.273 E4.65588
G1 X18.164 Y12.71 E4.68629
G1 X18.026 Y12.568 E4.69379
G1 X17.546 Y12.053 E4.72049
G1 X17.306 Y11.781 E4.73424
G1 X16.803 Y11.188 E4.76373
G1 X16.666 Y11.019 E4.77197
G1 X16.194 Y10.406 E4.80131
G1 X16.058 Y10.219 E4.81008
G1 X15.606 Y9.574 E4.83994
G1 X15.458 Y9.35 E4.85012
G1 X15.076 Y8.75 E4.87709
G1 X14.902 Y8.46 E4.88991
G1 X14.531 Y7.806 E4.91842
G1 X14.434 Y7.625 E4.92621
G1 X14.049 Y6.871 E4.95831
G1 X13.951 Y6.668 E4.96685
G1 X13.655 Y6.009 E4.99425
G1 X13.55 Y5.759 E5.00453
G1 X13.241 Y4.985 E5.03613
G1 X13.162 Y4.773 E5.04471
G1 X12.917 Y4.061 E5.07326
G1 X12.851 Y3.856 E5.08142
G1 X12.615 Y3.048 E5.11334
G1 X12.564 Y2.855 E5.12091
G1 X12.357 Y2.016 E5.15367
G1 X12.31 Y1.79 E5.16243
G1 X12.174 Y1.093 E5.18935
G1 X12.138 Y0.888 E5.19724
G1 X12.012 Y0.044 E5.2296
G1 X11.985 Y-.177 E5.23804
G1 X11.917 Y-.851 E5.26373
G1 X11.902 Y-1.033 E5.27065
M204 S3000
G0 F900 X12.381 Y-1.063
M204 S2000
G1 F300 X12.331 Y-1.875 E5.3015
G1 X12.319 Y-2.228 E5.31489
G1 X12.312 Y-3.003 E5.34428
G1 X12.315 Y-3.201 E5.35179
G1 X12.347 Y-4.04 E5.38362
G1 X12.359 Y-4.239 E5.39118
G1 X12.428 Y-5.043 E5.42178
G1 X12.449 Y-5.231 E5.42895
G1 X12.545 Y-5.962 E5.4569
G1 X12.574 Y-6.149 E5.46408
G1 X12.723 Y-6.989 E5.49643
G1 X12.762 Y-7.182 E5.50389
G1 X12.934 Y-7.942 E5.53344
G1 X12.98 Y-8.128 E5.5407
G1 X13.193 Y-8.903 E5.57118
G1 X13.249 Y-9.088 E5.57851
G1 X13.507 Y-9.882 E5.61016
G1 X13.571 Y-10.065 E5.61751
G1 X13.846 Y-10.795 E5.64709
G1 X13.92 Y-10.98 E5.65465
G1 X14.226 Y-11.685 E5.68379
G1 X14.347 Y-11.948 E5.69476
G1 X14.625 Y-12.525 E5.71905
G1 X14.791 Y-12.846 E5.73275
G1 X15.152 Y-13.506 E5.76127
G1 X15.248 Y-13.672 E5.76854
G1 X15.668 Y-14.363 E5.79921
G1 X15.77 Y-14.523 E5.8064
G1 X16.221 Y-15.195 E5.83709
G1 X16.33 Y-15.349 E5.84424
G1 X16.768 Y-15.942 E5.87219
G1 X16.959 Y-16.188 E5.884
G1 X17.456 Y-16.797 E5.91381
G1 X17.583 Y-16.945 E5.9212
G1 X18.112 Y-17.535 E5.95125
G1 X18.248 Y-17.68 E5.95878
G1 X18.803 Y-18.243 E5.98876
G1 X18.936 Y-18.372 E5.99579
G1 X19.537 Y-18.93 E6.02688
G1 X19.682 Y-19.058 E6.03421
G1 X20.274 Y-19.559 E6.06362
G1 X20.421 Y-19.678 E6.07079
G1 X21.078 Y-20.185 E6.10226
G1 X21.242 Y-20.305 E6.10996
G1 X21.883 Y-20.752 E6.13959
G1 X22.043 Y-20.858 E6.14687
G1 X22.743 Y-21.3 E6.17826
G1 X22.913 Y-21.402 E6.18578
G1 X23.62 Y-21.803 E6.2166
G1 X23.78 Y-21.889 E6.22348
G1 X24.457 Y-22.234 E6.25229
G1 X24.76 Y-22.378 E6.26501
G1 X25.397 Y-22.667 E6.29154
G1 X25.62 Y-22.76 E6.3007
G1 X26.341 Y-23.047 E6.33012
G1 X26.521 Y-23.114 E6.3374
G1 X27.258 Y-23.369 E6.36697
G1 X27.448 Y-23.43 E6.37454
G1 X28.295 Y-23.677 E6.40799
G1 X28.478 Y-23.725 E6.41517
G1 X29.217 Y-23.904 E6.444
G1 X29.387 Y-23.941 E6.45059
G1 X30.172 Y-24.097 E6.48094
G1 X30.369 Y-24.132 E6.48853
G1 X31.157 Y-24.25 E6.51874
G1 X31.35 Y-24.274 E6.52611
G1 X32.138 Y-24.355 E6.55615
G1 X32.344 Y-24.371 E6.56398
G1 X33.208 Y-24.417 E6.59679
G1 X33.393 Y-24.423 E6.60381
G1 X34.167 Y-24.43 E6.63316
G1 X34.365 Y-24.427 E6.64066
G1 X35.178 Y-24.396 E6.67151
G1 X35.36 Y-24.385 E6.67843
G1 X36.217 Y-24.314 E6.71103
G1 X36.398 Y-24.293 E6.71794
G1 X37.131 Y-24.197 E6.74597
G1 X37.321 Y-24.168 E6.75326
G1 X38.154 Y-24.02 E6.78534
G1 X38.343 Y-23.982 E6.79265
G1 X39.123 Y-23.806 E6.82297
G1 X39.319 Y-23.757 E6.83063
G1 X40.046 Y-23.555 E6.85924
G1 X40.318 Y-23.472 E6.87002
G1 X41.034 Y-23.24 E6.89856
G1 X41.276 Y-23.154 E6.90829
G1 X41.976 Y-22.89 E6.93666
G1 X42.156 Y-22.817 E6.94403
G1 X42.894 Y-22.499 E6.9745
G1 X43.074 Y-22.416 E6.98201
G1 X43.828 Y-22.048 E7.01382
G1 X43.998 Y-21.961 E7.02106
G1 X44.665 Y-21.597 E7.04988
G1 X44.834 Y-21.499 E7.05728
G1 X45.494 Y-21.098 E7.08656
G1 X45.64 Y-21.006 E7.09311
G1 X46.178 Y-20.648 E7.11761
G1 X46.603 Y-20.348 E7.13734
G1 X47.075 Y-20 E7.15957
G1 X47.405 Y-19.742 E7.17545
G1 X47.925 Y-19.32 E7.20085
G1 X48.125 Y-19.148 E7.21085
G1 X48.709 Y-18.624 E7.2406
G1 X48.85 Y-18.492 E7.24792
G1 X49.415 Y-17.936 E7.27798
G1 X49.543 Y-17.804 E7.28495
G1 X50.065 Y-17.241 E7.31406
G1 X50.242 Y-17.039 E7.32424
G1 X50.74 Y-16.453 E7.3534
G1 X50.866 Y-16.297 E7.36101
G1 X51.343 Y-15.677 E7.39067
G1 X51.465 Y-15.509 E7.39854
G1 X51.851 Y-14.958 E7.42405
G1 X52.043 Y-14.669 E7.4372
G1 X52.366 Y-14.163 E7.45996
G1 X52.615 Y-13.747 E7.47835
G1 X52.975 Y-13.118 E7.50583
G1 X53.074 Y-12.936 E7.51368
G1 X53.427 Y-12.242 E7.5432
G1 X53.509 Y-12.071 E7.5504
G1 X53.783 Y-11.466 E7.57558
G1 X53.92 Y-11.142 E7.58892
G1 X54.222 Y-10.387 E7.61975
G1 X54.292 Y-10.199 E7.62735
G1 X54.536 Y-9.493 E7.65568
G1 X54.595 Y-9.308 E7.66304
G1 X54.805 Y-8.595 E7.69122
G1 X54.882 Y-8.308 E7.70249
G1 X55.07 Y-7.545 E7.73228
G1 X55.124 Y-7.298 E7.74187
G1 X55.265 Y-6.583 E7.7695
G1 X55.298 Y-6.391 E7.77689
G1 X55.422 Y-5.562 E7.80867
G1 X55.446 Y-5.367 E7.81612
G1 X55.523 Y-4.612 E7.8449
G1 X55.539 Y-4.412 E7.85251
G1 X55.586 Y-3.539 E7.88565
G1 X55.592 Y-3.351 E7.89279
G1 X55.599 Y-2.573 E7.92229
G1 X55.596 Y-2.374 E7.92983
G1 X55.565 Y-1.566 E7.96049
G1 X55.554 Y-1.384 E7.96741
G1 X55.488 Y-.578 E7.99807
G1 X55.467 Y-.378 E8.00569
G1 X55.368 Y0.382 E8.03475
G1 X55.338 Y0.575 E8.04216
G1 X55.188 Y1.418 E8.07463
G1 X55.151 Y1.604 E8.08182
G1 X54.98 Y2.364 E8.11135
G1 X54.931 Y2.556 E8.11887
G1 X54.718 Y3.33 E8.1493
G1 X54.663 Y3.516 E8.15666
G1 X54.404 Y4.312 E8.1884
G1 X54.34 Y4.493 E8.19568
G1 X54.065 Y5.223 E8.22526
G1 X53.992 Y5.405 E8.23269
G1 X53.691 Y6.101 E8.26144
G1 X53.59 Y6.32 E8.27059
G1 X53.273 Y6.977 E8.29825
G1 X53.128 Y7.257 E8.3102
G1 X52.768 Y7.919 E8.33877
G1 X52.668 Y8.093 E8.34638
G1 X52.246 Y8.788 E8.37721
G1 X52.143 Y8.95 E8.38449
G1 X51.693 Y9.62 E8.41509
G1 X51.584 Y9.773 E8.42222
G1 X51.143 Y10.37 E8.45036
G1 X51.023 Y10.526 E8.45782
G1 X50.46 Y11.218 E8.49165
G1 X50.33 Y11.369 E8.4992
G1 X49.814 Y11.945 E8.52852
G1 X49.678 Y12.09 E8.53606
G1 X49.091 Y12.686 E8.56778
G1 X48.957 Y12.817 E8.57489
G1 X48.382 Y13.351 E8.60464
G1 X48.236 Y13.48 E8.61203
G1 X47.634 Y13.989 E8.64192
G1 X47.485 Y14.109 E8.64917
G1 X46.88 Y14.575 E8.67813
G1 X46.742 Y14.677 E8.68463
G1 X46.058 Y15.159 E8.71636
G1 X45.819 Y15.317 E8.72722
G1 X45.166 Y15.729 E8.7565
G1 X45 Y15.829 E8.76385
G1 X44.303 Y16.225 E8.79424
G1 X44.137 Y16.314 E8.80139
G1 X43.416 Y16.682 E8.83208
G1 X43.239 Y16.767 E8.83952
G1 X42.51 Y17.097 E8.86986
G1 X42.327 Y17.175 E8.87741
G1 X41.566 Y17.477 E8.90845
G1 X41.38 Y17.546 E8.91597
G1 X40.593 Y17.816 E8.94752
G1 X40.41 Y17.874 E8.9548
G1 X39.665 Y18.092 E8.98423
G1 X39.483 Y18.141 E8.99138
G1 X38.698 Y18.333 E9.02202
G1 X38.509 Y18.374 E9.02935
G1 X37.745 Y18.524 E9.05887
G1 X37.556 Y18.557 E9.06615
G1 X36.738 Y18.679 E9.09751
G1 X36.537 Y18.704 E9.10519
G1 X35.779 Y18.78 E9.13407
G1 X35.611 Y18.793 E9.14046
G1 X34.739 Y18.844 E9.17358
G1 X34.518 Y18.85 E9.18196
G1 X33.735 Y18.857 E9.21165
G1 X33.54 Y18.854 E9.21905
G1 X32.739 Y18.824 E9.24944
G1 X32.548 Y18.813 E9.25669
G1 X31.742 Y18.746 E9.28736
G1 X31.546 Y18.725 E9.29483
G1 X30.781 Y18.625 E9.32409
G1 X30.59 Y18.595 E9.33142
G1 X29.757 Y18.447 E9.3635
G1 X29.563 Y18.408 E9.371
G1 X28.796 Y18.234 E9.40082
G1 X28.613 Y18.188 E9.40798
G1 X27.819 Y17.97 E9.4392
G1 X27.635 Y17.915 E9.44648
G1 X26.839 Y17.656 E9.47822
G1 X26.677 Y17.598 E9.48474
G1 X25.933 Y17.317 E9.5149
G1 X25.754 Y17.245 E9.52221
G1 X25.035 Y16.935 E9.5519
G1 X24.858 Y16.854 E9.55928
G1 X24.107 Y16.488 E9.59096
G1 X23.939 Y16.401 E9.59813
G1 X23.252 Y16.027 E9.62779
G1 X23.08 Y15.928 E9.63531
G1 X22.418 Y15.526 E9.66468
G1 X22.276 Y15.436 E9.67105
G1 X21.759 Y15.093 E9.69458
G1 X21.297 Y14.767 E9.71602
G1 X20.753 Y14.365 E9.74167
G1 X20.542 Y14.2 E9.75182
G1 X19.946 Y13.713 E9.78101
G1 X19.805 Y13.593 E9.78803
G1 X19.222 Y13.072 E9.81767
G1 X19.072 Y12.931 E9.82548
G1 X18.501 Y12.368 E9.85588
G1 X18.378 Y12.241 E9.86259
G1 X17.816 Y11.636 E9.8939
G1 X17.672 Y11.471 E9.9022
G1 X17.169 Y10.878 E9.93168
G1 X17.046 Y10.726 E9.9391
G1 X16.58 Y10.12 E9.96808
G1 X16.45 Y9.943 E9.97641
G1 X16.005 Y9.308 E10.00581
G1 X15.863 Y9.093 E10.01558
G1 X15.481 Y8.493 E10.04255
G1 X15.32 Y8.223 E10.05447
G1 X14.949 Y7.569 E10.08298
G1 X14.861 Y7.407 E10.08997
G1 X14.476 Y6.653 E10.12207
G1 X14.389 Y6.47 E10.12975
G1 X14.096 Y5.82 E10.15679
G1 X13.995 Y5.581 E10.16662
G1 X13.686 Y4.807 E10.19822
G1 X13.616 Y4.617 E10.2059
G1 X13.371 Y3.905 E10.23445
G1 X13.312 Y3.72 E10.24181
G1 X13.078 Y2.921 E10.27338
G1 X13.03 Y2.74 E10.28048
G1 X12.855 Y2.035 E10.30802
G1 X12.781 Y1.698 E10.32111
G1 X12.645 Y1.001 E10.34803
G1 X12.613 Y0.817 E10.35511
G1 X12.487 Y-0.027 E10.38747
G1 X12.462 Y-.225 E10.39504
G1 X12.394 Y-.899 E10.42072
G1 X12.381 Y-1.063 E10.42696
