;FLAVOR:Marlin
;TIME:10848
;Filament used: 21.5684m
;Layer height: 0.3
;MINX:-58.088
;MINY:-31.65
;MINZ:0.3
;MAXX:55.488
;MAXY:31.65
;MAXZ:45
;POSTPROCESSED
;Generated with Cura_SteamEngine 4.10.0
M140 S60
M105
M190 S60
M104 S220
M105
M109 S220
M82 ;absolute extrusion mode
G21        ;metric values
G90        ;absolute positioning
M107       ;start with the fan off
G28   ;move to endstops
;Z-Offset Reset und dann Z +0,1 für PLA
;MacroZOffset0
;MacroZOffsetPlus0100
G92 E0                  ;zero the extruded length
G1 F200 E3              ;extrude 3mm of feed stock
G92 E0                  ;zero the extruded length again
G1 F120
;Put printing message on LCD screen
M117 Printing...
G92 E0
G92 E0
G1 F2700 E-7
;LAYER_COUNT:150
;LAYER:0
M106 S89.3
G0 F2400 X2.337 Y-13.35 Z0.3
;TYPE:SKIRT
G1 F2700 E0
G1 F600 X2.337 Y13.35 E2.21456
G1 X48.837 Y13.35 E6.07139
G1 X49.565 Y13.39 E6.13186
G1 X50.284 Y13.509 E6.19231
G1 X50.986 Y13.707 E6.25281
G1 X51.662 Y13.98 E6.31327
G1 X52.304 Y14.325 E6.37373
G1 X52.905 Y14.739 E6.43426
G1 X53.456 Y15.216 E6.4947
G1 X53.952 Y15.75 E6.55515
G1 X54.387 Y16.336 E6.61569
G1 X54.754 Y16.966 E6.67616
G1 X55.051 Y17.632 E6.73664
G1 X55.273 Y18.326 E6.79708
G1 X55.417 Y19.041 E6.85757
G1 X55.487 Y19.999 E6.93724
G1 X55.488 Y24.999 E7.35196
G1 X55.448 Y25.727 E7.41243
G1 X55.329 Y26.446 E7.47288
G1 X55.132 Y27.148 E7.53335
G1 X54.859 Y27.824 E7.59382
G1 X54.513 Y28.466 E7.65431
G1 X54.1 Y29.067 E7.71479
G1 X53.623 Y29.618 E7.77524
G1 X53.089 Y30.114 E7.83569
G1 X52.503 Y30.549 E7.89622
G1 X51.874 Y30.917 E7.95667
G1 X51.208 Y31.213 E8.01712
G1 X50.513 Y31.436 E8.07765
G1 X49.799 Y31.58 E8.13807
G1 X48.838 Y31.65 E8.21799
G1 X-51.438 Y31.65 E16.53513
G1 X-52.166 Y31.61 E16.5956
G1 X-52.885 Y31.491 E16.65605
G1 X-53.587 Y31.293 E16.71654
G1 X-54.263 Y31.02 E16.77701
G1 X-54.905 Y30.675 E16.83746
G1 X-55.506 Y30.261 E16.89799
G1 X-56.057 Y29.784 E16.95844
G1 X-56.553 Y29.25 E17.01889
G1 X-56.988 Y28.664 E17.07942
G1 X-57.355 Y28.034 E17.1399
G1 X-57.652 Y27.368 E17.20038
G1 X-57.874 Y26.674 E17.26081
G1 X-58.018 Y25.959 E17.32131
G1 X-58.088 Y25 E17.40106
G1 X-58.088 Y19.998 E17.81594
G1 X-58.048 Y19.27 E17.87641
G1 X-57.907 Y18.456 E17.94493
G1 X-57.24 Y15.658 E18.18351
G1 X-57.032 Y14.959 E18.244
G1 X-56.749 Y14.287 E18.30448
G1 X-56.394 Y13.65 E18.36496
G1 X-55.972 Y13.056 E18.4254
G1 X-55.487 Y12.511 E18.48591
G1 X-54.945 Y12.023 E18.5464
G1 X-54.753 Y11.891 E18.56573
G1 X-8.787 Y-29.919 E23.71948
G1 X-8.221 Y-30.38 E23.78003
G1 X-7.609 Y-30.775 E23.84045
G1 X-6.957 Y-31.102 E23.90094
G1 X-6.273 Y-31.354 E23.96141
G1 X-5.565 Y-31.531 E24.02194
G1 X-4.843 Y-31.629 E24.08237
G1 X-4.312 Y-31.65 E24.12645
G1 X48.837 Y-31.65 E28.53476
G1 X49.565 Y-31.61 E28.59523
G1 X50.284 Y-31.491 E28.65568
G1 X50.986 Y-31.293 E28.71617
G1 X51.662 Y-31.02 E28.77664
G1 X52.304 Y-30.675 E28.83709
G1 X52.905 Y-30.261 E28.89762
G1 X53.456 Y-29.784 E28.95807
G1 X53.952 Y-29.25 E29.01852
G1 X54.387 Y-28.664 E29.07905
G1 X54.754 Y-28.034 E29.13953
G1 X55.051 Y-27.368 E29.20001
G1 X55.273 Y-26.674 E29.26044
G1 X55.417 Y-25.959 E29.32094
G1 X55.487 Y-25 E29.40069
G1 X55.487 Y-20 E29.8154
G1 X55.447 Y-19.272 E29.87588
G1 X55.328 Y-18.553 E29.93632
G1 X55.13 Y-17.851 E29.99682
G1 X54.857 Y-17.175 E30.05729
G1 X54.512 Y-16.533 E30.11774
G1 X54.098 Y-15.932 E30.17827
G1 X53.621 Y-15.381 E30.23872
G1 X53.087 Y-14.885 E30.29917
G1 X52.501 Y-14.45 E30.3597
G1 X51.871 Y-14.083 E30.42018
G1 X51.205 Y-13.786 E30.48066
G1 X50.511 Y-13.564 E30.54109
G1 X49.796 Y-13.42 E30.60159
G1 X48.837 Y-13.35 E30.68134
G1 X2.337 Y-13.35 E34.53817
G0 F2400 X1.637 Y-14.05
G1 F600 X1.637 Y14.05 E36.86885
G1 X48.837 Y14.05 E40.78373
G1 X49.525 Y14.09 E40.84089
G1 X50.205 Y14.209 E40.89815
G1 X50.866 Y14.406 E40.95536
G1 X51.499 Y14.679 E41.01254
G1 X52.097 Y15.023 E41.06976
G1 X52.651 Y15.433 E41.12692
G1 X53.154 Y15.905 E41.18414
G1 X53.599 Y16.432 E41.24135
G1 X53.98 Y17.007 E41.29856
G1 X54.291 Y17.622 E41.35572
G1 X54.53 Y18.269 E41.41293
G1 X54.692 Y18.94 E41.47018
G1 X54.775 Y19.624 E41.52733
G1 X54.787 Y19.999 E41.55845
G1 X54.788 Y24.999 E41.97316
G1 X54.748 Y25.687 E42.03032
G1 X54.629 Y26.367 E42.08758
G1 X54.432 Y27.027 E42.14471
G1 X54.16 Y27.661 E42.20193
G1 X53.816 Y28.259 E42.25915
G1 X53.406 Y28.813 E42.31631
G1 X52.934 Y29.316 E42.37352
G1 X52.407 Y29.761 E42.43073
G1 X51.832 Y30.142 E42.48795
G1 X51.217 Y30.454 E42.54514
G1 X50.57 Y30.692 E42.60232
G1 X49.899 Y30.855 E42.6596
G1 X49.215 Y30.938 E42.71675
G1 X48.838 Y30.95 E42.74803
G1 X-51.438 Y30.95 E51.06517
G1 X-52.126 Y30.91 E51.12233
G1 X-52.806 Y30.791 E51.17959
G1 X-53.467 Y30.594 E51.2368
G1 X-54.1 Y30.321 E51.29397
G1 X-54.698 Y29.977 E51.35119
G1 X-55.252 Y29.567 E51.40836
G1 X-55.755 Y29.095 E51.46557
G1 X-56.2 Y28.568 E51.52278
G1 X-56.581 Y27.993 E51.57999
G1 X-56.892 Y27.378 E51.63715
G1 X-57.131 Y26.731 E51.69436
G1 X-57.293 Y26.06 E51.75161
G1 X-57.376 Y25.376 E51.80876
G1 X-57.388 Y25 E51.83996
G1 X-57.388 Y19.998 E52.25484
G1 X-57.348 Y19.31 E52.312
G1 X-57.226 Y18.618 E52.37029
G1 X-56.559 Y15.82 E52.60886
G1 X-56.36 Y15.16 E52.66604
G1 X-56.087 Y14.527 E52.72321
G1 X-55.742 Y13.93 E52.7804
G1 X-55.33 Y13.376 E52.83767
G1 X-54.857 Y12.875 E52.89482
G1 X-54.329 Y12.431 E52.95204
G1 X-54.25 Y12.379 E52.95988
G1 X-8.316 Y-29.402 E58.11006
G1 X-7.779 Y-29.835 E58.16727
G1 X-7.197 Y-30.204 E58.22443
G1 X-6.575 Y-30.503 E58.28167
G1 X-5.923 Y-30.728 E58.33888
G1 X-5.25 Y-30.876 E58.39603
G1 X-4.312 Y-30.95 E58.47407
G1 X48.837 Y-30.95 E62.88238
G1 X49.525 Y-30.91 E62.93954
G1 X50.205 Y-30.791 E62.9968
G1 X50.866 Y-30.594 E63.05401
G1 X51.499 Y-30.321 E63.11119
G1 X52.097 Y-29.977 E63.16841
G1 X52.651 Y-29.567 E63.22557
G1 X53.154 Y-29.095 E63.28279
G1 X53.599 Y-28.568 E63.33999
G1 X53.98 Y-27.993 E63.39721
G1 X54.291 Y-27.378 E63.45437
G1 X54.53 Y-26.731 E63.51158
G1 X54.692 Y-26.06 E63.56883
G1 X54.775 Y-25.376 E63.62598
G1 X54.787 Y-25 E63.65718
G1 X54.787 Y-20 E64.07189
G1 X54.747 Y-19.312 E64.12905
G1 X54.628 Y-18.632 E64.18631
G1 X54.431 Y-17.971 E64.24352
G1 X54.158 Y-17.338 E64.3007
G1 X53.814 Y-16.74 E64.35792
G1 X53.404 Y-16.186 E64.41508
G1 X52.932 Y-15.683 E64.47229
G1 X52.405 Y-15.238 E64.5295
G1 X51.83 Y-14.857 E64.58671
G1 X51.215 Y-14.546 E64.64388
G1 X50.568 Y-14.307 E64.70108
G1 X49.897 Y-14.145 E64.75834
G1 X49.213 Y-14.062 E64.81549
G1 X48.837 Y-14.05 E64.84669
G1 X1.637 Y-14.05 E68.76157
G0 F2400 X0.937 Y-14.75
G1 F600 X0.937 Y14.75 E71.20837
G1 X48.837 Y14.75 E75.18132
G1 X49.484 Y14.79 E75.23508
G1 X50.12 Y14.909 E75.28875
G1 X50.737 Y15.106 E75.34247
G1 X51.326 Y15.377 E75.39625
G1 X51.876 Y15.719 E75.44997
G1 X52.38 Y16.126 E75.5037
G1 X52.83 Y16.592 E75.55743
G1 X53.219 Y17.109 E75.61109
G1 X53.542 Y17.671 E75.66486
G1 X53.793 Y18.268 E75.71857
G1 X53.969 Y18.892 E75.77235
G1 X54.066 Y19.532 E75.82604
G1 X54.087 Y19.999 E75.86481
G1 X54.088 Y24.999 E76.27952
G1 X54.048 Y25.645 E76.33321
G1 X53.929 Y26.282 E76.38695
G1 X53.732 Y26.899 E76.44068
G1 X53.461 Y27.488 E76.49445
G1 X53.12 Y28.038 E76.54813
G1 X52.713 Y28.542 E76.60186
G1 X52.247 Y28.992 E76.65559
G1 X51.73 Y29.382 E76.7093
G1 X51.168 Y29.705 E76.76307
G1 X50.571 Y29.956 E76.81678
G1 X49.947 Y30.131 E76.87053
G1 X49.307 Y30.229 E76.92424
G1 X48.838 Y30.25 E76.96317
G1 X-51.438 Y30.25 E85.28031
G1 X-52.085 Y30.21 E85.33408
G1 X-52.721 Y30.091 E85.38775
G1 X-53.338 Y29.894 E85.44147
G1 X-53.927 Y29.623 E85.49524
G1 X-54.477 Y29.281 E85.54896
G1 X-54.981 Y28.874 E85.60269
G1 X-55.431 Y28.408 E85.65642
G1 X-55.82 Y27.891 E85.71009
G1 X-56.143 Y27.329 E85.76385
G1 X-56.394 Y26.732 E85.81757
G1 X-56.57 Y26.108 E85.87134
G1 X-56.667 Y25.468 E85.92503
G1 X-56.688 Y25 E85.96389
G1 X-56.688 Y19.998 E86.37877
G1 X-56.648 Y19.351 E86.43253
G1 X-56.545 Y18.781 E86.48057
G1 X-55.878 Y15.983 E86.71915
G1 X-55.689 Y15.363 E86.77291
G1 X-55.425 Y14.771 E86.82667
G1 X-55.091 Y14.217 E86.88033
G1 X-54.691 Y13.707 E86.93409
G1 X-54.231 Y13.251 E86.98781
G1 X-53.817 Y12.932 E87.03116
G1 X-7.845 Y-28.884 E92.18562
G1 X-7.339 Y-29.289 E92.23938
G1 X-6.788 Y-29.629 E92.29308
G1 X-6.199 Y-29.899 E92.34682
G1 X-5.582 Y-30.094 E92.40049
G1 X-4.945 Y-30.212 E92.45423
G1 X-4.312 Y-30.25 E92.50682
G1 X48.837 Y-30.25 E96.91513
G1 X49.484 Y-30.21 E96.9689
G1 X50.12 Y-30.091 E97.02256
G1 X50.737 Y-29.894 E97.07628
G1 X51.326 Y-29.623 E97.13006
G1 X51.876 Y-29.281 E97.18378
G1 X52.38 Y-28.874 E97.23751
G1 X52.83 Y-28.408 E97.29124
G1 X53.219 Y-27.891 E97.34491
G1 X53.542 Y-27.329 E97.39867
G1 X53.793 Y-26.732 E97.45238
G1 X53.969 Y-26.108 E97.50616
G1 X54.066 Y-25.468 E97.55985
G1 X54.087 Y-25 E97.59871
G1 X54.087 Y-20 E98.01342
G1 X54.047 Y-19.353 E98.06718
G1 X53.928 Y-18.717 E98.12085
G1 X53.731 Y-18.1 E98.17457
G1 X53.46 Y-17.511 E98.22835
G1 X53.118 Y-16.961 E98.28207
G1 X52.711 Y-16.457 E98.3358
G1 X52.245 Y-16.007 E98.38953
G1 X51.728 Y-15.618 E98.44319
G1 X51.166 Y-15.295 E98.49696
G1 X50.569 Y-15.044 E98.55067
G1 X49.945 Y-14.868 E98.60445
G1 X49.305 Y-14.771 E98.65814
G1 X48.837 Y-14.75 E98.69699
G1 X0.937 Y-14.75 E102.66994
G0 F2400 X0.237 Y-15.45
G1 F600 X0.237 Y15.45 E105.23286
G1 X48.837 Y15.45 E109.26386
G1 X49.439 Y15.49 E109.3139
G1 X50.03 Y15.609 E109.36391
G1 X50.6 Y15.805 E109.4139
G1 X51.139 Y16.075 E109.4639
G1 X51.638 Y16.414 E109.51394
G1 X52.087 Y16.816 E109.56392
G1 X52.48 Y17.274 E109.61398
G1 X52.808 Y17.78 E109.66399
G1 X53.067 Y18.324 E109.71397
G1 X53.252 Y18.898 E109.76399
G1 X53.359 Y19.492 E109.81405
G1 X53.387 Y19.999 E109.85617
G1 X53.388 Y24.999 E110.27088
G1 X53.348 Y25.601 E110.32092
G1 X53.229 Y26.192 E110.37092
G1 X53.033 Y26.762 E110.42092
G1 X52.763 Y27.301 E110.47092
G1 X52.424 Y27.8 E110.52095
G1 X52.023 Y28.25 E110.57095
G1 X51.565 Y28.642 E110.62095
G1 X51.059 Y28.971 E110.67101
G1 X50.515 Y29.23 E110.72098
G1 X49.941 Y29.414 E110.77098
G1 X49.347 Y29.521 E110.82104
G1 X48.838 Y29.55 E110.86332
G1 X-51.438 Y29.55 E119.18046
G1 X-52.04 Y29.51 E119.2305
G1 X-52.631 Y29.391 E119.28051
G1 X-53.201 Y29.195 E119.3305
G1 X-53.74 Y28.925 E119.3805
G1 X-54.239 Y28.586 E119.43054
G1 X-54.688 Y28.184 E119.48053
G1 X-55.081 Y27.726 E119.53058
G1 X-55.409 Y27.22 E119.5806
G1 X-55.668 Y26.676 E119.63057
G1 X-55.853 Y26.102 E119.68059
G1 X-55.96 Y25.508 E119.73065
G1 X-55.988 Y25 E119.77285
G1 X-55.988 Y19.998 E120.18773
G1 X-55.948 Y19.396 E120.23777
G1 X-55.864 Y18.943 E120.27598
G1 X-55.197 Y16.145 E120.51456
G1 X-55.019 Y15.569 E120.56456
G1 X-54.766 Y15.022 E120.61455
G1 X-54.442 Y14.512 E120.66467
G1 X-54.055 Y14.051 E120.71459
G1 X-53.61 Y13.644 E120.76461
G1 X-53.408 Y13.506 E120.7849
G1 X-7.374 Y-28.366 E125.94629
G1 X-6.902 Y-28.741 E125.99629
G1 X-6.384 Y-29.051 E126.04636
G1 X-5.83 Y-29.289 E126.09637
G1 X-5.25 Y-29.452 E126.14634
G1 X-4.653 Y-29.537 E126.19636
G1 X-4.312 Y-29.55 E126.22466
G1 X48.837 Y-29.55 E130.63297
G1 X49.439 Y-29.51 E130.68301
G1 X50.03 Y-29.391 E130.73301
G1 X50.6 Y-29.195 E130.78301
G1 X51.139 Y-28.925 E130.83301
G1 X51.638 Y-28.586 E130.88304
G1 X52.087 Y-28.184 E130.93303
G1 X52.48 Y-27.726 E130.98309
G1 X52.808 Y-27.22 E131.0331
G1 X53.067 Y-26.676 E131.08308
G1 X53.252 Y-26.102 E131.1331
G1 X53.359 Y-25.508 E131.18316
G1 X53.387 Y-25 E131.22536
G1 X53.387 Y-20 E131.64007
G1 X53.347 Y-19.398 E131.69011
G1 X53.228 Y-18.807 E131.74011
G1 X53.032 Y-18.237 E131.79011
G1 X52.762 Y-17.698 E131.84011
G1 X52.423 Y-17.199 E131.89014
G1 X52.021 Y-16.75 E131.94013
G1 X51.563 Y-16.357 E131.99019
G1 X51.057 Y-16.029 E132.0402
G1 X50.513 Y-15.77 E132.09017
G1 X49.939 Y-15.585 E132.1402
G1 X49.345 Y-15.478 E132.19026
G1 X48.837 Y-15.45 E132.23246
G1 X0.237 Y-15.45 E136.26346
G0 F2400 X-.463 Y-16.15
G1 F600 X-.463 Y16.15 E138.9425
G1 X48.837 Y16.15 E143.03156
G1 X49.39 Y16.19 E143.07755
G1 X49.932 Y16.309 E143.12358
G1 X50.451 Y16.505 E143.16959
G1 X50.936 Y16.773 E143.21555
G1 X51.378 Y17.108 E143.26155
G1 X51.767 Y17.503 E143.30753
G1 X52.096 Y17.95 E143.35357
G1 X52.357 Y18.439 E143.39954
G1 X52.544 Y18.961 E143.44553
G1 X52.655 Y19.505 E143.49158
G1 X52.687 Y19.999 E143.53264
G1 X52.688 Y24.999 E143.94736
G1 X52.648 Y25.552 E143.99334
G1 X52.529 Y26.094 E144.03937
G1 X52.334 Y26.613 E144.08535
G1 X52.066 Y27.099 E144.13139
G1 X51.731 Y27.541 E144.17739
G1 X51.336 Y27.93 E144.22337
G1 X50.889 Y28.258 E144.26935
G1 X50.399 Y28.519 E144.3154
G1 X49.877 Y28.707 E144.36142
G1 X49.334 Y28.818 E144.40739
G1 X48.838 Y28.85 E144.44861
G1 X-51.438 Y28.85 E152.76575
G1 X-51.991 Y28.81 E152.81174
G1 X-52.533 Y28.691 E152.85777
G1 X-53.052 Y28.495 E152.90378
G1 X-53.537 Y28.227 E152.94974
G1 X-53.979 Y27.892 E152.99574
G1 X-54.368 Y27.497 E153.04172
G1 X-54.697 Y27.05 E153.08776
G1 X-54.958 Y26.561 E153.13373
G1 X-55.145 Y26.039 E153.17972
G1 X-55.256 Y25.495 E153.22577
G1 X-55.288 Y25 E153.26692
G1 X-55.288 Y19.998 E153.68179
G1 X-55.248 Y19.445 E153.72778
G1 X-55.183 Y19.105 E153.75649
G1 X-54.516 Y16.307 E153.99507
G1 X-54.349 Y15.778 E154.04108
G1 X-54.108 Y15.279 E154.08704
G1 X-53.797 Y14.82 E154.13303
G1 X-53.423 Y14.41 E154.17906
G1 X-52.995 Y14.057 E154.22507
G1 X-52.923 Y14.011 E154.23216
G1 X-6.903 Y-27.848 E159.39196
G1 X-6.466 Y-28.191 E159.43804
G1 X-5.986 Y-28.467 E159.48397
G1 X-5.47 Y-28.672 E159.53002
G1 X-4.931 Y-28.8 E159.57597
G1 X-4.312 Y-28.85 E159.62748
G1 X48.837 Y-28.85 E164.03579
G1 X49.39 Y-28.81 E164.08177
G1 X49.932 Y-28.691 E164.1278
G1 X50.451 Y-28.495 E164.17381
G1 X50.936 Y-28.227 E164.21977
G1 X51.378 Y-27.892 E164.26577
G1 X51.767 Y-27.497 E164.31176
G1 X52.096 Y-27.05 E164.35779
G1 X52.357 Y-26.561 E164.40377
G1 X52.544 Y-26.039 E164.44976
G1 X52.655 Y-25.495 E164.49581
G1 X52.687 Y-25 E164.53695
G1 X52.687 Y-20 E164.95166
G1 X52.647 Y-19.447 E164.99765
G1 X52.528 Y-18.905 E165.04367
G1 X52.332 Y-18.386 E165.08969
G1 X52.064 Y-17.901 E165.13565
G1 X51.729 Y-17.459 E165.18165
G1 X51.334 Y-17.07 E165.22763
G1 X50.887 Y-16.741 E165.27367
G1 X50.398 Y-16.48 E165.31964
G1 X49.876 Y-16.293 E165.36563
G1 X49.332 Y-16.182 E165.41168
G1 X48.837 Y-16.15 E165.45282
G1 X-.463 Y-16.15 E169.54189
G0 F2400 X-1.163 Y-16.85
G1 F600 X-1.163 Y16.85 E172.33705
G1 X48.837 Y16.85 E176.48417
G1 X49.337 Y16.89 E176.52577
G1 X49.824 Y17.009 E176.56736
G1 X50.287 Y17.203 E176.60899
G1 X50.712 Y17.469 E176.65058
G1 X51.09 Y17.799 E176.6922
G1 X51.411 Y18.184 E176.73377
G1 X51.667 Y18.616 E176.77542
G1 X51.85 Y19.083 E176.81703
G1 X51.958 Y19.572 E176.85856
G1 X51.987 Y19.999 E176.89406
G1 X51.988 Y24.999 E177.30877
G1 X51.948 Y25.499 E177.35038
G1 X51.829 Y25.987 E177.39204
G1 X51.635 Y26.449 E177.4336
G1 X51.369 Y26.875 E177.47525
G1 X51.04 Y27.253 E177.51682
G1 X50.654 Y27.574 E177.55846
G1 X50.223 Y27.829 E177.59999
G1 X49.756 Y28.013 E177.64163
G1 X49.266 Y28.121 E177.68324
G1 X48.838 Y28.15 E177.71883
G1 X-51.438 Y28.15 E186.03596
G1 X-51.938 Y28.11 E186.07757
G1 X-52.425 Y27.991 E186.11915
G1 X-52.888 Y27.797 E186.16079
G1 X-53.313 Y27.531 E186.20237
G1 X-53.691 Y27.201 E186.24399
G1 X-54.012 Y26.816 E186.28557
G1 X-54.268 Y26.384 E186.32722
G1 X-54.451 Y25.917 E186.36882
G1 X-54.559 Y25.428 E186.41035
G1 X-54.588 Y25 E186.44594
G1 X-54.588 Y19.998 E186.86081
G1 X-54.502 Y19.268 E186.92178
G1 X-53.835 Y16.47 E187.16036
G1 X-53.68 Y15.992 E187.20204
G1 X-53.452 Y15.546 E187.24358
G1 X-53.155 Y15.141 E187.28524
G1 X-52.798 Y14.789 E187.32682
G1 X-52.529 Y14.599 E187.35414
G1 X-6.432 Y-27.33 E192.52257
G1 X-6.035 Y-27.637 E192.5642
G1 X-5.594 Y-27.877 E192.60584
G1 X-5.121 Y-28.044 E192.64745
G1 X-4.628 Y-28.134 E192.68901
G1 X-4.312 Y-28.15 E192.71526
G1 X48.837 Y-28.15 E197.12357
G1 X49.337 Y-28.11 E197.16517
G1 X49.824 Y-27.991 E197.20675
G1 X50.287 Y-27.797 E197.24839
G1 X50.712 Y-27.531 E197.28997
G1 X51.09 Y-27.201 E197.33159
G1 X51.411 Y-26.816 E197.37317
G1 X51.667 Y-26.384 E197.41482
G1 X51.85 Y-25.917 E197.45642
G1 X51.958 Y-25.428 E197.49796
G1 X51.987 Y-25 E197.53354
G1 X51.987 Y-20 E197.94825
G1 X51.947 Y-19.5 E197.98985
G1 X51.828 Y-19.013 E198.03143
G1 X51.634 Y-18.55 E198.07307
G1 X51.368 Y-18.125 E198.11466
G1 X51.038 Y-17.747 E198.15628
G1 X50.653 Y-17.426 E198.19785
G1 X50.221 Y-17.17 E198.2395
