;FLAVOR:Marlin
;TIME:4595
;Filament used: 20.6788m
;Layer height: 0.3
;MINX:-55.488
;MINY:-29.05
;MINZ:0.3
;MAXX:55.287
;MAXY:29.05
;MAXZ:45
;POSTPROCESSED
;Generated with Cura_SteamEngine 4.10.0
M140 S60
M105
M190 S60
M104 S220
M105
M109 S220
M82 ;absolute extrusion mode
G21        ;metric values
G90        ;absolute positioning
M107       ;start with the fan off
G28   ;move to endstops
;Z-Offset Reset und dann Z +0,1 für PLA
;MacroZOffset0
;MacroZOffsetPlus0100
G92 E0                  ;zero the extruded length
G1 F200 E3              ;extrude 3mm of feed stock
G92 E0                  ;zero the extruded length again
G1 F120
;Put printing message on LCD screen
M117 Printing...
G92 E0
G92 E0
G1 F2700 E-7
;LAYER_COUNT:150
;LAYER:0
M107
G0 F2400 X-7.461 Y-27.61 Z0.3
;TYPE:SKIRT
G1 F2700 E0
G1 F1200 X-6.992 Y-28.024 E0.05189
G1 X-6.54 Y-28.37 E0.0991
G1 X-6.045 Y-28.649 E0.14623
G1 X-5.515 Y-28.855 E0.19339
G1 X-4.961 Y-28.986 E0.24061
G1 X-4.375 Y-29.038 E0.28941
G1 X-3.601 Y-29.05 E0.35361
G1 X48.188 Y-29.05 E4.64912
G1 X48.886 Y-29.04 E4.70702
G1 X49.453 Y-28.992 E4.75421
G1 X50.007 Y-28.864 E4.80137
G1 X50.539 Y-28.661 E4.8486
G1 X51.036 Y-28.385 E4.89576
G1 X51.49 Y-28.042 E4.94295
G1 X51.891 Y-27.639 E4.9901
G1 X52.232 Y-27.184 E5.03727
G1 X52.506 Y-26.685 E5.08448
G1 X52.707 Y-26.153 E5.13165
G1 X52.832 Y-25.598 E5.17884
G1 X52.885 Y-24.784 E5.2465
G1 X52.887 Y-24.67 E5.25595
G1 X52.887 Y-20.649 E5.58947
G1 X52.877 Y-19.948 E5.64761
G1 X52.809 Y-19.265 E5.70454
G1 X52.599 Y-18.142 E5.7993
G1 X52.481 Y-17.553 E5.84913
G1 X52.024 Y-14.894 E6.0729
G1 X51.64 Y-12.208 E6.29795
G1 X51.331 Y-9.495 E6.52443
G1 X51.101 Y-6.795 E6.74919
G1 X50.946 Y-4.093 E6.97367
G1 X50.87 Y-1.391 E7.19786
G1 X50.869 Y1.353 E7.42546
G1 X50.943 Y4.02 E7.64675
G1 X51.097 Y6.756 E7.87404
G1 X51.329 Y9.491 E8.1017
G1 X51.628 Y12.136 E8.32248
G1 X52.014 Y14.856 E8.55035
G1 X52.475 Y17.547 E8.7768
G1 X52.801 Y19.222 E8.91833
G1 X52.874 Y19.863 E8.97184
G1 X52.887 Y20.331 E9.01067
G1 X52.888 Y24.36 E9.34485
G1 X52.879 Y25.043 E9.4015
G1 X52.831 Y25.61 E9.4487
G1 X52.705 Y26.165 E9.49591
G1 X52.502 Y26.696 E9.54306
G1 X52.227 Y27.194 E9.59024
G1 X51.884 Y27.648 E9.63744
G1 X51.482 Y28.05 E9.68459
G1 X51.027 Y28.392 E9.7318
G1 X50.528 Y28.666 E9.77902
G1 X49.997 Y28.868 E9.82614
G1 X49.442 Y28.993 E9.87333
G1 X48.933 Y29.039 E9.91572
G1 X48.44 Y29.05 E9.95662
G1 X-50.783 Y29.05 E18.18642
G1 X-51.481 Y29.041 E18.24431
G1 X-52.048 Y28.993 E18.29151
G1 X-52.603 Y28.867 E18.33872
G1 X-53.134 Y28.664 E18.38587
G1 X-53.632 Y28.389 E18.43305
G1 X-54.087 Y28.047 E18.48026
G1 X-54.489 Y27.645 E18.52742
G1 X-54.83 Y27.19 E18.57458
G1 X-55.105 Y26.691 E18.62183
G1 X-55.307 Y26.16 E18.66896
G1 X-55.432 Y25.605 E18.71614
G1 X-55.478 Y25.1 E18.7582
G1 X-55.488 Y24.658 E18.79487
G1 X-55.488 Y20.647 E19.12755
G1 X-55.478 Y19.974 E19.18338
G1 X-55.385 Y19.171 E19.25043
G1 X-55.17 Y18.188 E19.33389
G1 X-54.857 Y16.874 E19.44592
G1 X-54.689 Y16.212 E19.50257
G1 X-54.51 Y15.672 E19.54976
G1 X-54.258 Y15.162 E19.59694
G1 X-53.937 Y14.692 E19.64415
G1 X-53.443 Y14.169 E19.70382
G1 X-52.513 Y13.339 E19.80721
G1 X-52.397 Y13.228 E19.82052
G1 X-51.387 Y12.344 E19.93185
G1 X-7.461 Y-27.61 E24.85686
G0 F2400 X-6.998 Y-27.085
G1 F1200 X-6.529 Y-27.499 E24.90874
G1 X-6.116 Y-27.811 E24.95168
G1 X-5.66 Y-28.055 E24.99457
G1 X-5.172 Y-28.226 E25.03746
G1 X-4.663 Y-28.32 E25.08039
G1 X-4.364 Y-28.338 E25.10524
G1 X-3.59 Y-28.35 E25.16944
G1 X48.178 Y-28.35 E29.46321
G1 X48.876 Y-28.34 E29.52111
G1 X49.391 Y-28.292 E29.56401
G1 X49.893 Y-28.166 E29.60694
G1 X50.369 Y-27.964 E29.64982
G1 X50.809 Y-27.692 E29.69273
G1 X51.201 Y-27.355 E29.73561
G1 X51.537 Y-26.961 E29.77856
G1 X51.808 Y-26.52 E29.82149
G1 X52.008 Y-26.043 E29.86439
G1 X52.132 Y-25.541 E29.90728
G1 X52.186 Y-24.764 E29.97188
G1 X52.187 Y-20.659 E30.31236
G1 X52.177 Y-19.958 E30.37051
G1 X52.12 Y-19.393 E30.41761
G1 X51.913 Y-18.279 E30.51159
G1 X51.796 Y-17.693 E30.56115
G1 X51.328 Y-14.974 E30.78999
G1 X50.944 Y-12.282 E31.01553
G1 X50.638 Y-9.596 E31.23975
G1 X50.404 Y-6.86 E31.46751
G1 X50.248 Y-4.118 E31.69531
G1 X50.17 Y-1.376 E31.92283
G1 X50.169 Y1.337 E32.14785
G1 X50.245 Y4.079 E32.37537
G1 X50.399 Y6.818 E32.6029
G1 X50.628 Y9.52 E32.82782
G1 X50.937 Y12.248 E33.05553
G1 X51.323 Y14.964 E33.28307
G1 X51.786 Y17.669 E33.51069
G1 X52.114 Y19.356 E33.65323
G1 X52.174 Y19.886 E33.69747
G1 X52.187 Y20.331 E33.7344
G1 X52.188 Y24.351 E34.06783
G1 X52.179 Y25.034 E34.12448
G1 X52.132 Y25.549 E34.16737
G1 X52.006 Y26.051 E34.2103
G1 X51.805 Y26.528 E34.25324
G1 X51.533 Y26.968 E34.29614
G1 X51.196 Y27.36 E34.33902
G1 X50.803 Y27.697 E34.38196
G1 X50.363 Y27.968 E34.42482
G1 X49.886 Y28.169 E34.46775
G1 X49.384 Y28.294 E34.51066
G1 X48.526 Y28.349 E34.58197
G1 X-50.774 Y28.35 E42.81816
G1 X-51.472 Y28.341 E42.87606
G1 X-51.987 Y28.294 E42.91895
G1 X-52.489 Y28.169 E42.96186
G1 X-52.966 Y27.968 E43.00479
G1 X-53.406 Y27.696 E43.04769
G1 X-53.799 Y27.359 E43.09063
G1 X-54.135 Y26.966 E43.13352
G1 X-54.407 Y26.526 E43.17642
G1 X-54.608 Y26.049 E43.21936
G1 X-54.733 Y25.547 E43.26227
G1 X-54.787 Y24.749 E43.32861
G1 X-54.788 Y20.657 E43.66801
G1 X-54.778 Y19.984 E43.72383
G1 X-54.701 Y19.32 E43.77928
G1 X-54.489 Y18.35 E43.86163
G1 X-54.178 Y17.046 E43.97282
G1 X-54.01 Y16.384 E44.02947
G1 X-53.844 Y15.894 E44.07238
G1 X-53.605 Y15.435 E44.1153
G1 X-53.202 Y14.912 E44.17006
G1 X-52.977 Y14.691 E44.19622
G1 X-52.043 Y13.857 E44.30008
G1 X-51.936 Y13.755 E44.31234
G1 X-50.923 Y12.869 E44.42396
G1 X-6.998 Y-27.085 E49.34891
G1 F2700 E42.34891
;MESH:printerTischAnbau_v02.stl
G0 F2400 X-5.192 Y-25.098
G0 X-4.038 Y-23.83
G0 X-6.063 Y-21.042
;TYPE:WALL-INNER
G1 F2700 E49.34891
G1 F1200 X-6.063 Y-19.607 E49.46793
G1 X-7.116 Y-20.085 E49.56385
G1 X-6.063 Y-21.042 E49.68187
G0 F2400 X-6.063 Y21.75
G1 F1200 X47.087 Y21.75 E54.09026
G1 X47.088 Y22.9 E54.18564
G1 X47.088 Y23.25 E54.21467
G1 X46.738 Y23.25 E54.23346
G1 X-49.688 Y23.25 E62.23127
G1 X-49.688 Y20.606 E62.45057
G1 X-49.688 Y20.256 E62.4796
G1 X-49.338 Y20.256 E62.49838
G1 X-46.602 Y20.257 E62.72531
G1 X-6.43 Y18.2 E66.06164
G1 X-6.063 Y18.182 E66.09212
G1 X-6.063 Y18.549 E66.11155
G1 X-6.063 Y18.55 E66.11163
G1 X-6.063 Y21.75 E66.37705
G0 F2400 X-5.391 Y-21.078
G0 X47.087 Y-21.75
G1 F1200 X-4.381 Y-21.75 E70.64593
G1 X-4.382 Y-21.75 E70.64601
G1 X-5.285 Y-21.75 E70.72091
G1 X-4.617 Y-22.358 E70.7609
G1 X-3.636 Y-23.25 E70.87088
G1 X47.087 Y-23.25 E75.07797
G1 X47.087 Y-21.75 E75.20238
G0 F2400 X-5.391 Y-21.078
G0 X-7.95 Y-19.731
G0 X-10.509 Y-17.577
G0 X-10.443 Y-17.503
G1 F1200 X-49.576 Y17.945 E79.58183
G1 X-49.661 Y18.022 E79.59134
G1 X-49.869 Y18.211 E79.61465
G1 X-49.5 Y19.171 E79.69996
G1 X-49.351 Y19.556 E79.7342
G1 X-46.62 Y19.557 E79.96071
G1 X-6.745 Y17.516 E83.27237
G1 X-6.712 Y-19.133 E86.31213
G1 X-7.761 Y-19.609 E86.40768
G1 X-7.945 Y-19.692 E86.42442
G1 X-10.443 Y-17.503 E86.69991
G0 F2400 X-10.509 Y-17.577
G0 X-7.95 Y-19.731
G0 X-6.679 Y-19.154
G0 X-5.433 Y21.12
G0 X-5.363 Y21.05
G1 F1200 X47.787 Y21.05 E91.1083
G1 X47.788 Y23.6 E91.3198
G1 X47.788 Y23.95 E91.34883
G1 X47.438 Y23.95 E91.36762
G1 X-50.388 Y23.95 E99.48155
G1 X-50.388 Y20.122 E99.79905
G1 X-50.168 Y19.198 E99.87783
G1 X-49.93 Y18.197 E99.926
G1 X-49.841 Y17.824 E99.93764
G1 X-49.752 Y17.751 E99.9416
G1 X-10.693 Y-17.777 E101.91542
G1 X-8.237 Y-20.011 E102.07333
G1 X-8.087 Y-20.147 E102.08743
G1 X-3.907 Y-23.95 E102.55615
G1 X47.787 Y-23.95 E106.84378
G1 X47.787 Y-21.05 E107.08431
G1 X-5.363 Y-21.05 E111.4927
G1 X-5.363 Y21.05 E114.98458
G0 F2400 X-4.713 Y20.4
;TYPE:WALL-OUTER
G1 F1200 X48.437 Y20.4 E119.39297
G1 X48.438 Y24.25 E119.7123
G1 X48.438 Y24.6 E119.74133
G1 X48.088 Y24.6 E119.76012
G1 X-51.038 Y24.6 E127.98187
G1 X-51.038 Y20.047 E128.35951
G1 X-50.422 Y17.46 E128.58008
G1 X-50.177 Y17.259 E128.60637
G1 X-4.158 Y-24.6 E133.76611
G1 X48.437 Y-24.6 E138.12847
G1 X48.437 Y-20.4 E138.47683
G1 X-4.713 Y-20.4 E142.88522
G1 X-4.713 Y20.4 E146.26927
G0 F2400 X-4.313 Y20.4
G0 X-4.313 Y21.15
G0 X-5.391 Y21.078
G0 X-6.645 Y16.899
G0 X-7.394 Y16.898
G1 F1200 X-7.362 Y-18.511 E149.20618
G1 X-7.362 Y-18.714 E149.22302
G1 X-7.832 Y-18.927 E149.26582
G1 X-7.984 Y-18.794 E149.28257
G1 X-10.011 Y-17.018 E149.5061
G1 X-48.957 Y18.263 E153.86476
G1 X-49.102 Y18.394 E153.88096
G1 X-48.905 Y18.906 E153.92646
G1 X-48.709 Y18.906 E153.94272
G1 X-46.636 Y18.907 E154.11466
G1 X-7.394 Y16.898 E157.37375
G0 F2400 X-7.394 Y16.498
G0 X-6.645 Y16.499
G0 X-6.753 Y18.909
;TYPE:SKIN
G1 F1200 X-6.753 Y22.44 E157.66662
G1 X46.397 Y22.44 E162.07501
G1 X46.398 Y22.56 E162.08497
G1 X-48.998 Y22.56 E169.99735
G1 X-48.998 Y20.946 E170.13122
G1 X-46.584 Y20.947 E170.33144
G1 X-6.753 Y18.909 E173.63944
G0 F2400 X-48.332 Y21.61
G1 F1200 X-48.332 Y21.894 E173.663
G1 X-47.402 Y21.894 E173.74013
G1 X-47.685 Y21.611 E173.77333
G1 X-46.694 Y21.612 E173.85552
G1 X-46.412 Y21.894 E173.8886
G1 X-45.422 Y21.894 E173.97072
G1 X-45.746 Y21.57 E174.00872
G1 X-44.804 Y21.522 E174.08695
G1 X-44.432 Y21.894 E174.13059
G1 X-43.442 Y21.894 E174.2127
G1 X-43.862 Y21.474 E174.26197
G1 X-42.92 Y21.426 E174.3402
G1 X-42.452 Y21.894 E174.3951
G1 X-41.462 Y21.894 E174.47721
G1 X-41.978 Y21.377 E174.53779
G1 X-41.036 Y21.329 E174.61603
G1 X-40.472 Y21.894 E174.68224
G1 X-39.482 Y21.894 E174.76435
G1 X-40.095 Y21.281 E174.83626
G1 X-39.153 Y21.233 E174.91449
G1 X-38.492 Y21.894 E174.99203
G1 X-37.502 Y21.894 E175.07414
G1 X-38.212 Y21.184 E175.15742
G1 X-37.27 Y21.136 E175.23565
G1 X-36.512 Y21.894 E175.32457
G1 X-35.522 Y21.894 E175.40668
G1 X-36.328 Y21.088 E175.50122
G1 X-35.386 Y21.04 E175.57945
G1 X-34.532 Y21.894 E175.67963
G1 X-33.543 Y21.894 E175.76166
G1 X-34.444 Y20.992 E175.8674
G1 X-33.502 Y20.944 E175.94564
G1 X-32.553 Y21.894 E176.05701
G1 X-31.563 Y21.894 E176.13912
G1 X-32.561 Y20.895 E176.25625
G1 X-31.619 Y20.847 E176.33448
G1 X-30.573 Y21.894 E176.45723
G1 X-29.583 Y21.894 E176.53934
G1 X-30.677 Y20.799 E176.66773
G1 X-29.735 Y20.751 E176.74596
G1 X-28.593 Y21.894 E176.87997
G1 X-27.603 Y21.894 E176.96209
G1 X-28.794 Y20.703 E177.10179
G1 X-27.852 Y20.655 E177.18002
G1 X-26.613 Y21.894 E177.32536
G1 X-25.623 Y21.894 E177.40747
G1 X-26.91 Y20.607 E177.55843
G1 X-25.968 Y20.559 E177.63666
G1 X-24.633 Y21.894 E177.79326
G1 X-23.643 Y21.894 E177.87537
G1 X-25.027 Y20.51 E178.03771
G1 X-24.085 Y20.462 E178.11595
G1 X-22.653 Y21.894 E178.28392
G1 X-21.663 Y21.894 E178.36603
G1 X-23.143 Y20.414 E178.53963
G1 X-22.201 Y20.366 E178.61786
G1 X-20.673 Y21.894 E178.7971
G1 X-19.683 Y21.894 E178.87921
G1 X-21.259 Y20.318 E179.06407
G1 X-20.318 Y20.269 E179.14223
G1 X-18.693 Y21.894 E179.33284
G1 X-17.703 Y21.894 E179.41495
G1 X-19.376 Y20.221 E179.61119
G1 X-18.434 Y20.173 E179.68942
G1 X-16.713 Y21.894 E179.89129
G1 X-15.723 Y21.894 E179.97341
G1 X-17.493 Y20.124 E180.18102
G1 X-16.551 Y20.076 E180.25926
G1 X-14.733 Y21.894 E180.47251
G1 X-13.744 Y21.894 E180.55454
G1 X-15.609 Y20.028 E180.77336
G1 X-14.667 Y19.98 E180.85159
G1 X-12.754 Y21.894 E181.07604
G1 X-11.764 Y21.894 E181.15815
G1 X-13.725 Y19.932 E181.38823
G1 X-12.783 Y19.884 E181.46647
G1 X-10.774 Y21.894 E181.70218
G1 X-9.784 Y21.894 E181.78429
G1 X-11.841 Y19.836 E182.02563
G1 X-10.9 Y19.787 E182.10379
G1 X-8.794 Y21.894 E182.35087
G1 X-7.804 Y21.894 E182.43299
G1 X-9.958 Y19.739 E182.68571
G1 X-9.017 Y19.691 E182.76386
G1 X-7.417 Y21.29 E182.95148
G1 X-7.417 Y20.301 E183.03351
G1 X-8.075 Y19.643 E183.11069
G1 X-7.417 Y19.609 E183.16534
G0 F2400 X-6.717 Y17.543
G0 X-5.391 Y-21.078
G0 X-3.5 Y-22.44
G1 F1200 X-3.368 Y-22.56 E183.18013
G1 X46.397 Y-22.56 E187.30777
G1 X46.397 Y-22.44 E187.31772
G1 X-3.5 Y-22.44 E191.4563
G0 F2400 X-3.923 Y-22.237
;TYPE:SKIN
G1 F1200 X-4.3 Y-22.119 E191.47961
G0 F2400 X-4.26 Y-22.079
G0 X-5.391 Y-21.078
G0 X-5.757 Y-19.122
G0 X-5.725 Y-19.089
G1 F1200 X-6.037 Y-18.906 E191.50991
G1 X-6.044 Y-3.569 E192.79478
G1 X-6.051 Y11.767 E194.07957
G1 X-6.053 Y17.209 E194.53548
G1 X-6.157 Y17.6 E194.56937
G0 F2400 X-6.063 Y17.343
;MESH:NONMESH
G0 F600 X-6.063 Y17.343 Z0.6
G0 F2400 X-6.238 Y17.987
;TIME_ELAPSED:130.635200
;LAYER:1
M106 S255
;TYPE:WALL-INNER
;MESH:printerTischAnbau_v02.stl
G1 F4200 X-6.237 Y11.11 E195.13977
G1 X-6.21 Y-19.012 E197.63816
G1 X-7.602 Y-19.643 E197.76493
G1 X-6.063 Y-21.043 E197.93749
G1 X-6.063 Y-19.012 E198.10594
G1 X-6.063 Y11.11 E198.67879
G1 X-6.063 Y17.987 E198.82098
G1 X-6.063 Y18.263 E198.84387
G1 X-6.063 Y21.75 E199.13309
G1 X47.387 Y21.75 E203.56637
G1 X47.388 Y22.9 E203.66175
G1 X47.388 Y23.25 E203.69078
G1 X47.038 Y23.25 E203.70957
G1 X-49.988 Y23.25 E211.75714
G1 X-49.988 Y20.204 E212.00979
G1 X-49.829 Y19.538 E212.06658
G1 X-49.588 Y18.525 E212.15294
G1 X-49.544 Y18.487 E212.15777
G1 X-49.537 Y18.505
G1 X-49.163 Y19.476 E212.20601
G1 X-49.035 Y19.809 E212.2356
G1 X-41.835 Y19.81 E212.83279
G1 X-6.513 Y18.001 E215.76632
G1 X-6.238 Y17.987 E215.78294
G0 F4800 X-5.391 Y-21.078
G0 X47.387 Y-21.75
G1 F4200 X-4.381 Y-21.75 E220.07671
G1 X-4.382 Y-21.75 E220.07679
G1 X-5.285 Y-21.75 E220.15169
G1 X-4.617 Y-22.358 E220.19168
G1 X-3.636 Y-23.25 E220.30165
G1 X47.387 Y-23.25 E224.53363
G1 X47.387 Y-21.75 E224.65804
G0 F4800 X-5.391 Y-21.078
G0 X-6.866 Y17.39
G0 X-6.938 Y17.322
G1 F4200 X-6.937 Y11.11 E225.17328
G1 X-6.91 Y-18.561 E227.63427
G1 X-8.143 Y-19.12 E227.74655
G1 X-9.058 Y-18.319 E227.84742
G1 X-14.611 Y-13.454 E228.45975
G1 X-49.072 Y17.764 E232.31647
G1 X-49.014 Y17.916 E232.32996
G1 X-48.554 Y19.109 E232.43601
G1 X-41.853 Y19.11 E232.99181
G1 X-6.938 Y17.322 E235.89154
G0 F4800 X-6.866 Y17.39
G0 X-5.433 Y21.12
G0 X-5.363 Y21.05
G1 F4200 X48.087 Y21.05 E240.32481
G1 X48.088 Y23.6 E240.53632
G1 X48.088 Y23.95 E240.56535
G1 X47.738 Y23.95 E240.58413
G1 X-50.688 Y23.95 E248.74783
G1 X-50.688 Y20.122 E249.06533
G1 X-50.202 Y18.084 E249.23911
G1 X-50.041 Y17.992 E249.25449
G1 X-49.558 Y17.57 E249.30769
G1 X-49.436 Y17.463 E249.32115
G1 X-49.387 Y17.419 E249.32661
G1 X-14.99 Y-13.869 E252.16129
G1 X-9.529 Y-18.837 E252.71327
G1 X-3.907 Y-23.95 E253.34358
G1 X48.087 Y-23.95 E257.65609
G1 X48.087 Y-21.05 E257.89662
G1 X-5.363 Y-21.05 E262.3299
G1 X-5.363 Y21.05 E265.82177
G0 F4800 X-4.713 Y20.4
;TYPE:WALL-OUTER
G1 F2400 X48.737 Y20.4 E270.25505
G1 X48.738 Y24.25 E270.57438
G1 X48.738 Y24.6 E270.60341
G1 X48.388 Y24.6 E270.62219
G1 X-51.338 Y24.6 E278.89371
G1 X-51.338 Y20.047 E279.27135
G1 X-50.769 Y17.659 E279.47496
G1 X-50.42 Y17.46 E279.50828
G1 X-49.868 Y16.978 E279.56906
G1 X-4.158 Y-24.6 E284.69417
G1 X48.737 Y-24.6 E289.08141
G1 X48.737 Y-20.4 E289.42977
G1 X-4.713 Y-20.4 E293.86304
G1 X-4.713 Y20.4 E297.24709
G0 F4800 X-4.313 Y20.4
G0 X-4.313 Y21.15
G0 X-5.391 Y21.078
G0 X-6.838 Y16.705
G0 X-7.588 Y16.704
G1 F2400 X-7.587 Y11.11 E297.71107
G1 X-7.56 Y-17.939 E300.12047
G1 X-7.56 Y-18.142 E300.13731
G1 X-8.03 Y-18.355 E300.18011
G1 X-8.182 Y-18.222 E300.19686
G1 X-14.179 Y-12.969 E300.8581
G1 X-48.16 Y17.815 E304.66114
G1 X-48.305 Y17.947 E304.67741
G1 X-48.108 Y18.459 E304.72291
G1 X-47.911 Y18.459 E304.73925
G1 X-41.87 Y18.46 E305.2403
G1 X-7.588 Y16.704 E308.08746
G0 F4800 X-7.588 Y16.304
G0 X-6.838 Y16.305
G0 X-6.753 Y18.705
;TYPE:SKIN
G1 F1500 X-6.753 Y22.44 E308.39725
G1 X46.697 Y22.44 E312.83053
G1 X46.698 Y22.56 E312.84048
G1 X-49.298 Y22.56 E320.80263
G1 X-49.298 Y20.499 E320.97357
G1 X-41.817 Y20.5 E321.59406
G1 X-6.753 Y18.705 E324.50617
G0 F4800 X-7.418 Y21.894
G1 F1500 X-7.418 Y21.277 E324.55734
G1 X-8.035 Y21.894 E324.62972
G1 X-9.025 Y21.894 E324.71183
G1 X-7.418 Y20.287 E324.90033
G1 X-7.418 Y19.405 E324.97348
G1 X-7.531 Y19.41 E324.98286
G1 X-10.015 Y21.894 E325.27423
G1 X-11.005 Y21.894 E325.35635
G1 X-8.574 Y19.463 E325.6415
G1 X-9.618 Y19.517 E325.72821
G1 X-11.995 Y21.894 E326.00702
G1 X-12.985 Y21.894 E326.08914
G1 X-10.661 Y19.57 E326.36174
G1 X-11.704 Y19.624 E326.44836
G1 X-13.975 Y21.894 E326.71469
G1 X-14.965 Y21.894 E326.7968
G1 X-12.747 Y19.677 E327.05691
G1 X-13.791 Y19.731 E327.14362
G1 X-15.955 Y21.894 E327.39739
G1 X-16.945 Y21.894 E327.47951
G1 X-14.834 Y19.784 E327.72707
G1 X-15.878 Y19.837 E327.81377
G1 X-17.935 Y21.894 E328.05505
