; generated by PrusaSlicer 2.7.1+win64 on 2024-10-07 at 11:19:30 UTC


;
;
; 

; external perimeters extrusion width = 0.40mm
; perimeters extrusion width = 0.40mm
; infill extrusion width = 0.40mm
; solid infill extrusion width = 0.40mm
; top infill extrusion width = 0.40mm
; first layer extrusion width = 0.40mm

;TYPE:Custom
G90 ; use absolute coordinates
M83 ; extruder relative mode
M140 S0 ; set bed temp
M190 S0 ; wait for bed temp
M104 S205 ; set extruder temp
M109 S205 ; wait for extruder temp
G28                                        ; move X/Y/Z to min endstops
G1 Z0.28                                   ; lift nozzle a bit 
G92 E0 
G1 Y3 F2400                                    ; zero the extruded length 
G1 X180  E40 F500                       ; Extrude 25mm of filament in a 5cm line. 
G92 E0                                     ; zero the extruded length again 
G1 E-0.2 F3000                                ; Retract a little 
G1 X181 F4000                              ; Quickly wipe away from the filament line
M117
G21 ; set units to millimeters
G90 ; use absolute coordinates
M82 ; use absolute distances for extrusion
G92 E0
; Filament gcode
M107
;LAYER_CHANGE
;Z:0.2
;HEIGHT:0.2
; BEFORE_LAYER_CHANGE 0 @ 0.2mm
G1 E-2.5 F4800
G92 E0
G1 Z-1.48 F18000
; AFTER_LAYER_CHANGE 0 @ 0.2mm
G1 X35.162 Y191.67
G1 E2.5 F4800
M204 S5000
;TYPE:External perimeter
;WIDTH:0.407503
G1 X35.162 Y210.061 E3.02965
;WIDTH:0.401005
G1 X35.163 Y210.111 E3.03106
;WIDTH:0.399366
G1 X35.237 Y210.979 E3.05559
;WIDTH:0.397935
G1 X35.448 Y211.839 E3.08042
;WIDTH:0.397194
G1 X35.786 Y212.664 E3.10537
;WIDTH:0.411528
G1 X36.036 Y213.102 E3.12005
;WIDTH:0.411812
G1 X36.511 Y213.783 E3.14424
G1 X37.084 Y214.417 E3.16914
;WIDTH:0.411062
G1 X37.747 Y214.992 E3.19466
;WIDTH:0.409877
G1 X38.494 Y215.497 E3.2208
;WIDTH:0.408327
G1 X39.312 Y215.922 E3.24741
;WIDTH:0.407928
G1 X40.188 Y216.259 E3.27447
;WIDTH:0.407199
G1 X41.113 Y216.5 E3.30198
;WIDTH:0.404332
G1 X41.822 Y216.62 E3.32251
G1 X42.178 Y216.636 E3.33268
;WIDTH:0.410332
G1 X55.916 Y216.62 E3.7314
;WIDTH:0.400635
G1 X56.929 Y216.436 E3.76049
G1 X57.795 Y216.181 E3.786
;WIDTH:0.397014
G1 X58.685 Y215.806 E3.81301
;WIDTH:0.39679
G1 X59.515 Y215.336 E3.83967
;WIDTH:0.397245
G1 X60.27 Y214.776 E3.86598
;WIDTH:0.41106
G1 X60.655 Y214.417 E3.88129
;WIDTH:0.411811
G1 X61.228 Y213.783 E3.90619
G1 X61.702 Y213.102 E3.93037
;WIDTH:0.411522
G1 X62.077 Y212.383 E3.95398
;WIDTH:0.410154
G1 X62.348 Y211.636 E3.97703
;WIDTH:0.407794
G1 X62.516 Y210.872 E3.99958
;WIDTH:0.404302
G1 X62.577 Y210.061 E4.0228
;WIDTH:0.40212
G1 X62.575 Y144.517 E5.88256
;WIDTH:0.403203
G1 X62.574 Y143.728 E5.90501
;WIDTH:0.399999
G1 X62.573 Y118.549 E6.61523
G1 X62.748 Y118.519 E6.62024
G1 X63.129 Y118.602 E6.63124
G1 X63.339 Y118.79 E6.63919
G1 X63.414 Y119.045 E6.64669
G1 X63.414 Y120.918 E6.69952
G1 X63.478 Y122.72 E6.75038
G1 X63.666 Y124.515 E6.80129
G1 X63.977 Y126.284 E6.85195
G1 X64.271 Y127.475 E6.88655
G1 X64.19 Y127.495 E6.8889
G1 X63.815 Y127.742 E6.90157
G1 X63.574 Y128.146 E6.91484
G1 X63.533 Y128.423 E6.92274
G1 X63.647 Y130.345 E6.97705
G1 X63.907 Y132.269 E7.03181
G1 X64.306 Y134.147 E7.08596
G1 X64.662 Y135.374 E7.122
G1 X64.553 Y135.379 E7.12508
G1 X64.095 Y135.567 E7.13904
G1 X63.77 Y135.954 E7.15329
G1 X63.675 Y136.372 E7.16538
G1 X63.782 Y138.115 E7.21464
G1 X64.005 Y139.833 E7.26351
G1 X64.341 Y141.524 E7.31214
G1 X64.723 Y142.944 E7.35362
G1 X64.366 Y142.959 E7.3637
G1 X63.986 Y143.067 E7.37484
G1 X63.647 Y143.245 E7.38564
G1 X63.356 Y143.489 E7.39635
G1 X63.129 Y143.793 E7.40705
;WIDTH:0.414944
G1 X62.976 Y144.139 E7.41817
G1 X62.935 Y144.517 E7.42934
;WIDTH:0.40212
G1 X62.935 Y210.061 E9.2891
;WIDTH:0.401003
G1 X62.931 Y210.138 E9.29128
;WIDTH:0.399366
G1 X62.848 Y211.057 E9.31726
;WIDTH:0.397937
G1 X62.622 Y211.966 E9.34353
;WIDTH:0.397185
G1 X62.262 Y212.836 E9.36988
;WIDTH:0.397677
G1 X61.805 Y213.61 E9.39507
;WIDTH:0.411811
G1 X61.508 Y214.022 E9.40987
G1 X60.903 Y214.689 E9.43611
;WIDTH:0.41106
G1 X60.203 Y215.292 E9.46298
;WIDTH:0.409876
G1 X59.419 Y215.818 E9.49035
;WIDTH:0.408323
G1 X58.563 Y216.261 E9.51817
;WIDTH:0.407925
G1 X57.646 Y216.61 E9.54646
;WIDTH:0.407294
G1 X56.899 Y216.806 E9.56869
;WIDTH:0.410332
G1 X55.659 Y216.997 E9.6051
G1 X42.178 Y216.997 E9.99636
;WIDTH:0.404332
G1 X41.765 Y216.968 E10.00818
;WIDTH:0.395788
G1 X40.789 Y216.794 E10.03581
;WIDTH:0.397012
G1 X39.812 Y216.509 E10.06428
G1 X38.885 Y216.117 E10.09243
;WIDTH:0.3968
G1 X38.02 Y215.625 E10.12025
;WIDTH:0.397246
G1 X37.23 Y215.038 E10.1478
G1 X36.545 Y214.38 E10.17439
;WIDTH:0.411812
G1 X36.216 Y214.004 E10.18895
G1 X35.714 Y213.28 E10.21462
;WIDTH:0.411528
G1 X35.319 Y212.514 E10.23971
;WIDTH:0.410157
G1 X35.035 Y211.717 E10.26425
;WIDTH:0.40779
G1 X34.863 Y210.899 E10.28834
;WIDTH:0.404302
G1 X34.804 Y210.061 E10.31232
;WIDTH:0.407503
G1 X34.796 Y143.123 E12.2401
G1 X34.614 Y142.945 E12.24743
;WIDTH:0.399999
G1 X33.016 Y142.944 E12.2925
G1 X33.394 Y141.538 E12.33357
G1 X33.734 Y139.831 E12.38266
G1 X33.956 Y138.12 E12.43133
G1 X34.063 Y136.372 E12.48073
G1 X33.969 Y135.954 E12.49281
G1 X33.667 Y135.588 E12.50619
G1 X33.247 Y135.393 E12.51925
G1 X33.077 Y135.374 E12.52407
G1 X33.433 Y134.147 E12.56011
G1 X33.831 Y132.269 E12.61426
G1 X34.092 Y130.345 E12.66903
G1 X34.206 Y128.423 E12.72334
G1 X34.109 Y128.004 E12.73547
G1 X33.808 Y127.641 E12.74877
G1 X33.466 Y127.48 E12.75943
G1 X33.762 Y126.284 E12.79418
G1 X34.073 Y124.515 E12.84484
G1 X34.262 Y122.708 E12.89609
G1 X34.325 Y120.918 E12.94661
G1 X34.325 Y119.105 E12.99775
G1 X34.399 Y118.79 E13.00688
G1 X34.609 Y118.602 E13.01483
G1 X34.901 Y118.524 E13.02336
G1 X35.166 Y118.549 E13.03087
G1 X35.165 Y142.394 E13.70346
;WIDTH:0.407503
G1 X35.162 Y191.61 E15.12085
M204 S20000
;WIPE_START
G1 F14400
G1 X35.162 Y191.67 E15.10185
G1 X35.162 Y199.505 E12.62085
;WIPE_END
G92 E0
G1 Z-1.08 F18000
G1 X62.931 Y143.458
G1 Z-1.48
G1 E2.5 F4800
M204 S5000
;TYPE:Perimeter
;WIDTH:0.399999
G1 X62.931 Y140.122 E2.5941
;WIDTH:0.442419
G1 X62.952 Y140.022 E2.59732
;WIDTH:0.484839
G1 X62.974 Y139.923 E2.60086
;WIDTH:0.527259
G1 X62.995 Y139.823 E2.60477
;WIDTH:0.569679
G1 X63.016 Y139.723 E2.60902
G1 X62.991 Y138.958 E2.64087
;WIDTH:0.52036
G1 X62.967 Y138.192 E2.66977
;WIDTH:0.47104
G1 X62.965 Y138.139 E2.67156
;WIDTH:0.468521
G1 X62.952 Y137.273 E2.70068
;WIDTH:0.442073
G1 X62.939 Y136.406 E2.72802
;WIDTH:0.425735
G1 X62.931 Y135.401 E2.75841
;WIDTH:0.399999
G1 X62.931 Y134.329 E2.78865
;WIDTH:0.441805
G1 X62.952 Y133.689 E2.80883
;WIDTH:0.483611
G1 X62.973 Y133.049 E2.83112
;WIDTH:0.525416
G1 X62.994 Y132.409 E2.85553
;WIDTH:0.533092
G1 X62.976 Y131.707 E2.88272
;WIDTH:0.490148
G1 X62.954 Y131.069 E2.90527
;WIDTH:0.447204
G1 X62.933 Y130.431 E2.92566
;WIDTH:0.404259
G1 X62.932 Y130.377 E2.9272
;WIDTH:0.401651
G1 X62.908 Y128.798 E2.97195
;WIDTH:0.403093
G1 X62.932 Y128.734 E2.97389
;WIDTH:0.451432
G1 X62.956 Y128.67 E2.9761
;WIDTH:0.499772
G1 X62.981 Y128.605 E2.97861
;WIDTH:0.548111
G1 X63.005 Y128.541 E2.98134
;WIDTH:0.596451
G1 X63.029 Y128.476 E2.98437
;WIDTH:0.64479
G1 X63.053 Y128.412 E2.98762
G1 X63.081 Y128.475 E2.9909
;WIDTH:0.596451
G1 X63.109 Y128.538 E2.99391
;WIDTH:0.548111
G1 X63.136 Y128.601 E2.99665
;WIDTH:0.499772
G1 X63.164 Y128.663 E2.99911
;WIDTH:0.451432
G1 X63.192 Y128.726 E3.00133
;WIDTH:0.403093
G1 X63.22 Y128.789 E3.00329
;WIDTH:0.401651
G1 X63.29 Y130.366 E3.04802
;WIDTH:0.404259
G1 X63.293 Y130.407 E3.04919
;WIDTH:0.447204
G1 X63.357 Y131.042 E3.06957
;WIDTH:0.490148
G1 X63.421 Y131.677 E3.09212
;WIDTH:0.533092
G1 X63.497 Y132.356 E3.11858
;WIDTH:0.525416
G1 X63.65 Y132.978 E3.14299
;WIDTH:0.483611
G1 X63.803 Y133.6 E3.16529
;WIDTH:0.441805
G1 X63.957 Y134.222 E3.18548
;WIDTH:0.399999
G1 X64.217 Y135.122 E3.2119
G1 X63.877 Y135.284 E3.22252
G1 X63.546 Y135.638 E3.23619
;WIDTH:0.401376
G1 X63.423 Y135.868 E3.24358
;WIDTH:0.425735
G1 X63.321 Y136.23 E3.25495
G1 X63.311 Y136.394 E3.25992
;WIDTH:0.442073
G1 X63.351 Y137.26 E3.28725
;WIDTH:0.468521
G1 X63.391 Y138.126 E3.3164
;WIDTH:0.47104
G1 X63.393 Y138.165 E3.31772
;WIDTH:0.52036
G1 X63.467 Y138.927 E3.34659
;WIDTH:0.569679
G1 X63.541 Y139.69 E3.37849
G1 X63.576 Y139.779 E3.38247
;WIDTH:0.527259
G1 X63.612 Y139.869 E3.38618
;WIDTH:0.484839
G1 X63.648 Y139.958 E3.38953
;WIDTH:0.442419
G1 X63.684 Y140.048 E3.39259
;WIDTH:0.399999
G1 X63.991 Y141.594 E3.43705
G1 X64.265 Y142.617 E3.46692
G1 X63.884 Y142.725 E3.47809
G1 X63.478 Y142.931 E3.49093
G1 X63.124 Y143.218 E3.50378
G1 X62.969 Y143.411 E3.51076
M204 S20000
;WIPE_START
G1 F14400
G1 X62.931 Y143.458 E3.49162
G1 X62.931 Y140.122 E2.43522
;WIPE_END
G1 E1.01076 F4800
G92 E0
G1 Z-1.08 F18000
G1 X63.065 Y128.157
G1 Z-1.48
G1 E2.5 F4800
M204 S5000
;WIDTH:0.66901
G1 X63.053 Y128.412 E2.51263
M204 S20000
G1 X63.065 Y128.157 F18000
M204 S5000
G1 F4800
G1 X63.043 Y128.091 E2.51607
;WIDTH:0.62407
G1 X63.02 Y128.025 E2.51928
;WIDTH:0.57913
G1 X62.998 Y127.959 E2.52223
;WIDTH:0.53419
G1 X62.975 Y127.893 E2.52494
;WIDTH:0.48925
G1 X62.953 Y127.493 E2.53906
;WIDTH:0.444625
G1 X62.931 Y127.094 E2.55174
;WIDTH:0.44285
G1 X62.952 Y126.922 E2.55721
;WIDTH:0.4857
G1 X62.974 Y126.75 E2.56327
;WIDTH:0.528551
G1 X62.995 Y126.579 E2.56988
;WIDTH:0.571401
G1 X63.016 Y126.407 E2.57711
G1 X62.997 Y125.958 E2.59587
;WIDTH:0.532266
G1 X62.977 Y125.508 E2.61328
;WIDTH:0.493131
G1 X62.958 Y125.059 E2.62926
;WIDTH:0.453996
G1 X62.938 Y124.61 E2.64385
;WIDTH:0.41486
G1 X62.936 Y124.56 E2.64532
;WIDTH:0.411345
G1 X62.924 Y124.079 E2.65932
;WIDTH:0.386199
G1 X62.911 Y123.598 E2.67237
;WIDTH:0.407116
G1 X62.934 Y123.531 E2.67441
;WIDTH:0.453178
G1 X62.957 Y123.464 E2.67671
;WIDTH:0.499241
G1 X62.98 Y123.398 E2.67923
;WIDTH:0.545303
G1 X63.003 Y123.331 E2.68204
;WIDTH:0.591366
G1 X63.026 Y123.265 E2.68507
;WIDTH:0.637428
G1 X63.049 Y123.198 E2.6884
G1 X63.079 Y123.262 E2.69172
;WIDTH:0.591366
G1 X63.109 Y123.326 E2.69478
;WIDTH:0.545303
G1 X63.139 Y123.39 E2.69759
;WIDTH:0.499241
G1 X63.169 Y123.453 E2.70011
;WIDTH:0.453178
G1 X63.198 Y123.517 E2.70239
;WIDTH:0.407116
G1 X63.228 Y123.581 E2.70442
;WIDTH:0.387952
G1 X63.268 Y124.079 E2.71804
;WIDTH:0.414851
G1 X63.307 Y124.578 E2.73275
;WIDTH:0.453989
G1 X63.366 Y125.024 E2.74736
;WIDTH:0.493126
G1 X63.424 Y125.469 E2.76332
;WIDTH:0.532264
G1 X63.482 Y125.915 E2.78071
;WIDTH:0.571401
G1 X63.541 Y126.361 E2.79949
G1 X63.562 Y126.4 E2.80134
;WIDTH:0.545017
G1 X63.66 Y126.693 E2.81359
;WIDTH:0.496678
G1 X63.757 Y126.986 E2.82465
;WIDTH:0.448339
G1 X63.855 Y127.279 E2.83454
;WIDTH:0.399999
G1 X63.611 Y127.449 E2.84293
G1 X63.445 Y127.634 E2.84994
;WIDTH:0.444835
G1 X63.382 Y127.721 E2.85335
;WIDTH:0.48967
G1 X63.319 Y127.808 E2.85714
;WIDTH:0.534505
G1 X63.255 Y127.896 E2.86137
;WIDTH:0.57934
G1 X63.192 Y127.983 E2.86592
;WIDTH:0.624175
G1 X63.129 Y128.07 E2.87085
;WIDTH:0.66901
G1 X63.1 Y128.109 E2.87325
M204 S20000
;WIPE_START
G1 F14400
G1 X63.065 Y128.157 E2.85444
G1 X63.043 Y128.091 E2.83241
;WIPE_END
G1 E.37325 F4800
G92 E0
G1 Z-1.08 F18000
G1 X62.994 Y119.105
G1 Z-1.48
G1 E2.5 F4800
M204 S5000
;WIDTH:0.526904
G1 X62.994 Y120.918 E2.56931
;WIDTH:0.527196
G1 X62.994 Y120.939 E2.57011
;WIDTH:0.55827
G1 X63.01 Y121.831 E2.60643
;WIDTH:0.589344
G1 X63.025 Y122.724 E2.64498
;WIDTH:0.637428
G1 X63.049 Y123.198 E2.66727
M204 S20000
;WIPE_START
G1 F14400
G1 X63.025 Y122.724 E2.51698
;WIPE_END
G1 E.16727 F4800
G92 E0
G1 Z-1.08 F18000
G1 X34.745 Y119.105
G1 Z-1.48
G1 E2.5 F4800
M204 S5000
;WIDTH:0.526904
G1 X34.745 Y120.918 E2.56931
;WIDTH:0.527196
G1 X34.745 Y120.939 E2.57011
;WIDTH:0.558271
G1 X34.729 Y121.831 E2.60643
;WIDTH:0.589346
G1 X34.714 Y122.724 E2.64498
;WIDTH:0.637426
G1 X34.69 Y123.198 E2.66727
M204 S20000
;WIPE_START
G1 F14400
G1 X34.714 Y122.724 E2.51698
;WIPE_END
G1 E.16727 F4800
G92 E0
G1 Z-1.08 F18000
G1 X34.676 Y128.249
G1 Z-1.48
G1 E2.5 F4800
M204 S5000
;WIDTH:0.664966
G1 X34.686 Y128.412 E2.50802
M204 S20000
G1 X34.676 Y128.249 F18000
M204 S5000
G1 F4800
G1 X34.619 Y128.156 E2.51338
;WIDTH:0.620805
G1 X34.561 Y128.062 E2.51842
;WIDTH:0.576644
G1 X34.504 Y127.969 E2.52302
;WIDTH:0.532483
G1 X34.447 Y127.875 E2.52727
;WIDTH:0.488322
G1 X34.39 Y127.781 E2.53114
;WIDTH:0.444161
G1 X34.333 Y127.688 E2.5346
;WIDTH:0.399999
G1 X34.072 Y127.401 E2.54554
G1 X33.886 Y127.269 E2.55197
G1 X33.956 Y126.988 E2.56014
;WIDTH:0.44285
G1 X34.016 Y126.831 E2.56545
;WIDTH:0.485701
G1 X34.077 Y126.675 E2.57131
;WIDTH:0.528552
G1 X34.138 Y126.518 E2.57777
;WIDTH:0.571402
G1 X34.198 Y126.361 E2.58479
G1 X34.256 Y125.915 E2.60357
;WIDTH:0.532268
G1 X34.315 Y125.47 E2.62092
;WIDTH:0.493134
G1 X34.373 Y125.024 E2.63691
;WIDTH:0.454
G1 X34.432 Y124.578 E2.65152
;WIDTH:0.414866
G1 X34.435 Y124.541 E2.65261
;WIDTH:0.411351
G1 X34.473 Y124.061 E2.66662
;WIDTH:0.386203
G1 X34.511 Y123.581 E2.67968
;WIDTH:0.407116
G1 X34.54 Y123.517 E2.6817
;WIDTH:0.453178
G1 X34.57 Y123.453 E2.68399
;WIDTH:0.49924
G1 X34.6 Y123.39 E2.68651
;WIDTH:0.545302
G1 X34.63 Y123.326 E2.68932
;WIDTH:0.591364
G1 X34.66 Y123.262 E2.69238
;WIDTH:0.637426
G1 X34.69 Y123.198 E2.6957
G1 X34.713 Y123.265 E2.69903
;WIDTH:0.591364
G1 X34.736 Y123.331 E2.70206
;WIDTH:0.545302
G1 X34.759 Y123.398 E2.70487
;WIDTH:0.49924
G1 X34.782 Y123.464 E2.70739
;WIDTH:0.453178
G1 X34.805 Y123.531 E2.70969
;WIDTH:0.407116
G1 X34.828 Y123.598 E2.71173
;WIDTH:0.387954
G1 X34.814 Y124.104 E2.72553
;WIDTH:0.414854
G1 X34.801 Y124.61 E2.7404
;WIDTH:0.453991
G1 X34.781 Y125.059 E2.75499
;WIDTH:0.493128
G1 X34.762 Y125.508 E2.77097
;WIDTH:0.532265
G1 X34.742 Y125.958 E2.78838
;WIDTH:0.571402
G1 X34.723 Y126.407 E2.80714
G1 X34.736 Y126.468 E2.80974
;WIDTH:0.545016
G1 X34.76 Y126.676 E2.81804
;WIDTH:0.496677
G1 X34.784 Y126.884 E2.82554
;WIDTH:0.448338
G1 X34.808 Y127.092 E2.83225
;WIDTH:0.399999
G1 X34.808 Y127.874 E2.85431
;WIDTH:0.444161
G1 X34.786 Y127.936 E2.8564
;WIDTH:0.488322
G1 X34.764 Y127.999 E2.85875
;WIDTH:0.532483
G1 X34.742 Y128.061 E2.86129
;WIDTH:0.576644
G1 X34.72 Y128.124 E2.8641
;WIDTH:0.620805
G1 X34.698 Y128.187 E2.86715
;WIDTH:0.664966
G1 X34.696 Y128.193 E2.86746
M204 S20000
;WIPE_START
G1 F14400
G1 X34.676 Y128.249 E2.84863
G1 X34.619 Y128.156 E2.81409
;WIPE_END
G1 E.36746 F4800
G92 E0
G1 Z-1.08 F18000
G1 X34.808 Y142.781
G1 Z-1.48
G1 E2.5 F4800
M204 S5000
;WIDTH:0.399999
G1 X34.614 Y142.588 E2.50772
G1 X33.482 Y142.587 E2.53965
G1 X33.744 Y141.608 E2.56824
G1 X34.056 Y140.044 E2.61322
;WIDTH:0.442417
G1 X34.091 Y139.955 E2.61624
;WIDTH:0.484834
G1 X34.127 Y139.865 E2.61962
;WIDTH:0.527252
G1 X34.163 Y139.776 E2.62329
;WIDTH:0.569669
G1 X34.198 Y139.686 E2.62731
G1 X34.272 Y138.928 E2.659
;WIDTH:0.520495
G1 X34.346 Y138.17 E2.68773
;WIDTH:0.471321
G1 X34.348 Y138.132 E2.68902
;WIDTH:0.468787
G1 X34.388 Y137.263 E2.71828
;WIDTH:0.442206
G1 X34.428 Y136.395 E2.74569
;WIDTH:0.415624
G1 X34.428 Y136.361 E2.74669
;WIDTH:0.414941
G1 X34.316 Y135.868 E2.76155
;WIDTH:0.401376
G1 X34.193 Y135.637 E2.76896
;WIDTH:0.399999
G1 X33.862 Y135.284 E2.78261
G1 X33.522 Y135.122 E2.79323
G1 X33.782 Y134.222 E2.81965
;WIDTH:0.441804
G1 X33.935 Y133.6 E2.83983
;WIDTH:0.483609
G1 X34.089 Y132.978 E2.86214
;WIDTH:0.525414
G1 X34.242 Y132.356 E2.88655
;WIDTH:0.535661
G1 X34.316 Y131.693 E2.91252
;WIDTH:0.491863
G1 X34.381 Y131.05 E2.93544
;WIDTH:0.448064
G1 X34.446 Y130.407 E2.95612
;WIDTH:0.404265
G1 X34.449 Y130.366 E2.95729
;WIDTH:0.401657
G1 X34.519 Y128.789 E3.00202
;WIDTH:0.403092
G1 X34.547 Y128.726 E3.00398
;WIDTH:0.451433
G1 X34.575 Y128.663 E3.0062
;WIDTH:0.499774
G1 X34.602 Y128.6 E3.00867
;WIDTH:0.548115
G1 X34.63 Y128.538 E3.01138
;WIDTH:0.596456
G1 X34.658 Y128.475 E3.01439
;WIDTH:0.644796
G1 X34.686 Y128.412 E3.01767
G1 X34.71 Y128.476 E3.02092
;WIDTH:0.596456
G1 X34.734 Y128.541 E3.02395
;WIDTH:0.548115
G1 X34.758 Y128.605 E3.02668
;WIDTH:0.499774
G1 X34.782 Y128.669 E3.02915
;WIDTH:0.451433
G1 X34.807 Y128.734 E3.0314
;WIDTH:0.403092
G1 X34.831 Y128.798 E3.03334
;WIDTH:0.401657
G1 X34.807 Y130.377 E3.07809
;WIDTH:0.404265
G1 X34.806 Y130.431 E3.07963
;WIDTH:0.447208
G1 X34.784 Y131.069 E3.10002
;WIDTH:0.49015
G1 X34.763 Y131.707 E3.12257
;WIDTH:0.533092
