; HEADER_BLOCK_START
; generated by OrcaSlicer 1.8.0-beta1 on 2024-10-24 at 01:07:23
; total layer number: 28
; HEADER_BLOCK_END


;
;
; external perimeters extrusion width = 0.40mm
; perimeters extrusion width = 0.45mm
; infill extrusion width = 0.45mm
; solid infill extrusion width = 0.45mm
; top infill extrusion width = 0.38mm
; first layer extrusion width = 0.42mm

; external perimeters extrusion width = 0.40mm
; perimeters extrusion width = 0.45mm
; infill extrusion width = 0.45mm
; solid infill extrusion width = 0.45mm
; top infill extrusion width = 0.38mm
; first layer extrusion width = 0.42mm

; EXECUTABLE_BLOCK_START
EXCLUDE_OBJECT_DEFINE NAME=dessicant_box_clips.stl_id_0_copy_0 CENTER=112.5,112.5 POLYGON=[[101.5,105.5],[123.5,105.5],[123.5,119.5],[101.5,119.5],[101.5,105.5]]
EXCLUDE_OBJECT_DEFINE NAME=dessicant_box_clips2.stl_id_1_copy_0 CENTER=111.507,144.872 POLYGON=[[100.507,137.872],[122.507,137.872],[122.507,151.872],[100.507,151.872],[100.507,137.872]]
M73 P0 R6
;TYPE:Custom
M413 S0 ; disable Power Loss Recovery
G90 ; use absolute coordinates
M83 ; extruder relative mode
M104 S120 ; set temporary nozzle temp to prevent oozing during homing and auto bed leveling
M140 S0 ; set final bed temp
G4 S10 ; allow partial nozzle warmup
G28 ; home all axis
;G29 ; run abl mesh
M420 S1 ; load mesh
G1 Z50 F240
G1 X2 Y10 F3000
M104 S210 ; set final nozzle temp
M190 S0 ; wait for bed temp to stabilize
M109 S210 ; wait for nozzle temp to stabilize
M73 P3 R6
G1 Z0.28 F240
G92 E0
M73 P3 R5
G1 Y140 E10 F1500 ; prime the nozzle
M73 P6 R5
G1 X2.3 F5000
G92 E0
M73 P8 R5
G1 Y10 E10 F1200 ; prime the nozzle
G92 E0
G90
G21
M83 ; use relative distances for extrusion
; filament start gcode
M106 S0
;LAYER_CHANGE
;Z:0.2
;HEIGHT:0.2
;BEFORE_LAYER_CHANGE
G92 E0
;0.2


G1 E-2.5 F1500
;AFTER_LAYER_CHANGE
;0.2
;_SET_FAN_SPEED_CHANGING_LAYER
SET_VELOCITY_LIMIT ACCEL=1700 ACCEL_TO_DECEL=850
M73 P9 R5
G1 Z.4 F24000
G1 X100.825 Y104.515
G1 Z.4
M73 P10 R5
G1 Z.2
G1 E2.5 F1500
;TYPE:Skirt
;WIDTH:0.42
G1 F4800
G1 X101.786 Y104.123 E.03191
G1 X123.214 Y104.123 E.65839
G1 X124.169 Y104.508 E.03166
G1 X124.591 Y105.5 E.03311
G1 X124.59 Y119.542 E.43148
G1 X123.597 Y151.914 E.99517
G1 X123.183 Y152.857 E.03166
G1 X122.221 Y153.249 E.03191
G1 X100.794 Y153.249 E.65839
G1 X99.838 Y152.864 E.03166
G1 X99.417 Y151.872 E.03311
G1 X99.417 Y137.83 E.43148
G1 X100.41 Y105.458 E.99517
G1 X100.809 Y104.551 E.03043
; printing object dessicant_box_clips.stl id:0 copy 0
;WIPE_START
G1 X101.725 Y104.15 E-2.5
;WIPE_END
EXCLUDE_OBJECT_START NAME=dessicant_box_clips.stl_id_0_copy_0
G1 Z.6 F24000
G1 X102.754 Y106.187 Z.6
G1 Z.2
G1 E2.5 F1500
;TYPE:Inner wall
;WIDTH:0.419999
G1 F4800
G1 X122.246 Y106.187 E.59894
G1 X122.246 Y118.813 E.38796
G1 X102.754 Y118.813 E.59894
G1 X102.754 Y106.227 E.38673
G1 X102.377 Y105.81 F24000
;TYPE:Outer wall
M73 P11 R5
G1 F4800
G1 X122.623 Y105.81 E.62211
G1 X122.623 Y119.19 E.41113
G1 X102.377 Y119.19 E.62211
G1 X102.377 Y105.85 E.4099
;WIPE_START
G1 X103.377 Y105.848 E-2.5
;WIPE_END
G1 Z.6 F24000
G1 X122.133 Y107.07 Z.6
G1 Z.2
G1 E2.5 F1500
;TYPE:Bottom surface
;WIDTH:0.42333
G1 F11829.342
G1 X121.533 Y106.47 E.02629
G1 X120.995 Y106.47 E.01668
G1 X121.963 Y107.438 E.04243
G1 X121.963 Y107.976 E.01668
G1 X120.457 Y106.47 E.06602
G1 X119.919 Y106.47 E.01668
G1 X121.963 Y108.514 E.0896
G1 X121.963 Y109.052 E.01668
G1 X119.381 Y106.47 E.11319
G1 X118.843 Y106.47 E.01668
G1 X121.963 Y109.59 E.13677
G1 X121.963 Y110.128 E.01668
G1 X118.305 Y106.47 E.16036
G1 X117.767 Y106.47 E.01668
G1 X121.963 Y110.666 E.18394
G1 X121.963 Y111.204 E.01668
G1 X117.229 Y106.47 E.20752
G1 X116.691 Y106.47 E.01668
G1 X121.963 Y111.742 E.23111
G1 X121.963 Y112.28 E.01668
G1 X116.154 Y106.47 E.25469
G1 X115.616 Y106.47 E.01668
G1 X121.963 Y112.818 E.27828
G1 X121.963 Y113.356 E.01668
G1 X115.078 Y106.47 E.30186
G1 X114.54 Y106.47 E.01668
G1 X121.963 Y113.894 E.32545
G1 X121.963 Y114.432 E.01668
G1 X114.002 Y106.47 E.34903
G1 X113.464 Y106.47 E.01668
G1 X121.963 Y114.97 E.37261
G1 X121.963 Y115.508 E.01668
G1 X112.926 Y106.47 E.3962
G1 X112.388 Y106.47 E.01668
M73 P12 R5
G1 X121.963 Y116.046 E.41978
G1 X121.963 Y116.584 E.01668
G1 X111.85 Y106.47 E.44337
G1 X111.312 Y106.47 E.01668
G1 X121.963 Y117.121 E.46695
G1 X121.963 Y117.659 E.01668
G1 X110.774 Y106.47 E.49054
G1 X110.236 Y106.47 E.01668
G1 X121.963 Y118.197 E.51412
G1 X121.963 Y118.53 E.01031
G1 X121.758 Y118.53 E.00636
G1 X109.698 Y106.47 E.5287
G1 X109.16 Y106.47 E.01668
G1 X121.22 Y118.53 E.5287
G1 X120.682 Y118.53 E.01668
G1 X108.622 Y106.47 E.5287
G1 X108.084 Y106.47 E.01668
G1 X120.144 Y118.53 E.5287
G1 X119.606 Y118.53 E.01668
G1 X107.546 Y106.47 E.5287
G1 X107.008 Y106.47 E.01668
G1 X119.068 Y118.53 E.5287
G1 X118.53 Y118.53 E.01668
G1 X106.47 Y106.47 E.5287
G1 X105.932 Y106.47 E.01668
G1 X117.992 Y118.53 E.5287
G1 X117.454 Y118.53 E.01668
G1 X105.394 Y106.47 E.5287
G1 X104.856 Y106.47 E.01668
G1 X116.916 Y118.53 E.5287
G1 X116.378 Y118.53 E.01668
G1 X104.318 Y106.47 E.5287
G1 X103.78 Y106.47 E.01668
G1 X115.84 Y118.53 E.5287
G1 X115.302 Y118.53 E.01668
G1 X103.242 Y106.47 E.5287
G1 X103.037 Y106.47 E.00636
M73 P13 R5
G1 X103.037 Y106.803 E.01031
G1 X114.764 Y118.53 E.51412
G1 X114.226 Y118.53 E.01668
G1 X103.037 Y107.341 E.49053
G1 X103.037 Y107.879 E.01668
G1 X113.688 Y118.53 E.46695
G1 X113.15 Y118.53 E.01668
G1 X103.037 Y108.417 E.44336
G1 X103.037 Y108.955 E.01668
G1 X112.612 Y118.53 E.41978
G1 X112.074 Y118.53 E.01668
G1 X103.037 Y109.493 E.3962
G1 X103.037 Y110.03 E.01668
G1 X111.536 Y118.53 E.37261
G1 X110.998 Y118.53 E.01668
G1 X103.037 Y110.568 E.34903
G1 X103.037 Y111.106 E.01668
G1 X110.46 Y118.53 E.32544
G1 X109.922 Y118.53 E.01668
G1 X103.037 Y111.644 E.30186
G1 X103.037 Y112.182 E.01668
G1 X109.384 Y118.53 E.27827
G1 X108.846 Y118.53 E.01668
G1 X103.037 Y112.72 E.25469
G1 X103.037 Y113.258 E.01668
G1 X108.308 Y118.53 E.23111
G1 X107.77 Y118.53 E.01668
G1 X103.037 Y113.796 E.20752
G1 X103.037 Y114.334 E.01668
G1 X107.232 Y118.53 E.18394
G1 X106.695 Y118.53 E.01668
G1 X103.037 Y114.872 E.16035
G1 X103.037 Y115.41 E.01668
G1 X106.157 Y118.53 E.13677
G1 X105.619 Y118.53 E.01668
G1 X103.037 Y115.948 E.11318
G1 X103.037 Y116.486 E.01668
G1 X105.081 Y118.53 E.0896
G1 X104.543 Y118.53 E.01668
G1 X103.037 Y117.024 E.06602
G1 X103.037 Y117.562 E.01668
G1 X104.005 Y118.53 E.04243
G1 X103.467 Y118.53 E.01668
G1 X102.867 Y117.931 E.02629
; stop printing object dessicant_box_clips.stl id:0 copy 0
; printing object dessicant_box_clips2.stl id:1 copy 0
;WIPE_START
G1 X103.467 Y118.53 E-2.11987
G1 X103.619 Y118.53 E-.38014
;WIPE_END
EXCLUDE_OBJECT_END NAME=dessicant_box_clips.stl_id_0_copy_0
EXCLUDE_OBJECT_START NAME=dessicant_box_clips2.stl_id_1_copy_0
G1 Z.6 F24000
G1 X101.761 Y151.185 Z.6
G1 Z.2
M73 P14 R5
G1 E2.5 F1500
;TYPE:Inner wall
;WIDTH:0.419999
G1 F4800
G1 X101.761 Y138.559 E.38796
G1 X121.253 Y138.559 E.59894
G1 X121.253 Y144.872 E.19398
G1 X121.253 Y151.185 E.19398
G1 X101.801 Y151.185 E.59771
G1 X101.384 Y151.562 F24000
;TYPE:Outer wall
G1 F4800
G1 X101.384 Y138.182 E.41113
G1 X121.63 Y138.182 E.62211
G1 X121.63 Y144.872 E.20556
G1 X121.63 Y151.562 E.20556
G1 X101.424 Y151.562 E.62088
;WIPE_START
G1 X101.421 Y150.562 E-2.5
;WIPE_END
G1 Z.6 F24000
G1 X121.14 Y139.441 Z.6
G1 Z.2
G1 E2.5 F1500
;TYPE:Bottom surface
;WIDTH:0.42333
G1 F11829.342
G1 X120.541 Y138.842 E.02629
G1 X120.003 Y138.842 E.01668
G1 X120.971 Y139.81 E.04243
G1 X120.971 Y140.348 E.01668
G1 X119.465 Y138.842 E.06602
G1 X118.927 Y138.842 E.01668
G1 X120.971 Y140.886 E.0896
G1 X120.971 Y141.424 E.01668
G1 X118.389 Y138.842 E.11319
G1 X117.851 Y138.842 E.01668
G1 X120.971 Y141.962 E.13677
G1 X120.971 Y142.5 E.01668
G1 X117.313 Y138.842 E.16036
G1 X116.775 Y138.842 E.01668
G1 X120.971 Y143.038 E.18394
G1 X120.971 Y143.576 E.01668
G1 X116.237 Y138.842 E.20752
G1 X115.699 Y138.842 E.01668
G1 X120.971 Y144.114 E.23111
G1 X120.971 Y144.652 E.01668
M73 P15 R5
G1 X115.161 Y138.842 E.25469
G1 X114.623 Y138.842 E.01668
G1 X120.971 Y145.19 E.27828
G1 X120.971 Y145.728 E.01668
G1 X114.085 Y138.842 E.30186
G1 X113.547 Y138.842 E.01668
G1 X120.971 Y146.266 E.32545
G1 X120.971 Y146.804 E.01668
G1 X113.009 Y138.842 E.34903
G1 X112.471 Y138.842 E.01668
G1 X120.971 Y147.341 E.37261
G1 X120.971 Y147.879 E.01668
G1 X111.933 Y138.842 E.3962
G1 X111.395 Y138.842 E.01668
G1 X120.971 Y148.417 E.41978
G1 X120.971 Y148.955 E.01668
G1 X110.857 Y138.842 E.44337
G1 X110.319 Y138.842 E.01668
G1 X120.971 Y149.493 E.46695
G1 X120.971 Y150.031 E.01668
G1 X109.781 Y138.842 E.49054
G1 X109.243 Y138.842 E.01668
G1 X120.971 Y150.569 E.51412
G1 X120.971 Y150.902 E.01031
G1 X120.765 Y150.902 E.00636
G1 X108.705 Y138.842 E.5287
G1 X108.167 Y138.842 E.01668
G1 X120.227 Y150.902 E.5287
G1 X119.689 Y150.902 E.01668
G1 X107.629 Y138.842 E.5287
G1 X107.091 Y138.842 E.01668
G1 X119.151 Y150.902 E.5287
G1 X118.613 Y150.902 E.01668
G1 X106.553 Y138.842 E.5287
G1 X106.015 Y138.842 E.01668
G1 X118.075 Y150.902 E.5287
G1 X117.537 Y150.902 E.01668
G1 X105.477 Y138.842 E.5287
G1 X104.939 Y138.842 E.01668
G1 X116.999 Y150.902 E.5287
M73 P16 R5
G1 X116.461 Y150.902 E.01668
G1 X104.401 Y138.842 E.5287
G1 X103.863 Y138.842 E.01668
G1 X115.923 Y150.902 E.5287
G1 X115.385 Y150.902 E.01668
G1 X103.325 Y138.842 E.5287
G1 X102.787 Y138.842 E.01668
G1 X114.847 Y150.902 E.5287
G1 X114.309 Y150.902 E.01668
G1 X102.249 Y138.842 E.5287
G1 X102.044 Y138.842 E.00636
G1 X102.044 Y139.175 E.01031
G1 X113.771 Y150.902 E.51412
G1 X113.233 Y150.902 E.01668
G1 X102.044 Y139.713 E.49053
G1 X102.044 Y140.251 E.01668
G1 X112.695 Y150.902 E.46695
G1 X112.158 Y150.902 E.01668
G1 X102.044 Y140.788 E.44336
G1 X102.044 Y141.326 E.01668
G1 X111.62 Y150.902 E.41978
G1 X111.082 Y150.902 E.01668
G1 X102.044 Y141.864 E.3962
G1 X102.044 Y142.402 E.01668
G1 X110.544 Y150.902 E.37261
G1 X110.006 Y150.902 E.01668
G1 X102.044 Y142.94 E.34903
G1 X102.044 Y143.478 E.01668
G1 X109.468 Y150.902 E.32544
G1 X108.93 Y150.902 E.01668
G1 X102.044 Y144.016 E.30186
G1 X102.044 Y144.554 E.01668
G1 X108.392 Y150.902 E.27827
G1 X107.854 Y150.902 E.01668
G1 X102.044 Y145.092 E.25469
G1 X102.044 Y145.63 E.01668
G1 X107.316 Y150.902 E.23111
G1 X106.778 Y150.902 E.01668
G1 X102.044 Y146.168 E.20752
G1 X102.044 Y146.706 E.01668
G1 X106.24 Y150.902 E.18394
M73 P17 R5
G1 X105.702 Y150.902 E.01668
G1 X102.044 Y147.244 E.16035
G1 X102.044 Y147.782 E.01668
G1 X105.164 Y150.902 E.13677
G1 X104.626 Y150.902 E.01668
G1 X102.044 Y148.32 E.11318
G1 X102.044 Y148.858 E.01668
G1 X104.088 Y150.902 E.0896
G1 X103.55 Y150.902 E.01668
G1 X102.044 Y149.396 E.06602
G1 X102.044 Y149.934 E.01668
G1 X103.012 Y150.902 E.04243
G1 X102.474 Y150.902 E.01668
G1 X101.874 Y150.302 E.02629
; stop printing object dessicant_box_clips2.stl id:1 copy 0
M106 S255
;LAYER_CHANGE
;Z:0.4
;HEIGHT:0.2
;BEFORE_LAYER_CHANGE
G92 E0
;0.4


;WIPE_START
G1 F11829.342
G1 X102.474 Y150.902 E-2.11987
G1 X102.626 Y150.902 E-.38014
;WIPE_END
EXCLUDE_OBJECT_END NAME=dessicant_box_clips2.stl_id_1_copy_0
;AFTER_LAYER_CHANGE
;0.4
;_SET_FAN_SPEED_CHANGING_LAYER
SET_VELOCITY_LIMIT ACCEL=8000 ACCEL_TO_DECEL=4000
M104 S205 ; set nozzle temperature
M140 S0 ; set bed temperature
G1 Z.6 F24000
G1 X102.626 Y153.249 Z.6
G1 Z.4
G1 E2.5 F1500
;TYPE:Skirt
;WIDTH:0.42
G1 F9600
G1 X100.794 Y153.249 E.0563
G1 X99.838 Y152.864 E.03166
G1 X99.417 Y151.872 E.03311
G1 X99.417 Y137.83 E.43148
G1 X100.41 Y105.458 E.99517
G1 X100.825 Y104.515 E.03166
G1 X101.786 Y104.123 E.03191
G1 X123.214 Y104.123 E.65839
G1 X124.169 Y104.508 E.03166
G1 X124.591 Y105.5 E.03311
G1 X124.59 Y119.542 E.43148
G1 X123.597 Y151.914 E.99517
G1 X123.183 Y152.857 E.03166
G1 X122.221 Y153.249 E.03191
G1 X102.666 Y153.249 E.60087
; printing object dessicant_box_clips.stl id:0 copy 0
;WIPE_START
G1 X101.666 Y153.249 E-2.5
;WIPE_END
EXCLUDE_OBJECT_START NAME=dessicant_box_clips.stl_id_0_copy_0
G1 Z.8 F24000
G1 X102.369 Y106.082 Z.8
G1 Z.4
G1 E2.5 F1500
;TYPE:Inner wall
;WIDTH:0.449999
G1 F11054.364
G1 X122.631 Y106.082 E.67213
G1 X122.631 Y112.5 E.2129
G1 X122.631 Y118.918 E.2129
G1 X102.369 Y118.918 E.67213
G1 X102.369 Y106.122 E.42447
G1 X101.986 Y105.7 F24000
SET_VELOCITY_LIMIT ACCEL=5500 ACCEL_TO_DECEL=2750
;TYPE:Outer wall
;WIDTH:0.399999
G1 F2035.474
G1 X102.667 Y105.7 E.01982
G1 F12000
G1 X122.333 Y105.7 E.57223
G1 F2035.474
G1 X123.014 Y105.7 E.01982
G1 X123.014 Y106.38 E.01979
G1 X123.014 Y111.82 E.15829
G1 X123.014 Y112.5 E.01979
G1 X123.014 Y113.18 E.01979
G1 X123.014 Y118.62 E.15829
G1 X123.014 Y119.3 E.01979
M106 S255
G1 X122.333 Y119.3 E.01982
G1 F12000
G1 X102.667 Y119.3 E.57223
G1 F2035.474
M73 P18 R5
G1 X101.986 Y119.3 E.01982
G1 X101.986 Y118.62 E.01979
G1 X101.986 Y106.42 E.35499
G1 X101.986 Y105.74 E.01979
SET_VELOCITY_LIMIT ACCEL=8000 ACCEL_TO_DECEL=4000
;WIPE_START
G1 X102.986 Y105.738 E-2.5
;WIPE_END
G1 Z.8 F24000
G1 X102.79 Y106.437 Z.8
G1 Z.4
G1 E2.5 F1500
;TYPE:Internal solid infill
;WIDTH:0.429544
G1 F11639.214
M106 S255
G1 X102.717 Y106.479 E.00264
G1 X102.794 Y106.514 E.00265
G1 X122.509 Y117.865 F24000
;WIDTH:0.451507
G1 F11013.566
G1 X121.761 Y118.613 E.03522
G1 X121.183 Y118.613 E.01924
G1 X122.326 Y117.47 E.0538
G1 X122.326 Y116.892 E.01924
G1 X120.606 Y118.613 E.08101
G1 X120.028 Y118.613 E.01924
G1 X122.326 Y116.314 E.10822
G1 X122.326 Y115.736 E.01924
G1 X119.45 Y118.613 E.13543
G1 X118.872 Y118.613 E.01924
G1 X122.326 Y115.159 E.16263
G1 X122.326 Y114.581 E.01924
G1 X118.294 Y118.613 E.18984
G1 X117.716 Y118.613 E.01924
G1 X122.326 Y114.003 E.21705
G1 X122.326 Y113.425 E.01924
G1 X117.139 Y118.613 E.24426
G1 X116.561 Y118.613 E.01924
G1 X122.326 Y112.847 E.27146
G1 X122.326 Y112.269 E.01924
G1 X115.983 Y118.613 E.29867
G1 X115.405 Y118.613 E.01924
G1 X122.326 Y111.692 E.32588
G1 X122.326 Y111.114 E.01924
G1 X114.827 Y118.613 E.35309
G1 X114.25 Y118.613 E.01924
G1 X122.326 Y110.536 E.3803
G1 X122.326 Y109.958 E.01924
G1 X113.672 Y118.613 E.4075
G1 X113.094 Y118.613 E.01924
G1 X122.326 Y109.38 E.43471
G1 X122.326 Y108.802 E.01924
G1 X112.516 Y118.613 E.46192
G1 X111.938 Y118.613 E.01924
G1 X122.326 Y108.225 E.48913
G1 X122.326 Y107.647 E.01924
G1 X111.36 Y118.613 E.51633
G1 X110.783 Y118.613 E.01924
G1 X122.326 Y107.069 E.54354
G1 X122.326 Y106.491 E.01924
G1 X110.205 Y118.613 E.57075
G1 X109.627 Y118.613 E.01924
G1 X121.852 Y106.387 E.57563
G1 X121.274 Y106.387 E.01924
G1 X109.049 Y118.613 E.57563
G1 X108.471 Y118.613 E.01924
G1 X120.696 Y106.387 E.57563
G1 X120.119 Y106.387 E.01924
G1 X107.893 Y118.613 E.57563
G1 X107.316 Y118.613 E.01924
G1 X119.541 Y106.387 E.57563
G1 X118.963 Y106.387 E.01924
G1 X106.738 Y118.613 E.57563
G1 X106.16 Y118.613 E.01924
G1 X118.385 Y106.387 E.57563
G1 X117.807 Y106.387 E.01924
G1 X105.582 Y118.613 E.57563
G1 X105.004 Y118.613 E.01924
G1 X117.229 Y106.387 E.57563
G1 X116.652 Y106.387 E.01924
M73 P19 R5
G1 X104.426 Y118.613 E.57563
G1 X103.849 Y118.613 E.01924
G1 X116.074 Y106.387 E.57563
G1 X115.496 Y106.387 E.01924
G1 X103.271 Y118.613 E.57563
G1 X102.693 Y118.613 E.01924
G1 X114.918 Y106.387 E.57563
G1 X114.34 Y106.387 E.01924
G1 X102.674 Y118.054 E.54933
G1 X102.674 Y117.476 E.01924
G1 X113.762 Y106.387 E.52212
G1 X113.185 Y106.387 E.01924
G1 X102.674 Y116.898 E.49491
G1 X102.674 Y116.32 E.01924
G1 X112.607 Y106.387 E.4677
G1 X112.029 Y106.387 E.01924
G1 X102.674 Y115.743 E.4405
G1 X102.674 Y115.165 E.01924
G1 X111.451 Y106.387 E.41329
G1 X110.873 Y106.387 E.01924
G1 X102.674 Y114.587 E.38608
G1 X102.674 Y114.009 E.01924
G1 X110.296 Y106.387 E.35887
G1 X109.718 Y106.387 E.01924
G1 X102.674 Y113.431 E.33167
G1 X102.674 Y112.853 E.01924
G1 X109.14 Y106.387 E.30446
G1 X108.562 Y106.387 E.01924
G1 X102.674 Y112.276 E.27725
G1 X102.674 Y111.698 E.01924
G1 X107.984 Y106.387 E.25004
G1 X107.406 Y106.387 E.01924
G1 X102.674 Y111.12 E.22284
G1 X102.674 Y110.542 E.01924
G1 X106.829 Y106.387 E.19563
G1 X106.251 Y106.387 E.01924
M73 P19 R4
G1 X102.674 Y109.964 E.16842
G1 X102.674 Y109.386 E.01924
G1 X105.673 Y106.387 E.14121
G1 X105.095 Y106.387 E.01924
G1 X102.674 Y108.809 E.114
G1 X102.674 Y108.231 E.01924
G1 X104.517 Y106.387 E.0868
