;FLAVOR:Marlin
;TIME:1852
;Filament used: 2.04851m
;Layer height: 0.2
;MINX:-16.964
;MINY:-27.76
;MINZ:0.3
;MAXX:14.022
;MAXY:27.74
;MAXZ:14.9
;Generated with Cura_SteamEngine 4.10.0
M104 S205
M105
M109 S205
M82 ;absolute extrusion mode
G21        ;metric values
G90        ;absolute positioning
M107       ;start with the fan off
G28   ;move to endstops

;Z-Offset Reset und dann Z +0,1 für PLA
;MacroZOffset0
;MacroZOffsetPlus0100

G92 E0                  ;zero the extruded length
G1 F200 E3              ;extrude 3mm of feed stock
G92 E0                  ;zero the extruded length again
G1 F150.0
;Put printing message on LCD screen
M117 Printing...
G92 E0
G92 E0
G1 F2400 E-6
;LAYER_COUNT:70
;LAYER:0
M106 S255
M204 S3000
G1 F600 Z1.3
G0 F1500 X-1.404 Y-0.004 Z1.3
M204 S1500
;TYPE:SKIRT
G1 F600 Z0.3
G1 F2400 E0
G1 F600 X-1.544 Y-.678 E0.03091
G1 X-1.651 Y-1.722 E0.07803
G1 X-1.697 Y-2.02 E0.09157
G1 X-1.906 Y-3.004 E0.13674
G1 X-1.968 Y-3.244 E0.14787
G1 X-2.299 Y-4.265 E0.19606
G1 X-2.361 Y-4.433 E0.2041
G1 X-2.825 Y-5.474 E0.25528
G1 X-2.865 Y-5.555 E0.25933
G1 X-3.504 Y-6.659 E0.31661
G1 X-4.245 Y-7.675 E0.37307
G1 X-5.105 Y-8.629 E0.43075
G1 X-6.065 Y-9.494 E0.48877
G1 X-7.1 Y-10.246 E0.54621
G1 X-8.234 Y-10.899 E0.60497
G1 X-9.332 Y-11.386 E0.6589
G1 X-9.426 Y-11.423 E0.66344
G1 X-10.542 Y-11.785 E0.71612
G1 X-10.713 Y-11.832 E0.72408
G1 X-11.716 Y-12.04 E0.77007
G1 X-11.979 Y-12.082 E0.78203
G1 X-13.064 Y-12.194 E0.83101
G1 X-13.811 Y-12.348 E0.86526
G1 X-14.009 Y-12.41 E0.87457
G1 X-14.521 Y-12.612 E0.89929
G1 X-15.123 Y-12.974 E0.93083
G1 X-15.289 Y-13.096 E0.94008
G1 X-15.709 Y-13.454 E0.96486
G1 X-16.072 Y-13.868 E0.98958
G1 X-16.445 Y-14.474 E1.02153
G1 X-16.535 Y-14.656 E1.03065
G1 X-16.743 Y-15.166 E1.05538
G1 X-16.882 Y-15.721 E1.08107
G1 X-16.962 Y-16.497 E1.1161
G1 X-16.963 Y-23.435 E1.42762
G1 X-16.923 Y-23.985 E1.45238
G1 X-16.805 Y-24.52 E1.47698
G1 X-16.738 Y-24.745 E1.48752
G1 X-16.543 Y-25.261 E1.51229
G1 X-16.275 Y-25.742 E1.53701
G1 X-15.94 Y-26.181 E1.56181
G1 X-15.769 Y-26.374 E1.57339
G1 X-15.178 Y-26.914 E1.60933
G1 X-15.087 Y-26.981 E1.61441
G1 X-14.621 Y-27.275 E1.63915
G1 X-14.117 Y-27.498 E1.66389
G1 X-13.557 Y-27.652 E1.68997
G1 X-13.335 Y-27.695 E1.70013
G1 X-12.787 Y-27.76 E1.7249
G1 X-12.255 Y-27.747 E1.7488
G1 X-10.02 Y-27.536 E1.8496
G1 X-9.342 Y-27.435 E1.88038
G1 X-7.092 Y-26.979 E1.98346
G1 X-6.474 Y-26.818 E2.01213
G1 X-4.243 Y-26.112 E2.11721
G1 X-3.685 Y-25.902 E2.14398
G1 X-1.499 Y-24.944 E2.25114
G1 X-1.013 Y-24.699 E2.27558
G1 X1.103 Y-23.49 E2.38501
G1 X1.557 Y-23.193 E2.40936
G1 X3.573 Y-21.733 E2.52113
G1 X3.886 Y-21.48 E2.5392
G1 X5.766 Y-19.787 E2.6528
G1 X6.046 Y-19.507 E2.67058
G1 X7.74 Y-17.627 E2.78421
G1 X7.995 Y-17.312 E2.8024
G1 X9.479 Y-15.263 E2.916
G1 X9.75 Y-14.841 E2.93852
G1 X10.959 Y-12.728 E3.04783
G1 X11.205 Y-12.243 E3.07225
G1 X12.165 Y-10.055 E3.17953
G1 X12.372 Y-9.5 E3.20613
G1 X13.08 Y-7.266 E3.31136
G1 X13.24 Y-6.648 E3.34002
G1 X13.661 Y-4.572 E3.43513
G1 X13.776 Y-3.904 E3.46557
G1 X13.797 Y-3.72 E3.47388
G1 X13.996 Y-1.598 E3.56958
G1 X14.002 Y-.953 E3.59854
G1 X13.95 Y-.393 E3.6238
G1 X13.865 Y0.006 E3.64211
G1 X13.957 Y0.407 E3.66059
G1 X14.022 Y0.954 E3.68532
G1 X14.009 Y1.483 E3.70908
G1 X13.798 Y3.719 E3.80993
G1 X13.697 Y4.396 E3.84066
G1 X13.241 Y6.646 E3.94374
G1 X13.08 Y7.264 E3.97242
G1 X12.374 Y9.495 E4.07749
G1 X12.164 Y10.053 E4.10426
G1 X11.206 Y12.239 E4.21142
G1 X10.961 Y12.727 E4.23594
G1 X9.752 Y14.841 E4.34529
G1 X9.479 Y15.263 E4.36786
G1 X7.995 Y17.311 E4.48142
G1 X7.742 Y17.623 E4.49946
G1 X6.049 Y19.504 E4.61309
G1 X5.768 Y19.786 E4.63096
G1 X3.888 Y21.479 E4.74456
G1 X3.573 Y21.733 E4.76273
G1 X1.523 Y23.217 E4.87636
G1 X1.104 Y23.489 E4.89879
G1 X-1.012 Y24.699 E5.00824
G1 X-1.495 Y24.943 E5.03254
G1 X-3.684 Y25.903 E5.13986
G1 X-4.238 Y26.11 E5.16642
G1 X-6.472 Y26.818 E5.27165
G1 X-7.09 Y26.978 E5.30031
G1 X-9.18 Y27.402 E5.39606
G1 X-9.834 Y27.514 E5.42586
G1 X-10.018 Y27.535 E5.43417
G1 X-12.14 Y27.734 E5.52987
G1 X-12.785 Y27.74 E5.55883
G1 X-13.345 Y27.688 E5.58409
G1 X-13.386 Y27.682 E5.58595
G1 X-13.924 Y27.563 E5.61069
G1 X-14.439 Y27.367 E5.63543
G1 X-14.982 Y27.058 E5.66348
G1 X-15.172 Y26.928 E5.67382
G1 X-15.603 Y26.585 E5.69855
G1 X-15.98 Y26.183 E5.7233
G1 X-16.389 Y25.561 E5.75672
G1 X-16.49 Y25.369 E5.76646
G1 X-16.711 Y24.864 E5.79122
G1 X-16.871 Y24.268 E5.81892
G1 X-16.952 Y23.723 E5.84366
G1 X-16.963 Y23.44 E5.85638
G1 X-16.964 Y18.964 E6.05736
G1 X-16.962 Y16.493 E6.16831
G1 X-16.922 Y15.943 E6.19307
G1 X-16.738 Y15.21 E6.227
G1 X-16.619 Y14.879 E6.2428
G1 X-16.395 Y14.376 E6.26752
G1 X-16.201 Y14.051 E6.28452
G1 X-15.863 Y13.616 E6.30925
G1 X-15.281 Y13.091 E6.34445
G1 X-15.114 Y12.969 E6.35373
G1 X-14.646 Y12.677 E6.3785
G1 X-14.013 Y12.412 E6.40931
G1 X-13.816 Y12.35 E6.41859
G1 X-13.064 Y12.195 E6.45306
G1 X-12.014 Y12.087 E6.50046
G1 X-11.72 Y12.042 E6.51381
G1 X-10.716 Y11.829 E6.5599
G1 X-10.501 Y11.772 E6.56988
G1 X-9.479 Y11.441 E6.61812
G1 X-9.305 Y11.377 E6.62644
G1 X-8.264 Y10.913 E6.67762
G1 X-8.183 Y10.873 E6.68167
G1 X-7.083 Y10.236 E6.73875
G1 X-6.061 Y9.492 E6.79551
G1 X-5.109 Y8.633 E6.85309
G1 X-4.244 Y7.673 E6.91111
G1 X-3.493 Y6.639 E6.96849
G1 X-2.837 Y5.501 E7.02747
G1 X-2.355 Y4.415 E7.08082
G1 X-2.311 Y4.3 E7.08635
G1 X-1.962 Y3.225 E7.1371
G1 X-1.91 Y3.032 E7.14607
G1 X-1.696 Y2.014 E7.19278
G1 X-1.656 Y1.759 E7.20437
G1 X-1.544 Y0.674 E7.25335
G1 X-1.404 Y-0.004 E7.28443
M204 S3000
G0 F1500 X-1.009 Y0.047
M204 S1500
G1 F600 X-1.004 Y-0.033 E7.28803
G1 X-1.146 Y-.718 E7.31944
G1 X-1.255 Y-1.786 E7.36764
G1 X-1.3 Y-2.075 E7.38078
G1 X-1.517 Y-3.098 E7.42773
G1 X-1.583 Y-3.355 E7.43965
G1 X-1.922 Y-4.4 E7.48898
G1 X-1.986 Y-4.573 E7.49726
G1 X-2.459 Y-5.636 E7.5495
G1 X-2.518 Y-5.754 E7.55542
G1 X-3.168 Y-6.877 E7.61369
G1 X-3.934 Y-7.928 E7.67208
G1 X-4.827 Y-8.918 E7.73194
G1 X-5.803 Y-9.797 E7.79092
G1 X-6.884 Y-10.583 E7.85093
G1 X-8.014 Y-11.235 E7.90951
G1 X-8.067 Y-11.263 E7.9122
G1 X-9.17 Y-11.753 E7.9664
G1 X-9.301 Y-11.803 E7.97269
G1 X-10.411 Y-12.163 E8.02509
G1 X-10.618 Y-12.22 E8.03473
G1 X-11.654 Y-12.436 E8.08225
G1 X-11.929 Y-12.479 E8.09475
G1 X-13.023 Y-12.592 E8.14413
G1 X-13.691 Y-12.729 E8.17475
G1 X-13.889 Y-12.791 E8.18406
G1 X-14.373 Y-12.985 E8.20748
G1 X-14.886 Y-13.296 E8.23441
G1 X-15.052 Y-13.418 E8.24366
G1 X-15.448 Y-13.758 E8.2671
G1 X-15.786 Y-14.155 E8.29051
G1 X-16.087 Y-14.651 E8.31656
G1 X-16.177 Y-14.833 E8.32568
G1 X-16.371 Y-15.316 E8.34905
G1 X-16.49 Y-15.803 E8.37156
G1 X-16.562 Y-16.498 E8.40293
G1 X-16.563 Y-23.436 E8.71446
G1 X-16.523 Y-23.955 E8.73783
G1 X-16.355 Y-24.631 E8.76911
G1 X-16.168 Y-25.118 E8.79253
G1 X-15.909 Y-25.57 E8.81592
G1 X-15.47 Y-26.109 E8.84713
G1 X-14.941 Y-26.592 E8.8793
G1 X-14.85 Y-26.659 E8.88437
G1 X-14.408 Y-26.935 E8.90777
G1 X-13.929 Y-27.14 E8.93116
G1 X-13.259 Y-27.302 E8.96211
G1 X-12.741 Y-27.362 E8.98553
G1 X-12.292 Y-27.349 E9.0057
G1 X-10.057 Y-27.138 E9.1065
G1 X-9.422 Y-27.043 E9.13533
G1 X-7.172 Y-26.587 E9.23841
G1 X-6.594 Y-26.437 E9.26522
G1 X-4.363 Y-25.731 E9.37029
G1 X-3.845 Y-25.536 E9.39514
G1 X-1.659 Y-24.578 E9.50231
G1 X-1.211 Y-24.352 E9.52484
G1 X0.905 Y-23.143 E9.63427
G1 X1.329 Y-22.865 E9.65703
G1 X3.339 Y-21.409 E9.76847
G1 X3.618 Y-21.183 E9.7846
G1 X5.498 Y-19.49 E9.89819
G1 X5.749 Y-19.239 E9.91413
G1 X7.443 Y-17.359 E10.02776
G1 X7.671 Y-17.077 E10.04404
G1 X9.155 Y-15.028 E10.15764
G1 X9.403 Y-14.643 E10.1782
G1 X10.612 Y-12.53 E10.28751
G1 X10.838 Y-12.082 E10.31004
G1 X11.798 Y-9.894 E10.41733
G1 X11.991 Y-9.379 E10.44202
G1 X12.699 Y-7.145 E10.54725
G1 X12.848 Y-6.568 E10.57401
G1 X13.27 Y-4.486 E10.66939
G1 X13.38 Y-3.848 E10.69846
G1 X13.399 Y-3.682 E10.70596
G1 X13.598 Y-1.56 E10.80166
G1 X13.603 Y-.983 E10.82757
G1 X13.554 Y-.451 E10.85156
G1 X13.454 Y0.006 E10.87256
G1 X13.565 Y0.482 E10.89451
G1 X13.624 Y1 E10.91792
G1 X13.611 Y1.445 E10.93791
G1 X13.4 Y3.681 E11.03875
G1 X13.305 Y4.316 E11.06758
G1 X12.849 Y6.566 E11.17067
G1 X12.699 Y7.144 E11.19748
G1 X11.993 Y9.375 E11.30255
G1 X11.798 Y9.893 E11.3274
G1 X10.84 Y12.079 E11.43457
G1 X10.613 Y12.528 E11.45716
G1 X9.404 Y14.642 E11.56651
G1 X9.155 Y15.028 E11.58713
G1 X7.671 Y17.076 E11.70069
G1 X7.445 Y17.356 E11.71685
G1 X5.752 Y19.237 E11.83048
G1 X5.5 Y19.489 E11.84648
G1 X3.62 Y21.182 E11.96008
G1 X3.339 Y21.409 E11.9763
G1 X1.289 Y22.893 E12.08993
G1 X0.906 Y23.142 E12.11045
G1 X-1.21 Y24.352 E12.21989
G1 X-1.655 Y24.577 E12.24228
G1 X-3.844 Y25.537 E12.34961
G1 X-4.359 Y25.729 E12.37429
G1 X-6.593 Y26.437 E12.47951
G1 X-7.17 Y26.586 E12.50627
G1 X-9.366 Y27.033 E12.6069
G1 X-9.89 Y27.118 E12.63073
G1 X-10.056 Y27.137 E12.63823
G1 X-12.178 Y27.336 E12.73393
G1 X-12.755 Y27.341 E12.75984
G1 X-13.287 Y27.292 E12.78383
G1 X-13.328 Y27.286 E12.78569
G1 X-13.837 Y27.171 E12.80912
G1 X-14.322 Y26.98 E12.83253
G1 X-14.756 Y26.728 E12.85506
G1 X-14.946 Y26.598 E12.8654
G1 X-15.352 Y26.272 E12.88878
G1 X-15.704 Y25.887 E12.9122
G1 X-16.035 Y25.375 E12.93958
G1 X-16.136 Y25.183 E12.94932
G1 X-16.343 Y24.704 E12.97275
G1 X-16.481 Y24.181 E12.99703
G1 X-16.563 Y23.44 E13.03051
G1 X-16.564 Y18.964 E13.23149
G1 X-16.562 Y16.493 E13.34244
G1 X-16.522 Y15.974 E13.36581
G1 X-16.362 Y15.346 E13.39491
G1 X-16.243 Y15.015 E13.4107
G1 X-16.029 Y14.539 E13.43414
G1 X-15.868 Y14.273 E13.4481
G1 X-15.547 Y13.863 E13.47148
G1 X-15.045 Y13.414 E13.50172
G1 X-14.878 Y13.292 E13.51101
G1 X-14.435 Y13.017 E13.53442
G1 X-13.893 Y12.794 E13.56073
G1 X-13.696 Y12.732 E13.57001
G1 X-13.023 Y12.593 E13.60086
G1 X-11.933 Y12.48 E13.65007
G1 X-11.647 Y12.436 E13.66306
G1 X-10.633 Y12.221 E13.7096
G1 X-10.402 Y12.16 E13.72033
G1 X-9.322 Y11.81 E13.77131
G1 X-9.165 Y11.752 E13.77882
G1 X-8.102 Y11.279 E13.83106
G1 X-7.984 Y11.22 E13.83699
G1 X-6.864 Y10.572 E13.89509
G1 X-5.81 Y9.804 E13.95364
G1 X-4.82 Y8.911 E14.01351
G1 X-3.941 Y7.935 E14.07248
G1 X-3.156 Y6.856 E14.1324
G1 X-2.483 Y5.689 E14.19289
G1 X-1.982 Y4.559 E14.24839
G1 X-1.935 Y4.436 E14.2543
G1 X-1.578 Y3.338 E14.30614
G1 X-1.522 Y3.13 E14.31581
G1 X-1.301 Y2.076 E14.36417
G1 X-1.259 Y1.808 E14.37635
G1 X-1.146 Y0.715 E14.42569
G1 X-1.009 Y0.047 E14.45631
M204 S3000
G0 F1500 X-.623 Y-.154
M204 S1500
G1 F600 X-.748 Y-.759 E14.48405
G1 X-.854 Y-1.799 E14.53098
G1 X-.909 Y-2.165 E14.5476
G1 X-1.122 Y-3.167 E14.5936
G1 X-1.199 Y-3.466 E14.60746
G1 X-1.546 Y-4.536 E14.65797
G1 X-1.614 Y-4.721 E14.66682
G1 X-2.102 Y-5.817 E14.72069
G1 X-2.161 Y-5.935 E14.72661
G1 X-2.832 Y-7.094 E14.78675
G1 X-3.626 Y-8.184 E14.8473
G1 X-4.539 Y-9.197 E14.90853
G1 X-5.562 Y-10.117 E14.97031
G1 X-6.663 Y-10.918 E15.03144
G1 X-7.827 Y-11.589 E15.09177
G1 X-7.873 Y-11.613 E15.0941
G1 X-9.044 Y-12.133 E15.15163
G1 X-9.15 Y-12.174 E15.15673
G1 X-10.308 Y-12.55 E15.2114
G1 X-10.524 Y-12.609 E15.22145
G1 X-11.576 Y-12.828 E15.2697
G1 X-11.879 Y-12.876 E15.28348
G1 X-12.982 Y-12.99 E15.33327
G1 X-13.571 Y-13.111 E15.36027
G1 X-14.223 Y-13.357 E15.39156
G1 X-14.65 Y-13.619 E15.41405
G1 X-15.185 Y-14.062 E15.44524
G1 X-15.497 Y-14.439 E15.46721
G1 X-15.818 Y-15.01 E15.49662
G1 X-16.066 Y-15.727 E15.53069
G1 X-16.099 Y-15.885 E15.53794
G1 X-16.162 Y-16.498 E15.56561
G1 X-16.163 Y-23.436 E15.87713
G1 X-16.123 Y-23.923 E15.89907
G1 X-15.971 Y-24.517 E15.9266
G1 X-15.794 Y-24.973 E15.94857
G1 X-15.544 Y-25.395 E15.97059
G1 X-15.17 Y-25.843 E15.99679
G1 X-14.704 Y-26.27 E16.02517
G1 X-14.196 Y-26.594 E16.05223
G1 X-13.743 Y-26.78 E16.07421
G1 X-13.182 Y-26.909 E16.10006
G1 X-12.696 Y-26.963 E16.12202
G1 X-12.33 Y-26.951 E16.13846
G1 X-10.095 Y-26.74 E16.23926
G1 X-9.501 Y-26.651 E16.26623
G1 X-7.251 Y-26.195 E16.36931
G1 X-6.715 Y-26.055 E16.39419
G1 X-4.484 Y-25.349 E16.49926
G1 X-4.006 Y-25.17 E16.52217
G1 X-1.82 Y-24.212 E16.62934
G1 X-1.41 Y-24.005 E16.64996
G1 X0.706 Y-22.796 E16.75939
G1 X1.152 Y-22.5 E16.78342
G1 X3.104 Y-21.085 E16.89168
G1 X3.351 Y-20.885 E16.90595
G1 X5.231 Y-19.192 E17.01955
G1 X5.452 Y-18.971 E17.03358
G1 X7.146 Y-17.091 E17.14721
G1 X7.347 Y-16.843 E17.16154
G1 X8.831 Y-14.794 E17.27514
G1 X9.056 Y-14.444 E17.29382
G1 X10.265 Y-12.331 E17.40313
G1 X10.472 Y-11.921 E17.42375
G1 X11.432 Y-9.733 E17.53104
G1 X11.61 Y-9.258 E17.55381
G1 X12.318 Y-7.024 E17.65904
G1 X12.456 Y-6.489 E17.68385
G1 X12.904 Y-4.287 E17.78475
G1 X12.984 Y-3.791 E17.8073
G1 X13.001 Y-3.645 E17.8139
G1 X13.2 Y-1.523 E17.9096
G1 X13.204 Y-1.014 E17.93246
G1 X13.158 Y-.509 E17.95523
G1 X13.043 Y0.003 E17.97879
G1 X13.172 Y0.558 E18.00437
G1 X13.225 Y1.045 E18.02637
G1 X13.213 Y1.408 E18.04268
G1 X13.002 Y3.644 E18.14352
G1 X12.913 Y4.237 E18.17045
G1 X12.457 Y6.487 E18.27353
G1 X12.317 Y7.023 E18.2984
G1 X11.611 Y9.254 E18.40347
G1 X11.432 Y9.732 E18.42639
G1 X10.474 Y11.918 E18.53356
G1 X10.266 Y12.329 E18.55424
G1 X9.057 Y14.443 E18.66359
G1 X8.831 Y14.793 E18.6823
G1 X7.347 Y16.841 E18.79586
G1 X7.148 Y17.088 E18.8101
G1 X5.455 Y18.969 E18.92373
G1 X5.233 Y19.191 E18.93783
G1 X3.353 Y20.884 E19.05143
G1 X3.104 Y21.085 E19.06579
G1 X1.054 Y22.569 E19.17943
G1 X0.707 Y22.794 E19.198
G1 X-1.409 Y24.004 E19.30745
G1 X-1.816 Y24.21 E19.32793
G1 X-4.005 Y25.17 E19.43525
G1 X-4.48 Y25.348 E19.45803
G1 X-6.714 Y26.056 E19.56326
G1 X-7.249 Y26.194 E19.58806
G1 X-9.451 Y26.642 E19.68896
G1 X-9.947 Y26.722 E19.71152
G1 X-10.093 Y26.739 E19.71812
G1 X-12.215 Y26.938 E19.81382
G1 X-12.724 Y26.942 E19.83667
G1 X-13.229 Y26.896 E19.85944
G1 X-13.747 Y26.78 E19.88328
G1 X-14.2 Y26.594 E19.90527
G1 X-14.72 Y26.268 E19.93282
G1 X-15.1 Y25.959 E19.95482
G1 X-15.425 Y25.593 E19.97679
G1 X-15.782 Y24.997 E20.00799
G1 X-16.055 Y24.255 E20.04349
G1 X-16.091 Y24.094 E20.0509
G1 X-16.163 Y23.44 E20.08044
G1 X-16.164 Y18.965 E20.28137
G1 X-16.162 Y16.494 E20.39232
G1 X-16.122 Y16.006 E20.41431
G1 X-15.985 Y15.481 E20.43867
G1 X-15.866 Y15.15 E20.45446
G1 X-15.535 Y14.495 E20.48742
G1 X-15.231 Y14.111 E20.50941
G1 X-14.809 Y13.737 E20.53473
G1 X-14.224 Y13.359 E20.566
G1 X-13.576 Y13.113 E20.59712
G1 X-12.982 Y12.991 E20.62435
G1 X-11.906 Y12.88 E20.67292
G1 X-11.579 Y12.83 E20.68777
G1 X-10.522 Y12.606 E20.73629
G1 X-10.291 Y12.545 E20.74702
G1 X-9.201 Y12.192 E20.79846
G1 X-9.017 Y12.124 E20.80727
G1 X-7.921 Y11.636 E20.86114
G1 X-7.803 Y11.577 E20.86706
G1 X-6.642 Y10.905 E20.92729
G1 X-5.556 Y10.114 E20.98762
G1 X-4.541 Y9.199 E21.04898
G1 X-3.625 Y8.18 E21.1105
G1 X-2.817 Y7.069 E21.17219
G1 X-2.143 Y5.902 E21.2327
G1 X-2.119 Y5.855 E21.23507
G1 X-1.608 Y4.702 E21.29169
G1 X-1.566 Y4.593 E21.29694
G1 X-1.193 Y3.445 E21.35114
G1 X-1.13 Y3.21 E21.36206
G1 X-.909 Y2.159 E21.41029
G1 X-.862 Y1.859 E21.42392
G1 X-.748 Y0.756 E21.47371
G1 X-.627 Y0.167 E21.50071
G1 X-.574 Y-0.001 E21.50862
G1 X-.623 Y-.154 E21.51583
M204 S3000
G0 F1500 X-.242 Y-.276
M204 S1500
G1 F600 X-.351 Y-.8 E21.53987
G1 X-.466 Y-1.917 E21.59028
G1 X-.516 Y-2.241 E21.60501
G1 X-.735 Y-3.27 E21.65224
G1 X-.814 Y-3.577 E21.66648
G1 X-1.162 Y-4.649 E21.71708
G1 X-1.247 Y-4.881 E21.72818
G1 X-1.736 Y-5.978 E21.78211
G1 X-1.81 Y-6.129 E21.78966
G1 X-2.503 Y-7.323 E21.85165
G1 X-3.31 Y-8.431 E21.91319
G1 X-4.256 Y-9.48 E21.97662
G1 X-5.305 Y-10.424 E22.03998
G1 X-6.448 Y-11.255 E22.10344
G1 X-7.639 Y-11.942 E22.16517
G1 X-7.711 Y-11.98 E22.16883
G1 X-8.875 Y-12.497 E22.22602
G1 X-9.025 Y-12.555 E22.23324
G1 X-10.171 Y-12.926 E22.28732
G1 X-10.429 Y-12.998 E22.29935
G1 X-11.518 Y-13.224 E22.34929
G1 X-11.829 Y-13.273 E22.36343
G1 X-12.941 Y-13.388 E22.41362
G1 X-13.452 Y-13.493 E22.43705
G1 X-14.071 Y-13.729 E22.46679
G1 X-14.579 Y-14.063 E22.49409
G1 X-14.921 Y-14.364 E22.51455
G1 X-15.205 Y-14.72 E22.53499
G1 X-15.46 Y-15.188 E22.55893
G1 X-15.674 Y-15.808 E22.58838
G1 X-15.707 Y-15.966 E22.59562
G1 X-15.762 Y-16.498 E22.61964
G1 X-15.763 Y-23.436 E22.93116
G1 X-15.723 Y-23.89 E22.95163
G1 X-15.588 Y-24.403 E22.97545
G1 X-15.42 Y-24.827 E22.99592
G1 X-15.042 Y-25.385 E23.02619
G1 X-14.871 Y-25.578 E23.03776
G1 X-14.467 Y-25.948 E23.06236
G1 X-13.986 Y-26.252 E23.08791
G1 X-13.328 Y-26.474 E23.11909
G1 X-12.653 Y-26.564 E23.14967
G1 X-12.368 Y-26.552 E23.16248
G1 X-10.133 Y-26.341 E23.26328
G1 X-9.581 Y-26.259 E23.28834
