;FLAVOR:Marlin
;TIME:2217
;Filament used: 1.88379m
;Layer height: 0.2
;MINX:-16.663
;MINY:-27.44
;MINZ:0.3
;MAXX:13.723
;MAXY:27.444
;MAXZ:13.9
;Generated with Cura_SteamEngine 4.10.0
M104 S210
M105
M109 S210
M82 ;absolute extrusion mode
G21        ;metric values
G90        ;absolute positioning
M107       ;start with the fan off
G28   ;move to endstops

;Z-Offset Reset und dann Z +0,1 für PLA
;MacroZOffset0
;MacroZOffsetPlus0100

G92 E0                  ;zero the extruded length
G1 F200 E3              ;extrude 3mm of feed stock
G92 E0                  ;zero the extruded length again
G1 F150.0
;Put printing message on LCD screen
M117 Printing...
G92 E0
G92 E0
;LAYER_COUNT:70
;LAYER:0
M107
M204 S3000
G0 F6000 X13.723 Y-.153 Z0.3
M204 S1500
;TYPE:SKIRT
G1 F1200 X13.716 Y1.072 E0.05167
G1 X13.705 Y1.326 E0.0624
G1 X13.63 Y2.303 E0.10373
G1 X13.56 Y3.043 E0.13509
G1 X13.475 Y3.826 E0.16831
G1 X13.397 Y4.332 E0.1899
G1 X13.295 Y4.87 E0.213
G1 X13.086 Y5.902 E0.25742
G1 X12.94 Y6.578 E0.28659
G1 X12.77 Y7.228 E0.31493
G1 X12.619 Y7.728 E0.33696
G1 X12.295 Y8.752 E0.38227
G1 X12.045 Y9.504 E0.4157
G1 X11.857 Y9.991 E0.43772
G1 X11.646 Y10.488 E0.46049
G1 X11.197 Y11.509 E0.50754
G1 X10.86 Y12.247 E0.54176
G1 X10.619 Y12.71 E0.56378
G1 X10.426 Y13.056 E0.58049
G1 X9.818 Y14.119 E0.63215
G1 X9.499 Y14.66 E0.65864
G1 X9.217 Y15.1 E0.68069
G1 X8.938 Y15.498 E0.70119
G1 X8.136 Y16.604 E0.75882
G1 X7.718 Y17.165 E0.78833
G1 X7.16 Y17.822 E0.82469
G1 X6.299 Y18.779 E0.87899
G1 X5.789 Y19.33 E0.91066
G1 X5.21 Y19.884 E0.94446
G1 X4.163 Y20.826 E1.00387
G1 X3.636 Y21.286 E1.03338
G1 X3.011 Y21.769 E1.0667
G1 X1.842 Y22.616 E1.12759
G1 X1.309 Y22.99 E1.15506
G1 X1.08 Y23.138 E1.16656
G1 X0.228 Y23.644 E1.20836
G1 X-.562 Y24.095 E1.24673
G1 X-1.242 Y24.472 E1.27953
G1 X-1.561 Y24.632 E1.29458
G1 X-2.3 Y24.968 E1.32883
G1 X-3.126 Y25.33 E1.36687
G1 X-3.818 Y25.623 E1.39857
G1 X-4.415 Y25.847 E1.42546
G1 X-4.803 Y25.976 E1.44271
G1 X-5.816 Y26.296 E1.48752
G1 X-6.357 Y26.462 E1.51139
G1 X-6.472 Y26.495 E1.51644
G1 X-7.011 Y26.641 E1.54
G1 X-7.64 Y26.783 E1.5672
G1 X-8.698 Y26.998 E1.61274
G1 X-9.461 Y27.146 E1.64552
G1 X-10.082 Y27.234 E1.67198
G1 X-10.609 Y27.289 E1.69433
G1 X-11.572 Y27.379 E1.73513
G1 X-12.32 Y27.44 E1.76679
G1 X-12.857 Y27.444 E1.78944
G1 X-13.47 Y27.349 E1.8156
G1 X-13.674 Y27.299 E1.82446
G1 X-14.184 Y27.132 E1.8471
G1 X-14.663 Y26.892 E1.8697
G1 X-15.102 Y26.584 E1.89232
G1 X-15.522 Y26.19 E1.91661
G1 X-15.874 Y25.786 E1.93922
G1 X-16.162 Y25.334 E1.96182
G1 X-16.38 Y24.844 E1.98445
G1 X-16.536 Y24.304 E2.00816
G1 X-16.634 Y23.777 E2.03077
G1 X-16.655 Y23.438 E2.04509
G1 X-16.663 Y22.872 E2.06897
G1 X-16.662 Y17.153 E2.31021
G1 X-16.65 Y16.447 E2.34
G1 X-16.607 Y15.949 E2.36108
G1 X-16.467 Y15.056 E2.39921
G1 X-16.074 Y12.31 E2.51622
G1 X-15.762 Y9.589 E2.63175
G1 X-15.528 Y6.87 E2.74687
G1 X-15.372 Y4.146 E2.86196
G1 X-15.294 Y1.452 E2.97565
G1 X-15.292 Y-1.28 E3.09089
G1 X-15.368 Y-4.048 E3.20769
G1 X-15.518 Y-6.733 E3.32113
G1 X-15.748 Y-9.459 E3.43653
G1 X-16.051 Y-12.15 E3.55076
G1 X-16.539 Y-15.439 E3.69101
G1 X-16.619 Y-16.018 E3.71567
G1 X-16.653 Y-16.462 E3.73445
G1 X-16.662 Y-17.165 E3.76411
G1 X-16.663 Y-22.799 E4.00176
G1 X-16.653 Y-23.458 E4.02956
G1 X-16.605 Y-23.992 E4.05218
G1 X-16.425 Y-24.693 E4.08271
G1 X-16.233 Y-25.194 E4.10534
G1 X-15.969 Y-25.661 E4.12797
G1 X-15.638 Y-26.083 E4.15059
G1 X-15.16 Y-26.53 E4.1782
G1 X-14.729 Y-26.849 E4.20082
G1 X-14.255 Y-27.101 E4.22346
G1 X-13.579 Y-27.321 E4.25345
G1 X-13.378 Y-27.365 E4.26213
G1 X-12.847 Y-27.44 E4.28475
G1 X-12.33 Y-27.437 E4.30656
G1 X-11.409 Y-27.365 E4.34553
G1 X-10.669 Y-27.296 E4.37688
G1 X-9.964 Y-27.219 E4.40679
G1 X-9.415 Y-27.136 E4.43021
G1 X-8.838 Y-27.027 E4.45498
G1 X-7.778 Y-26.812 E4.50061
G1 X-7.157 Y-26.678 E4.5274
G1 X-6.514 Y-26.509 E4.55545
G1 X-6.02 Y-26.36 E4.57721
G1 X-4.987 Y-26.033 E4.62292
G1 X-4.252 Y-25.789 E4.65559
G1 X-3.733 Y-25.589 E4.67905
G1 X-3.263 Y-25.389 E4.70059
G1 X-2.231 Y-24.936 E4.74814
G1 X-1.495 Y-24.601 E4.78225
G1 X-1.016 Y-24.351 E4.80504
G1 X-.687 Y-24.168 E4.82092
G1 X0.326 Y-23.588 E4.87016
G1 X0.943 Y-23.224 E4.90038
G1 X1.533 Y-22.836 E4.93016
G1 X1.805 Y-22.644 E4.94421
G1 X2.889 Y-21.858 E5.00069
G1 X3.437 Y-21.448 E5.02956
G1 X4.069 Y-20.911 E5.06454
G1 X5.058 Y-20.018 E5.12075
G1 X5.618 Y-19.499 E5.15295
G1 X6.113 Y-18.984 E5.18309
G1 X7.096 Y-17.892 E5.24506
G1 X7.533 Y-17.392 E5.27307
G1 X8.046 Y-16.729 E5.30844
G1 X8.859 Y-15.606 E5.36692
G1 X9.285 Y-14.999 E5.3982
G1 X9.758 Y-14.222 E5.43657
G1 X10.36 Y-13.169 E5.48773
G1 X10.732 Y-12.5 E5.52002
G1 X10.894 Y-12.177 E5.53526
G1 X11.229 Y-11.44 E5.56941
G1 X11.593 Y-10.611 E5.60761
G1 X11.883 Y-9.925 E5.63902
G1 X12.105 Y-9.333 E5.66569
G1 X12.223 Y-8.979 E5.68143
G1 X12.558 Y-7.922 E5.7282
G1 X12.72 Y-7.394 E5.7515
G1 X12.916 Y-6.671 E5.7831
G1 X13.058 Y-6.034 E5.81063
G1 X13.257 Y-5.055 E5.85277
G1 X13.406 Y-4.287 E5.88577
G1 X13.496 Y-3.654 E5.91274
G1 X13.548 Y-3.159 E5.93373
G1 X13.64 Y-2.175 E5.97542
G1 X13.701 Y-1.447 E6.00624
G1 X13.714 Y-1.179 E6.01756
G1 X13.723 Y-.153 E6.06084
M204 S3000
G0 F6000 X13.323 Y-.156
M204 S1500
G1 F1200 X13.316 Y1.069 E6.11251
G1 X13.307 Y1.295 E6.12205
G1 X13.232 Y2.266 E6.16313
G1 X13.162 Y2.999 E6.19419
G1 X13.077 Y3.782 E6.22742
G1 X12.988 Y4.345 E6.25146
G1 X12.903 Y4.791 E6.27061
G1 X12.695 Y5.818 E6.31481
G1 X12.549 Y6.494 E6.34399
G1 X12.385 Y7.12 E6.37128
G1 X12.237 Y7.608 E6.39279
G1 X11.916 Y8.626 E6.43782
G1 X11.666 Y9.378 E6.47125
G1 X11.294 Y10.293 E6.51291
G1 X10.833 Y11.344 E6.56132
G1 X10.544 Y11.98 E6.59079
G1 X10.302 Y12.455 E6.61328
G1 X10.079 Y12.858 E6.63271
G1 X9.473 Y13.915 E6.6841
G1 X9.154 Y14.456 E6.71059
G1 X8.882 Y14.882 E6.73191
G1 X8.614 Y15.263 E6.75156
G1 X7.815 Y16.365 E6.80898
G1 X7.397 Y16.926 E6.83849
G1 X6.86 Y17.558 E6.87347
G1 X5.974 Y18.541 E6.92929
G1 X5.496 Y19.058 E6.959
G1 X4.939 Y19.589 E6.99146
G1 X3.938 Y20.492 E7.04832
G1 X3.373 Y20.985 E7.07995
G1 X2.772 Y21.448 E7.11196
G1 X1.612 Y22.288 E7.17237
G1 X1.079 Y22.662 E7.19984
G1 X0.876 Y22.794 E7.21005
G1 X0.029 Y23.296 E7.25158
G1 X-.756 Y23.746 E7.28975
G1 X-1.436 Y24.123 E7.32255
G1 X-1.727 Y24.268 E7.33626
G1 X-2.46 Y24.601 E7.37022
G1 X-3.282 Y24.962 E7.40809
G1 X-3.974 Y25.255 E7.43979
G1 X-4.549 Y25.47 E7.46569
G1 X-4.924 Y25.594 E7.48235
G1 X-5.933 Y25.913 E7.52698
G1 X-6.576 Y26.109 E7.55534
G1 X-7.115 Y26.255 E7.5789
G1 X-7.724 Y26.392 E7.60523
G1 X-8.793 Y26.609 E7.65124
G1 X-9.418 Y26.732 E7.67811
G1 X-10.134 Y26.837 E7.70863
G1 X-10.646 Y26.891 E7.73035
G1 X-11.605 Y26.98 E7.77098
G1 X-12.353 Y27.041 E7.80263
G1 X-12.858 Y27.043 E7.82394
G1 X-13.375 Y26.96 E7.84602
G1 X-13.579 Y26.91 E7.85488
G1 X-14.059 Y26.751 E7.87621
G1 X-14.508 Y26.519 E7.89753
G1 X-15.067 Y26.078 E7.92757
G1 X-15.241 Y25.906 E7.93789
G1 X-15.571 Y25.523 E7.95921
G1 X-15.837 Y25.093 E7.98054
G1 X-16.085 Y24.445 E8.00981
G1 X-16.149 Y24.202 E8.02041
G1 X-16.239 Y23.704 E8.04175
G1 X-16.255 Y23.432 E8.05325
G1 X-16.263 Y22.866 E8.07713
G1 X-16.263 Y17.16 E8.31782
G1 X-16.251 Y16.454 E8.3476
G1 X-16.212 Y16.011 E8.36636
G1 X-16.071 Y15.112 E8.40475
G1 X-15.673 Y12.336 E8.52304
G1 X-15.364 Y9.636 E8.63768
G1 X-15.131 Y6.926 E8.75241
G1 X-14.974 Y4.181 E8.86839
G1 X-14.894 Y1.428 E8.98457
G1 X-14.892 Y-1.291 E9.09926
G1 X-14.968 Y-4.045 E9.21547
G1 X-15.119 Y-6.756 E9.33001
G1 X-15.351 Y-9.501 E9.44621
G1 X-15.658 Y-12.225 E9.56184
G1 X-16.143 Y-15.494 E9.70125
G1 X-16.223 Y-16.073 E9.7259
G1 X-16.253 Y-16.467 E9.74257
G1 X-16.262 Y-17.165 E9.77201
G1 X-16.263 Y-22.793 E10.00942
G1 X-16.253 Y-23.452 E10.03722
G1 X-16.205 Y-23.955 E10.05853
G1 X-16.041 Y-24.578 E10.08571
G1 X-15.858 Y-25.05 E10.10706
G1 X-15.604 Y-25.486 E10.12834
G1 X-15.283 Y-25.877 E10.14968
G1 X-14.899 Y-26.227 E10.1716
G1 X-14.491 Y-26.526 E10.19294
G1 X-14.041 Y-26.757 E10.21427
G1 X-13.493 Y-26.93 E10.23851
G1 X-13.292 Y-26.974 E10.24719
G1 X-12.791 Y-27.043 E10.26853
G1 X-12.361 Y-27.038 E10.28667
G1 X-11.446 Y-26.967 E10.32538
G1 X-10.713 Y-26.898 E10.35644
G1 X-9.924 Y-26.811 E10.38992
G1 X-9.4 Y-26.727 E10.4123
G1 X-8.917 Y-26.635 E10.43304
G1 X-7.862 Y-26.421 E10.47845
G1 X-7.241 Y-26.287 E10.50525
G1 X-6.621 Y-26.124 E10.53229
G1 X-6.141 Y-25.978 E10.55346
G1 X-5.113 Y-25.653 E10.59893
G1 X-4.378 Y-25.409 E10.6316
G1 X-3.889 Y-25.221 E10.6537
G1 X-3.424 Y-25.023 E10.67502
G1 X-2.396 Y-24.572 E10.72237
G1 X-1.767 Y-24.287 E10.7515
G1 X-1.281 Y-24.04 E10.7745
G1 X-.886 Y-23.821 E10.79355
G1 X0.123 Y-23.243 E10.8426
G1 X0.74 Y-22.879 E10.87282
G1 X1.31 Y-22.504 E10.9016
G1 X1.57 Y-22.32 E10.91504
G1 X2.649 Y-21.537 E10.97127
G1 X3.197 Y-21.127 E11.00014
G1 X3.804 Y-20.611 E11.03375
G1 X4.786 Y-19.725 E11.08954
G1 X5.346 Y-19.206 E11.12174
G1 X5.818 Y-18.713 E11.15053
G1 X6.794 Y-17.629 E11.21206
G1 X7.231 Y-17.129 E11.24007
G1 X7.725 Y-16.49 E11.27414
G1 X8.531 Y-15.376 E11.33214
G1 X8.957 Y-14.769 E11.36343
G1 X9.413 Y-14.02 E11.40041
G1 X10.011 Y-12.974 E11.45124
G1 X10.383 Y-12.305 E11.48353
G1 X10.53 Y-12.011 E11.49739
G1 X10.863 Y-11.279 E11.53132
G1 X11.224 Y-10.455 E11.56926
G1 X11.555 Y-9.669 E11.60524
G1 X11.729 Y-9.199 E11.62638
G1 X11.842 Y-8.858 E11.64153
G1 X12.175 Y-7.805 E11.68812
G1 X12.337 Y-7.277 E11.71142
G1 X12.368 Y-7.17 E11.71611
G1 X12.53 Y-6.568 E11.74241
G1 X12.667 Y-5.95 E11.76911
G1 X12.865 Y-4.978 E11.81096
G1 X13.011 Y-4.222 E11.84343
G1 X13.099 Y-3.603 E11.86981
G1 X13.15 Y-3.122 E11.89021
G1 X13.242 Y-2.141 E11.93177
G1 X13.303 Y-1.413 E11.96259
G1 X13.314 Y-1.176 E11.9726
G1 X13.323 Y-.156 E12.01563
M204 S3000
;MESH:2_segment_test_print.stl
G0 F6000 X10.768 Y-1.364
G0 X9.492 Y-1.288
G0 X8.848 Y-1.675
M204 S1500
;TYPE:WALL-INNER
G1 F1200 X5.229 Y-1.674 E12.16828
G1 X3.279 Y-1.676 E12.25054
G1 X3.215 Y-2.306 E12.27725
G1 X3.127 Y-2.898 E12.3025
G1 X2.865 Y-4.122 E12.3553
G1 X2.738 Y-4.618 E12.37689
G1 X2.334 Y-5.866 E12.43223
G1 X2.173 Y-6.293 E12.45148
G1 X1.615 Y-7.548 E12.50941
G1 X1.452 Y-7.879 E12.52498
G1 X0.669 Y-9.23 E12.59084
G1 X0.562 Y-9.398 E12.59924
G1 X-.352 Y-10.652 E12.6647
G1 X-.478 Y-10.814 E12.67336
G1 X-1.645 Y-12.107 E12.74683
G1 X-2.921 Y-13.259 E12.81934
G1 X-3.032 Y-13.347 E12.82532
G1 X-4.342 Y-14.3 E12.89365
G1 X-4.52 Y-14.415 E12.90259
G1 X-5.864 Y-15.191 E12.96806
G1 X-6.123 Y-15.322 E12.9803
G1 X-7.465 Y-15.919 E13.04226
G1 X-7.789 Y-16.043 E13.05689
G1 X-9.123 Y-16.477 E13.11606
G1 X-9.548 Y-16.59 E13.13461
G1 X-10.846 Y-16.865 E13.19058
G1 X-11.359 Y-16.944 E13.21248
G1 X-12.062 Y-17.016 E13.24229
G1 X-12.063 Y-22.588 E13.47733
G1 X-12.063 Y-22.589 E13.47737
G1 X-12.063 Y-22.807 E13.48656
G1 X-11.845 Y-22.787 E13.49239
G1 X-10.533 Y-22.663 E13.54798
G1 X-10.269 Y-22.624 E13.55923
G1 X-8.104 Y-22.185 E13.65242
G1 X-7.91 Y-22.134 E13.66088
G1 X-5.777 Y-21.46 E13.75524
G1 X-5.612 Y-21.397 E13.76269
G1 X-3.502 Y-20.473 E13.85985
G1 X-3.409 Y-20.426 E13.86425
G1 X-1.371 Y-19.262 E13.96325
G1 X-1.255 Y-19.18 E13.96924
G1 X0.653 Y-17.796 E14.06867
G1 X2.445 Y-16.183 E14.17037
G1 X4.058 Y-14.391 E14.27207
G1 X5.494 Y-12.411 E14.37525
G1 X6.696 Y-10.313 E14.47724
G1 X6.735 Y-10.235 E14.48092
G1 X7.653 Y-8.144 E14.57725
G1 X7.722 Y-7.959 E14.58558
G1 X8.398 Y-5.824 E14.68004
G1 X8.444 Y-5.644 E14.68788
G1 X8.865 Y-3.569 E14.77719
G1 X8.921 Y-3.237 E14.79139
G1 X9.047 Y-1.893 E14.84833
G1 X9.067 Y-1.675 E14.85757
G1 X8.849 Y-1.675 E14.86337
G1 X8.848 Y-1.675 E14.86341
M204 S3000
G0 F6000 X9.287 Y-1.275
M204 S1500
G1 F1200 X5.229 Y-1.274 E15.03459
G1 X2.918 Y-1.276 E15.13207
G1 X2.818 Y-2.256 E15.17362
G1 X2.733 Y-2.827 E15.19797
G1 X2.476 Y-4.031 E15.24991
G1 X2.354 Y-4.507 E15.27063
G1 X1.956 Y-5.734 E15.32505
G1 X1.803 Y-6.141 E15.34339
G1 X1.253 Y-7.378 E15.40049
G1 X1.099 Y-7.69 E15.41517
G1 X0.327 Y-9.022 E15.48011
G1 X0.231 Y-9.173 E15.48766
G1 X-.671 Y-10.411 E15.55227
G1 X-.785 Y-10.557 E15.56008
G1 X-1.928 Y-11.824 E15.63206
G1 X-3.18 Y-12.954 E15.7032
G1 X-3.274 Y-13.029 E15.70828
G1 X-4.568 Y-13.97 E15.77577
G1 X-4.729 Y-14.074 E15.78385
G1 X-6.054 Y-14.839 E15.84839
G1 X-6.294 Y-14.96 E15.85973
G1 X-7.618 Y-15.549 E15.92085
G1 X-7.923 Y-15.666 E15.93463
G1 X-9.236 Y-16.093 E15.99287
G1 X-9.641 Y-16.201 E16.01055
G1 X-10.918 Y-16.471 E16.06561
G1 X-11.41 Y-16.547 E16.08661
G1 X-12.462 Y-16.655 E16.13122
G1 X-12.463 Y-23.027 E16.40001
G1 X-12.463 Y-23.028 E16.40005
G1 X-12.463 Y-23.246 E16.40924
G1 X-12.245 Y-23.226 E16.41507
G1 X-10.474 Y-23.059 E16.4901
G1 X-10.205 Y-23.019 E16.50158
G1 X-8.006 Y-22.573 E16.59622
G1 X-7.807 Y-22.52 E16.60491
G1 X-5.635 Y-21.834 E16.70099
G1 X-5.464 Y-21.769 E16.70871
G1 X-3.332 Y-20.835 E16.80689
G1 X-3.229 Y-20.783 E16.81176
G1 X-1.149 Y-19.595 E16.9128
G1 X-1.02 Y-19.504 E16.91946
G1 X0.904 Y-18.109 E17.0197
G1 X2.728 Y-16.466 E17.12326
G1 X4.371 Y-14.642 E17.22681
G1 X5.829 Y-12.631 E17.33159
G1 X5.853 Y-12.592 E17.33352
G1 X7.054 Y-10.492 E17.43556
G1 X7.093 Y-10.414 E17.43924
G1 X8.028 Y-8.284 E17.53737
G1 X8.097 Y-8.099 E17.54569
G1 X8.786 Y-5.923 E17.64197
G1 X8.832 Y-5.743 E17.64981
G1 X9.257 Y-3.649 E17.73994
G1 X9.318 Y-3.286 E17.75547
G1 X9.486 Y-1.493 E17.83143
G1 X9.506 Y-1.275 E17.84067
G1 X9.288 Y-1.275 E17.84647
G1 X9.287 Y-1.275 E17.84651
M204 S3000
G0 F6000 X9.671 Y-.875
M204 S1500
;TYPE:WALL-OUTER
G1 F1200 X5.229 Y-.874 E18.03388
G1 X2.801 Y-.876 E18.1363
G1 X2.697 Y-.898 E18.14078
G1 X2.57 Y-1.004 E18.14776
G1 X2.531 Y-1.129 E18.15329
G1 X2.421 Y-2.206 E18.19895
G1 X2.339 Y-2.756 E18.22241
G1 X2.087 Y-3.94 E18.27347
G1 X1.97 Y-4.395 E18.29329
G1 X1.578 Y-5.602 E18.34682
G1 X1.433 Y-5.989 E18.36425
G1 X0.891 Y-7.208 E18.42053
G1 X0.746 Y-7.501 E18.43432
G1 X-0.015 Y-8.814 E18.49833
G1 X-.1 Y-8.948 E18.50503
G1 X-.99 Y-10.17 E18.56879
G1 X-1.091 Y-10.299 E18.57571
G1 X-2.211 Y-11.541 E18.64625
G1 X-3.44 Y-12.649 E18.71605
G1 X-3.517 Y-12.711 E18.72022
G1 X-4.794 Y-13.64 E18.78683
G1 X-4.937 Y-13.732 E18.79401
G1 X-6.245 Y-14.487 E18.85771
G1 X-6.466 Y-14.599 E18.86816
G1 X-7.771 Y-15.179 E18.9284
G1 X-8.057 Y-15.289 E18.94133
G1 X-9.35 Y-15.709 E18.99868
G1 X-9.734 Y-15.812 E19.01545
G1 X-10.99 Y-16.077 E19.06959
G1 X-11.461 Y-16.15 E19.0897
G1 X-12.606 Y-16.268 E19.13825
G1 X-12.803 Y-16.358 E19.14739
G1 X-12.862 Y-16.512 E19.15435
G1 X-12.863 Y-23.395 E19.44469
G1 X-12.863 Y-23.418 E19.44566
G1 X-12.805 Y-23.575 E19.45272
G1 X-12.6 Y-23.661 E19.46209
G1 X-12.578 Y-23.659 E19.46302
G1 X-10.415 Y-23.455 E19.55467
G1 X-10.141 Y-23.414 E19.56636
G1 X-7.913 Y-22.962 E19.66225
G1 X-7.705 Y-22.907 E19.67133
G1 X-5.499 Y-22.21 E19.76892
G1 X-5.322 Y-22.143 E19.7769
G1 X-3.155 Y-21.194 E19.87669
G1 X-3.047 Y-21.139 E19.8818
G1 X-.936 Y-19.933 E19.98436
G1 X-.785 Y-19.828 E19.99211
G1 X1.155 Y-18.422 E20.09318
G1 X3.011 Y-16.749 E20.19858
G1 X4.684 Y-14.893 E20.30398
G1 X6.158 Y-12.858 E20.40998
G1 X6.191 Y-12.806 E20.41257
G1 X7.401 Y-10.691 E20.51536
G1 X7.455 Y-10.585 E20.52038
G1 X8.403 Y-8.424 E20.61992
G1 X8.472 Y-8.239 E20.62825
G1 X9.167 Y-6.044 E20.72537
G1 X9.224 Y-5.822 E20.73503
G1 X9.651 Y-3.716 E20.82568
G1 X9.715 Y-3.337 E20.84189
G1 X9.917 Y-1.185 E20.93307
G1 X9.917 Y-1.178 E20.93336
G1 X9.9 Y-1.02 E20.94006
G1 X9.763 Y-.896 E20.94786
G1 X9.679 Y-.875 E20.95151
G1 X9.671 Y-.875 E20.95185
M204 S3000
G0 F6000 X9.471 Y-.875
G0 X9.471 Y-1.375
G0 X8.639 Y-2.065
M204 S1500
;TYPE:SKIN
G1 F1200 X4.234 Y-2.065 E21.13766
G1 X3.632 Y-2.066 E21.16305
G1 X3.603 Y-2.355 E21.17531
G1 X3.511 Y-2.968 E21.20145
G1 X3.245 Y-4.212 E21.25511
G1 X3.113 Y-4.727 E21.27754
G1 X2.702 Y-5.995 E21.33377
G1 X2.534 Y-6.441 E21.35387
G1 X1.968 Y-7.714 E21.41264
G1 X1.796 Y-8.063 E21.42905
G1 X1.002 Y-9.433 E21.49584
G1 X0.884 Y-9.618 E21.5051
G1 X-0.04 Y-10.886 E21.57128
G1 X-.179 Y-11.065 E21.58084
G1 X-1.368 Y-12.384 E21.65575
G1 X-2.669 Y-13.557 E21.72964
G1 X-2.796 Y-13.657 E21.73646
G1 X-4.121 Y-14.622 E21.8056
G1 X-4.317 Y-14.748 E21.81543
G1 X-5.678 Y-15.534 E21.88173
G1 X-5.955 Y-15.675 E21.89484
G1 X-7.316 Y-16.28 E21.95766
G1 X-7.658 Y-16.411 E21.97311
G1 X-9.012 Y-16.851 E22.03317
G1 X-9.458 Y-16.97 E22.05264
G1 X-10.776 Y-17.249 E22.10947
G1 X-11.31 Y-17.331 E22.13226
G1 X-11.672 Y-17.368 E22.14761
