;FLAVOR:Marlin
;TIME:4403
;Filament used: 2.25689m
;Layer height: 0.2
;MINX:116.814
;MINY:43.295
;MINZ:0.3
;MAXX:183.196
;MAXY:106.343
;MAXZ:9.3
;Generated with Cura_SteamEngine 4.10.0
M104 S228
M105
M109 S228
M82 ;absolute extrusion mode
G28 ; home all axes
 M117 Purge extruder
 G92 E0 ; reset extruder
 G1 Z1.0 F3000 ; move z up little to prevent scratching of surface
 G1 X2 Y20 Z0.3 F5000.0 ; move to start-line position
 G1 X2 Y200.0 Z0.3 F1500.0 E15 ; draw 1st line
 G1 X2 Y200.0 Z0.4 F5000.0 ; move to side a little
 G1 X2 Y20 Z0.4 F1500.0 E30 ; draw 2nd line
 G92 E0 ; reset extruder
 G1 Z1.0 F3000 ; move z up little to prevent scratching of surface
G92 E0
G92 E0
G1 F2400 E-1.6
;LAYER_COUNT:47
;LAYER:0
M106 S89.3
;MESH:QuarterInchSocketClip.stl(4)
G0 F6000 X123.775 Y72.807 Z0.3
;TYPE:WALL-INNER
G1 F2400 E0
G1 F900 X123.775 Y73.085 E0.01629
G1 X123.775 Y73.086 E0.01634
G1 X123.775 Y74.418 E0.09437
G1 X123.761 Y74.608 E0.10553
G1 X123.751 Y74.638 E0.10739
G1 X123.662 Y74.925 E0.12499
G1 X123.488 Y75.176 E0.14288
G1 X123.275 Y75.347 E0.15888
G1 X123.275 Y75.176 E0.15974
G1 X123.275 Y74.925 E0.16784
G1 X123.275 Y74.624 E0.1838
G1 X123.275 Y72.884 E0.28573
G1 X123.499 Y72.849 E0.29901
G1 X123.5 Y72.848 E0.29909
G1 X123.775 Y72.807 E0.30922
G0 F6000 X124.175 Y60.154
G1 F900 X124.289 Y60.341 E0.32205
G1 X124.609 Y60.707 E0.35053
G1 X125.032 Y61.033 E0.38181
G1 X125.142 Y61.078 E0.38877
G1 X125.208 Y61.105 E0.39295
G1 X125.192 Y61.131
G1 X124.984 Y61.466 E0.40962
G1 X124.822 Y61.93 E0.43841
G1 X124.817 Y61.984 E0.44159
G1 X124.775 Y62.357 E0.46358
G1 X124.775 Y63.082 E0.50605
G1 X124.827 Y63.514 E0.53154
G1 X124.989 Y63.98 E0.56044
G1 X125.194 Y64.303 E0.58285
G1 X125.209 Y64.326 E0.58446
G1 X125.189 Y64.337
G1 X124.814 Y64.546 E0.6032
G1 X124.441 Y64.9 E0.63332
G1 X124.175 Y65.261 E0.65959
G1 X124.175 Y64.9 E0.66447
G1 X124.175 Y60.707 E0.908
G1 X124.175 Y60.341 E0.91944
G1 X124.175 Y60.154 E0.92033
G0 F6000 X123.746 Y50.734
G1 F900 X123.753 Y50.808 E0.92469
G1 X123.775 Y51.007 E0.93642
G1 X123.775 Y52.352 E1.01521
G1 X123.775 Y52.353 E1.01527
G1 X123.775 Y52.635 E1.03179
G1 X123.496 Y52.588 E1.04203
G1 X123.275 Y52.55 E1.05516
G1 X123.275 Y50.809 E1.15715
G1 X123.275 Y50.734 E1.16151
G1 X123.275 Y50.46 E1.17756
G1 X123.275 Y50.198 E1.19291
G1 X123.275 Y50.09 E1.19924
G1 X123.431 Y50.198 E1.2038
G1 X123.642 Y50.46 E1.216
G1 X123.746 Y50.734 E1.23112
G0 F6000 X124.218 Y50.636
G1 F900 X124.255 Y50.984 E1.25163
G1 X124.256 Y58.869 E1.71354
G1 X124.326 Y59.343 E1.74161
G1 X124.472 Y59.719 E1.76523
G1 X124.677 Y60.056 E1.78834
G1 X124.939 Y60.355 E1.81163
G1 X125.274 Y60.613 E1.8364
G1 X125.605 Y60.749 E1.85736
G1 X125.694 Y60.785 E1.86299
G1 X125.922 Y60.807 E1.87641
G1 X125.939 Y60.809 E1.87741
G1 X126.221 Y60.809 E1.89393
G1 X126.38 Y60.809 E1.90324
G1 X126.221 Y60.866 E1.90419
G1 X126.046 Y60.977 E1.90623
G1 X125.897 Y61.072 E1.91049
G1 X125.83 Y61.139 E1.91604
G1 X125.624 Y61.345 E1.93311
G1 X125.42 Y61.674 E1.95579
G1 X125.293 Y62.037 E1.97832
G1 X125.255 Y62.383 E1.99871
G1 X125.255 Y63.053 E2.03796
G1 X125.297 Y63.405 E2.05872
G1 X125.424 Y63.769 E2.08131
G1 X125.632 Y64.096 E2.10401
G1 X125.756 Y64.219 E2.11424
G1 X125.907 Y64.368 E2.12667
G1 X126.029 Y64.444 E2.13509
G1 X126.233 Y64.572 E2.1492
G1 X126.38 Y64.622 E2.15829
G1 X126.234 Y64.622 E2.1586
G1 X125.918 Y64.623 E2.1657
G1 X125.71 Y64.663 E2.17553
G1 X125.528 Y64.698 E2.18638
G1 X125.1 Y64.936 E2.21507
G1 X124.802 Y65.219 E2.23915
G1 X124.567 Y65.538 E2.26236
G1 X124.391 Y65.892 E2.28552
G1 X124.284 Y66.274 E2.30876
G1 X124.255 Y66.6 E2.32793
G1 X124.255 Y74.441 E2.78726
G1 X124.236 Y74.696 E2.80224
G1 X124.098 Y75.139 E2.82942
G1 X123.843 Y75.507 E2.85565
G1 X123.495 Y75.786 E2.88178
G1 X123.071 Y75.954 E2.9085
G1 X122.693 Y75.996 E2.93078
G1 X118.195 Y75.996 E3.19427
G1 X118.195 Y75.014 E3.2518
G1 X118.689 Y74.52 E3.29273
G1 X118.77 Y74.439 E3.29944
G1 X118.885 Y74.468 E3.30639
G1 X119.039 Y74.638 E3.31982
G1 X119.052 Y74.692 E3.32308
G1 X119.056 Y74.807 E3.32917
G1 X119.082 Y75.486 E3.36897
G1 X122.795 Y75.486 E3.58649
G1 X122.795 Y72.762 E3.74606
G1 X122.818 Y72.629 E3.75397
G1 X122.98 Y72.452 E3.76802
G1 X123.024 Y72.437 E3.77075
G1 X123.695 Y72.334 E3.81052
G1 X123.695 Y53.108 E4.9368
G1 X123.044 Y52.997 E4.97548
G1 X122.861 Y52.889 E4.98793
G1 X122.795 Y52.668 E5.00144
G1 X122.795 Y50.185 E5.1469
G1 X122.795 Y49.946 E5.1609
G1 X122.556 Y49.946 E5.16996
G1 X119.055 Y49.947 E5.37506
G1 X119.055 Y50.61 E5.4139
G1 X119.055 Y50.664 E5.41706
G1 X118.991 Y50.883 E5.43043
G1 X118.831 Y50.983 E5.44148
G1 X118.763 Y50.986 E5.44547
G1 X118.748 Y50.971
G1 X118.71 Y50.933 E5.44848
G1 X118.195 Y50.418 E5.49114
G1 X118.195 Y49.436 E5.54867
G1 X122.695 Y49.436 E5.81228
G1 X122.957 Y49.455 E5.82767
G1 X123.4 Y49.594 E5.85487
G1 X123.763 Y49.844 E5.88069
G1 X124.05 Y50.202 E5.90757
G1 X124.143 Y50.396 E5.92017
G1 X124.218 Y50.636 E5.9349
G0 F6000 X124.687 Y50.528
;TYPE:WALL-OUTER
G1 F900 X124.729 Y50.808 E5.95149
G1 X124.735 Y50.966 E5.96075
G1 X124.736 Y58.834 E6.42167
G1 X124.793 Y59.22 E6.44453
G1 X124.904 Y59.506 E6.4625
G1 X125.065 Y59.771 E6.48066
G1 X125.269 Y60.003 E6.49876
G1 X125.516 Y60.193 E6.51701
G1 X125.811 Y60.314 E6.53569
G1 X125.963 Y60.329 E6.54464
G1 X130.992 Y60.332 E6.83925
G1 X133.26 Y60.329 E6.97211
G1 X133.26 Y61.176 E7.02173
G1 X126.967 Y61.176 E7.39038
G1 X126.695 Y61.207 E7.40641
G1 X126.433 Y61.3 E7.4227
G1 X126.199 Y61.449 E7.43895
G1 X126.003 Y61.645 E7.45519
G1 X125.856 Y61.882 E7.47153
G1 X125.764 Y62.144 E7.48779
G1 X125.735 Y62.409 E7.50341
G1 X125.735 Y63.025 E7.5395
G1 X125.767 Y63.296 E7.55548
G1 X125.859 Y63.558 E7.57175
G1 X126.008 Y63.793 E7.58805
G1 X126.207 Y63.989 E7.60441
G1 X126.441 Y64.136 E7.6206
G1 X126.707 Y64.227 E7.63707
G1 X126.967 Y64.256 E7.65239
G1 X133.26 Y64.256 E8.02105
G1 X133.26 Y65.104 E8.07072
G1 X130.993 Y65.099 E8.20353
G1 X128.484 Y65.099 E8.35051
G1 X125.964 Y65.103 E8.49813
G1 X125.694 Y65.155 E8.51424
G1 X125.386 Y65.326 E8.53487
G1 X125.163 Y65.538 E8.5529
G1 X124.978 Y65.789 E8.57117
G1 X124.841 Y66.065 E8.58922
G1 X124.758 Y66.361 E8.60723
G1 X124.735 Y66.621 E8.62252
G1 X124.735 Y74.465 E9.08203
G1 X124.713 Y74.764 E9.09959
G1 X124.647 Y75.055 E9.11707
G1 X124.534 Y75.342 E9.13514
G1 X124.387 Y75.596 E9.15233
G1 X124.194 Y75.836 E9.17037
G1 X123.978 Y76.038 E9.1877
G1 X123.734 Y76.204 E9.20498
G1 X123.455 Y76.338 E9.22312
G1 X123.174 Y76.424 E9.24033
G1 X122.871 Y76.469 E9.25828
G1 X122.715 Y76.476 E9.26742
G1 X117.715 Y76.476 E9.56033
G1 X117.715 Y74.816 E9.65757
G1 X118.575 Y73.956 E9.72882
G1 X118.866 Y73.961 E9.74587
G1 X119.113 Y74.035 E9.76098
G1 X119.371 Y74.245 E9.78046
G1 X119.492 Y74.465 E9.79517
G1 X119.53 Y74.632 E9.8052
G1 X119.544 Y75.006 E9.82713
G1 X122.315 Y75.006 E9.98946
G1 X122.315 Y72.719 E10.12343
G1 X122.362 Y72.45 E10.13943
G1 X122.545 Y72.168 E10.15912
G1 X122.763 Y72.019 E10.17459
G1 X122.913 Y71.968 E10.18387
G1 X123.215 Y71.922 E10.20177
G1 X123.215 Y53.513 E11.28019
G1 X122.909 Y53.461 E11.29837
G1 X122.675 Y53.366 E11.31316
G1 X122.48 Y53.193 E11.32844
G1 X122.357 Y52.967 E11.34351
G1 X122.315 Y52.708 E11.35888
G1 X122.315 Y50.426 E11.49256
G1 X119.535 Y50.427 E11.65542
G1 X119.535 Y50.706 E11.67176
G1 X119.492 Y50.966 E11.6872
G1 X119.371 Y51.188 E11.70201
G1 X119.17 Y51.364 E11.71766
G1 X118.937 Y51.458 E11.73238
G1 X118.575 Y51.476 E11.75361
G1 X117.715 Y50.616 E11.82486
G1 X117.715 Y48.956 E11.9221
G1 X122.718 Y48.956 E12.21519
G1 X123.027 Y48.979 E12.23334
G1 X123.323 Y49.047 E12.25113
G1 X123.605 Y49.158 E12.26888
G1 X123.86 Y49.307 E12.28618
G1 X124.091 Y49.492 E12.30352
G1 X124.291 Y49.706 E12.32068
G1 X124.468 Y49.963 E12.33896
G1 X124.593 Y50.224 E12.35591
G1 X124.687 Y50.528 E12.37455
G0 F6000 X124.173 Y50.645
G0 X123.173 Y49.916
G0 X123.091 Y49.834
;TYPE:SKIN
G1 F900 X122.664 Y49.69 E12.37978
G1 X118.987 Y49.691 E12.42245
G1 X118.752 Y49.738 E12.42523
G0 F6000 X118.624 Y49.893
G1 F900 X118.624 Y50.176 E12.43606
G1 X118.619 Y50.454 E12.44671
G1 X119.266 Y50.818 E12.47512
G1 X119.026 Y51.144 E12.49062
G0 F6000 X119.003 Y51.112
G0 X119.307 Y50.199
G0 X122.543 Y50.198
G0 X122.548 Y51.455
G0 X123.909 Y52.915
G0 X123.974 Y52.98
G1 F900 X123.974 Y53.263 E12.4959
G1 X123.984 Y58.93 E12.60171
G1 X124.084 Y59.596 E12.61428
G1 X124.032 Y59.827 E12.61871
G0 F6000 X123.909 Y59.703
G0 X124.285 Y61.032
G0 X124.581 Y61.224
G1 F900 X124.762 Y61.122 E12.62605
G1 X124.507 Y61.716 E12.64892
G1 X124.48 Y63.103 E12.698
G1 X124.605 Y64.077 E12.73273
G1 X124.446 Y64.483 E12.74816
G0 F6000 X124.311 Y65.479
G1 F900 X124.095 Y65.546 E12.75227
G1 X123.974 Y66.557 E12.7708
G1 X123.974 Y72.496 E12.87889
G0 F6000 X124.039 Y72.561
G0 X122.749 Y72.404
G0 X122.75 Y72.404
G1 F900 X122.687 Y72.341 E12.88106
G0 F6000 X122.759 Y72.389
G0 X123.59 Y73.022
G0 X124.378 Y74.89
G0 X124.419 Y74.922
G1 F900 X124.141 Y75.492 E12.88513
G1 X123.871 Y75.788 E12.88771
G1 X123.34 Y76.105 E12.89167
G1 X123.1 Y75.583 E12.89536
G0 F6000 X123.009 Y75.491
G0 X119.324 Y75.234
G0 X119.174 Y74.508
G0 X119.156 Y74.467
G1 F900 X118.761 Y74.921 E12.91567
G1 X118.59 Y75.598 E12.93923
G1 X118.449 Y75.74 E12.94599
G0 F6000 X118.489 Y75.78
G0 X122.543 Y75.234
G0 X123.445 Y72.12
G0 X123.435 Y67.873
G0 X125.565 Y64.471
G1 F900 X125.488 Y64.394 E12.94864
G0 F6000 X126.579 Y64.636
G1 F900 X126.828 Y64.886 E12.95726
G0 F6000 X126.887 Y64.661
G1 F900 X127.186 Y64.678 E12.9726
G1 X132.84 Y64.675 E13.26225
G1 X132.981 Y64.533 E13.2725
G0 F6000 X132.919 Y64.556
G0 X126.655 Y64.462
G0 X126.058 Y64.178
G0 X125.642 Y63.663
G0 X125.496 Y63.039
G0 X125.529 Y62.091
G0 X125.814 Y61.496
G0 X126.328 Y61.084
G0 X126.834 Y60.966
G0 X132.802 Y60.876
G0 X132.594 Y60.752
G1 F900 X132.312 Y60.753 E13.28796
G1 X126.937 Y60.752 E13.58261
G1 X126.713 Y60.811 E13.59531
G0 F6000 X126.863 Y60.886
G0 X125.576 Y61.088
G1 F900 X125.5 Y61.012 E13.59793
G0 F6000 X132.669 Y60.63
G0 X132.857 Y60.732
G1 F900 X132.998 Y60.59 E13.61395
G1 F2400 E12.01395
;MESH:QuarterInchSocketClip.stl(5)
G0 F6000 X132.952 Y60.63
G0 X133.046 Y55.099
G0 X134.309 Y54.174
G0 X134.445 Y53.859
;TYPE:WALL-INNER
G1 F2400 E13.61395
G1 F900 X134.481 Y54.083 E13.62724
G1 X134.524 Y54.359 E13.64361
G1 X134.245 Y54.359 E13.65374
G1 X134.244 Y54.359 E13.6538
G1 X132.921 Y54.359 E13.7313
G1 X132.777 Y54.337 E13.73984
G1 X132.544 Y54.303 E13.75363
G1 X132.272 Y54.17 E13.77137
G1 X132.048 Y53.962 E13.78927
G1 X131.989 Y53.859 E13.79623
G1 X132.048 Y53.859
G1 X132.272 Y53.859 E13.80115
G1 X132.544 Y53.859 E13.81218
G1 X132.78 Y53.859 E13.8255
G1 X134.445 Y53.859 E13.92303
G0 F6000 X135.065 Y53.996
G0 X147.171 Y54.759
G1 F900 X146.984 Y54.873 E13.93586
G1 X146.62 Y55.196 E13.96437
G1 X146.296 Y55.615 E13.9954
G1 X146.25 Y55.728 E14.00255
G1 X146.223 Y55.792 E14.00662
G1 X146.197 Y55.776
G1 X145.861 Y55.568 E14.02338
G1 X145.397 Y55.406 E14.05217
G1 X145.343 Y55.401 E14.05535
G1 X144.971 Y55.359 E14.07728
G1 X144.247 Y55.359 E14.11969
G1 X143.813 Y55.411 E14.1453
G1 X143.35 Y55.573 E14.17403
G1 X143.023 Y55.78 E14.1967
G1 X143.001 Y55.794 E14.19823
G1 X142.99 Y55.774
G1 X142.781 Y55.399 E14.21699
G1 X142.427 Y55.025 E14.24715
G1 X142.066 Y54.759 E14.27342
G1 X142.427 Y54.759 E14.2783
G1 X146.62 Y54.759 E14.52185
G1 X146.984 Y54.759 E14.53327
G1 X147.171 Y54.759 E14.53416
G0 F6000 X156.508 Y53.859
G1 F900 X156.582 Y53.859 E14.53849
G1 X156.888 Y53.859 E14.55642
G1 X157.129 Y53.859 E14.57054
G1 X157.236 Y53.859 E14.57681
G1 X157.129 Y54.016 E14.58141
G1 X156.888 Y54.21 E14.59239
G1 X156.582 Y54.33 E14.60904
G1 X156.509 Y54.337 E14.6133
G1 X156.313 Y54.359 E14.62486
G1 X154.98 Y54.359 E14.70295
G1 X154.979 Y54.359 E14.70301
G1 X154.7 Y54.359 E14.71935
G1 X154.744 Y54.083 E14.7295
G1 X154.78 Y53.859 E14.74279
G1 X156.508 Y53.859 E14.84402
G0 F6000 X157.13 Y53.127
G0 X157.129 Y49.891
G0 X156.367 Y49.478
G1 F900 X156.336 Y49.353 E14.85157
G1 X156.355 Y49.334 E14.85314
G1 X156.394 Y49.295 E14.85637
G1 X156.91 Y48.779 E14.89912
G1 X157.892 Y48.779 E14.95665
G1 X157.892 Y53.277 E15.22014
G1 X157.873 Y53.538 E15.23547
G1 X157.738 Y53.975 E15.26227
G1 X157.485 Y54.345 E15.28852
G1 X157.132 Y54.63 E15.3151
G1 X156.699 Y54.8 E15.34235
G1 X156.365 Y54.835 E15.36203
G1 X156.336 Y54.839 E15.36374
G1 X148.458 Y54.84 E15.82524
G1 X147.984 Y54.91 E15.85331
G1 X147.608 Y55.055 E15.87692
G1 X147.27 Y55.261 E15.90011
G1 X146.972 Y55.525 E15.92343
G1 X146.715 Y55.858 E15.94807
G1 X146.577 Y56.191 E15.96919
G1 X146.54 Y56.281 E15.97489
G1 X146.521 Y56.503 E15.98794
G1 X146.519 Y56.527 E15.98935
G1 X146.519 Y56.805 E16.00564
G1 X146.518 Y56.966 E16.01507
G1 X146.462 Y56.805 E16.01605
G1 X146.353 Y56.634 E16.01795
G1 X146.255 Y56.481 E16.02392
G1 X146.186 Y56.412 E16.02964
G1 X145.982 Y56.208 E16.04654
G1 X145.653 Y56.004 E16.06922
G1 X145.29 Y55.877 E16.09175
G1 X144.945 Y55.839 E16.11208
G1 X144.275 Y55.839 E16.15133
G1 X143.922 Y55.881 E16.17215
G1 X143.56 Y56.008 E16.19463
G1 X143.232 Y56.215 E16.21735
G1 X143.108 Y56.341 E16.2277
G1 X142.96 Y56.492 E16.24009
G1 X142.885 Y56.612 E16.24838
G1 X142.756 Y56.818 E16.26262
G1 X142.705 Y56.965 E16.27173
G1 X142.705 Y56.818 E16.27208
G1 X142.705 Y56.5 E16.27926
G1 X142.664 Y56.292 E16.28911
G1 X142.628 Y56.111 E16.29992
G1 X142.391 Y55.685 E16.32848
G1 X142.108 Y55.386 E16.3526
G1 X141.789 Y55.151 E16.37581
G1 X141.436 Y54.976 E16.39889
G1 X141.053 Y54.868 E16.4222
G1 X140.728 Y54.839 E16.44132
G1 X132.883 Y54.839 E16.90089
G1 X132.403 Y54.767 E16.92932
G1 X131.995 Y54.568 E16.95591
G1 X131.67 Y54.266 E16.9819
G1 X131.437 Y53.864 E17.00912
G1 X131.337 Y53.422 E17.03567
G1 X131.332 Y53.291 E17.04335
G1 X131.332 Y48.779 E17.30767
G1 X132.314 Y48.779 E17.36519
G1 X132.807 Y49.272 E17.40604
G1 X132.888 Y49.353 E17.41275
G1 X132.861 Y49.465 E17.41949
G1 X132.776 Y49.57 E17.42741
G1 X132.637 Y49.636 E17.43642
G1 X132.522 Y49.64 E17.44251
G1 X131.842 Y49.666 E17.48238
G1 X131.842 Y53.379 E17.69989
G1 X134.578 Y53.379 E17.86017
G1 X134.696 Y53.401 E17.8672
G1 X134.875 Y53.562 E17.8813
G1 X134.891 Y53.608 E17.88416
G1 X134.918 Y53.784 E17.89459
G1 X134.997 Y54.279 E17.92395
G1 X154.227 Y54.279 E19.05047
G1 X154.331 Y53.623 E19.08938
G1 X154.439 Y53.444 E19.10162
G1 X154.662 Y53.379 E19.11523
G1 X157.143 Y53.379 E19.26057
G1 X157.382 Y53.379 E19.27457
G1 X157.382 Y53.14 E19.28364
G1 X157.381 Y49.639 E19.48873
G1 X156.717 Y49.639 E19.52763
G1 X156.661 Y49.639 E19.53076
G1 X156.528 Y49.616 E19.53773
G1 X156.367 Y49.478 E19.55015
G0 F6000 X155.926 Y49.685
;TYPE:WALL-OUTER
G1 F900 X155.857 Y49.443 E19.56489
G1 X155.852 Y49.159 E19.58153
G1 X156.712 Y48.299 E19.65278
G1 X158.372 Y48.299 E19.75002
G1 X158.372 Y53.3 E20.04299
G1 X158.349 Y53.608 E20.06108
G1 X158.28 Y53.909 E20.07917
G1 X158.169 Y54.189 E20.09681
G1 X158.017 Y54.45 E20.11451
G1 X157.835 Y54.676 E20.13151
G1 X157.613 Y54.881 E20.14921
G1 X157.369 Y55.049 E20.16656
G1 X157.094 Y55.181 E20.18443
G1 X156.804 Y55.27 E20.2022
G1 X156.52 Y55.313 E20.21903
G1 X156.353 Y55.319 E20.22882
G1 X148.493 Y55.32 E20.68926
G1 X148.107 Y55.377 E20.71212
G1 X147.821 Y55.487 E20.73007
G1 X147.556 Y55.649 E20.74827
G1 X147.324 Y55.854 E20.7664
G1 X147.134 Y56.1 E20.78461
G1 X147.012 Y56.396 E20.80337
G1 X146.999 Y56.548 E20.81231
G1 X146.995 Y59.067 E20.95987
G1 X146.995 Y61.576 E21.10685
G1 X146.999 Y63.844 E21.23971
G1 X146.152 Y63.844 E21.28933
G1 X146.152 Y57.55 E21.65804
G1 X146.12 Y57.279 E21.67403
G1 X146.028 Y57.017 E21.69029
G1 X145.879 Y56.784 E21.70649
G1 X145.682 Y56.587 E21.72282
G1 X145.445 Y56.44 E21.73915
G1 X145.183 Y56.348 E21.75542
G1 X144.919 Y56.319 E21.77098
G1 X144.303 Y56.319 E21.80706
G1 X144.031 Y56.351 E21.82311
G1 X143.77 Y56.443 E21.83932
G1 X143.535 Y56.591 E21.85559
G1 X143.339 Y56.791 E21.87199
G1 X143.192 Y57.026 E21.88823
G1 X143.101 Y57.29 E21.90459
G1 X143.072 Y57.552 E21.92003
G1 X143.072 Y63.844 E22.28862
G1 X142.224 Y63.844 E22.3383
G1 X142.228 Y61.576 E22.47116
G1 X142.225 Y56.547 E22.76577
G1 X142.172 Y56.278 E22.78183
G1 X142.001 Y55.971 E22.80241
G1 X141.789 Y55.747 E22.82048
G1 X141.538 Y55.562 E22.83875
G1 X141.263 Y55.426 E22.85672
G1 X140.966 Y55.342 E22.8748
