;FLAVOR:Marlin
;TIME:4066
;Filament used: 2.86009m
;Layer height: 0.2
;MINX:97.75
;MINY:204.424
;MINZ:0.3
;MAXX:161.862
;MAXY:257.265
;MAXZ:12.7
;Generated with Cura_SteamEngine 4.10.0
M104 S230
M105
M109 S230
M82 ;absolute extrusion mode
G28 ; home all axes
 M117 Purge extruder
 G92 E0 ; reset extruder
 G1 Z1.0 F3000 ; move z up little to prevent scratching of surface
 G1 X2 Y20 Z0.3 F5000.0 ; move to start-line position
 G1 X2 Y200.0 Z0.3 F1500.0 E15 ; draw 1st line
 G1 X2 Y200.0 Z0.4 F5000.0 ; move to side a little
 G1 X2 Y20 Z0.4 F1500.0 E30 ; draw 2nd line
 G92 E0 ; reset extruder
 G1 Z1.0 F3000 ; move z up little to prevent scratching of surface
G92 E0
G92 E0
G1 F1500 E-2
;LAYER_COUNT:63
;LAYER:0
M107
M204 S2500
;MESH:HalfInchSocketClip.stl(2)
G0 F6000 X116.383 Y223.106 Z0.3
;TYPE:WALL-INNER
G1 F1500 E0
G1 F600 X116.196 Y223.141 E0.01316
G1 X116.196 Y223.106
G1 X116.196 Y222.944 E0.01714
G1 X116.196 Y222.856 E0.02322
G1 X116.196 Y211.793 E0.7882
G1 X107.948 Y211.793 E1.35853
G1 X107.948 Y222.817 E2.12082
G1 X107.948 Y223.021 E2.13493
G1 X107.948 Y223.139 E2.14309
G1 X107.539 Y223.021 E2.16161
G1 X107.376 Y222.9 E2.17355
G1 X107.221 Y222.785 E2.18689
G1 X107.003 Y222.467 E2.21355
G1 X106.898 Y222.102 E2.23981
G1 X106.888 Y221.975 E2.24862
G1 X106.891 Y218.551 E2.48539
G1 X106.891 Y213.425 E2.83984
G1 X106.888 Y211.024 E3.00586
G1 X106.888 Y210.793 E3.02183
G1 X105.045 Y210.793 E3.14927
G1 X104.772 Y210.793 E3.16815
G1 X99.813 Y210.793 E3.51105
G1 X99.382 Y210.729 E3.54118
G1 X98.994 Y210.533 E3.57124
G1 X98.707 Y210.242 E3.5995
G1 X98.599 Y210.028 E3.61608
G1 X98.585 Y209.999 E3.61831
G1 X98.521 Y209.871 E3.6282
G1 X98.515 Y209.83 E3.63107
G1 X98.49 Y209.661 E3.64288
G1 X98.454 Y209.431 E3.65898
G1 X98.454 Y205.141 E3.95562
G1 X99.186 Y205.141 E4.00624
G1 X99.588 Y205.141 E4.03404
G1 X99.96 Y205.513 E4.07041
G1 X100.008 Y205.561 E4.07511
G1 X99.87 Y205.603 E4.07676
G1 X99.714 Y205.642 E4.07753
G1 X99.324 Y205.739 E4.1031
G1 X99.098 Y205.796 E4.11921
G1 X99.098 Y209.57 E4.38018
G1 X99.098 Y209.741 E4.39174
G1 X99.131 Y209.741 E4.39396
G1 X104.778 Y209.741 E4.78444
G1 X104.874 Y209.768 E4.79133
G1 X104.908 Y209.819 E4.79557
G1 X105.001 Y210.372 E4.83435
G1 X105.045 Y210.641 E4.84778
G1 X106.888 Y210.641 E4.87928
G1 X107.119 Y210.641 E4.89101
G1 X117.024 Y210.641 E5.57592
G1 X117.255 Y210.641 E5.59189
G1 X119.095 Y210.641 E5.71912
G1 X119.141 Y210.371 E5.73806
G1 X119.235 Y209.83 E5.77603
G1 X119.314 Y209.745 E5.78406
G1 X119.351 Y209.741 E5.78663
G1 X125.014 Y209.741 E6.17821
G1 X125.046 Y209.741 E6.18043
G1 X125.046 Y205.691 E6.46048
G1 X124.502 Y205.63 E6.49833
G1 X124.217 Y205.598 E6.51816
G1 X124.135 Y205.562 E6.52435
G1 X124.158 Y205.539
G1 X124.556 Y205.141 E6.54898
G1 X125.046 Y205.141 E6.57736
G1 X125.689 Y205.141 E6.62182
G1 X125.689 Y209.431 E6.91847
G1 X125.63 Y209.828 E6.94622
G1 X125.622 Y209.877 E6.94959
G1 X125.558 Y210.003 E6.9591
G1 X125.544 Y210.031 E6.96121
G1 X125.432 Y210.247 E6.97803
G1 X125.147 Y210.535 E7.00605
G1 X124.761 Y210.73 E7.03595
G1 X124.329 Y210.793 E7.06614
G1 X119.369 Y210.793 E7.40911
G1 X119.095 Y210.793 E7.42262
G1 X117.255 Y210.793 E7.45407
G1 X117.255 Y211.024 E7.4658
G1 X117.252 Y215.133 E7.74993
G1 X117.252 Y220.258 E8.10431
G1 X117.254 Y221.936 E8.22034
G1 X117.192 Y222.337 E8.2484
G1 X117.011 Y222.683 E8.2754
G1 X116.799 Y222.884 E8.2956
G1 X116.735 Y222.944 E8.30107
G1 X116.383 Y223.106 E8.32109
G0 F6000 X116.543 Y223.703
;TYPE:WALL-OUTER
G1 F600 X116.258 Y223.756 E8.34113
G1 X116.076 Y223.766 E8.35373
G1 X115.58 Y223.766 E8.38803
G1 X115.58 Y212.409 E9.17334
G1 X108.564 Y212.409 E9.65848
G1 X108.564 Y223.765 E10.44373
G1 X108.082 Y223.766 E10.47706
G1 X107.821 Y223.748 E10.49515
G1 X107.532 Y223.683 E10.51563
G1 X107.26 Y223.573 E10.53592
G1 X106.998 Y223.41 E10.55725
G1 X106.772 Y223.21 E10.57812
G1 X106.604 Y223.006 E10.5964
G1 X106.444 Y222.731 E10.6184
G1 X106.346 Y222.474 E10.63742
G1 X106.287 Y222.186 E10.65774
G1 X106.272 Y221.999 E10.67072
G1 X106.275 Y218.55 E10.90921
G1 X106.275 Y213.425 E11.26359
G1 X106.273 Y211.409 E11.40299
G1 X99.791 Y211.409 E11.85121
G1 X99.469 Y211.384 E11.87354
G1 X99.187 Y211.315 E11.89362
G1 X98.9 Y211.196 E11.9151
G1 X98.632 Y211.033 E11.93679
G1 X98.405 Y210.838 E11.95748
G1 X98.205 Y210.602 E11.97887
G1 X98.054 Y210.353 E11.99901
G1 X97.934 Y210.065 E12.02058
G1 X97.861 Y209.761 E12.0422
G1 X97.838 Y209.454 E12.06349
G1 X97.838 Y204.525 E12.40432
G1 X99.844 Y204.525 E12.54303
G1 X100.664 Y205.345 E12.62322
G1 X100.659 Y205.596 E12.64058
G1 X100.584 Y205.838 E12.6581
G1 X100.375 Y206.079 E12.68015
G1 X100.084 Y206.2 E12.70195
G1 X99.977 Y206.211 E12.70938
G1 X99.714 Y206.277 E12.72813
G1 X99.714 Y209.125 E12.92507
G1 X104.836 Y209.125 E13.27924
G1 X105.085 Y209.174 E13.29679
G1 X105.298 Y209.306 E13.31412
G1 X105.455 Y209.517 E13.3323
G1 X105.507 Y209.666 E13.34322
G1 X105.567 Y210.025 E13.36838
G1 X118.576 Y210.025 E14.26793
G1 X118.64 Y209.655 E14.29389
G1 X118.737 Y209.431 E14.31077
G1 X118.919 Y209.247 E14.32867
G1 X119.152 Y209.144 E14.34628
G1 X119.312 Y209.125 E14.35742
G1 X124.43 Y209.125 E14.71132
G1 X124.43 Y206.242 E14.91068
G1 X124.057 Y206.2 E14.93663
G1 X123.757 Y206.071 E14.95921
G1 X123.555 Y205.829 E14.98101
G1 X123.48 Y205.515 E15.00333
G1 X123.48 Y205.345 E15.01509
G1 X124.3 Y204.525 E15.09528
G1 X126.305 Y204.525 E15.23392
G1 X126.305 Y209.456 E15.57488
G1 X126.28 Y209.777 E15.59715
G1 X126.209 Y210.07 E15.618
G1 X126.092 Y210.351 E15.63904
G1 X125.93 Y210.613 E15.66034
G1 X125.734 Y210.842 E15.68119
G1 X125.507 Y211.037 E15.70188
G1 X125.251 Y211.193 E15.72261
G1 X124.956 Y211.316 E15.74471
G1 X124.664 Y211.385 E15.76546
G1 X124.35 Y211.409 E15.78723
G1 X117.871 Y211.409 E16.23524
G1 X117.868 Y215.133 E16.49275
G1 X117.868 Y220.258 E16.84713
G1 X117.87 Y221.956 E16.96454
G1 X117.847 Y222.258 E16.98549
G1 X117.776 Y222.54 E17.00559
G1 X117.65 Y222.829 E17.02739
G1 X117.503 Y223.057 E17.04615
G1 X117.302 Y223.279 E17.06686
G1 X117.079 Y223.458 E17.08663
G1 X116.8 Y223.611 E17.10864
G1 X116.543 Y223.703 E17.12751
G0 F6000 X116.367 Y223.05
G0 X116.36 Y223.008
G0 X116.224 Y211.765
G0 X107.459 Y211.212
;TYPE:SKIN
G1 F600 X107.459 Y211.22 E17.12807
G1 X107.553 Y211.22 E17.13457
G1 X108.424 Y211.22 E17.19479
G0 F6000 X108.415 Y211.212
G1 F600 X109.286 Y211.212 E17.25502
G0 F6000 X109.295 Y211.22
G1 F600 X110.166 Y211.22 E17.31525
G0 F6000 X110.158 Y211.212
G1 F600 X111.029 Y211.212 E17.37548
G0 F6000 X111.037 Y211.22
G1 F600 X111.908 Y211.22 E17.4357
G0 F6000 X111.9 Y211.212
G1 F600 X112.771 Y211.212 E17.49593
G0 F6000 X112.779 Y211.22
G1 F600 X113.651 Y211.22 E17.55623
G0 F6000 X113.642 Y211.212
G1 F600 X114.513 Y211.212 E17.61646
G0 F6000 X114.522 Y211.22
G1 F600 X115.393 Y211.22 E17.67668
G0 F6000 X115.384 Y211.212
G1 F600 X116.256 Y211.212 E17.73698
G1 X116.683 Y211.212 E17.76651
G1 X116.683 Y211.22 E17.76706
G0 F6000 X116.975 Y211.247
;TYPE:SKIN
G1 F600 X116.647 Y210.919 E17.77852
G0 F6000 X116.336 Y210.919
G1 F600 X116.975 Y211.558 E17.80083
G0 F6000 X116.5 Y211.394
G1 F600 X116.011 Y211.216 E17.82849
G1 X116.724 Y211.929 E17.88209
G1 X116.723 Y219.706 E18.29548
G1 X116.709 Y221.87 E18.41051
G1 X116.534 Y222.628 E18.45186
G1 X116.631 Y223.348 E18.49047
G1 F1500 E16.49047
G0 F6000 X116.463 Y222.96
G0 X116.224 Y211.765
G0 X107.92 Y211.765
G0 X107.817 Y222.998
G0 X107.627 Y223.366
G1 F1500 E18.49047
G1 F600 X107.463 Y222.58 E18.53313
G1 X107.418 Y220.979 E18.61821
G1 X107.419 Y213.513 E19.01484
G1 X107.418 Y211.334 E19.1306
G0 F6000 X107.611 Y211.216
G1 F600 X107.922 Y211.216 E19.1521
G1 X115.7 Y211.216 E19.68978
G0 F6000 X115.403 Y210.919
G0 X118.348 Y210.666
G0 X119.12 Y210.671
G0 X119.344 Y209.859
G0 X119.043 Y209.58
G1 F600 X119.729 Y210.267 E19.72875
G1 X124.082 Y210.264 E19.90346
G1 X125.127 Y210.065 E19.94616
G1 X125.829 Y210.144 E19.97451
G1 X125.969 Y209.662 E19.99465
G0 F6000 X125.568 Y209.571
G0 X124.859 Y210.569
G0 X125.054 Y210.925
G1 F600 X124.575 Y211.068 E19.99965
G0 F6000 X124.484 Y210.669
G0 X119.664 Y210.513
G1 F600 X119.438 Y210.287 E20.00754
G0 F6000 X119.12 Y210.671
G0 X105.02 Y210.671
G0 X104.729 Y210.512
G0 X104.482 Y210.265
G1 F600 X104.171 Y210.265 E20.0243
G1 X99.498 Y210.259 E20.27607
G1 X99.128 Y210.2 E20.29626
G1 X98.619 Y210.624 E20.33195
G0 F6000 X98.881 Y210.277
G0 X98.852 Y205.568
G0 X98.792 Y205.508
G1 F600 X99.057 Y205.462 E20.33919
G0 F6000 X99.101 Y205.506
G0 X99.067 Y205.772
G0 X99.07 Y209.769
G0 X104.547 Y210.019
G1 F600 X104.68 Y210.152 E20.34383
G0 F6000 X105.009 Y210.755
G0 X106.916 Y210.765
G0 X107.036 Y222.22
G0 X106.604 Y222.343
G1 F600 X106.691 Y222.43 E20.34687
G0 F6000 X107.332 Y222.18
G1 F1500 E18.34687
;MESH:HalfInchSocketClip.stl
G0 F6000 X107.92 Y211.765
G0 X116.224 Y211.765
G0 X116.996 Y222.671
G0 X124.65 Y222.671
G0 X125.658 Y228.437
G0 X134.566 Y229.538
G0 X136.862 Y229.531
G0 X142.812 Y230.433
G0 X142.815 Y234.428
G0 X141.969 Y234.665
G0 X141.873 Y234.64
;TYPE:WALL-INNER
G1 F1500 E20.34687
G1 F600 X142.008 Y234.601 E20.35659
G1 X142.166 Y234.561 E20.36786
G1 X142.549 Y234.464 E20.39518
G1 X142.784 Y234.404 E20.41195
G1 X142.784 Y230.616 E20.67388
G1 X142.784 Y230.461 E20.6846
G1 X142.755 Y230.461 E20.6866
G1 X137.111 Y230.461 E21.07687
G1 X137.007 Y230.433 E21.08432
G1 X136.975 Y230.384 E21.08837
G1 X136.882 Y229.83 E21.12721
G1 X136.837 Y229.561 E21.14607
G1 X134.994 Y229.561 E21.27351
G1 X134.763 Y229.561 E21.28948
G1 X124.858 Y229.561 E21.97439
G1 X124.627 Y229.561 E21.99037
G1 X122.789 Y229.561 E22.11746
G1 X122.742 Y229.831 E22.13641
G1 X122.649 Y230.362 E22.17369
G1 X122.567 Y230.456 E22.18231
G1 X122.53 Y230.461 E22.18489
G1 X116.855 Y230.461 E22.57731
G1 X116.836 Y230.461 E22.57862
G1 X116.836 Y234.517 E22.85909
G1 X117.376 Y234.573 E22.89663
G1 X117.668 Y234.604 E22.91693
G1 X117.748 Y234.639 E22.92297
G1 X117.726 Y234.661
G1 X117.326 Y235.061 E22.94754
G1 X116.836 Y235.061 E22.97575
G1 X116.193 Y235.061 E23.02021
G1 X116.193 Y230.77 E23.31692
G1 X116.213 Y230.517 E23.33447
G1 X116.29 Y230.282 E23.35157
G1 X116.341 Y230.129 E23.36245
G1 X116.357 Y230.107 E23.3643
G1 X116.368 Y230.092 E23.36557
G1 X116.591 Y229.791 E23.39147
G1 X116.912 Y229.558 E23.4189
G1 X117.322 Y229.425 E23.4487
G1 X117.548 Y229.409 E23.46437
G1 X122.514 Y229.409 E23.80776
G1 X122.789 Y229.409 E23.82131
G1 X124.627 Y229.409 E23.85272
G1 X124.627 Y229.178 E23.86445
G1 X124.63 Y225.068 E24.14865
G1 X124.63 Y219.943 E24.50303
G1 X124.628 Y218.268 E24.61885
G1 X124.692 Y217.858 E24.64755
G1 X124.871 Y217.518 E24.67412
G1 X125.083 Y217.317 E24.69432
G1 X125.147 Y217.257 E24.70038
G1 X125.5 Y217.095 E24.72724
G1 X125.686 Y217.061 E24.74032
G1 X125.686 Y217.095
G1 X125.686 Y217.257 E24.74431
G1 X125.686 Y217.345 E24.75005
G1 X125.686 Y228.409 E25.5151
G1 X133.934 Y228.409 E26.08543
G1 X133.934 Y217.382 E26.84792
G1 X133.934 Y217.183 E26.86168
G1 X133.934 Y217.062 E26.87005
G1 X134.348 Y217.183 E26.88888
G1 X134.507 Y217.301 E26.90057
G1 X134.662 Y217.416 E26.91392
G1 X134.879 Y217.733 E26.94048
G1 X134.984 Y218.101 E26.96694
G1 X134.993 Y218.22 E26.9752
G1 X134.99 Y221.65 E27.21237
G1 X134.99 Y226.776 E27.56683
G1 X134.994 Y229.178 E27.73292
G1 X134.994 Y229.409 E27.74465
G1 X136.837 Y229.409 E27.77615
G1 X137.11 Y229.409 E27.78961
G1 X142.089 Y229.409 E28.1339
G1 X142.408 Y229.447 E28.15611
G1 X142.798 Y229.61 E28.18534
G1 X143.113 Y229.88 E28.21403
G1 X143.267 Y230.135 E28.23463
G1 X143.282 Y230.159 E28.23654
G1 X143.326 Y230.232 E28.24229
G1 X143.348 Y230.329 E28.24916
G1 X143.383 Y230.48 E28.25957
G1 X143.424 Y230.653 E28.27187
G1 X143.428 Y230.748 E28.27844
G1 X143.428 Y235.061 E28.57667
G1 X142.689 Y235.061 E28.62777
G1 X142.294 Y235.061 E28.65291
G1 X141.921 Y234.688 E28.67897
G1 X141.873 Y234.64
G0 F6000 X141.218 Y234.857
;TYPE:WALL-OUTER
G1 F600 X141.224 Y234.6 E28.69675
G1 X141.3 Y234.359 E28.71422
G1 X141.507 Y234.122 E28.73598
G1 X141.792 Y234.002 E28.75736
G1 X141.904 Y233.992 E28.76514
G1 X142.168 Y233.925 E28.78397
G1 X142.168 Y231.077 E28.98091
G1 X137.05 Y231.077 E29.3348
G1 X136.798 Y231.028 E29.35256
G1 X136.582 Y230.893 E29.37017
G1 X136.432 Y230.694 E29.3874
G1 X136.375 Y230.536 E29.39902
G1 X136.315 Y230.177 E29.42418
G1 X123.307 Y230.177 E30.32366
G1 X123.244 Y230.539 E30.34907
G1 X123.145 Y230.771 E30.36651
G1 X122.966 Y230.952 E30.38411
G1 X122.736 Y231.056 E30.40157
G1 X122.566 Y231.077 E30.41341
G1 X117.452 Y231.077 E30.76703
G1 X117.452 Y233.962 E30.96652
G1 X117.824 Y234.001 E30.99239
G1 X118.125 Y234.13 E31.01503
G1 X118.329 Y234.375 E31.03708
G1 X118.402 Y234.686 E31.05917
G1 X118.402 Y234.857 E31.07099
G1 X117.582 Y235.677 E31.15118
G1 X115.577 Y235.677 E31.28982
G1 X115.577 Y230.746 E31.63079
G1 X115.603 Y230.417 E31.65361
G1 X115.675 Y230.127 E31.67427
G1 X115.792 Y229.847 E31.69525
G1 X115.953 Y229.586 E31.71646
G1 X116.156 Y229.352 E31.73788
G1 X116.385 Y229.158 E31.75863
G1 X116.631 Y229.008 E31.77856
G1 X116.921 Y228.888 E31.80026
G1 X117.225 Y228.815 E31.82188
G1 X117.532 Y228.793 E31.84316
G1 X124.011 Y228.793 E32.29117
G1 X124.014 Y225.068 E32.54874
G1 X124.014 Y219.943 E32.90313
G1 X124.012 Y218.246 E33.02047
G1 X124.036 Y217.942 E33.04156
G1 X124.106 Y217.662 E33.06151
G1 X124.232 Y217.372 E33.08338
G1 X124.379 Y217.144 E33.10214
G1 X124.58 Y216.922 E33.12284
G1 X124.803 Y216.743 E33.14262
G1 X125.082 Y216.59 E33.16462
G1 X125.339 Y216.498 E33.18349
G1 X125.632 Y216.445 E33.20408
G1 X125.791 Y216.435 E33.2151
G1 X126.302 Y216.435 E33.25043
G1 X126.302 Y227.793 E34.03582
G1 X133.318 Y227.793 E34.52096
G1 X133.318 Y216.436 E35.30627
G1 X133.798 Y216.435 E35.33946
G1 X134.069 Y216.455 E35.35825
G1 X134.346 Y216.518 E35.37789
G1 X134.627 Y216.631 E35.39884
G1 X134.884 Y216.791 E35.41977
G1 X135.11 Y216.991 E35.44064
G1 X135.282 Y217.199 E35.4593
G1 X135.438 Y217.471 E35.48098
G1 X135.535 Y217.723 E35.49965
G1 X135.595 Y218.016 E35.52033
G1 X135.609 Y218.201 E35.53316
G1 X135.606 Y221.651 E35.77172
G1 X135.606 Y226.776 E36.12611
G1 X135.609 Y228.793 E36.26558
G1 X142.091 Y228.793 E36.71379
G1 X142.259 Y228.8 E36.72542
G1 X142.557 Y228.847 E36.74628
G1 X142.842 Y228.94 E36.76701
G1 X143.122 Y229.083 E36.78875
G1 X143.369 Y229.263 E36.80988
G1 X143.582 Y229.477 E36.83076
G1 X143.765 Y229.733 E36.85252
G1 X143.899 Y230.001 E36.87324
G1 X143.991 Y230.289 E36.89415
G1 X144.037 Y230.585 E36.91486
G1 X144.044 Y230.748 E36.92614
G1 X144.044 Y235.677 E37.26697
G1 X142.038 Y235.677 E37.40568
G1 X141.218 Y234.857 E37.48587
G0 F6000 X141.923 Y234.675
G0 X141.986 Y234.613
G0 X142.815 Y234.428
G0 X142.812 Y230.433
G0 X136.862 Y229.531
G0 X125.199 Y228.98
;TYPE:SKIN
G1 F600 X125.198 Y228.988 E37.48643
G1 X125.32 Y228.988 E37.49486
G1 X126.191 Y228.988 E37.55509
G0 F6000 X126.184 Y228.98
G1 F600 X127.055 Y228.98 E37.61532
G0 F6000 X127.062 Y228.988
G1 F600 X127.934 Y228.988 E37.67562
G0 F6000 X127.926 Y228.98
G1 F600 X128.798 Y228.98 E37.73591
G0 F6000 X128.805 Y228.988
G1 F600 X129.676 Y228.988 E37.79614
G0 F6000 X129.669 Y228.98
G1 F600 X130.54 Y228.98 E37.85637
G0 F6000 X130.547 Y228.988
G1 F600 X131.418 Y228.988 E37.9166
G0 F6000 X131.411 Y228.98
G1 F600 X132.282 Y228.98 E37.97682
G0 F6000 X132.289 Y228.988
G1 F600 X133.16 Y228.988 E38.03705
G0 F6000 X133.153 Y228.98
G1 F600 X134.025 Y228.98 E38.09735
G1 X134.42 Y228.98 E38.12466
G1 X134.42 Y228.988 E38.12522
G0 F6000 X134.09 Y228.983
;TYPE:SKIN
G1 F600 X134.401 Y228.983 E38.14326
G1 X134.463 Y228.112 E38.19391
G1 X134.462 Y220.644 E38.62715
G1 X134.448 Y217.83 E38.7904
G0 F6000 X134.684 Y218.066
G0 X133.962 Y228.437
G0 X125.658 Y228.437
G0 X125.406 Y218.122
G0 X125.229 Y217.945
G1 F600 X125.299 Y217.704 E38.80239
G1 X125.387 Y217.481 E38.81385
G1 X124.776 Y217.181 E38.84637
G1 X124.51 Y217.537 E38.8676
G1 X124.355 Y218.004 E38.89111
G1 X125.159 Y218.497 E38.93618
G1 X125.157 Y225.651 E39.27799
G1 X125.156 Y228.139 E39.39687
G0 F6000 X126 Y228.983
G1 F600 X125.446 Y228.74 E39.45539
G0 F6000 X124.906 Y228.511
G1 F600 X125.675 Y229.28 E39.48225
G0 F6000 X125.135 Y229.051
G1 F600 X124.979 Y229.206 E39.50342
G0 F6000 X125.053 Y229.28
G0 X126.014 Y228.686
G0 X126.311 Y228.983
