;FLAVOR:Marlin
;TIME:2692
;Filament used: 1.8767m
;Layer height: 0.2
;MINX:9.664
;MINY:0.774
;MINZ:0.3
;MAXX:66.042
;MAXY:96.515
;MAXZ:4.9
;Generated with Cura_SteamEngine 4.10.0
M104 S190
M105
M109 S190
M82 ;absolute extrusion mode
G21        ;metric values
G90        ;absolute positioning
M107       ;start with the fan off
G28   ;move to endstops

;Z-Offset Reset und dann Z +0,1 für PLA
MacroZOffset0
MacroZOffsetPlus0100

G92 E0                  ;zero the extruded length
G1 F200 E3              ;extrude 3mm of feed stock
G92 E0                  ;zero the extruded length again
G1 F150.0
;Put printing message on LCD screen
M117 Printing...
G92 E0
G92 E0
G1 F2400 E-6
;LAYER_COUNT:25
;LAYER:0
M107
M204 S3000
G0 F1500 X11.208 Y6.552 Z0.3
M204 S1500
;TYPE:SKIRT
G1 F2400 E0
G1 F300 X11.349 Y6.314 E0.01242
G1 X11.652 Y5.843 E0.03757
G1 X11.945 Y5.433 E0.06019
G1 X12.317 Y4.956 E0.08736
G1 X12.686 Y4.532 E0.11259
G1 X12.872 Y4.333 E0.12482
G1 X13.269 Y3.938 E0.14997
G1 X13.65 Y3.594 E0.17302
G1 X14.073 Y3.243 E0.1977
G1 X14.594 Y2.858 E0.22679
G1 X15.301 Y2.402 E0.26456
G1 X16.026 Y2.004 E0.3017
G1 X16.48 Y1.788 E0.32427
G1 X17.137 Y1.518 E0.35617
G1 X17.72 Y1.315 E0.38389
G1 X18.376 Y1.128 E0.41452
G1 X19.202 Y0.951 E0.45245
G1 X20.027 Y0.835 E0.48985
G1 X20.858 Y0.78 E0.52725
G1 X21.209 Y0.774 E0.54301
G1 X21.823 Y0.791 E0.57059
G1 X22.534 Y0.851 E0.60263
G1 X23.362 Y0.977 E0.64024
G1 X24.184 Y1.165 E0.6781
G1 X24.981 Y1.409 E0.71552
G1 X25.452 Y1.581 E0.73804
G1 X26.032 Y1.829 E0.76636
G1 X26.233 Y1.925 E0.77636
G1 X26.734 Y2.182 E0.80164
G1 X26.972 Y2.315 E0.81389
G1 X27.448 Y2.604 E0.83889
G1 X27.683 Y2.758 E0.85151
G1 X28.14 Y3.084 E0.87671
G1 X28.354 Y3.249 E0.88885
G1 X28.786 Y3.606 E0.91401
G1 X28.994 Y3.791 E0.92651
G1 X29.398 Y4.178 E0.95163
G1 X29.588 Y4.374 E0.96388
G1 X29.964 Y4.79 E0.98906
G1 X30.138 Y4.997 E1.0012
G1 X30.483 Y5.438 E1.02635
G1 X30.647 Y5.663 E1.03885
G1 X30.96 Y6.13 E1.06409
G1 X31.104 Y6.364 E1.07643
G1 X31.381 Y6.85 E1.10155
G1 X31.509 Y7.095 E1.11396
G1 X31.75 Y7.6 E1.13908
G1 X31.858 Y7.848 E1.15123
G1 X32.063 Y8.37 E1.17641
G1 X32.156 Y8.635 E1.18902
G1 X32.322 Y9.171 E1.21421
G1 X32.393 Y9.433 E1.2264
G1 X32.52 Y9.978 E1.25153
G1 X32.573 Y10.252 E1.26406
G1 X32.66 Y10.807 E1.28928
G1 X32.693 Y11.075 E1.30141
G1 X32.74 Y11.632 E1.32651
G1 X32.757 Y12.145 E1.34955
G1 X32.758 Y12.267 E1.35503
G1 X40.968 Y21.229 E1.90076
G1 X55.558 Y37.148 E2.87034
G1 X56.123 Y37.212 E2.89587
G1 X56.764 Y37.321 E2.92507
G1 X57.288 Y37.44 E2.9492
G1 X58.071 Y37.665 E2.98578
G1 X58.545 Y37.83 E3.00831
G1 X59.135 Y38.07 E3.03691
G1 X59.616 Y38.296 E3.06077
G1 X60.346 Y38.69 E3.09802
G1 X61.047 Y39.137 E3.13535
G1 X61.715 Y39.635 E3.17276
G1 X62.352 Y40.185 E3.21055
G1 X62.936 Y40.766 E3.24754
G1 X63.476 Y41.388 E3.28453
G1 X63.79 Y41.794 E3.30757
G1 X64.109 Y42.249 E3.33252
G1 X64.43 Y42.762 E3.35969
G1 X64.821 Y43.479 E3.39636
G1 X65.166 Y44.238 E3.4338
G1 X65.456 Y45.016 E3.47108
G1 X65.606 Y45.5 E3.49383
G1 X65.745 Y46.04 E3.51887
G1 X65.804 Y46.31 E3.53128
G1 X65.903 Y46.857 E3.55624
G1 X65.942 Y47.126 E3.56844
G1 X66.002 Y47.681 E3.59351
G1 X66.022 Y47.952 E3.60571
G1 X66.042 Y48.507 E3.63065
G1 X66.042 Y48.774 E3.64264
G1 X66.023 Y49.331 E3.66766
G1 X66.003 Y49.61 E3.68022
G1 X65.943 Y50.164 E3.70524
G1 X65.905 Y50.429 E3.71726
G1 X65.806 Y50.978 E3.74231
G1 X65.746 Y51.253 E3.75495
G1 X65.607 Y51.792 E3.77994
G1 X65.531 Y52.047 E3.79189
G1 X65.355 Y52.574 E3.81684
G1 X65.254 Y52.842 E3.8297
G1 X65.038 Y53.356 E3.85473
G1 X64.934 Y53.583 E3.86594
G1 X64.685 Y54.081 E3.89094
G1 X64.547 Y54.333 E3.90384
G1 X64.261 Y54.811 E3.92885
G1 X64.108 Y55.046 E3.94144
G1 X63.788 Y55.501 E3.96642
G1 X63.627 Y55.715 E3.97845
G1 X63.276 Y56.146 E4.0034
G1 X63.097 Y56.35 E4.01559
G1 X62.715 Y56.756 E4.04062
G1 X62.523 Y56.946 E4.05275
G1 X62.112 Y57.325 E4.07785
G1 X61.905 Y57.502 E4.09008
G1 X61.471 Y57.848 E4.115
G1 X61.255 Y58.008 E4.12707
G1 X60.797 Y58.323 E4.15203
G1 X60.558 Y58.475 E4.16475
G1 X60.076 Y58.756 E4.1898
G1 X59.834 Y58.885 E4.20212
G1 X59.334 Y59.13 E4.22712
G1 X59.098 Y59.236 E4.23873
G1 X58.581 Y59.447 E4.26381
G1 X58.308 Y59.547 E4.27686
G1 X57.779 Y59.717 E4.30181
G1 X56.964 Y59.927 E4.3396
G1 X56.156 Y60.074 E4.37647
G1 X55.657 Y60.134 E4.39904
G1 X55.557 Y60.143 E4.40355
G1 X32.758 Y85.02 E5.9187
G1 X32.741 Y85.621 E5.94569
G1 X32.686 Y86.269 E5.97489
G1 X32.613 Y86.795 E5.99874
G1 X32.449 Y87.62 E6.03651
G1 X32.228 Y88.425 E6.07399
G1 X32.063 Y88.914 E6.09716
G1 X31.859 Y89.435 E6.12228
G1 X31.61 Y89.984 E6.14935
G1 X31.38 Y90.439 E6.17224
G1 X31.103 Y90.925 E6.19736
G1 X30.963 Y91.152 E6.20934
G1 X30.652 Y91.618 E6.23449
G1 X30.487 Y91.847 E6.24717
G1 X30.142 Y92.289 E6.27234
G1 X29.972 Y92.492 E6.28423
G1 X29.597 Y92.909 E6.30941
G1 X29.396 Y93.115 E6.32234
G1 X28.991 Y93.502 E6.34749
G1 X28.79 Y93.681 E6.35957
G1 X28.359 Y94.038 E6.3847
G1 X28.139 Y94.208 E6.39719
G1 X27.681 Y94.534 E6.42243
G1 X27.454 Y94.683 E6.43462
G1 X26.978 Y94.973 E6.45965
G1 X26.735 Y95.109 E6.47215
G1 X26.234 Y95.366 E6.49743
G1 X25.99 Y95.481 E6.50955
G1 X25.476 Y95.7 E6.53463
G1 X25.218 Y95.799 E6.54704
G1 X24.687 Y95.981 E6.57225
G1 X24.42 Y96.061 E6.58476
G1 X23.879 Y96.203 E6.60987
G1 X23.382 Y96.308 E6.63268
G1 X22.844 Y96.4 E6.65719
G1 X22.198 Y96.474 E6.68639
G1 X21.376 Y96.515 E6.72334
G1 X20.533 Y96.496 E6.7612
G1 X19.702 Y96.417 E6.79868
G1 X18.877 Y96.278 E6.83625
G1 X18.067 Y96.08 E6.87369
G1 X17.579 Y95.929 E6.89663
G1 X16.917 Y95.687 E6.92828
G1 X16.357 Y95.446 E6.95565
G1 X15.729 Y95.131 E6.9872
G1 X15.005 Y94.705 E7.02491
G1 X14.324 Y94.236 E7.06204
G1 X13.927 Y93.929 E7.08458
G1 X13.421 Y93.492 E7.1146
G1 X13.052 Y93.139 E7.13753
G1 X12.491 Y92.538 E7.17444
G1 X11.964 Y91.885 E7.21212
G1 X11.485 Y91.193 E7.24991
G1 X11.056 Y90.462 E7.28797
G1 X10.689 Y89.725 E7.32493
G1 X10.37 Y88.943 E7.36285
G1 X10.111 Y88.149 E7.40036
G1 X9.91 Y87.335 E7.438
G1 X9.768 Y86.512 E7.4755
G1 X9.71 Y86.014 E7.49801
G1 X9.671 Y85.408 E7.52528
G1 X9.666 Y84.835 E7.55101
G1 X9.68 Y84.342 E7.57316
G1 X9.723 Y83.783 E7.59833
G1 X9.755 Y83.506 E7.61085
G1 X9.839 Y82.95 E7.6361
G1 X9.894 Y82.661 E7.64931
G1 X10.02 Y82.117 E7.67438
G1 X10.086 Y81.87 E7.68586
G1 X10.249 Y81.333 E7.71106
G1 X10.341 Y81.066 E7.72374
G1 X10.543 Y80.544 E7.74887
G1 X10.649 Y80.297 E7.76094
G1 X10.888 Y79.789 E7.78615
G1 X11.019 Y79.536 E7.79894
G1 X11.294 Y79.05 E7.82401
G1 X11.433 Y78.823 E7.83596
G1 X11.743 Y78.355 E7.86117
G1 X11.904 Y78.13 E7.87359
G1 X12.247 Y77.686 E7.89879
G1 X12.58 Y77.297 E7.92178
G1 X12.66 Y77.209 E7.92712
G1 X12.661 Y20.084 E10.4921
G1 X12.273 Y19.636 E10.51871
G1 X11.861 Y19.103 E10.54896
G1 X11.57 Y18.679 E10.57205
G1 X11.134 Y17.963 E10.60969
G1 X10.75 Y17.211 E10.6476
G1 X10.43 Y16.46 E10.68426
G1 X10.258 Y15.982 E10.70707
G1 X10.073 Y15.373 E10.73565
G1 X10.021 Y15.172 E10.74497
G1 X9.895 Y14.628 E10.77004
G1 X9.84 Y14.339 E10.78325
G1 X9.756 Y13.783 E10.8085
G1 X9.697 Y13.19 E10.83526
G1 X9.669 Y12.693 E10.85761
G1 X9.664 Y12.133 E10.88275
G1 X9.672 Y11.855 E10.89524
G1 X9.708 Y11.295 E10.92044
G1 X9.736 Y11.017 E10.93298
G1 X9.813 Y10.462 E10.95814
G1 X9.862 Y10.187 E10.97068
G1 X9.98 Y9.637 E10.99594
G1 X10.045 Y9.378 E11.00793
G1 X10.2 Y8.842 E11.03298
G1 X10.285 Y8.582 E11.04527
G1 X10.48 Y8.054 E11.07054
G1 X10.588 Y7.791 E11.08331
G1 X10.82 Y7.283 E11.10838
G1 X10.94 Y7.044 E11.12039
G1 X11.208 Y6.552 E11.14555
M204 S3000
G0 F1500 X11.559 Y6.744
M204 S1500
G1 F300 X11.686 Y6.531 E11.15668
G1 X11.989 Y6.06 E11.18183
G1 X12.472 Y5.398 E11.21862
G1 X12.618 Y5.219 E11.22899
G1 X12.987 Y4.795 E11.25423
G1 X13.154 Y4.617 E11.26519
G1 X13.551 Y4.222 E11.29034
G1 X14.173 Y3.675 E11.32753
G1 X14.828 Y3.182 E11.36434
G1 X15.511 Y2.742 E11.40082
G1 X16.212 Y2.358 E11.43671
G1 X16.957 Y2.018 E11.47348
G1 X17.705 Y1.74 E11.50931
G1 X18.48 Y1.514 E11.54556
G1 X19.278 Y1.343 E11.5822
G1 X20.074 Y1.233 E11.61828
G1 X20.876 Y1.18 E11.65437
G1 X21.213 Y1.174 E11.66951
G1 X21.799 Y1.19 E11.69583
G1 X22.493 Y1.249 E11.7271
G1 X23.292 Y1.371 E11.76339
G1 X24.085 Y1.552 E11.79992
G1 X24.855 Y1.788 E11.83608
G1 X25.616 Y2.083 E11.87273
G1 X26.051 Y2.281 E11.89419
G1 X26.552 Y2.538 E11.91947
G1 X26.765 Y2.657 E11.93042
G1 X27.241 Y2.946 E11.95543
G1 X27.45 Y3.084 E11.96667
G1 X27.907 Y3.41 E11.99188
G1 X28.099 Y3.557 E12.00274
G1 X28.531 Y3.914 E12.0279
G1 X28.717 Y4.08 E12.03909
G1 X29.121 Y4.467 E12.06421
G1 X29.291 Y4.642 E12.07517
G1 X29.667 Y5.058 E12.10035
G1 X29.823 Y5.243 E12.11121
G1 X30.168 Y5.684 E12.13635
G1 X30.314 Y5.886 E12.14755
G1 X30.627 Y6.353 E12.17279
G1 X30.757 Y6.562 E12.18384
G1 X31.034 Y7.048 E12.20896
G1 X31.148 Y7.268 E12.22008
G1 X31.389 Y7.773 E12.24521
G1 X31.486 Y7.994 E12.25604
G1 X31.691 Y8.516 E12.28123
G1 X31.774 Y8.753 E12.2925
G1 X31.94 Y9.289 E12.3177
G1 X32.003 Y9.523 E12.32858
G1 X32.13 Y10.068 E12.3537
G1 X32.178 Y10.313 E12.36491
G1 X32.265 Y10.868 E12.39014
G1 X32.294 Y11.109 E12.40104
G1 X32.341 Y11.666 E12.42614
G1 X32.359 Y12.423 E12.46014
G1 X40.673 Y21.499 E13.0128
G1 X55.368 Y37.532 E13.98933
G1 X55.925 Y37.589 E14.01447
G1 X56.479 Y37.675 E14.03965
G1 X57.195 Y37.829 E14.07253
G1 X57.953 Y38.047 E14.10795
G1 X58.715 Y38.328 E14.14441
G1 X59.443 Y38.657 E14.18028
G1 X60.147 Y39.037 E14.21621
G1 X60.823 Y39.469 E14.25223
G1 X61.468 Y39.95 E14.28836
G1 X62.083 Y40.48 E14.32481
G1 X62.646 Y41.042 E14.36053
G1 X63.168 Y41.643 E14.39627
G1 X63.463 Y42.023 E14.41787
G1 X63.782 Y42.478 E14.44282
G1 X64.087 Y42.968 E14.46874
G1 X64.465 Y43.662 E14.50422
G1 X64.798 Y44.395 E14.54037
G1 X65.078 Y45.145 E14.57632
G1 X65.219 Y45.599 E14.59766
G1 X65.358 Y46.139 E14.6227
G1 X65.411 Y46.381 E14.63382
G1 X65.51 Y46.928 E14.65878
G1 X65.544 Y47.169 E14.66971
G1 X65.604 Y47.724 E14.69478
G1 X65.622 Y47.967 E14.70572
G1 X65.642 Y48.522 E14.73066
G1 X65.642 Y48.76 E14.74134
G1 X65.623 Y49.317 E14.76637
G1 X65.605 Y49.567 E14.77762
G1 X65.545 Y50.121 E14.80264
G1 X65.511 Y50.358 E14.81339
G1 X65.412 Y50.907 E14.83844
G1 X65.358 Y51.153 E14.84975
G1 X65.219 Y51.692 E14.87474
G1 X65.152 Y51.92 E14.88541
G1 X64.976 Y52.447 E14.91036
G1 X64.885 Y52.687 E14.92189
G1 X64.669 Y53.201 E14.94692
G1 X64.576 Y53.405 E14.95699
G1 X64.327 Y53.903 E14.98199
G1 X64.204 Y54.128 E14.9935
G1 X63.918 Y54.606 E15.01851
G1 X63.781 Y54.816 E15.02977
G1 X63.461 Y55.271 E15.05475
G1 X63.316 Y55.462 E15.06551
G1 X62.965 Y55.893 E15.09047
G1 X62.805 Y56.076 E15.10139
G1 X62.423 Y56.482 E15.12642
G1 X62.252 Y56.651 E15.13721
G1 X61.841 Y57.03 E15.16232
G1 X61.655 Y57.19 E15.17333
G1 X61.221 Y57.536 E15.19825
G1 X61.029 Y57.678 E15.20898
G1 X60.571 Y57.993 E15.23394
G1 X60.356 Y58.129 E15.24536
G1 X59.874 Y58.41 E15.27041
G1 X59.658 Y58.526 E15.28142
G1 X59.158 Y58.771 E15.30642
G1 X58.947 Y58.866 E15.31681
G1 X58.43 Y59.077 E15.34188
G1 X58.185 Y59.166 E15.35359
G1 X57.656 Y59.336 E15.37854
G1 X56.87 Y59.538 E15.41498
G1 X56.09 Y59.68 E15.45057
G1 X55.368 Y59.758 E15.48318
G1 X32.358 Y84.866 E17.01238
G1 X32.351 Y85.432 E17.03779
G1 X32.316 Y85.937 E17.06052
G1 X32.217 Y86.737 E17.09672
G1 X32.059 Y87.532 E17.13311
G1 X31.845 Y88.309 E17.1693
G1 X31.691 Y88.769 E17.19108
G1 X31.487 Y89.29 E17.2162
G1 X31.248 Y89.814 E17.24206
G1 X31.033 Y90.241 E17.26353
G1 X30.756 Y90.727 E17.28865
G1 X30.63 Y90.93 E17.29937
G1 X30.319 Y91.396 E17.32453
G1 X30.171 Y91.601 E17.33588
G1 X29.826 Y92.043 E17.36106
G1 X29.674 Y92.224 E17.37167
G1 X29.299 Y92.641 E17.39685
G1 X29.12 Y92.826 E17.40841
G1 X28.715 Y93.213 E17.43356
G1 X28.535 Y93.373 E17.44438
G1 X28.104 Y93.73 E17.46951
G1 X27.907 Y93.882 E17.48068
G1 X27.449 Y94.208 E17.50592
G1 X27.246 Y94.342 E17.51684
G1 X26.77 Y94.632 E17.54187
G1 X26.553 Y94.753 E17.55303
G1 X26.052 Y95.01 E17.57831
G1 X25.833 Y95.113 E17.58918
G1 X25.319 Y95.332 E17.61426
G1 X25.088 Y95.42 E17.62536
G1 X24.557 Y95.602 E17.65057
G1 X24.318 Y95.675 E17.66179
G1 X23.777 Y95.817 E17.6869
G1 X22.968 Y95.976 E17.72392
G1 X22.157 Y96.076 E17.76061
G1 X21.362 Y96.115 E17.79635
G1 X20.55 Y96.096 E17.83282
G1 X19.747 Y96.019 E17.86904
G1 X18.951 Y95.885 E17.90529
G1 X18.169 Y95.693 E17.94144
G1 X17.384 Y95.437 E17.97852
G1 X16.646 Y95.138 E18.01427
G1 X15.914 Y94.776 E18.05094
G1 X15.215 Y94.365 E18.08735
G1 X14.558 Y93.911 E18.1232
G1 X13.919 Y93.399 E18.15997
G1 X13.331 Y92.852 E18.19603
G1 X12.789 Y92.271 E18.23171
G1 X12.28 Y91.64 E18.26811
G1 X11.819 Y90.972 E18.30455
G1 X11.405 Y90.268 E18.34122
G1 X11.052 Y89.556 E18.37691
G1 X10.744 Y88.801 E18.41352
G1 X10.495 Y88.034 E18.44973
G1 X10.301 Y87.248 E18.48608
G1 X10.164 Y86.454 E18.52226
G1 X10.085 Y85.641 E18.55893
G1 X10.066 Y84.836 E18.59509
G1 X10.079 Y84.372 E18.61593
G1 X10.122 Y83.813 E18.6411
G1 X10.15 Y83.566 E18.65227
G1 X10.234 Y83.01 E18.67751
G1 X10.284 Y82.751 E18.68936
G1 X10.41 Y82.207 E18.71443
G1 X10.469 Y81.986 E18.7247
G1 X10.632 Y81.449 E18.7499
G1 X10.714 Y81.21 E18.76125
G1 X10.916 Y80.688 E18.78638
G1 X11.01 Y80.468 E18.79712
G1 X11.249 Y79.96 E18.82233
G1 X11.367 Y79.733 E18.83382
G1 X11.642 Y79.247 E18.85889
G1 X11.766 Y79.043 E18.86961
G1 X12.076 Y78.575 E18.89481
G1 X12.22 Y78.374 E18.90592
G1 X12.563 Y77.93 E18.93111
G1 X13.06 Y77.362 E18.965
G1 X13.061 Y19.929 E21.54381
G1 X12.688 Y19.511 E21.56896
G1 X12.372 Y19.116 E21.59167
G1 X11.902 Y18.455 E21.62809
G1 X11.481 Y17.763 E21.66446
G1 X11.111 Y17.038 E21.70101
G1 X10.802 Y16.312 E21.73644
G1 X10.537 Y15.532 E21.77343
G1 X10.411 Y15.082 E21.79441
G1 X10.285 Y14.538 E21.81948
G1 X10.235 Y14.279 E21.83133
G1 X10.151 Y13.723 E21.85657
G1 X10.096 Y13.157 E21.88211
G1 X10.069 Y12.689 E21.90316
G1 X10.064 Y12.129 E21.9283
G1 X10.071 Y11.881 E21.93944
G1 X10.107 Y11.321 E21.96464
G1 X10.132 Y11.072 E21.97588
G1 X10.209 Y10.517 E22.00104
G1 X10.253 Y10.271 E22.01226
G1 X10.371 Y9.721 E22.03751
G1 X10.429 Y9.489 E22.04825
G1 X10.584 Y8.953 E22.0733
G1 X10.661 Y8.72 E22.08432
G1 X10.856 Y8.192 E22.1096
G1 X10.952 Y7.958 E22.12095
G1 X11.184 Y7.45 E22.14603
G1 X11.291 Y7.236 E22.15677
G1 X11.559 Y6.744 E22.18193
M204 S3000
G0 F1500 X11.91 Y6.935
M204 S1500
G1 F300 X12.022 Y6.747 E22.19175
G1 X12.325 Y6.276 E22.2169
G1 X12.791 Y5.64 E22.2523
G1 X12.92 Y5.482 E22.26146
G1 X13.289 Y5.058 E22.2867
G1 X13.436 Y4.9 E22.29639
G1 X13.833 Y4.505 E22.32154
G1 X14.432 Y3.98 E22.3573
G1 X15.063 Y3.506 E22.39274
G1 X15.721 Y3.082 E22.42788
G1 X16.398 Y2.712 E22.46253
G1 X17.115 Y2.386 E22.49789
G1 X17.837 Y2.118 E22.53247
G1 X18.585 Y1.9 E22.56745
G1 X19.353 Y1.736 E22.60272
G1 X20.121 Y1.63 E22.63753
G1 X20.895 Y1.579 E22.67236
G1 X21.217 Y1.574 E22.68682
G1 X21.775 Y1.59 E22.71188
G1 X22.453 Y1.647 E22.74243
G1 X23.223 Y1.765 E22.77741
G1 X23.987 Y1.94 E22.8126
G1 X24.729 Y2.168 E22.84746
G1 X25.462 Y2.452 E22.88275
G1 X25.868 Y2.637 E22.90279
G1 X26.369 Y2.894 E22.92807
G1 X26.557 Y2.999 E22.93774
G1 X27.033 Y3.288 E22.96274
G1 X27.218 Y3.41 E22.97269
G1 X27.675 Y3.736 E22.9979
G1 X27.844 Y3.865 E23.00744
G1 X28.276 Y4.222 E23.03261
G1 X28.44 Y4.369 E23.0425
G1 X28.844 Y4.756 E23.06762
G1 X28.995 Y4.91 E23.0773
G1 X29.371 Y5.326 E23.10248
G1 X29.508 Y5.49 E23.11207
G1 X29.853 Y5.931 E23.13721
G1 X29.982 Y6.109 E23.14708
G1 X30.295 Y6.576 E23.17233
G1 X30.409 Y6.76 E23.18205
G1 X30.686 Y7.246 E23.20716
G1 X30.787 Y7.44 E23.21698
G1 X31.028 Y7.945 E23.24211
G1 X31.113 Y8.14 E23.25166
G1 X31.318 Y8.662 E23.27684
G1 X31.392 Y8.871 E23.2868
G1 X31.558 Y9.407 E23.31199
G1 X31.614 Y9.614 E23.32162
G1 X31.741 Y10.159 E23.34675
G1 X31.783 Y10.375 E23.35663
G1 X31.87 Y10.93 E23.38185
G1 X31.895 Y11.143 E23.39148
G1 X31.942 Y11.7 E23.41658
G1 X31.959 Y12.496 E23.45233
G1 X31.957 Y12.577 E23.45597
G1 X40.378 Y21.769 E24.01572
G1 X55.18 Y37.919 E24.99937
G1 X55.878 Y37.986 E25.03086
G1 X56.407 Y38.069 E25.0549
G1 X57.102 Y38.218 E25.08681
G1 X57.834 Y38.429 E25.12102
G1 X58.568 Y38.7 E25.15615
G1 X59.27 Y39.017 E25.19074
G1 X59.948 Y39.384 E25.22535
G1 X60.6 Y39.801 E25.26011
G1 X61.222 Y40.265 E25.29495
G1 X61.813 Y40.776 E25.33003
G1 X62.356 Y41.318 E25.36448
G1 X62.859 Y41.898 E25.39895
G1 X63.135 Y42.253 E25.41914
G1 X63.454 Y42.708 E25.44409
G1 X63.745 Y43.175 E25.4688
