; generated by PrusaSlicer 2.7.1+win64 on 2024-10-24 at 12:56:28 UTC

; 

; external perimeters extrusion width = 0.42mm
; perimeters extrusion width = 0.45mm
; infill extrusion width = 0.45mm
; solid infill extrusion width = 0.45mm
; top infill extrusion width = 0.42mm
; first layer extrusion width = 0.50mm

M201 X1000 Y1000 Z1000 E5000 ; sets maximum accelerations, mm/sec^2
M203 X200 Y200 Z12 E120 ; sets maximum feedrates, mm / sec
M204 S1250 T1250 ; sets acceleration (S) and retract acceleration (R), mm/sec^2
M205 X8.00 Y8.00 Z0.40 E1.50 ; sets the jerk limits, mm/sec
M205 S0 T0 ; sets the minimum extruding and travel feed rate, mm/sec
;TYPE:Custom
; Initial setups
G90 ; use absolute coordinates
M83 ; extruder relative mode
M220 S100 ; reset speed factor to 100%
M221 S100 ; reset extrusion rate to 100%

; Set the heating
M190 S0 ; wait for bed to heat up
M104 S205 ; start nozzle heating but don't wait

; Home
G1 Z3 F3000 ; move z up little to prevent scratching of surface
G28 ; home all axes
G1 X3 Y3 F5000 ; move to corner of the bed to avoid ooze over centre

; Wait for final heating
M109 S205 ; wait for the nozzle to heat up
M190 S0 ; wait for the bed to heat up

; Return to prime position, Prime line routine
G92 E0 ; Reset Extruder
G1 Z3 F3000 ; move z up little to prevent scratching of surface
G1 X10 Y.5 Z0.25 F5000.0 ; Move to start position
G1 X100 Y.5 Z0.25 F1500.0 E15 ; Draw the first line
G1 X100 Y.2 Z0.25 F5000.0 ; Move to side a little
G1 X10 Y.2 Z0.25 F1500.0 E30 ; Draw the second line
G92 E0 ; Reset Extruder
M221 S95
G21 ; set units to millimeters
G90 ; use absolute coordinates
M83 ; use relative distances for extrusion
; Filament gcode
M107
;LAYER_CHANGE
;Z:0.4
;HEIGHT:0.4
;BEFORE_LAYER_CHANGE
;0.4
G92 E0
G1 E-.8 F2400
G1 Z.4 F4800
;AFTER_LAYER_CHANGE
;0.4
G1 X175.693 Y150.502
G1 Z.4
G1 E.8 F2400
M204 S1250
;TYPE:External perimeter
;WIDTH:0.5
G1 F1200
G1 X175.662 Y150.394 E.00735
G1 X175.524 Y150.298 E.011
G1 X175.361 Y150.336 E.01095
G1 X125.066 Y188.054 E4.11345
G1 X124.623 Y188.255 E.03183
G1 X124.286 Y188.297 E.02222
G1 X106.033 Y188.296 E1.19432
G1 X105.925 Y188.284 E.00711
G1 X105.71 Y188.177 E.01571
G1 X105.618 Y187.922 E.01774
G1 X105.619 Y179.909 E.5243
G1 X105.711 Y179.686 E.01578
G1 X105.935 Y179.556 E.01695
G1 X107.253 Y179.45 E.08652
G1 X108.882 Y179.249 E.1074
G1 X110.52 Y178.965 E.10878
G1 X112.131 Y178.603 E.10804
G1 X113.713 Y178.165 E.10741
G1 X115.281 Y177.647 E.10805
G1 X116.822 Y177.053 E.10806
G1 X118.343 Y176.379 E.10885
G1 X119.961 Y175.555 E.11881
G1 X121.245 Y174.828 E.09655
G1 X122.641 Y173.944 E.10812
G1 X123.887 Y173.071 E.09955
G1 X166.878 Y140.827 E3.51622
G1 X167.529 Y140.204 E.05896
G1 X168.538 Y139.148 E.09557
G1 X169.483 Y138.048 E.09489
G1 X170.367 Y136.902 E.0947
G1 X171.19 Y135.709 E.09483
G1 X171.569 Y135.094 E.04727
G1 X172.178 Y134.058 E.07863
G1 X172.651 Y133.192 E.06456
G1 X173.279 Y131.883 E.095
G1 X173.836 Y130.543 E.09495
G1 X174.323 Y129.175 E.09501
G1 X174.739 Y127.779 E.09531
G1 X175.079 Y126.371 E.09478
G1 X175.346 Y124.936 E.09551
G1 X175.538 Y123.49 E.09544
G1 X175.652 Y122.04 E.09517
G1 X175.69 Y120.586 E.09517
G1 X175.69 Y112.212 E.54792
G1 X175.708 Y112.082 E.00859
G1 X175.823 Y111.874 E.01555
G1 X176.064 Y111.791 E.01668
G1 X193.985 Y111.792 E1.17259
G1 X194.163 Y111.823 E.01182
G1 X194.309 Y111.952 E.01275
G1 X194.375 Y112.182 E.01566
G1 X194.377 Y154.99 E2.80098
G1 X194.342 Y155.428 E.02875
G1 X194.197 Y155.785 E.02521
G1 X193.906 Y156.148 E.03044
G1 X193.504 Y156.385 E.03053
G1 X193.032 Y156.473 E.03142
G1 X177.162 Y156.473 E1.03839
G1 X176.645 Y156.412 E.03406
G1 X176.287 Y156.243 E.0259
G1 X176.041 Y156.031 E.02125
G1 X175.924 Y155.855 E.01383
G1 X175.764 Y155.529 E.02376
G1 X175.69 Y155.118 E.02732
G1 X175.693 Y150.622 E.29418
M204 S20000
G1 X176.098 Y150.443 F4800
M204 S1250
;TYPE:Perimeter
G1 F1200
G1 X176.078 Y150.315 E.00848
G1 X175.927 Y150.064 E.01917
G1 X175.68 Y149.912 E.01898
G1 X175.387 Y149.889 E.01923
G1 X175.113 Y150.005 E.01947
G1 X124.959 Y187.624 E4.10218
G1 X124.646 Y187.804 E.02363
G1 X124.261 Y187.882 E.0257
G1 X106.033 Y187.881 E1.19268
G1 X106.034 Y179.964 E.51802
G1 X107.304 Y179.861 E.08337
G1 X108.933 Y179.66 E.1074
G1 X110.61 Y179.369 E.11137
G1 X112.241 Y179.002 E.10939
G1 X113.823 Y178.564 E.10741
G1 X115.411 Y178.041 E.10939
G1 X117 Y177.428 E.11144
G1 X118.531 Y176.748 E.10961
G1 X120.149 Y175.924 E.11881
G1 X121.449 Y175.188 E.09775
G1 X122.862 Y174.294 E.10941
G1 X124.135 Y173.403 E.10167
G1 X167.126 Y141.159 E3.51622
G1 X167.828 Y140.49 E.06345
G1 X168.852 Y139.418 E.097
G1 X169.811 Y138.301 E.09633
G1 X170.708 Y137.137 E.09615
G1 X171.116 Y136.546 E.04699
G1 X171.542 Y135.927 E.04917
G1 X172.301 Y134.696 E.09463
G1 X173.024 Y133.371 E.09876
G1 X173.661 Y132.042 E.09643
G1 X174.227 Y130.682 E.09639
G1 X174.72 Y129.293 E.09644
G1 X175.141 Y127.876 E.09672
G1 X175.481 Y126.468 E.09478
G1 X175.753 Y125.012 E.09692
G1 X175.948 Y123.545 E.09683
G1 X176.065 Y122.072 E.09668
G1 X176.104 Y120.586 E.09726
G1 X176.106 Y112.205 E.54838
G1 X193.961 Y112.206 E1.16827
G1 X193.963 Y155.093 E2.80615
G1 X193.879 Y155.508 E.0277
G1 X193.642 Y155.823 E.02579
G1 X193.356 Y155.991 E.0217
G1 X192.993 Y156.059 E.02416
G1 X177.162 Y156.059 E1.03584
G1 X176.767 Y156.011 E.02604
G1 X176.435 Y155.824 E.02493
G1 X176.197 Y155.518 E.02537
G1 X176.104 Y155.097 E.02821
G1 X176.107 Y150.562 E.29673
;WIPE_START
G1 F3840
G1 X176.098 Y150.443 E-.07086
G1 X176.078 Y150.315 E-.07692
G1 X175.927 Y150.064 E-.17392
G1 X175.68 Y149.912 E-.1722
G1 X175.387 Y149.889 E-.1745
G1 X175.183 Y149.975 E-.1316
;WIPE_END
M204 S20000
G1 Z1 F4800
G1 X160.783 Y156.425
G1 Z.4
G1 E.8 F2400
M204 S1250
;TYPE:External perimeter
G1 F1200
G1 X160.783 Y150.251 E.40397
G1 X160.839 Y150.109 E.00999
G1 X160.99 Y150.044 E.01076
G1 X169.015 Y150.043 E.52509
G1 X169.212 Y150.185 E.01589
G1 X169.26 Y150.42 E.01569
G1 X169.181 Y150.542 E.00951
G1 X161.114 Y156.591 E.65974
G1 X160.954 Y156.629 E.01076
G1 X160.866 Y156.591 E.00627
G1 X160.836 Y156.533 E.00427
;WIPE_START
G1 F3840
G1 X160.783 Y156.425 E-.07143
G1 X160.783 Y155.198 E-.72857
;WIPE_END
M204 S20000
G1 Z1 F4800
G1 X162.794 Y148.851
G1 Z.4
G1 E.8 F2400
M204 S1250
G1 F1200
G1 X162.597 Y148.709 E.01589
G1 X162.545 Y148.515 E.01314
G1 X162.601 Y148.376 E.00981
G1 X162.627 Y148.353 E.00227
G1 X170.707 Y142.263 E.66203
G1 X170.875 Y142.226 E.01126
G1 X171.013 Y142.329 E.01127
G1 X171.038 Y143.249 E.06022
G1 X171.038 Y148.643 E.35294
G1 X170.982 Y148.784 E.00993
G1 X170.831 Y148.85 E.01078
G1 X162.914 Y148.851 E.51802
M204 S20000
G1 X162.794 Y149.447 F4800
M204 S1250
;TYPE:Perimeter
;WIDTH:0.864879
G1 F1200
G1 X169.015 Y149.447 E.76566
;WIPE_START
G1 F3840
G1 X167.668 Y149.447 E-.8
;WIPE_END
M204 S20000
G1 Z1 F4800
G1 X151.236 Y156.94
G1 Z.4
G1 E.8 F2400
M204 S1250
;TYPE:External perimeter
;WIDTH:0.5
G1 F1200
G1 X159.257 Y150.894 E.65722
G1 X159.418 Y150.856 E.01082
G1 X159.505 Y150.894 E.00621
G1 X159.589 Y151.06 E.01217
G1 X159.589 Y157.23 E.40371
G1 X159.566 Y157.324 E.00633
G1 X159.475 Y157.415 E.00842
G1 X158.856 Y157.437 E.04053
G1 X151.403 Y157.438 E.48766
G1 X151.206 Y157.297 E.01585
G1 X151.158 Y157.063 E.01563
G1 X151.172 Y157.041 E.00171
;WIPE_START
G1 F3840
G1 X151.236 Y156.94 E-.07099
G1 X152.216 Y156.201 E-.72901
;WIPE_END
M204 S20000
G1 Z1 F4800
G1 X160.192 Y156.565
G1 Z.4
G1 E.8 F2400
M204 S1250
;TYPE:Perimeter
;WIDTH:0.878071
G1 F1200
G1 X160.186 Y156.425 E.01754
;WIDTH:0.865907
G1 X160.186 Y151.06 E.66118
;WIPE_START
G1 F3840
G1 X160.186 Y152.407 E-.8
;WIPE_END
M204 S20000
G1 Z1 F4800
G1 X157.565 Y158.631
G1 Z.4
G1 E.8 F2400
M204 S1250
;TYPE:External perimeter
;WIDTH:0.5
G1 F1200
G1 X157.762 Y158.772 E.01585
G1 X157.81 Y159.007 E.01569
G1 X157.732 Y159.129 E.00947
G1 X149.864 Y165.029 E.64348
G1 X149.703 Y165.067 E.01082
G1 X149.61 Y165.024 E.0067
G1 X149.533 Y164.867 E.01144
G1 X149.409 Y158.843 E.39424
G1 X149.431 Y158.744 E.00664
G1 X149.522 Y158.654 E.00837
G1 X150.113 Y158.631 E.0387
G1 X157.445 Y158.631 E.47974
;WIPE_START
G1 F3840
G1 X157.565 Y158.631 E-.07125
G1 X157.762 Y158.772 E-.14384
G1 X157.81 Y159.007 E-.14241
G1 X157.732 Y159.129 E-.08598
G1 X157.252 Y159.489 E-.35652
;WIPE_END
M204 S20000
G1 Z1 F4800
G1 X151.403 Y158.035
G1 Z.4
G1 E.8 F2400
M204 S1250
;TYPE:Perimeter
;WIDTH:0.864887
G1 F1200
G1 X157.565 Y158.034 E.75841
;WIPE_START
G1 F3840
G1 X156.218 Y158.034 E-.8
;WIPE_END
M204 S20000
G1 Z1 F4800
G1 X140.243 Y165.851
G1 Z.4
G1 E.8 F2400
M204 S1250
;TYPE:External perimeter
;WIDTH:0.5
G1 F1200
G1 X140.047 Y165.71 E.0158
G1 X139.998 Y165.475 E.01571
G1 X140.076 Y165.353 E.00947
G1 X147.899 Y159.457 E.64097
G1 X148.061 Y159.419 E.01089
G1 X148.153 Y159.461 E.00662
G1 X148.23 Y159.618 E.01144
G1 X148.354 Y165.639 E.39404
G1 X148.298 Y165.785 E.01023
G1 X148.147 Y165.85 E.01076
G1 X140.363 Y165.851 E.50932
;WIPE_START
G1 F3840
G1 X140.243 Y165.851 E-.07125
G1 X140.047 Y165.71 E-.14336
G1 X139.998 Y165.475 E-.14253
G1 X140.076 Y165.353 E-.08598
G1 X140.556 Y164.991 E-.35688
;WIPE_END
M204 S20000
G1 Z1 F4800
G1 X146.348 Y167.044
G1 Z.4
G1 E.8 F2400
M204 S1250
G1 F1200
G1 X146.544 Y167.185 E.0158
G1 X146.592 Y167.42 E.01569
G1 X146.514 Y167.542 E.00947
G1 X138.704 Y173.399 E.63875
G1 X138.543 Y173.437 E.01082
G1 X138.452 Y173.396 E.00653
G1 X138.372 Y173.238 E.01159
G1 X138.249 Y167.256 E.39149
G1 X138.305 Y167.11 E.01023
G1 X138.456 Y167.044 E.01078
G1 X146.228 Y167.044 E.50853
;WIPE_START
G1 F3840
G1 X146.348 Y167.044 E-.07125
G1 X146.544 Y167.185 E-.14336
G1 X146.592 Y167.42 E-.14241
G1 X146.514 Y167.542 E-.08598
G1 X146.033 Y167.903 E-.357
;WIPE_END
M204 S20000
G1 Z1 F4800
G1 X140.243 Y166.448
G1 Z.4
G1 E.8 F2400
M204 S1250
;TYPE:Perimeter
;WIDTH:0.864885
G1 F1200
G1 X146.348 Y166.447 E.75139
;WIPE_START
G1 F3840
G1 X145.001 Y166.447 E-.8
;WIPE_END
M204 S20000
G1 Z1 F4800
G1 X148.945 Y165.019
G1 Z.4
G1 E.8 F2400
M204 S1250
;WIDTH:0.878085
G1 F1200
G1 X148.936 Y164.879 E.01756
;WIDTH:0.865915
G1 X148.827 Y159.606 E.64999
;WIPE_START
G1 F3840
G1 X148.855 Y160.953 E-.8
;WIPE_END
M204 S20000
G1 Z1 F4800
G1 X128.855 Y174.406
G1 Z.4
G1 E.8 F2400
M204 S1250
;TYPE:External perimeter
;WIDTH:0.5
G1 F1200
G1 X128.655 Y174.266 E.01597
G1 X128.604 Y174.03 E.0158
G1 X128.683 Y173.906 E.00962
G1 X136.739 Y167.865 E.65885
G1 X136.901 Y167.827 E.01089
G1 X136.994 Y167.87 E.0067
G1 X137.07 Y168.027 E.01141
G1 X137.181 Y173.402 E.35177
G1 X137.194 Y174.026 E.04084
G1 X137.138 Y174.172 E.01023
G1 X136.991 Y174.237 E.01052
G1 X128.975 Y174.403 E.52461
;WIPE_START
G1 F3840
G1 X128.855 Y174.406 E-.07127
G1 X128.655 Y174.266 E-.14495
G1 X128.604 Y174.03 E-.14336
G1 X128.683 Y173.906 E-.0873
G1 X129.159 Y173.549 E-.35312
;WIPE_END
M204 S20000
G1 Z1 F4800
G1 X137.784 Y173.39
G1 Z.4
G1 E.8 F2400
M204 S1250
;TYPE:Perimeter
;WIDTH:0.878095
G1 F1200
G1 X137.775 Y173.25 E.01756
;WIDTH:0.865917
G1 X137.667 Y168.014 E.64543
;WIPE_START
G1 F3840
G1 X137.695 Y169.361 E-.8
;WIPE_END
M204 S20000
G1 Z1 F4800
G1 X126.884 Y181.494
G1 Z.4
G1 E.8 F2400
M204 S1250
;TYPE:External perimeter
;WIDTH:0.5
G1 F1200
G1 X126.767 Y175.849 E.36944
G1 X126.823 Y175.703 E.01023
G1 X126.97 Y175.638 E.01052
G1 X135.106 Y175.469 E.53246
G1 X135.306 Y175.609 E.01597
G1 X135.357 Y175.845 E.0158
G1 X135.278 Y175.969 E.00962
G1 X127.222 Y182.01 E.65885
G1 X127.06 Y182.048 E.01089
G1 X126.921 Y181.952 E.01105
G1 X126.893 Y181.613 E.02226
;WIPE_START
G1 F3840
G1 X126.884 Y181.494 E-.07086
G1 X126.859 Y180.266 E-.72914
;WIPE_END
M204 S20000
G1 Z1 F4800
G1 X128.867 Y175.002
G1 Z.4
G1 E.8 F2400
M204 S1250
;TYPE:Perimeter
;WIDTH:0.864885
G1 F1200
G1 X135.094 Y174.873 E.76657
;WIPE_START
G1 F3840
G1 X133.747 Y174.901 E-.8
;WIPE_END
M204 S20000
G1 Z1 F4800
G1 X146.473 Y166.575
G1 Z.4
G1 E.8 F2400
M204 S1250
;WIDTH:0.819271
G1 F1200
G1 X146.495 Y166.599 E.00377
;WIDTH:0.77366
G1 X146.569 Y166.675 E.01153
;WIDTH:0.72805
G1 X146.643 Y166.751 E.01076
;WIDTH:0.68244
G1 X146.716 Y166.826 E.00986
;WIDTH:0.63683
G1 X146.79 Y166.902 E.00923
;WIDTH:0.59122
G1 X146.864 Y166.978 E.00847
;WIDTH:0.54561
G1 X146.937 Y167.054 E.00765
;WIDTH:0.5
G1 X147.011 Y167.385 E.02219
G1 X146.917 Y167.706 E.02189
G1 X146.763 Y167.873 E.01486
G1 X138.952 Y173.73 E.6388
G1 X138.784 Y173.82 E.01247
G1 X138.472 Y173.845 E.02048
;WIDTH:0.536002
G1 X138.323 Y173.798 E.01111
;WIDTH:0.572004
G1 X138.174 Y173.751 E.012
;WIDTH:0.615731
G1 X138.119 Y173.699 E.00634
;WIDTH:0.659458
G1 X138.063 Y173.648 E.00686
;WIDTH:0.703186
G1 X138.007 Y173.596 E.00745
;WIDTH:0.746913
G1 X137.951 Y173.545 E.00791
;WIDTH:0.79064
G1 X137.896 Y173.493 E.00843
;WIDTH:0.834367
G1 X137.84 Y173.441 E.00904
;WIDTH:0.878095
G1 X137.784 Y173.39 E.00948
G1 X137.764 Y173.479 E.01142
;WIDTH:0.834367
G1 X137.744 Y173.569 E.0109
;WIDTH:0.79064
G1 X137.724 Y173.658 E.01016
;WIDTH:0.746913
G1 X137.704 Y173.748 E.00963
;WIDTH:0.703186
G1 X137.684 Y173.837 E.0089
;WIDTH:0.659458
G1 X137.664 Y173.927 E.00836
;WIDTH:0.615731
G1 X137.644 Y174.016 E.00764
;WIDTH:0.572004
G1 X137.556 Y174.219 E.01699
;WIDTH:0.536002
G1 X137.468 Y174.423 E.0158
;WIDTH:0.5
G1 X137.268 Y174.584 E.0168
G1 X137 Y174.651 E.01808
G1 X136.261 Y174.666 E.04836
;WIDTH:0.54561
G1 X136.115 Y174.692 E.01077
;WIDTH:0.591221
G1 X135.969 Y174.718 E.01184
;WIDTH:0.636832
G1 X135.823 Y174.744 E.01291
;WIDTH:0.682442
G1 X135.678 Y174.77 E.01388
;WIDTH:0.728053
G1 X135.532 Y174.795 E.01503
;WIDTH:0.773664
G1 X135.386 Y174.821 E.01611
;WIDTH:0.819274
G1 X135.24 Y174.847 E.01718
;WIDTH:0.864885
G1 X135.094 Y174.873 E.01825
G1 X135.169 Y174.948 E.01305
;WIDTH:0.819274
G1 X135.245 Y175.023 E.01237
;WIDTH:0.773664
G1 X135.32 Y175.098 E.01153
;WIDTH:0.728053
G1 X135.396 Y175.173 E.01083
;WIDTH:0.682442
G1 X135.471 Y175.249 E.01006
;WIDTH:0.636832
G1 X135.547 Y175.324 E.00929
;WIDTH:0.591221
G1 X135.622 Y175.399 E.00847
;WIDTH:0.54561
G1 X135.698 Y175.474 E.00776
;WIDTH:0.5
G1 X135.775 Y175.836 E.02422
G1 X135.683 Y176.129 E.02009
G1 X135.527 Y176.3 E.01515
G1 X127.471 Y182.341 E.65885
G1 X127.228 Y182.452 E.01748
G1 X126.983 Y182.455 E.01603
G1 X126.787 Y182.382 E.01369
G1 X126.568 Y182.168 E.02003
G1 X126.477 Y181.87 E.02039
G1 X126.353 Y175.858 E.39346
G1 X126.436 Y175.535 E.02182
G1 X126.628 Y175.329 E.01843
G1 X126.911 Y175.227 E.01968
G1 X127.7 Y175.209 E.05164
;WIDTH:0.545608
G1 X127.846 Y175.183 E.01077
;WIDTH:0.591217
G1 X127.992 Y175.157 E.01184
;WIDTH:0.636826
G1 X128.138 Y175.131 E.01291
;WIDTH:0.682434
G1 X128.284 Y175.105 E.01398
;WIDTH:0.728043
G1 X128.43 Y175.08 E.01503
;WIDTH:0.773651
G1 X128.576 Y175.054 E.01611
;WIDTH:0.81926
G1 X128.721 Y175.028 E.01707
;WIDTH:0.864869
G1 X128.867 Y175.002 E.01825
G1 X128.792 Y174.927 E.01305
;WIDTH:0.81926
G1 X128.716 Y174.852 E.01237
;WIDTH:0.773651
G1 X128.641 Y174.777 E.01153
;WIDTH:0.728043
G1 X128.565 Y174.702 E.01083
;WIDTH:0.682434
G1 X128.49 Y174.626 E.01006
;WIDTH:0.636826
G1 X128.414 Y174.551 E.00929
;WIDTH:0.591217
G1 X128.339 Y174.476 E.00847
;WIDTH:0.545608
G1 X128.263 Y174.401 E.00776
;WIDTH:0.5
G1 X128.187 Y174.039 E.0242
G1 X128.278 Y173.746 E.02007
G1 X128.434 Y173.575 E.01515
G1 X136.491 Y167.534 E.65891
G1 X136.661 Y167.444 E.01259
G1 X136.975 Y167.42 E.02061
;WIDTH:0.515483
G1 X137.259 Y167.542 E.02098
;WIDTH:0.559287
G1 X137.31 Y167.601 E.00583
;WIDTH:0.603091
G1 X137.361 Y167.66 E.00637
;WIDTH:0.646896
G1 X137.412 Y167.719 E.00691
;WIDTH:0.6907
G1 X137.463 Y167.778 E.00745
;WIDTH:0.734504
G1 X137.514 Y167.837 E.00799
;WIDTH:0.778308
G1 X137.565 Y167.896 E.00853
;WIDTH:0.822112
G1 X137.616 Y167.955 E.00907
;WIDTH:0.865917
G1 X137.667 Y168.014 E.00961
G1 X137.687 Y167.921 E.01172
;WIDTH:0.822112
G1 X137.707 Y167.827 E.01118
;WIDTH:0.778308
G1 X137.727 Y167.733 E.01051
;WIDTH:0.734504
G1 X137.747 Y167.639 E.00985
;WIDTH:0.6907
G1 X137.767 Y167.546 E.00909
;WIDTH:0.646896
G1 X137.787 Y167.452 E.00852
;WIDTH:0.603091
G1 X137.807 Y167.358 E.00785
;WIDTH:0.559287
G1 X137.827 Y167.264 E.00719
;WIDTH:0.515483
G1 X137.905 Y166.965 E.02097
;WIDTH:0.5
G1 X138.083 Y166.754 E.01806
G1 X138.384 Y166.634 E.0212
G1 X139.086 Y166.63 E.04593
;WIDTH:0.54561
G1 X139.231 Y166.607 E.01066
;WIDTH:0.591221
