;FLAVOR:Marlin
;TIME:1963
;Filament used: 2.85078m
;Layer height: 0.4
;MINX:1.67
;MINY:3.259
;MINZ:0.4
;MAXX:204.939
;MAXY:207.999
;MAXZ:5.2
;Generated with Cura_SteamEngine 4.10.0
M104 S210
M105
M109 S210
M82 ;absolute extrusion mode
G21 ;metric values
G90 ;absolute positioning
M82 ;set extruder to absolute mode
M107 ;start with the fan off
G28 X0 Y0 ;move X/Y to min endstops
G28 Z0 ;move Z to min endstops
M501
M420 S1 ;Marlin Bed-leveling on
G1 Z15.0 F180.0 ;move the platform down 15mm
G92 E0 ;zero the extruded length
G1 F200 E3 ;extrude 3mm of feed stock
G92 E0 ;zero the extruded length again
G1 F180.0
M117 Printing...
G5
G92 E0
G92 E0
;LAYER_COUNT:14
;LAYER:0
M107
M204 S3000
M205 X10 Y10
;MESH:AnyStrap_v2.1_3button_L-244mm.stl
G0 F7200 X27.403 Y20.589 Z0.4
M204 S1000
M205 X8 Y8
;TYPE:WALL-INNER
G1 F1200 X28.06 Y20.675 E0.07251
G1 X28.717 Y20.589 E0.14501
G1 X29.333 Y20.334 E0.21797
G1 X29.804 Y19.972 E0.28297
G1 X37.757 Y12.019 E1.51371
G1 X38.12 Y11.548 E1.57878
G1 X38.373 Y10.933 E1.65155
G1 X38.46 Y10.275 E1.72418
G1 X38.373 Y9.617 E1.7968
G1 X38.12 Y9.004 E1.86937
G1 X37.716 Y8.477 E1.94203
G1 X37.188 Y8.071 E2.01492
G1 X36.573 Y7.818 E2.08769
G1 X35.916 Y7.731 E2.16021
G1 X35.258 Y7.818 E2.23284
G1 X34.646 Y8.071 E2.3053
G1 X34.173 Y8.433 E2.37048
G1 X26.218 Y16.388 E3.60153
G1 X25.856 Y16.861 E3.6667
G1 X25.603 Y17.473 E3.73917
G1 X25.516 Y18.131 E3.8118
G1 X25.603 Y18.789 E3.88443
G1 X25.856 Y19.404 E3.9572
G1 X26.262 Y19.931 E4.02999
G1 X26.788 Y20.334 E4.1025
G1 X27.403 Y20.589 E4.17535
M204 S3000
M205 X10 Y10
G0 F7200 X33.147 Y26.515
G0 X34.138 Y27.324
M204 S1000
M205 X8 Y8
G1 F1200 X34.795 Y27.41 E4.24786
G1 X35.453 Y27.324 E4.32047
G1 X36.068 Y27.071 E4.39324
G1 X36.539 Y26.708 E4.45831
G1 X44.492 Y18.755 E5.68905
G1 X44.854 Y18.283 E5.75414
G1 X45.109 Y17.668 E5.82699
G1 X45.195 Y17.011 E5.8995
G1 X45.109 Y16.352 E5.97222
G1 X44.853 Y15.737 E6.04512
G1 X44.451 Y15.214 E6.1173
G1 X43.925 Y14.807 E6.19008
G1 X43.309 Y14.553 E6.26299
G1 X42.651 Y14.467 E6.3356
G1 X41.994 Y14.553 E6.40811
G1 X41.379 Y14.806 E6.48088
G1 X40.907 Y15.17 E6.5461
G1 X32.953 Y23.123 E7.77692
G1 X32.591 Y23.596 E7.8421
G1 X32.338 Y24.208 E7.91456
G1 X32.251 Y24.866 E7.98719
G1 X32.338 Y25.525 E8.05993
G1 X32.591 Y26.137 E8.13239
G1 X32.996 Y26.666 E8.2053
G1 X33.525 Y27.071 E8.2782
G1 X34.138 Y27.324 E8.35076
M204 S3000
M205 X10 Y10
G0 F7200 X39.882 Y33.25
G0 X40.872 Y34.059
M204 S1000
M205 X8 Y8
G1 F1200 X41.531 Y34.146 E8.4235
G1 X42.189 Y34.059 E8.49613
G1 X42.801 Y33.806 E8.5686
G1 X43.274 Y33.444 E8.63377
G1 X51.227 Y25.49 E9.86459
G1 X51.589 Y25.018 E9.92968
G1 X51.844 Y24.403 E10.00253
G1 X51.93 Y23.746 E10.07504
G1 X51.844 Y23.087 E10.14776
G1 X51.588 Y22.473 E10.22056
G1 X51.185 Y21.947 E10.29306
G1 X50.659 Y21.544 E10.36557
G1 X50.045 Y21.288 E10.43837
G1 X49.386 Y21.202 E10.51109
G1 X48.729 Y21.288 E10.5836
G1 X48.114 Y21.543 E10.65645
G1 X47.642 Y21.905 E10.72154
G1 X39.689 Y29.858 E11.95228
G1 X39.326 Y30.329 E12.01735
G1 X39.073 Y30.944 E12.09012
G1 X38.987 Y31.602 E12.16273
G1 X39.073 Y32.259 E12.23524
G1 X39.326 Y32.872 E12.3078
G1 X39.731 Y33.401 E12.38071
G1 X40.26 Y33.806 E12.45361
G1 X40.872 Y34.059 E12.52608
M204 S3000
M205 X10 Y10
G0 F7200 X46.618 Y39.985
G0 X47.608 Y40.794
M204 S1000
M205 X8 Y8
G1 F1200 X48.266 Y40.881 E12.5987
G1 X48.924 Y40.794 E12.67133
G1 X49.536 Y40.541 E12.7438
G1 X50.009 Y40.179 E12.80898
G1 X57.964 Y32.224 E14.04002
G1 X58.326 Y31.751 E14.1052
G1 X58.579 Y31.139 E14.17767
G1 X58.666 Y30.481 E14.2503
G1 X58.579 Y29.824 E14.32282
G1 X58.326 Y29.209 E14.39559
G1 X57.92 Y28.681 E14.46847
G1 X57.393 Y28.277 E14.54113
G1 X56.78 Y28.024 E14.6137
G1 X56.124 Y27.937 E14.68611
G1 X55.463 Y28.023 E14.75905
G1 X54.848 Y28.279 E14.83194
G1 X54.378 Y28.64 E14.89679
G1 X46.425 Y36.593 E16.12753
G1 X46.064 Y37.063 E16.19238
G1 X45.808 Y37.678 E16.26528
G1 X45.722 Y38.337 E16.338
G1 X45.808 Y38.994 E16.41051
G1 X46.063 Y39.609 E16.48336
G1 X46.466 Y40.135 E16.55587
G1 X46.993 Y40.541 E16.62866
G1 X47.608 Y40.794 E16.70143
M204 S3000
M205 X10 Y10
G0 F7200 X53.353 Y46.72
G0 X54.344 Y47.529
M204 S1000
M205 X8 Y8
G1 F1200 X55.001 Y47.616 E16.77395
G1 X55.659 Y47.529 E16.84658
G1 X56.271 Y47.276 E16.91905
G1 X56.744 Y46.914 E16.98423
G1 X64.698 Y38.96 E18.21512
G1 X65.061 Y38.488 E18.28028
G1 X65.314 Y37.873 E18.35304
G1 X65.401 Y37.216 E18.42556
G1 X65.314 Y36.558 E18.49819
G1 X65.061 Y35.946 E18.57066
G1 X64.656 Y35.417 E18.64356
G1 X64.127 Y35.012 E18.71647
G1 X63.515 Y34.759 E18.78893
G1 X62.857 Y34.672 E18.86156
G1 X62.199 Y34.759 E18.93419
G1 X61.584 Y35.012 E19.00696
G1 X61.113 Y35.375 E19.07203
G1 X53.16 Y43.328 E20.30277
G1 X52.798 Y43.8 E20.36786
G1 X52.543 Y44.415 E20.44071
G1 X52.457 Y45.073 E20.51332
G1 X52.544 Y45.729 E20.58574
G1 X52.797 Y46.343 E20.6584
G1 X53.202 Y46.871 E20.73122
G1 X53.73 Y47.276 E20.80404
G1 X54.344 Y47.529 E20.8767
M204 S3000
M205 X10 Y10
G0 F7200 X60.088 Y53.455
G0 X61.079 Y54.265
M204 S1000
M205 X8 Y8
G1 F1200 X61.736 Y54.351 E20.94921
G1 X62.393 Y54.265 E21.02172
G1 X63.009 Y54.01 E21.09467
G1 X63.48 Y53.648 E21.15967
G1 X71.433 Y45.695 E22.39041
G1 X71.796 Y45.224 E22.45548
G1 X72.049 Y44.609 E22.52825
G1 X72.136 Y43.951 E22.60088
G1 X72.049 Y43.293 E22.67351
G1 X71.796 Y42.68 E22.74607
G1 X71.392 Y42.153 E22.81874
G1 X70.864 Y41.747 E22.89162
G1 X70.249 Y41.494 E22.96439
G1 X69.592 Y41.407 E23.03691
G1 X68.934 Y41.494 E23.10954
G1 X68.322 Y41.747 E23.182
G1 X67.849 Y42.109 E23.24718
G1 X59.894 Y50.064 E24.47823
G1 X59.532 Y50.537 E24.54341
G1 X59.279 Y51.149 E24.61587
G1 X59.192 Y51.807 E24.6885
G1 X59.279 Y52.465 E24.76113
G1 X59.532 Y53.08 E24.8339
G1 X59.938 Y53.607 E24.90669
G1 X60.464 Y54.01 E24.9792
G1 X61.079 Y54.265 E25.05206
M204 S3000
M205 X10 Y10
G0 F7200 X66.823 Y60.19
G0 X67.814 Y61
M204 S1000
M205 X8 Y8
G1 F1200 X68.471 Y61.086 E25.12456
G1 X69.128 Y61 E25.19707
G1 X69.744 Y60.745 E25.27002
G1 X70.215 Y60.383 E25.33503
G1 X78.168 Y52.43 E26.56576
G1 X78.529 Y51.96 E26.63061
G1 X78.785 Y51.345 E26.70351
G1 X78.871 Y50.686 E26.77623
G1 X78.785 Y50.029 E26.84874
G1 X78.53 Y49.414 E26.92159
G1 X78.126 Y48.888 E26.99417
G1 X77.599 Y48.482 E27.06696
G1 X76.984 Y48.229 E27.13973
G1 X76.327 Y48.142 E27.21225
G1 X75.669 Y48.229 E27.28488
G1 X75.057 Y48.482 E27.35735
G1 X74.584 Y48.844 E27.42252
G1 X66.629 Y56.799 E28.65357
G1 X66.267 Y57.272 E28.71875
G1 X66.014 Y57.884 E28.79121
G1 X65.927 Y58.542 E28.86384
G1 X66.014 Y59.2 E28.93647
G1 X66.267 Y59.815 E29.00924
G1 X66.673 Y60.342 E29.08204
G1 X67.199 Y60.745 E29.15455
G1 X67.814 Y61 E29.2274
M204 S3000
M205 X10 Y10
G0 F7200 X73.558 Y66.926
G0 X74.548 Y67.735
M204 S1000
M205 X8 Y8
G1 F1200 X75.206 Y67.822 E29.30003
G1 X75.864 Y67.735 E29.37266
G1 X76.479 Y67.482 E29.44543
G1 X76.95 Y67.119 E29.5105
G1 X84.903 Y59.166 E30.74123
G1 X85.265 Y58.694 E30.80632
G1 X85.52 Y58.079 E30.87918
G1 X85.606 Y57.422 E30.95168
G1 X85.52 Y56.763 E31.02441
G1 X85.264 Y56.149 E31.0972
G1 X84.861 Y55.623 E31.16971
G1 X84.335 Y55.22 E31.24222
G1 X83.721 Y54.964 E31.31501
G1 X83.062 Y54.878 E31.38774
G1 X82.405 Y54.964 E31.46024
G1 X81.79 Y55.219 E31.53309
G1 X81.318 Y55.581 E31.59818
G1 X73.365 Y63.534 E32.82892
G1 X73.002 Y64.005 E32.89399
G1 X72.749 Y64.62 E32.96676
G1 X72.662 Y65.278 E33.03939
G1 X72.749 Y65.936 E33.11202
G1 X73.002 Y66.548 E33.18449
G1 X73.407 Y67.077 E33.25739
G1 X73.936 Y67.482 E33.33029
G1 X74.548 Y67.735 E33.40276
M204 S3000
M205 X10 Y10
G0 F7200 X80.293 Y73.662
G0 X81.284 Y74.47
M204 S1000
M205 X8 Y8
G1 F1200 X81.942 Y74.557 E33.47539
G1 X82.6 Y74.47 E33.54801
G1 X83.212 Y74.217 E33.62048
G1 X83.685 Y73.855 E33.68566
G1 X91.64 Y65.9 E34.91671
G1 X92.002 Y65.427 E34.98188
G1 X92.255 Y64.815 E35.05435
G1 X92.342 Y64.157 E35.12698
G1 X92.255 Y63.499 E35.19961
G1 X92.002 Y62.884 E35.27237
G1 X91.596 Y62.357 E35.34517
G1 X91.07 Y61.954 E35.41768
G1 X90.455 Y61.699 E35.49053
G1 X89.798 Y61.613 E35.56304
G1 X89.14 Y61.699 E35.63565
G1 X88.525 Y61.954 E35.70851
G1 X88.053 Y62.316 E35.7736
G1 X80.1 Y70.269 E37.00433
G1 X79.737 Y70.74 E37.0694
G1 X79.484 Y71.355 E37.14217
G1 X79.398 Y72.013 E37.21479
G1 X79.484 Y72.67 E37.28729
G1 X79.737 Y73.285 E37.36006
G1 X80.143 Y73.812 E37.43286
G1 X80.669 Y74.217 E37.5055
G1 X81.284 Y74.47 E37.57827
M204 S3000
M205 X10 Y10
G0 F7200 X87.029 Y80.396
G0 X88.019 Y81.205
M204 S1000
M205 X8 Y8
G1 F1200 X88.677 Y81.292 E37.6509
G1 X89.335 Y81.205 E37.72353
G1 X89.947 Y80.952 E37.79599
G1 X90.42 Y80.59 E37.86117
G1 X98.375 Y72.635 E39.09222
G1 X98.737 Y72.162 E39.1574
G1 X98.99 Y71.55 E39.22986
G1 X99.077 Y70.892 E39.30249
G1 X98.99 Y70.235 E39.37501
G1 X98.737 Y69.62 E39.44778
G1 X98.331 Y69.092 E39.52066
G1 X97.804 Y68.688 E39.59333
G1 X97.191 Y68.435 E39.66589
G1 X96.533 Y68.348 E39.73852
G1 X95.875 Y68.435 E39.81115
G1 X95.26 Y68.688 E39.88392
G1 X94.789 Y69.051 E39.94899
G1 X86.836 Y77.004 E41.17973
G1 X86.474 Y77.475 E41.24473
G1 X86.219 Y78.091 E41.31769
G1 X86.133 Y78.748 E41.39019
G1 X86.219 Y79.405 E41.4627
G1 X86.474 Y80.02 E41.53555
G1 X86.877 Y80.546 E41.60806
G1 X87.404 Y80.952 E41.68086
G1 X88.019 Y81.205 E41.75362
M204 S3000
M205 X10 Y10
G0 F7200 X93.764 Y87.131
G0 X94.755 Y87.94
M204 S1000
M205 X8 Y8
G1 F1200 X95.412 Y88.027 E41.82614
G1 X96.07 Y87.94 E41.89877
G1 X96.682 Y87.687 E41.97124
G1 X97.155 Y87.325 E42.03642
G1 X105.109 Y79.371 E43.26731
G1 X105.472 Y78.899 E43.33247
G1 X105.725 Y78.284 E43.40524
G1 X105.812 Y77.627 E43.47776
G1 X105.725 Y76.969 E43.55038
G1 X105.472 Y76.357 E43.62285
G1 X105.067 Y75.828 E43.69575
G1 X104.538 Y75.423 E43.76866
G1 X103.926 Y75.17 E43.84112
G1 X103.268 Y75.083 E43.91375
G1 X102.611 Y75.17 E43.98627
G1 X101.996 Y75.423 E44.05904
G1 X101.524 Y75.786 E44.1242
G1 X93.571 Y83.739 E45.35494
G1 X93.209 Y84.211 E45.42003
G1 X92.954 Y84.826 E45.49288
G1 X92.868 Y85.484 E45.56549
G1 X92.955 Y86.14 E45.6379
G1 X93.208 Y86.754 E45.71057
G1 X93.613 Y87.282 E45.78339
G1 X94.141 Y87.687 E45.8562
G1 X94.755 Y87.94 E45.92887
M204 S3000
M205 X10 Y10
G0 F7200 X100.499 Y93.866
G0 X101.49 Y94.676
M204 S1000
M205 X8 Y8
G1 F1200 X102.147 Y94.762 E46.00138
G1 X102.804 Y94.676 E46.07388
G1 X103.42 Y94.421 E46.14684
G1 X103.891 Y94.059 E46.21184
G1 X111.844 Y86.106 E47.44258
G1 X112.207 Y85.635 E47.50765
G1 X112.46 Y85.02 E47.58042
G1 X112.547 Y84.362 E47.65305
G1 X112.46 Y83.704 E47.72568
G1 X112.207 Y83.091 E47.79824
G1 X111.803 Y82.564 E47.87091
G1 X111.275 Y82.158 E47.94379
G1 X110.66 Y81.905 E48.01656
G1 X110.003 Y81.818 E48.08908
G1 X109.345 Y81.905 E48.16171
G1 X108.733 Y82.158 E48.23417
G1 X108.26 Y82.52 E48.29935
G1 X100.305 Y90.475 E49.5304
G1 X99.943 Y90.948 E49.59558
G1 X99.69 Y91.56 E49.66804
G1 X99.603 Y92.218 E49.74067
G1 X99.69 Y92.876 E49.8133
G1 X99.943 Y93.491 E49.88607
G1 X100.349 Y94.018 E49.95886
G1 X100.875 Y94.421 E50.03137
G1 X101.49 Y94.676 E50.10423
M204 S3000
M205 X10 Y10
G0 F7200 X107.234 Y100.601
G0 X108.225 Y101.411
M204 S1000
M205 X8 Y8
G1 F1200 X108.882 Y101.497 E50.17673
G1 X109.541 Y101.411 E50.24946
G1 X110.156 Y101.155 E50.32235
G1 X110.626 Y100.794 E50.3872
G1 X118.579 Y92.842 E51.61786
G1 X118.941 Y92.37 E51.68295
G1 X119.196 Y91.755 E51.7558
G1 X119.282 Y91.097 E51.82842
G1 X119.196 Y90.44 E51.90092
G1 X118.941 Y89.825 E51.97378
G1 X118.537 Y89.299 E52.04635
G1 X118.01 Y88.893 E52.11915
G1 X117.395 Y88.64 E52.19192
G1 X116.738 Y88.554 E52.26442
G1 X116.081 Y88.64 E52.33693
G1 X115.468 Y88.893 E52.4095
G1 X114.995 Y89.255 E52.47467
G1 X107.04 Y97.21 E53.70572
G1 X106.678 Y97.683 E53.7709
G1 X106.425 Y98.295 E53.84336
G1 X106.338 Y98.953 E53.91599
G1 X106.425 Y99.611 E53.98862
G1 X106.678 Y100.226 E54.06139
G1 X107.084 Y100.753 E54.13419
G1 X107.61 Y101.156 E54.2067
G1 X108.225 Y101.411 E54.27955
M204 S3000
M205 X10 Y10
G0 F7200 X113.969 Y107.337
G0 X114.959 Y108.146
M204 S1000
M205 X8 Y8
G1 F1200 X115.617 Y108.233 E54.35218
G1 X116.276 Y108.146 E54.42492
G1 X116.888 Y107.893 E54.49738
G1 X117.361 Y107.531 E54.56256
G1 X125.314 Y99.577 E55.79337
G1 X125.676 Y99.105 E55.85846
G1 X125.931 Y98.49 E55.93132
G1 X126.017 Y97.833 E56.00382
G1 X125.931 Y97.174 E56.07655
G1 X125.675 Y96.56 E56.14934
G1 X125.272 Y96.034 E56.22185
G1 X124.746 Y95.631 E56.29436
G1 X124.132 Y95.375 E56.36715
G1 X123.473 Y95.289 E56.43987
G1 X122.816 Y95.375 E56.51238
G1 X122.201 Y95.63 E56.58523
G1 X121.729 Y95.992 E56.65032
G1 X113.775 Y103.945 E57.88114
G1 X113.413 Y104.418 E57.94632
G1 X113.16 Y105.03 E58.01878
G1 X113.073 Y105.689 E58.09152
G1 X113.16 Y106.347 E58.16415
G1 X113.413 Y106.959 E58.23661
G1 X113.818 Y107.488 E58.30952
G1 X114.347 Y107.893 E58.38242
G1 X114.959 Y108.146 E58.45489
M204 S3000
M205 X10 Y10
G0 F7200 X120.705 Y114.072
G0 X121.695 Y114.881
M204 S1000
M205 X8 Y8
G1 F1200 X122.353 Y114.968 E58.52751
G1 X123.011 Y114.881 E58.60014
G1 X123.623 Y114.628 E58.67261
G1 X124.096 Y114.266 E58.73779
G1 X132.051 Y106.311 E59.96883
G1 X132.413 Y105.838 E60.03401
G1 X132.666 Y105.225 E60.10658
G1 X132.752 Y104.568 E60.17908
G1 X132.666 Y103.911 E60.25159
G1 X132.413 Y103.296 E60.32436
G1 X132.007 Y102.769 E60.39715
G1 X131.481 Y102.365 E60.46973
G1 X130.866 Y102.11 E60.54258
G1 X130.208 Y102.024 E60.6152
G1 X129.551 Y102.11 E60.6877
G1 X128.936 Y102.365 E60.76056
G1 X128.464 Y102.727 E60.82565
G1 X120.512 Y110.68 E62.05631
G1 X120.151 Y111.15 E62.12116
G1 X119.895 Y111.765 E62.19405
G1 X119.809 Y112.424 E62.26678
G1 X119.895 Y113.081 E62.33928
G1 X120.15 Y113.696 E62.41213
G1 X120.553 Y114.222 E62.48464
G1 X121.08 Y114.628 E62.55744
G1 X121.695 Y114.881 E62.63021
M204 S3000
M205 X10 Y10
G0 F7200 X127.44 Y120.807
G0 X128.43 Y121.616
M204 S1000
M205 X8 Y8
G1 F1200 X129.088 Y121.703 E62.70284
G1 X129.746 Y121.616 E62.77547
G1 X130.358 Y121.363 E62.84793
G1 X130.831 Y121.001 E62.91311
G1 X138.786 Y113.046 E64.14416
G1 X139.148 Y112.573 E64.20933
G1 X139.401 Y111.961 E64.2818
G1 X139.488 Y111.303 E64.35443
G1 X139.401 Y110.646 E64.42695
G1 X139.148 Y110.031 E64.49972
G1 X138.742 Y109.503 E64.5726
G1 X138.215 Y109.099 E64.64526
G1 X137.602 Y108.846 E64.71783
G1 X136.944 Y108.759 E64.79046
G1 X136.286 Y108.846 E64.86309
G1 X135.671 Y109.099 E64.93586
G1 X135.2 Y109.462 E65.00093
G1 X127.247 Y117.415 E66.23167
G1 X126.885 Y117.887 E66.29676
G1 X126.63 Y118.502 E66.36961
G1 X126.544 Y119.159 E66.44211
G1 X126.63 Y119.816 E66.51462
G1 X126.885 Y120.431 E66.58747
G1 X127.288 Y120.957 E66.65998
G1 X127.815 Y121.363 E66.73278
G1 X128.43 Y121.616 E66.80555
M204 S3000
M205 X10 Y10
G0 F7200 X134.174 Y127.542
G0 X135.166 Y128.352
M204 S1000
M205 X8 Y8
G1 F1200 X135.823 Y128.438 E66.87805
G1 X136.48 Y128.352 E66.95056
G1 X137.095 Y128.097 E67.02341
G1 X137.567 Y127.735 E67.0885
G1 X145.52 Y119.782 E68.31924
G1 X145.883 Y119.31 E68.3844
G1 X146.136 Y118.695 E68.45717
G1 X146.223 Y118.038 E68.52969
G1 X146.136 Y117.38 E68.60232
G1 X145.883 Y116.768 E68.67478
G1 X145.478 Y116.239 E68.74768
G1 X144.949 Y115.834 E68.82059
G1 X144.337 Y115.581 E68.89305
G1 X143.679 Y115.494 E68.96568
G1 X143.022 Y115.581 E69.0382
G1 X142.407 Y115.834 E69.11097
G1 X141.935 Y116.197 E69.17613
G1 X133.981 Y124.151 E70.40702
G1 X133.619 Y124.624 E70.4722
G1 X133.366 Y125.236 E70.54466
G1 X133.279 Y125.894 E70.61729
G1 X133.366 Y126.551 E70.68981
G1 X133.619 Y127.165 E70.76248
G1 X134.023 Y127.693 E70.83523
G1 X134.55 Y128.097 E70.90789
G1 X135.166 Y128.352 E70.98085
M204 S3000
M205 X10 Y10
G0 F7200 X140.91 Y134.277
G0 X141.901 Y135.087
M204 S1000
M205 X8 Y8
G1 F1200 X142.558 Y135.173 E71.05335
G1 X143.215 Y135.087 E71.12586
G1 X143.831 Y134.832 E71.19881
G1 X144.302 Y134.47 E71.26382
G1 X152.255 Y126.517 E72.49456
G1 X152.618 Y126.046 E72.55963
G1 X152.871 Y125.431 E72.63239
G1 X152.958 Y124.773 E72.70502
G1 X152.871 Y124.115 E72.77765
G1 X152.618 Y123.502 E72.85022
G1 X152.214 Y122.975 E72.92288
G1 X151.686 Y122.569 E72.99576
G1 X151.071 Y122.316 E73.06853
G1 X150.414 Y122.229 E73.14105
G1 X149.756 Y122.316 E73.21368
G1 X149.144 Y122.569 E73.28615
G1 X148.671 Y122.931 E73.35133
G1 X140.716 Y130.886 E74.58237
G1 X140.354 Y131.359 E74.64755
G1 X140.101 Y131.971 E74.72002
G1 X140.014 Y132.629 E74.79265
G1 X140.101 Y133.287 E74.86527
