;FLAVOR:Marlin
;TIME:984
;Filament used: 1.42505m
;Layer height: 0.4
;MINX:13.485
;MINY:13.854
;MINZ:0.4
;MAXX:197.382
;MAXY:197.75
;MAXZ:5.2
;Generated with Cura_SteamEngine 4.10.0
M104 S210
M105
M109 S210
M82 ;absolute extrusion mode
G21 ;metric values
G90 ;absolute positioning
M82 ;set extruder to absolute mode
M107 ;start with the fan off
G28 X0 Y0 ;move X/Y to min endstops
G28 Z0 ;move Z to min endstops
M501
M420 S1 ;Marlin Bed-leveling on
G1 Z15.0 F180.0 ;move the platform down 15mm
G92 E0 ;zero the extruded length
G1 F200 E3 ;extrude 3mm of feed stock
G92 E0 ;zero the extruded length again
G1 F180.0
M117 Printing...
G5
G92 E0
G92 E0
;LAYER_COUNT:14
;LAYER:0
M107
M204 S3000
M205 X10 Y10
;MESH:AnyStrap_v2.1_3button_L-244mm.stl
G0 F7200 X108.523 Y112.369 Z0.4
M204 S1000
M205 X8 Y8
;TYPE:WALL-INNER
G1 F1200 X109.18 Y112.455 E0.07251
G1 X109.837 Y112.369 E0.14501
G1 X110.453 Y112.114 E0.21797
G1 X110.979 Y111.71 E0.29054
G1 X111.384 Y111.184 E0.36318
G1 X111.637 Y110.569 E0.43595
G1 X111.724 Y109.912 E0.50847
G1 X111.638 Y109.254 E0.58109
G1 X111.383 Y108.639 E0.65394
G1 X111.021 Y108.167 E0.71903
G1 X103.068 Y100.214 E1.94977
G1 X102.597 Y99.851 E2.01484
G1 X101.982 Y99.598 E2.08761
G1 X101.324 Y99.511 E2.16024
G1 X100.666 Y99.598 E2.23287
G1 X100.054 Y99.851 E2.30533
G1 X99.525 Y100.256 E2.37824
G1 X99.12 Y100.785 E2.45114
G1 X98.867 Y101.397 E2.5236
G1 X98.78 Y102.055 E2.59623
G1 X98.867 Y102.713 E2.66886
G1 X99.12 Y103.328 E2.74163
G1 X99.483 Y103.799 E2.8067
G1 X107.436 Y111.752 E4.03744
G1 X107.908 Y112.114 E4.10253
G1 X108.523 Y112.369 E4.17538
M204 S3000
M205 X10 Y10
G0 F7200 X104.093 Y118.295
G0 X103.156 Y118.853
G0 X101.788 Y119.104
M204 S1000
M205 X8 Y8
G1 F1200 X102.445 Y119.191 E4.2479
G1 X103.103 Y119.104 E4.32053
G1 X103.715 Y118.851 E4.393
G1 X104.244 Y118.446 E4.4659
G1 X104.649 Y117.917 E4.5388
G1 X104.902 Y117.305 E4.61127
G1 X104.989 Y116.647 E4.6839
G1 X104.902 Y115.989 E4.75653
G1 X104.649 Y115.374 E4.82929
G1 X104.286 Y114.903 E4.89437
G1 X96.334 Y106.952 E6.12487
G1 X95.863 Y106.587 E6.19008
G1 X95.245 Y106.333 E6.26319
G1 X94.589 Y106.247 E6.33559
G1 X93.932 Y106.333 E6.40809
G1 X93.317 Y106.586 E6.48086
G1 X92.79 Y106.992 E6.55366
G1 X92.385 Y107.518 E6.6263
G1 X92.132 Y108.133 E6.69907
G1 X92.045 Y108.791 E6.7717
G1 X92.132 Y109.449 E6.84433
G1 X92.385 Y110.061 E6.91679
G1 X92.747 Y110.534 E6.98197
G1 X100.701 Y118.488 E8.21286
G1 X101.173 Y118.851 E8.27802
G1 X101.788 Y119.104 E8.35079
M204 S3000
M205 X10 Y10
G0 F7200 X97.358 Y125.03
G0 X96.421 Y125.588
G0 X95.052 Y125.839
M204 S1000
M205 X8 Y8
G1 F1200 X95.71 Y125.926 E8.42342
G1 X96.368 Y125.839 E8.49605
G1 X96.98 Y125.586 E8.56851
G1 X97.509 Y125.181 E8.64142
G1 X97.914 Y124.652 E8.71432
G1 X98.167 Y124.04 E8.78678
G1 X98.254 Y123.382 E8.85941
G1 X98.167 Y122.724 E8.93204
G1 X97.914 Y122.109 E9.00481
G1 X97.551 Y121.638 E9.06988
G1 X89.598 Y113.685 E10.30062
G1 X89.126 Y113.323 E10.36571
G1 X88.511 Y113.068 E10.43856
G1 X87.854 Y112.982 E10.51107
G1 X87.197 Y113.068 E10.58358
G1 X86.581 Y113.323 E10.65653
G1 X86.055 Y113.727 E10.7291
G1 X85.65 Y114.253 E10.80175
G1 X85.397 Y114.868 E10.87452
G1 X85.31 Y115.525 E10.94704
G1 X85.396 Y116.183 E11.01965
G1 X85.651 Y116.798 E11.0925
G1 X86.013 Y117.27 E11.15759
G1 X93.966 Y125.223 E12.38833
G1 X94.437 Y125.586 E12.4534
G1 X95.052 Y125.839 E12.52617
M204 S3000
M205 X10 Y10
G0 F7200 X90.623 Y131.765
G0 X89.686 Y132.323
G0 X88.317 Y132.574
M204 S1000
M205 X8 Y8
G1 F1200 X88.975 Y132.661 E12.5988
G1 X89.633 Y132.574 E12.67143
G1 X90.245 Y132.321 E12.74389
G1 X90.774 Y131.916 E12.8168
G1 X91.179 Y131.387 E12.8897
G1 X91.432 Y130.775 E12.96217
G1 X91.519 Y130.117 E13.0348
G1 X91.432 Y129.46 E13.10732
G1 X91.179 Y128.845 E13.18008
G1 X90.816 Y128.373 E13.24524
G1 X82.862 Y120.419 E14.47614
G1 X82.389 Y120.057 E14.54131
G1 X81.777 Y119.804 E14.61378
G1 X81.119 Y119.717 E14.68641
G1 X80.461 Y119.804 E14.75904
G1 X79.846 Y120.057 E14.8318
G1 X79.32 Y120.462 E14.90445
G1 X78.916 Y120.988 E14.97702
G1 X78.661 Y121.604 E15.04998
G1 X78.575 Y122.261 E15.12248
G1 X78.661 Y122.918 E15.19499
G1 X78.916 Y123.533 E15.26784
G1 X79.278 Y124.005 E15.33293
G1 X87.231 Y131.958 E16.56367
G1 X87.702 Y132.321 E16.62874
G1 X88.317 Y132.574 E16.70151
M204 S3000
M205 X10 Y10
G0 F7200 X83.885 Y138.503
G0 X82.952 Y139.059
G0 X81.582 Y139.31
M204 S1000
M205 X8 Y8
G1 F1200 X82.24 Y139.396 E16.77412
G1 X82.897 Y139.309 E16.84664
G1 X83.512 Y139.056 E16.91941
G1 X84.038 Y138.651 E16.99206
G1 X84.442 Y138.125 E17.06463
G1 X84.697 Y137.509 E17.13759
G1 X84.783 Y136.852 E17.21009
G1 X84.697 Y136.195 E17.2826
G1 X84.442 Y135.58 E17.35545
G1 X84.08 Y135.108 E17.42054
G1 X76.127 Y127.154 E18.65136
G1 X75.654 Y126.792 E18.71653
G1 X75.042 Y126.539 E18.789
G1 X74.384 Y126.452 E18.86163
G1 X73.725 Y126.539 E18.93437
G1 X73.113 Y126.792 E19.00683
G1 X72.584 Y127.197 E19.07973
G1 X72.179 Y127.726 E19.15264
G1 X71.926 Y128.339 E19.2252
G1 X71.84 Y128.996 E19.29771
G1 X71.926 Y129.654 E19.37032
G1 X72.179 Y130.269 E19.44309
G1 X72.542 Y130.74 E19.50816
G1 X80.495 Y138.693 E20.7389
G1 X80.967 Y139.055 E20.80399
G1 X81.582 Y139.31 E20.87684
M204 S3000
M205 X10 Y10
G0 F7200 X77.152 Y145.235
G0 X76.217 Y145.794
G0 X74.847 Y146.045
M204 S1000
M205 X8 Y8
G1 F1200 X75.504 Y146.131 E20.94935
G1 X76.163 Y146.045 E21.02207
G1 X76.777 Y145.789 E21.09487
G1 X77.303 Y145.386 E21.16738
G1 X77.706 Y144.86 E21.23989
G1 X77.962 Y144.246 E21.31268
G1 X78.048 Y143.587 E21.3854
G1 X77.962 Y142.93 E21.45791
G1 X77.707 Y142.315 E21.53076
G1 X77.345 Y141.843 E21.59585
G1 X69.392 Y133.89 E22.82659
G1 X68.921 Y133.527 E22.89166
G1 X68.306 Y133.274 E22.96443
G1 X67.648 Y133.187 E23.03706
G1 X66.99 Y133.274 E23.10969
G1 X66.378 Y133.527 E23.18215
G1 X65.849 Y133.932 E23.25506
G1 X65.444 Y134.461 E23.32796
G1 X65.191 Y135.073 E23.40042
G1 X65.104 Y135.731 E23.47305
G1 X65.191 Y136.389 E23.54568
G1 X65.444 Y137.004 E23.61845
G1 X65.807 Y137.475 E23.68352
G1 X73.76 Y145.428 E24.91426
G1 X74.232 Y145.79 E24.97935
G1 X74.847 Y146.045 E25.0522
M204 S3000
M205 X10 Y10
G0 F7200 X70.418 Y151.971
G0 X69.481 Y152.53
G0 X68.112 Y152.78
M204 S1000
M205 X8 Y8
G1 F1200 X68.769 Y152.866 E25.12471
G1 X69.426 Y152.78 E25.19721
G1 X70.041 Y152.527 E25.26998
G1 X70.569 Y152.121 E25.34287
G1 X70.973 Y151.594 E25.41553
G1 X71.226 Y150.981 E25.4881
G1 X71.313 Y150.322 E25.56083
G1 X71.226 Y149.664 E25.63346
G1 X70.973 Y149.052 E25.70593
G1 X70.611 Y148.579 E25.7711
G1 X62.658 Y140.628 E27.00169
G1 X62.187 Y140.263 E27.06689
G1 X61.569 Y140.009 E27.14001
G1 X60.913 Y139.923 E27.2124
G1 X60.256 Y140.009 E27.28491
G1 X59.641 Y140.262 E27.35768
G1 X59.114 Y140.668 E27.43048
G1 X58.709 Y141.194 E27.50312
G1 X58.456 Y141.809 E27.57589
G1 X58.369 Y142.467 E27.64852
G1 X58.456 Y143.125 E27.72114
G1 X58.709 Y143.737 E27.79361
G1 X59.071 Y144.21 E27.85879
G1 X67.026 Y152.165 E29.08984
G1 X67.499 Y152.527 E29.15501
G1 X68.112 Y152.78 E29.22758
M204 S3000
M205 X10 Y10
G0 F7200 X63.682 Y158.706
G0 X62.745 Y159.264
G0 X61.377 Y159.515
M204 S1000
M205 X8 Y8
G1 F1200 X62.034 Y159.602 E29.3001
G1 X62.692 Y159.515 E29.37273
G1 X63.304 Y159.262 E29.44519
G1 X63.833 Y158.857 E29.5181
G1 X64.238 Y158.328 E29.591
G1 X64.491 Y157.716 E29.66347
G1 X64.578 Y157.058 E29.73609
G1 X64.491 Y156.4 E29.80872
G1 X64.238 Y155.785 E29.88149
G1 X63.875 Y155.314 E29.94656
G1 X55.922 Y147.361 E31.1773
G1 X55.45 Y146.999 E31.24239
G1 X54.835 Y146.744 E31.31524
G1 X54.178 Y146.658 E31.38775
G1 X53.521 Y146.744 E31.46026
G1 X52.905 Y146.999 E31.53321
G1 X52.379 Y147.403 E31.60579
G1 X51.974 Y147.929 E31.67843
G1 X51.721 Y148.544 E31.7512
G1 X51.634 Y149.201 E31.82372
G1 X51.72 Y149.859 E31.89633
G1 X51.975 Y150.474 E31.96918
G1 X52.337 Y150.946 E32.03427
G1 X60.29 Y158.899 E33.26501
G1 X60.762 Y159.262 E33.33017
G1 X61.377 Y159.515 E33.40294
M204 S3000
M205 X10 Y10
G0 F7200 X56.947 Y165.441
G0 X56.01 Y165.999
G0 X54.641 Y166.25
M204 S1000
M205 X8 Y8
G1 F1200 X55.299 Y166.337 E33.47557
G1 X55.957 Y166.25 E33.5482
G1 X56.569 Y165.997 E33.62066
G1 X57.098 Y165.592 E33.69357
G1 X57.503 Y165.063 E33.76647
G1 X57.756 Y164.451 E33.83893
G1 X57.843 Y163.793 E33.91156
G1 X57.756 Y163.136 E33.98408
G1 X57.503 Y162.521 E34.05685
G1 X57.14 Y162.049 E34.12201
G1 X49.187 Y154.096 E35.35275
G1 X48.715 Y153.734 E35.41784
G1 X48.1 Y153.479 E35.49069
G1 X47.442 Y153.393 E35.56331
G1 X46.785 Y153.48 E35.63583
G1 X46.17 Y153.733 E35.70859
G1 X45.644 Y154.138 E35.78124
G1 X45.24 Y154.664 E35.85381
G1 X44.985 Y155.28 E35.92677
G1 X44.899 Y155.937 E35.99927
G1 X44.985 Y156.594 E36.07178
G1 X45.24 Y157.209 E36.14463
G1 X45.602 Y157.681 E36.20972
G1 X53.555 Y165.634 E37.44046
G1 X54.026 Y165.997 E37.50553
G1 X54.641 Y166.25 E37.5783
M204 S3000
M205 X10 Y10
G0 F7200 X50.212 Y172.177
G0 X49.275 Y172.734
G0 X47.906 Y172.986
M204 S1000
M205 X8 Y8
G1 F1200 X48.566 Y173.072 E37.65113
G1 X49.222 Y172.985 E37.72354
G1 X49.835 Y172.732 E37.79611
G1 X50.362 Y172.328 E37.86877
G1 X50.768 Y171.8 E37.94166
G1 X51.021 Y171.185 E38.01442
G1 X51.108 Y170.528 E38.08694
G1 X51.021 Y169.87 E38.15957
G1 X50.768 Y169.258 E38.23204
G1 X50.406 Y168.785 E38.29722
G1 X42.451 Y160.83 E39.52826
G1 X41.978 Y160.468 E39.59344
G1 X41.366 Y160.215 E39.66591
G1 X40.708 Y160.128 E39.73854
G1 X40.05 Y160.215 E39.81116
G1 X39.435 Y160.468 E39.88393
G1 X38.909 Y160.873 E39.95658
G1 X38.503 Y161.4 E40.02937
G1 X38.25 Y162.015 E40.10214
G1 X38.164 Y162.672 E40.17465
G1 X38.25 Y163.329 E40.24715
G1 X38.503 Y163.944 E40.31992
G1 X38.866 Y164.416 E40.38508
G1 X46.819 Y172.369 E41.61582
G1 X47.291 Y172.731 E41.68091
G1 X47.906 Y172.986 E41.75376
M204 S3000
M205 X10 Y10
G0 F7200 X43.476 Y178.911
G0 X42.541 Y179.47
G0 X41.171 Y179.721
M204 S1000
M205 X8 Y8
G1 F1200 X41.828 Y179.807 E41.82627
G1 X42.487 Y179.721 E41.89899
G1 X43.101 Y179.465 E41.97178
G1 X43.627 Y179.062 E42.04429
G1 X44.03 Y178.536 E42.1168
G1 X44.286 Y177.922 E42.1896
G1 X44.372 Y177.263 E42.26232
G1 X44.286 Y176.606 E42.33482
G1 X44.031 Y175.991 E42.40768
G1 X43.669 Y175.519 E42.47277
G1 X35.716 Y167.566 E43.70351
G1 X35.245 Y167.203 E43.76858
G1 X34.63 Y166.95 E43.84135
G1 X33.972 Y166.863 E43.91397
G1 X33.314 Y166.95 E43.9866
G1 X32.702 Y167.203 E44.05907
G1 X32.173 Y167.608 E44.13197
G1 X31.768 Y168.137 E44.20487
G1 X31.515 Y168.749 E44.27734
G1 X31.428 Y169.407 E44.34997
G1 X31.515 Y170.065 E44.4226
G1 X31.768 Y170.68 E44.49537
G1 X32.131 Y171.151 E44.56044
G1 X40.084 Y179.104 E45.79118
G1 X40.556 Y179.466 E45.85627
G1 X41.171 Y179.721 E45.92912
M204 S3000
M205 X10 Y10
G0 F7200 X36.742 Y185.646
G0 X35.805 Y186.205
G0 X34.436 Y186.456
M204 S1000
M205 X8 Y8
G1 F1200 X35.093 Y186.542 E46.00162
G1 X35.749 Y186.456 E46.07402
G1 X36.367 Y186.202 E46.14714
G1 X36.893 Y185.795 E46.21991
G1 X37.295 Y185.272 E46.2921
G1 X37.551 Y184.657 E46.36499
G1 X37.637 Y183.998 E46.43771
G1 X37.551 Y183.341 E46.51022
G1 X37.296 Y182.726 E46.58307
G1 X36.934 Y182.254 E46.64816
G1 X28.981 Y174.301 E47.8789
G1 X28.509 Y173.938 E47.94406
G1 X27.894 Y173.685 E48.01683
G1 X27.237 Y173.598 E48.08935
G1 X26.579 Y173.685 E48.16198
G1 X25.967 Y173.938 E48.23444
G1 X25.438 Y174.343 E48.30734
G1 X25.033 Y174.872 E48.38025
G1 X24.78 Y175.484 E48.45271
G1 X24.693 Y176.142 E48.52534
G1 X24.78 Y176.801 E48.59808
G1 X25.033 Y177.413 E48.67054
G1 X25.395 Y177.886 E48.73572
G1 X33.349 Y185.839 E49.96654
G1 X33.821 Y186.203 E50.03176
G1 X34.436 Y186.456 E50.10453
M204 S3000
M205 X10 Y10
G0 F7200 X30.007 Y192.382
G0 X29.07 Y192.941
G0 X27.7 Y193.191
M204 S1000
M205 X8 Y8
G1 F1200 X28.358 Y193.278 E50.17716
G1 X29.015 Y193.191 E50.24968
G1 X29.63 Y192.938 E50.32245
G1 X30.158 Y192.532 E50.39533
G1 X30.562 Y192.005 E50.46799
G1 X30.815 Y191.392 E50.54056
G1 X30.902 Y190.734 E50.61319
G1 X30.815 Y190.076 E50.68582
G1 X30.562 Y189.461 E50.75859
G1 X30.199 Y188.99 E50.82366
G1 X22.246 Y181.037 E52.0544
G1 X21.774 Y180.675 E52.11949
G1 X21.159 Y180.42 E52.19234
G1 X20.502 Y180.334 E52.26484
G1 X19.845 Y180.42 E52.33735
G1 X19.229 Y180.675 E52.4103
G1 X18.703 Y181.079 E52.48288
G1 X18.298 Y181.605 E52.55552
G1 X18.045 Y182.22 E52.62829
G1 X17.958 Y182.878 E52.70092
G1 X18.045 Y183.536 E52.77355
G1 X18.298 Y184.148 E52.84601
G1 X18.66 Y184.621 E52.91119
G1 X26.615 Y192.576 E54.14224
G1 X27.088 Y192.938 E54.20742
G1 X27.7 Y193.191 E54.27988
M204 S3000
M205 X10 Y10
G0 F7200 X28.963 Y192.985
G0 X30.007 Y192.382
G0 X110.831 Y111.557
G0 X115.258 Y105.634
M204 S1000
M205 X8 Y8
G1 F1200 X115.915 Y105.72 E54.35239
G1 X116.574 Y105.634 E54.42511
G1 X117.188 Y105.378 E54.49791
G1 X117.714 Y104.975 E54.57041
G1 X118.117 Y104.449 E54.64292
G1 X118.373 Y103.835 E54.71572
G1 X118.459 Y103.176 E54.78844
G1 X118.373 Y102.519 E54.86095
G1 X118.118 Y101.904 E54.9338
G1 X117.756 Y101.432 E54.99889
G1 X109.803 Y93.479 E56.22963
G1 X109.332 Y93.116 E56.2947
G1 X108.717 Y92.863 E56.36747
G1 X108.059 Y92.776 E56.4401
G1 X107.401 Y92.863 E56.51273
G1 X106.789 Y93.116 E56.58519
G1 X106.26 Y93.521 E56.65809
G1 X105.855 Y94.05 E56.731
G1 X105.602 Y94.662 E56.80346
G1 X105.515 Y95.32 E56.87609
G1 X105.602 Y95.978 E56.94872
G1 X105.855 Y96.593 E57.02149
G1 X106.218 Y97.064 E57.08656
G1 X114.171 Y105.017 E58.3173
G1 X114.643 Y105.379 E58.38239
G1 X115.258 Y105.634 E58.45524
M204 S3000
M205 X10 Y10
G0 F7200 X116.521 Y105.428
G0 X117.47 Y104.896
G0 X121.992 Y98.898
M204 S1000
M205 X8 Y8
G1 F1200 X122.65 Y98.985 E58.52787
G1 X123.309 Y98.898 E58.60061
G1 X123.922 Y98.645 E58.67317
G1 X124.449 Y98.241 E58.74584
G1 X124.855 Y97.713 E58.81872
G1 X125.108 Y97.098 E58.89149
G1 X125.194 Y96.441 E58.96399
G1 X125.108 Y95.784 E59.0365
G1 X124.855 Y95.171 E59.10907
G1 X124.493 Y94.698 E59.17424
G1 X116.538 Y86.743 E60.40529
G1 X116.065 Y86.381 E60.47047
G1 X115.453 Y86.128 E60.54293
G1 X114.795 Y86.041 E60.61556
G1 X114.137 Y86.128 E60.68819
G1 X113.522 Y86.381 E60.76096
G1 X112.995 Y86.787 E60.83376
G1 X112.592 Y87.313 E60.90627
G1 X112.337 Y87.928 E60.97912
G1 X112.251 Y88.585 E61.05163
G1 X112.337 Y89.242 E61.12413
G1 X112.592 Y89.858 E61.19709
G1 X112.954 Y90.329 E61.26209
G1 X120.907 Y98.283 E62.4929
G1 X121.38 Y98.645 E62.55808
G1 X121.992 Y98.898 E62.63055
M204 S3000
M205 X10 Y10
G0 F7200 X123.255 Y98.692
G0 X124.206 Y98.162
G0 X128.728 Y92.163
M204 S1000
M205 X8 Y8
G1 F1200 X129.386 Y92.25 E62.70318
G1 X130.044 Y92.163 E62.7758
G1 X130.656 Y91.91 E62.84827
G1 X131.185 Y91.505 E62.92117
G1 X131.59 Y90.976 E62.99408
G1 X131.843 Y90.364 E63.06654
G1 X131.93 Y89.706 E63.13917
G1 X131.843 Y89.049 E63.21169
G1 X131.59 Y88.434 E63.28446
G1 X131.227 Y87.962 E63.34962
G1 X123.274 Y80.009 E64.58036
G1 X122.802 Y79.647 E64.64545
G1 X122.187 Y79.392 E64.7183
G1 X121.53 Y79.306 E64.7908
G1 X120.871 Y79.392 E64.86353
G1 X120.257 Y79.648 E64.93632
G1 X119.731 Y80.05 E65.00876
G1 X119.327 Y80.577 E65.08143
G1 X119.072 Y81.193 E65.15438
G1 X118.986 Y81.85 E65.22689
G1 X119.072 Y82.507 E65.29939
G1 X119.327 Y83.122 E65.37224
G1 X119.689 Y83.594 E65.43734
G1 X127.642 Y91.547 E66.66807
G1 X128.113 Y91.91 E66.73314
G1 X128.728 Y92.163 E66.80591
M204 S3000
M205 X10 Y10
G0 F7200 X129.99 Y91.957
G0 X130.941 Y91.426
G0 X135.464 Y85.428
M204 S1000
M205 X8 Y8
G1 F1200 X136.121 Y85.515 E66.87843
G1 X136.779 Y85.428 E66.95106
G1 X137.391 Y85.175 E67.02353
G1 X137.92 Y84.77 E67.09643
G1 X138.325 Y84.241 E67.16933
G1 X138.578 Y83.629 E67.2418
G1 X138.665 Y82.971 E67.31443
G1 X138.578 Y82.313 E67.38706
G1 X138.325 Y81.698 E67.45983
G1 X137.962 Y81.227 E67.5249
G1 X130.009 Y73.274 E68.75564
G1 X129.537 Y72.912 E68.82073
G1 X128.922 Y72.657 E68.89358
G1 X128.265 Y72.571 E68.96608
G1 X127.608 Y72.657 E69.03859
G1 X126.992 Y72.912 E69.11154
G1 X126.466 Y73.316 E69.18412
G1 X126.061 Y73.842 E69.25676
G1 X125.808 Y74.457 E69.32953
G1 X125.721 Y75.115 E69.40216
G1 X125.808 Y75.773 E69.47479
G1 X126.061 Y76.385 E69.54725
G1 X126.423 Y76.858 E69.61243
G1 X134.377 Y84.812 E70.84332
G1 X134.849 Y85.175 E70.90848
G1 X135.464 Y85.428 E70.98125
M204 S3000
M205 X10 Y10
G0 F7200 X136.725 Y85.222
G0 X137.676 Y84.691
G0 X142.199 Y78.693
M204 S1000
M205 X8 Y8
G1 F1200 X142.856 Y78.779 E71.05376
G1 X143.512 Y78.693 E71.12615
