;FLAVOR:Marlin
;TIME:1068
;Filament used: 1.60921m
;Layer height: 0.4
;MINX:6.497
;MINY:6.866
;MINZ:0.4
;MAXX:204.37
;MAXY:204.74
;MAXZ:5.2
;Generated with Cura_SteamEngine 4.10.0
M104 S210
M105
M109 S210
M82 ;absolute extrusion mode
G21 ;metric values
G90 ;absolute positioning
M82 ;set extruder to absolute mode
M107 ;start with the fan off
G28 X0 Y0 ;move X/Y to min endstops
G28 Z0 ;move Z to min endstops
M501
M420 S1 ;Marlin Bed-leveling on
G1 Z15.0 F180.0 ;move the platform down 15mm
G92 E0 ;zero the extruded length
G1 F200 E3 ;extrude 3mm of feed stock
G92 E0 ;zero the extruded length again
G1 F180.0
M117 Printing...
G5
G92 E0
G92 E0
;LAYER_COUNT:14
;LAYER:0
M107
M204 S3000
M205 X10 Y10
G0 F7200 X177.563 Y9.984 Z0.4
M204 S1000
M205 X8 Y8
;TYPE:SKIRT
G1 F1200 X178.044 Y9.517 E0.07336
G1 X178.485 Y9.125 E0.13793
G1 X179.213 Y8.562 E0.23863
G1 X179.824 Y8.155 E0.31896
G1 X180.563 Y7.778 E0.40975
G1 X181.055 Y7.564 E0.46846
G1 X181.405 Y7.422 E0.50979
G1 X182.103 Y7.192 E0.59021
G1 X182.859 Y7.033 E0.67474
G1 X183.517 Y6.937 E0.74751
G1 X183.73 Y6.912 E0.77097
G1 X184.463 Y6.866 E0.85134
G1 X185.281 Y6.909 E0.94097
G1 X185.808 Y6.969 E0.99901
G1 X186.108 Y7.009 E1.03213
G1 X186.829 Y7.149 E1.1125
G1 X187.651 Y7.413 E1.20698
G1 X188.268 Y7.66 E1.2797
G1 X188.451 Y7.739 E1.30151
G1 X189.109 Y8.066 E1.38191
G1 X189.788 Y8.508 E1.47057
G1 X190.225 Y8.831 E1.53003
G1 X190.571 Y9.102 E1.57813
G1 X190.96 Y9.439 E1.63444
G1 X191.307 Y9.77 E1.68692
G1 X201.247 Y19.708 E3.225
G1 X201.716 Y20.19 E3.29859
G1 X202.099 Y20.619 E3.36152
G1 X202.433 Y21.038 E3.42015
G1 X202.69 Y21.384 E3.46731
G1 X203.095 Y21.997 E3.54771
G1 X203.46 Y22.716 E3.63594
G1 X203.729 Y23.34 E3.7103
G1 X203.798 Y23.513 E3.73068
G1 X204.032 Y24.209 E3.81103
G1 X204.202 Y25.001 E3.89967
G1 X204.31 Y25.748 E3.98226
G1 X204.327 Y25.898 E3.99878
G1 X204.37 Y26.631 E4.07913
G1 X204.328 Y27.412 E4.16471
G1 X204.267 Y27.955 E4.2245
G1 X204.224 Y28.275 E4.25983
G1 X204.081 Y28.995 E4.34016
G1 X203.824 Y29.79 E4.43159
G1 X203.575 Y30.415 E4.50521
G1 X203.498 Y30.595 E4.52663
G1 X203.173 Y31.253 E4.60693
G1 X202.711 Y31.964 E4.69972
G1 X202.309 Y32.5 E4.77303
G1 X202.168 Y32.678 E4.79788
G1 X201.817 Y33.087 E4.85686
G1 X201.385 Y33.538 E4.9252
G1 X33.339 Y201.583 E30.93049
G1 X32.812 Y202.095 E31.01089
G1 X32.39 Y202.472 E31.07282
G1 X31.989 Y202.791 E31.12889
G1 X31.646 Y203.047 E31.17572
G1 X31.035 Y203.454 E31.25606
G1 X30.303 Y203.827 E31.34595
G1 X29.668 Y204.1 E31.42159
G1 X29.518 Y204.16 E31.43927
G1 X28.822 Y204.396 E31.51969
G1 X28.024 Y204.566 E31.60897
G1 X27.484 Y204.648 E31.66874
G1 X27.129 Y204.694 E31.70791
G1 X26.395 Y204.74 E31.78838
G1 X25.57 Y204.696 E31.87879
G1 X24.949 Y204.622 E31.94722
G1 X24.763 Y204.596 E31.96777
G1 X24.042 Y204.455 E32.04816
G1 X23.223 Y204.191 E32.14232
G1 X22.586 Y203.938 E32.21733
G1 X22.438 Y203.875 E32.23493
G1 X21.779 Y203.551 E32.31528
G1 X21.062 Y203.087 E32.40874
G1 X20.66 Y202.789 E32.46349
G1 X20.313 Y202.517 E32.51174
G1 X19.891 Y202.152 E32.57279
G1 X19.557 Y201.833 E32.62333
G1 X9.62 Y191.896 E34.1611
G1 X9.15 Y191.413 E34.23485
G1 X8.764 Y190.98 E34.29832
G1 X8.436 Y190.568 E34.35595
G1 X8.178 Y190.221 E34.40326
G1 X7.773 Y189.609 E34.48357
G1 X7.4 Y188.875 E34.57366
G1 X7.143 Y188.275 E34.64509
G1 X7.076 Y188.108 E34.66478
G1 X6.84 Y187.413 E34.74509
G1 X6.669 Y186.615 E34.8344
G1 X6.593 Y186.118 E34.88941
G1 X6.54 Y185.704 E34.93509
G1 X6.497 Y184.971 E35.01543
G1 X6.54 Y184.178 E35.10233
G1 X6.6 Y183.65 E35.16048
G1 X6.641 Y183.344 E35.19427
G1 X6.782 Y182.623 E35.27466
G1 X7.043 Y181.814 E35.36768
G1 X7.292 Y181.189 E35.4413
G1 X7.369 Y181.009 E35.46272
G1 X7.694 Y180.351 E35.54302
G1 X8.156 Y179.64 E35.63581
G1 X8.561 Y179.1 E35.70967
G1 X8.703 Y178.921 E35.73467
G1 X9.048 Y178.52 E35.79256
G1 X9.39 Y178.158 E35.84705
G1 X177.563 Y9.984 E61.87216
M204 S3000
M205 X10 Y10
G0 F7200 X178.051 Y10.486
M204 S1000
M205 X8 Y8
G1 F1200 X178.532 Y10.019 E61.94552
G1 X178.927 Y9.668 E62.00334
G1 X179.632 Y9.123 E62.10085
G1 X180.212 Y8.739 E62.17696
G1 X180.842 Y8.42 E62.25424
G1 X181.334 Y8.206 E62.31295
G1 X181.661 Y8.074 E62.35153
G1 X182.322 Y7.858 E62.42763
G1 X182.964 Y7.725 E62.49937
G1 X183.599 Y7.632 E62.5696
G1 X183.812 Y7.607 E62.59307
G1 X184.506 Y7.566 E62.66914
G1 X185.201 Y7.605 E62.74531
G1 X185.875 Y7.683 E62.81955
G1 X186.012 Y7.702 E62.83469
G1 X186.694 Y7.837 E62.91077
G1 X187.395 Y8.065 E62.99143
G1 X187.991 Y8.302 E63.06161
G1 X188.174 Y8.381 E63.08343
G1 X188.795 Y8.693 E63.15947
G1 X189.372 Y9.071 E63.23495
G1 X189.809 Y9.394 E63.29442
G1 X190.481 Y9.95 E63.38986
G1 X190.813 Y10.265 E63.43994
G1 X200.745 Y20.196 E64.97685
G1 X201.214 Y20.678 E65.05044
G1 X201.558 Y21.063 E65.10694
G1 X201.871 Y21.455 E65.16183
G1 X202.128 Y21.801 E65.20899
G1 X202.51 Y22.383 E65.28517
G1 X202.818 Y22.995 E65.36014
G1 X203.079 Y23.6 E65.43224
G1 X203.148 Y23.773 E65.45262
G1 X203.368 Y24.432 E65.52865
G1 X203.509 Y25.106 E65.604
G1 X203.615 Y25.827 E65.68374
G1 X203.632 Y25.977 E65.70026
G1 X203.67 Y26.671 E65.77632
G1 X203.632 Y27.333 E65.84888
G1 X203.571 Y27.876 E65.90867
G1 X203.531 Y28.176 E65.94179
G1 X203.393 Y28.857 E66.01782
G1 X203.172 Y29.534 E66.09575
G1 X202.931 Y30.139 E66.16701
G1 X202.854 Y30.319 E66.18843
G1 X202.545 Y30.942 E66.26453
G1 X202.149 Y31.547 E66.34365
G1 X201.76 Y32.066 E66.41463
G1 X201.304 Y32.61 E66.4923
G1 X200.886 Y33.048 E66.55855
G1 X32.851 Y201.081 E92.56207
G1 X32.324 Y201.593 E92.64247
G1 X31.946 Y201.931 E92.69796
G1 X31.228 Y202.486 E92.79726
G1 X30.647 Y202.87 E92.87347
G1 X30.024 Y203.185 E92.94986
G1 X29.408 Y203.45 E93.02324
G1 X29.258 Y203.51 E93.04092
G1 X28.598 Y203.731 E93.11708
G1 X27.919 Y203.874 E93.19301
G1 X27.379 Y203.956 E93.25278
G1 X27.047 Y203.999 E93.28941
G1 X26.353 Y204.04 E93.36548
G1 X25.651 Y204 E93.44243
G1 X25.045 Y203.929 E93.50919
G1 X24.859 Y203.903 E93.52974
G1 X24.177 Y203.767 E93.60584
G1 X23.479 Y203.54 E93.68616
G1 X23.012 Y203.356 E93.74108
G1 X22.712 Y203.231 E93.77665
G1 X22.089 Y202.922 E93.85274
G1 X21.479 Y202.524 E93.93244
G1 X21.077 Y202.226 E93.9872
G1 X20.749 Y201.97 E94.03273
G1 X20.371 Y201.642 E94.0875
G1 X20.052 Y201.338 E94.13571
G1 X10.122 Y191.408 E95.6724
G1 X9.652 Y190.925 E95.74614
G1 X9.306 Y190.537 E95.80303
G1 X8.74 Y189.804 E95.90437
G1 X8.358 Y189.223 E95.98046
G1 X8.043 Y188.597 E96.05714
G1 X7.793 Y188.015 E96.12645
G1 X7.726 Y187.848 E96.14614
G1 X7.505 Y187.188 E96.2223
G1 X7.361 Y186.51 E96.29815
G1 X7.285 Y186.013 E96.35317
G1 X7.236 Y185.625 E96.39596
G1 X7.197 Y184.93 E96.47213
G1 X7.236 Y184.257 E96.5459
G1 X7.296 Y183.729 E96.60405
G1 X7.334 Y183.442 E96.63573
G1 X7.47 Y182.76 E96.71183
G1 X7.695 Y182.07 E96.79124
G1 X7.936 Y181.465 E96.8625
G1 X8.013 Y181.285 E96.88393
G1 X8.322 Y180.662 E96.96002
G1 X8.718 Y180.057 E97.03915
G1 X9.109 Y179.535 E97.11051
G1 X9.56 Y178.997 E97.18733
G1 X9.885 Y178.653 E97.23912
G1 X178.051 Y10.486 E123.26314
M204 S3000
M205 X10 Y10
G0 F7200 X178.538 Y10.989
M204 S1000
M205 X8 Y8
G1 F1200 X179.019 Y10.522 E123.3365
G1 X179.541 Y10.071 E123.41199
G1 X180.051 Y9.683 E123.48211
G1 X180.598 Y9.325 E123.55365
G1 X181.121 Y9.062 E123.6177
G1 X181.613 Y8.848 E123.67641
G1 X181.916 Y8.725 E123.7122
G1 X182.538 Y8.525 E123.78369
G1 X183.068 Y8.417 E123.84288
G1 X183.68 Y8.327 E123.91057
G1 X183.893 Y8.302 E123.93404
G1 X184.546 Y8.266 E124.0056
G1 X185.122 Y8.3 E124.06874
G1 X185.649 Y8.36 E124.12678
G1 X185.916 Y8.396 E124.15626
G1 X186.557 Y8.525 E124.22781
G1 X187.139 Y8.716 E124.29484
G1 X187.713 Y8.945 E124.36246
G1 X187.896 Y9.024 E124.38427
G1 X188.48 Y9.32 E124.45592
G1 X188.956 Y9.634 E124.51831
G1 X189.393 Y9.957 E124.57778
G1 X190.003 Y10.461 E124.66436
G1 X190.318 Y10.76 E124.71189
G1 X200.243 Y20.684 E126.24772
G1 X200.712 Y21.166 E126.32131
G1 X201.152 Y21.672 E126.39469
G1 X201.566 Y22.219 E126.46975
G1 X201.923 Y22.767 E126.54132
G1 X202.177 Y23.274 E126.60337
G1 X202.428 Y23.859 E126.67303
G1 X202.497 Y24.032 E126.69341
G1 X202.702 Y24.653 E126.76497
G1 X202.817 Y25.211 E126.82731
G1 X202.919 Y25.906 E126.90418
G1 X202.936 Y26.056 E126.9207
G1 X202.97 Y26.709 E126.99225
G1 X202.937 Y27.255 E127.05211
G1 X202.876 Y27.798 E127.1119
G1 X202.838 Y28.077 E127.14271
G1 X202.706 Y28.717 E127.21422
G1 X202.521 Y29.278 E127.27886
G1 X202.288 Y29.864 E127.34786
G1 X202.211 Y30.044 E127.36929
G1 X201.917 Y30.629 E127.44093
G1 X201.587 Y31.129 E127.50648
G1 X201.212 Y31.631 E127.57505
G1 X200.792 Y32.133 E127.64667
G1 X200.386 Y32.558 E127.71099
G1 X32.363 Y200.579 E153.71265
G1 X31.836 Y201.091 E153.79305
G1 X31.346 Y201.518 E153.86417
G1 X30.809 Y201.925 E153.9379
G1 X30.262 Y202.284 E154.0095
G1 X29.744 Y202.543 E154.07287
G1 X29.148 Y202.8 E154.14389
G1 X28.998 Y202.86 E154.16157
G1 X28.377 Y203.066 E154.23317
G1 X27.814 Y203.182 E154.29607
G1 X27.274 Y203.264 E154.35584
G1 X26.966 Y203.304 E154.38982
G1 X26.313 Y203.34 E154.46139
G1 X25.731 Y203.305 E154.52519
G1 X25.142 Y203.235 E154.59009
G1 X24.956 Y203.209 E154.61064
G1 X24.315 Y203.08 E154.68219
G1 X23.736 Y202.889 E154.74891
G1 X23.269 Y202.705 E154.80383
G1 X22.987 Y202.587 E154.83728
G1 X22.402 Y202.294 E154.90888
G1 X21.896 Y201.962 E154.9751
G1 X21.494 Y201.664 E155.02986
G1 X20.851 Y201.132 E155.12118
G1 X20.547 Y200.843 E155.16708
G1 X10.624 Y190.92 E156.70268
G1 X10.154 Y190.437 E156.77642
G1 X9.712 Y189.929 E156.85011
G1 X9.302 Y189.386 E156.92456
G1 X8.944 Y188.839 E156.9961
G1 X8.685 Y188.319 E157.05967
G1 X8.443 Y187.754 E157.12692
G1 X8.376 Y187.587 E157.14661
G1 X8.17 Y186.966 E157.21821
G1 X8.052 Y186.404 E157.28105
G1 X7.976 Y185.907 E157.33606
G1 X7.931 Y185.546 E157.37587
G1 X7.897 Y184.893 E157.44742
G1 X7.931 Y184.336 E157.50849
G1 X7.991 Y183.808 E157.56664
G1 X8.027 Y183.539 E157.59633
G1 X8.158 Y182.898 E157.66793
G1 X8.346 Y182.326 E157.73381
G1 X8.579 Y181.74 E157.80282
G1 X8.656 Y181.56 E157.82424
G1 X8.95 Y180.975 E157.89589
G1 X9.28 Y180.475 E157.96144
G1 X9.658 Y179.97 E158.03047
G1 X10.073 Y179.473 E158.10132
G1 X10.38 Y179.148 E158.15024
G1 X178.538 Y10.989 E184.17302
M204 S3000
M205 X10 Y10
;MESH:AnyStrap_v2.1_3button_L-244mm.stl
G0 F7200 X181.85 Y14.303
G0 X182.9 Y15.352
G0 X180.147 Y26.692
G0 X180.721 Y28.047
M204 S1000
M205 X8 Y8
;TYPE:WALL-INNER
G1 F1200 X180.713 Y28.036 E184.17451
G1 X180.722 Y28.045
G1 X181.042 Y28.365 E184.22399
G1 X181.083 Y28.406 E184.23034
G1 X181.175 Y28.469 E184.24254
G1 X181.4 Y28.625 E184.2725
G1 X181.454 Y28.906 E184.30381
G1 X181.474 Y29.007 E184.31508
G1 X181.491 Y29.092 E184.32456
G1 X181.319 Y29.038 E184.33178
G1 X181.082 Y29.038 E184.34857
G1 X180.856 Y29.038 E184.36907
G1 X180.783 Y29.037 E184.37652
G1 X180.794 Y28.959
G1 X180.857 Y28.55 E184.40687
G1 X180.837 Y28.473
G1 X180.721 Y28.047 E184.41573
M204 S3000
M205 X10 Y10
G0 F7200 X179.44 Y30.174
G0 X180.966 Y31.299
G0 X179.227 Y32.487
M204 S1000
M205 X8 Y8
G1 F1200 X179.111 Y32.568 E184.43121
G1 X179.001 Y32.457 E184.44831
G1 X179.123 Y32.473
G1 X179.227 Y32.487
M204 S3000
M205 X10 Y10
G0 F7200 X176.771 Y30.62
G0 X170.657 Y35.753
M204 S1000
M205 X8 Y8
G1 F1200 X170.749 Y36.249 E184.50351
G1 X170.788 Y36.464 E184.52742
G1 X170.85 Y36.578 E184.54162
G1 X171.075 Y36.984 E184.59242
G1 X171.013 Y37.046 E184.60201
G1 X170.594 Y36.809 E184.6202
G1 X170.514 Y36.764
G1 X170.3 Y36.719 E184.64413
G1 X169.9 Y36.633 E184.6889
G1 X169.37 Y36.807 E184.74994
G1 X169.019 Y37.077 E184.7984
G1 X168.729 Y37.482 E184.8529
G1 X168.673 Y37.729 E184.88062
G1 X168.437 Y37.784 E184.90713
G1 X168.026 Y38.08 E184.96256
G1 X167.732 Y38.487 E185.0175
G1 X167.606 Y39.01 E185.07637
G1 X167.7 Y39.562 E185.13764
G1 X167.952 Y39.925 E185.18599
G1 X168.387 Y40.36 E185.25331
G1 X168.126 Y40.645 E185.2956
G1 X167.893 Y41.083 E185.34989
G1 X167.758 Y41.53 E185.40098
G1 X167.714 Y41.987 E185.45122
G1 X167.757 Y42.436 E185.50058
G1 X167.857 Y42.784 E185.5402
G1 X167.883 Y42.878 E185.55087
G1 X168.103 Y43.301 E185.60304
G1 X168.409 Y43.675 E185.65592
G1 X168.785 Y43.982 E185.70904
G1 X169.208 Y44.2 E185.76111
G1 X169.299 Y44.226 E185.77147
G1 X169.655 Y44.33 E185.81205
G1 X170.112 Y44.371 E185.86226
G1 X170.561 Y44.326 E185.91164
G1 X171.004 Y44.196 E185.96216
G1 X171.428 Y43.973 E186.01458
G1 X171.771 Y43.689 E186.06331
G1 X172.752 Y42.708 E186.21512
G1 X172.997 Y42.387 E186.25931
G1 X173.152 Y41.833 E186.32226
G1 X173.035 Y41.315 E186.38037
G1 X173.021 Y41.256 E186.387
G1 X172.96 Y41.174 E186.39819
G1 X173.04 Y41.203
G1 X173.225 Y41.271 E186.40115
G1 X173.783 Y41.289 E186.46224
G1 X174.333 Y41.123 E186.52511
G1 X174.802 Y40.778 E186.58882
G1 X175.143 Y40.311 E186.65209
G1 X175.3 Y39.773 E186.71342
G1 X175.29 Y39.229 E186.77296
G1 X175.2 Y38.983 E186.80162
G1 X175.102 Y38.717 E186.83264
G1 X175.358 Y38.753 E186.84052
G1 X175.692 Y38.802 E186.86454
G1 X176.133 Y38.76 E186.91301
G1 X176.567 Y38.635 E186.96243
G1 X176.987 Y38.416 E187.01427
G1 X177.322 Y38.138 E187.0619
G1 X178.343 Y37.117 E187.2199
G1 X178.594 Y36.782 E187.26571
G1 X178.629 Y36.637 E187.28203
G1 X178.724 Y36.622 E187.29256
G1 X179.092 Y36.368 E187.34149
G1 X181.008 Y34.452 E187.63799
G1 X181.268 Y34.021 E187.69307
G1 X181.337 Y34.009 E187.70073
G1 X181.704 Y33.756 E187.74951
G1 X182.602 Y32.858 E187.88848
G1 X182.866 Y32.539 E187.93379
G1 X183.078 Y32.134 E187.98381
G1 X183.152 Y31.878 E188.01297
G1 X183.658 Y31.784 E188.06929
G1 X184.126 Y31.458 E188.1317
G1 X184.469 Y30.906 E188.20281
G1 X184.491 Y30.353 E188.26337
G1 X184.422 Y30.015 E188.30112
G1 X184.374 Y29.784 E188.32694
G1 X184.598 Y29.83 E188.33455
G1 X184.958 Y29.904 E188.36231
G1 X185.509 Y29.867 E188.42274
G1 X186.068 Y29.522 E188.49462
G1 X186.407 Y28.999 E188.56282
G1 X186.418 Y28.886 E188.57525
G1 X186.607 Y28.846 E188.59639
G1 X187.033 Y28.541 E188.65372
G1 X187.333 Y28.116 E188.71064
G1 X187.445 Y27.575 E188.7711
G1 X187.413 Y27.421 E188.78831
G1 X187.396 Y27.342 E188.79715
G1 X187.436 Y27.341
G1 X187.87 Y27.324 E188.82879
G1 X188.355 Y27.126 E188.88611
G1 X188.773 Y26.798 E188.94425
G1 X189.139 Y26.253 E189.01609
G1 X189.265 Y25.596 E189.08929
G1 X189.167 Y25.076 E189.1472
G1 X189.141 Y24.943 E189.16203
G1 X189.097 Y24.875 E189.17089
G1 X189.157 Y24.897
G1 X189.481 Y25.016 E189.19062
G1 X190.038 Y25.034 E189.2516
G1 X190.588 Y24.868 E189.31447
G1 X191.058 Y24.522 E189.37833
G1 X191.395 Y24.057 E189.44117
G1 X191.555 Y23.521 E189.50238
G1 X191.545 Y22.971 E189.56258
G1 X191.388 Y22.522 E189.61463
G1 X190.583 Y21.043 E189.79889
G1 X190.582 Y21.042 E189.79904
G1 X189.428 Y18.918 E190.06355
G1 X191.137 Y20.627 E190.1971
G1 X191.138 Y20.628 E190.19726
G1 X196.092 Y25.582 E190.96389
G1 X196.379 Y25.956 E191.01548
G1 X196.524 Y26.306 E191.05694
G1 X196.575 Y26.692 E191.09954
G1 X196.524 Y27.078 E191.14215
G1 X196.379 Y27.428 E191.1836
G1 X196.092 Y27.802 E191.23519
G1 X27.428 Y196.465 E217.33612
G1 X27.061 Y196.747 E217.38677
G1 X26.709 Y196.893 E217.42847
G1 X26.323 Y196.943 E217.47106
G1 X25.937 Y196.893 E217.51365
G1 X25.585 Y196.747 E217.55535
G1 X25.218 Y196.465 E217.60599
G1 X14.775 Y186.022 E219.22206
G1 X14.489 Y185.649 E219.2735
G1 X14.343 Y185.298 E219.3151
G1 X14.292 Y184.912 E219.3577
G1 X14.343 Y184.526 E219.40031
G1 X14.488 Y184.176 E219.44176
G1 X14.775 Y183.802 E219.49335
G1 X183.435 Y15.142 E245.59374
G1 X183.802 Y14.86 E245.64439
G1 X184.161 Y14.712 E245.68688
G1 X184.544 Y14.661 E245.72916
G1 X184.927 Y14.712 E245.77144
G1 X185.284 Y14.859 E245.81368
G1 X185.652 Y15.142 E245.86448
G1 X188.359 Y17.849 E246.2834
G1 X188.561 Y18.051 E246.31466
G1 X188.907 Y18.397 E246.3682
G1 X189.319 Y18.809 E246.43196
G1 X188.877 Y18.428 E246.43397
G1 X188.293 Y18.32 E246.45938
G1 X188.014 Y18.385 E246.48444
G1 X187.763 Y18.445 E246.51268
G1 X187.289 Y18.786 E246.57658
G1 X186.913 Y19.5 E246.66488
G1 X187.004 Y19.995 E246.71995
G1 X187.043 Y20.209 E246.74376
G1 X187.104 Y20.32 E246.75762
G1 X187.33 Y20.729 E246.80875
G1 X187.268 Y20.791 E246.81834
G1 X186.849 Y20.553 E246.83647
G1 X186.767 Y20.507
G1 X186.554 Y20.463 E246.86027
G1 X186.151 Y20.38 E246.9053
G1 X185.627 Y20.553 E246.96568
G1 X185.278 Y20.818 E247.01363
G1 X184.987 Y21.221 E247.06802
G1 X184.927 Y21.475 E247.09658
