;FLAVOR:Marlin
;TIME:6605
;Filament used: 4.44351m
;Layer height: 0.2
;MINX:12.143
;MINY:27.638
;MINZ:0.3
;MAXX:284.085
;MAXY:277.846
;MAXZ:5.3
;Generated with Cura_SteamEngine 4.10.0
M104 S225
M105
M109 S225
M82 ;absolute extrusion mode
G28 ; home all axes
 M117 Purge extruder
 G92 E0 ; reset extruder
 G1 Z1.0 F3000 ; move z up little to prevent scratching of surface
 G1 X2 Y20 Z0.3 F5000.0 ; move to start-line position
 G1 X2 Y200.0 Z0.3 F1500.0 E15 ; draw 1st line
 G1 X2 Y200.0 Z0.4 F5000.0 ; move to side a little
 G1 X2 Y20 Z0.4 F1500.0 E30 ; draw 2nd line
 G92 E0 ; reset extruder
 G1 Z1.0 F3000 ; move z up little to prevent scratching of surface
G92 E0
G92 E0
G1 F2400 E-2
;LAYER_COUNT:27
;LAYER:0
M107
;MESH:AnyStrap_v2.2_3button_L-247mm.stl
G0 F6000 X120.47 Y155.858 Z0.3
;TYPE:WALL-INNER
G1 F2400 E0
G1 F1200 X119.944 Y155.706 E0.01844
G1 X119.381 Y155.71 E0.0374
G1 X118.822 Y155.861 E0.0569
G1 X118.295 Y156.135 E0.0769
G1 X117.828 Y156.518 E0.09724
G1 X117.445 Y156.985 E0.11758
G1 X117.171 Y157.512 E0.13758
G1 X117.02 Y158.071 E0.15708
G1 X117.016 Y158.633 E0.17601
G1 X117.168 Y159.162 E0.19454
G1 X117.458 Y159.573 E0.21148
G1 X125.37 Y167.485 E0.58829
G1 X125.781 Y167.775 E0.60523
G1 X126.31 Y167.927 E0.62376
G1 X126.872 Y167.923 E0.64269
G1 X127.43 Y167.772 E0.66216
G1 X127.958 Y167.498 E0.68219
G1 X128.424 Y167.113 E0.70255
G1 X128.807 Y166.648 E0.72283
G1 X129.082 Y166.121 E0.74285
G1 X129.233 Y165.562 E0.76235
G1 X129.237 Y165 E0.78128
G1 X129.085 Y164.471 E0.79981
G1 X128.795 Y164.06 E0.81675
G1 X120.883 Y156.148 E1.19356
G1 X120.47 Y155.858 E1.21056
G0 F6000 X120.361 Y156.087
;TYPE:WALL-OUTER
G1 F1200 X119.909 Y155.956 E1.2264
G1 X119.415 Y155.96 E1.24304
G1 X118.913 Y156.095 E1.26055
G1 X118.434 Y156.345 E1.27874
G1 X118.006 Y156.696 E1.29738
G1 X117.655 Y157.124 E1.31602
G1 X117.405 Y157.603 E1.33422
G1 X117.27 Y158.105 E1.35172
G1 X117.266 Y158.599 E1.36836
G1 X117.397 Y159.052 E1.38424
G1 X117.65 Y159.412 E1.39906
G1 X125.531 Y167.293 E1.77439
G1 X125.891 Y167.546 E1.78921
G1 X126.344 Y167.677 E1.80509
G1 X126.838 Y167.673 E1.82172
G1 X127.339 Y167.538 E1.8392
G1 X127.819 Y167.288 E1.85742
G1 X128.246 Y166.936 E1.87606
G1 X128.597 Y166.509 E1.89467
G1 X128.848 Y166.029 E1.91291
G1 X128.983 Y165.528 E1.93039
G1 X128.987 Y165.034 E1.94702
G1 X128.856 Y164.581 E1.9629
G1 X128.603 Y164.221 E1.97772
G1 X120.722 Y156.34 E2.35305
G1 X120.361 Y156.087 E2.3679
G0 F6000 X120.503 Y155.79
G1 F2400 E0.3679
G0 F6000 X119.983 Y156.878
G0 X107.607 Y168.749
G0 X107.455 Y167.636
;TYPE:WALL-INNER
G1 F2400 E2.3679
G1 F1200 X106.896 Y167.787 E2.3874
G1 X106.369 Y168.061 E2.4074
G1 X105.902 Y168.444 E2.42774
G1 X105.519 Y168.911 E2.44808
G1 X105.245 Y169.438 E2.46808
G1 X105.094 Y169.997 E2.48758
G1 X105.09 Y170.559 E2.50651
G1 X105.242 Y171.088 E2.52504
G1 X105.532 Y171.499 E2.54198
G1 X113.444 Y179.411 E2.91879
G1 X113.855 Y179.701 E2.93573
G1 X114.384 Y179.853 E2.95427
G1 X114.946 Y179.849 E2.97319
G1 X115.504 Y179.698 E2.99266
G1 X116.032 Y179.424 E3.01269
G1 X116.498 Y179.04 E3.03303
G1 X116.882 Y178.574 E3.05336
G1 X117.156 Y178.046 E3.07339
G1 X117.307 Y177.488 E3.09286
G1 X117.311 Y176.926 E3.11179
G1 X117.159 Y176.397 E3.13032
G1 X116.869 Y175.986 E3.14726
G1 X108.957 Y168.074 E3.52407
G1 X108.546 Y167.784 E3.54101
G1 X108.017 Y167.632 E3.55954
G1 X107.455 Y167.636 E3.57847
G0 F6000 X107.489 Y167.886
;TYPE:WALL-OUTER
G1 F1200 X106.987 Y168.021 E3.59598
G1 X106.508 Y168.271 E3.61417
G1 X106.08 Y168.622 E3.63281
G1 X105.729 Y169.05 E3.65145
G1 X105.479 Y169.529 E3.66965
G1 X105.344 Y170.031 E3.68715
G1 X105.34 Y170.525 E3.70379
G1 X105.471 Y170.978 E3.71967
G1 X105.724 Y171.338 E3.73449
G1 X113.605 Y179.219 E4.10982
G1 X113.965 Y179.472 E4.12464
G1 X114.418 Y179.603 E4.14052
G1 X114.912 Y179.599 E4.15715
G1 X115.413 Y179.464 E4.17463
G1 X115.893 Y179.214 E4.19285
G1 X116.32 Y178.862 E4.21149
G1 X116.672 Y178.435 E4.23012
G1 X116.922 Y177.955 E4.24835
G1 X117.057 Y177.454 E4.26582
G1 X117.061 Y176.96 E4.28246
G1 X116.93 Y176.507 E4.29834
G1 X116.677 Y176.147 E4.31316
G1 X108.796 Y168.266 E4.68849
G1 X108.436 Y168.013 E4.70331
G1 X107.983 Y167.882 E4.71919
G1 X107.489 Y167.886 E4.73582
G0 F6000 X107.445 Y167.56
G1 F2400 E2.73582
G0 F6000 X107.607 Y168.749
G0 X94.528 Y181.456
G0 X93.593 Y180.837
;TYPE:WALL-INNER
G1 F2400 E4.73582
G1 F1200 X93.319 Y181.364 E4.75583
G1 X93.168 Y181.923 E4.77533
G1 X93.164 Y182.485 E4.79425
G1 X93.316 Y183.014 E4.81279
G1 X93.606 Y183.425 E4.82973
G1 X101.518 Y191.337 E5.20654
G1 X101.929 Y191.627 E5.22347
G1 X102.458 Y191.779 E5.24201
G1 X103.02 Y191.775 E5.26094
G1 X103.578 Y191.624 E5.2804
G1 X104.106 Y191.35 E5.30044
G1 X104.572 Y190.966 E5.32077
G1 X104.956 Y190.5 E5.3411
G1 X105.23 Y189.972 E5.36114
G1 X105.381 Y189.414 E5.3806
G1 X105.385 Y188.852 E5.39953
G1 X105.233 Y188.323 E5.41807
G1 X104.943 Y187.912 E5.43501
G1 X97.031 Y180 E5.81181
G1 X96.62 Y179.71 E5.82875
G1 X96.091 Y179.558 E5.84729
G1 X95.529 Y179.562 E5.86621
G1 X94.97 Y179.713 E5.88571
G1 X94.443 Y179.987 E5.90572
G1 X93.976 Y180.37 E5.92606
G1 X93.593 Y180.837 E5.9464
G0 F6000 X93.803 Y180.976
;TYPE:WALL-OUTER
G1 F1200 X93.553 Y181.455 E5.96459
G1 X93.418 Y181.957 E5.9821
G1 X93.414 Y182.451 E5.99873
G1 X93.545 Y182.904 E6.01461
G1 X93.798 Y183.264 E6.02943
G1 X101.679 Y191.145 E6.40476
G1 X102.039 Y191.398 E6.41958
G1 X102.492 Y191.529 E6.43546
G1 X102.986 Y191.525 E6.4521
G1 X103.487 Y191.39 E6.46957
G1 X103.967 Y191.14 E6.4878
G1 X104.394 Y190.788 E6.50643
G1 X104.746 Y190.361 E6.52507
G1 X104.996 Y189.881 E6.54329
G1 X105.131 Y189.38 E6.56077
G1 X105.135 Y188.886 E6.5774
G1 X105.004 Y188.433 E6.59328
G1 X104.751 Y188.073 E6.6081
G1 X96.87 Y180.192 E6.98343
G1 X96.51 Y179.939 E6.99825
G1 X96.057 Y179.808 E7.01413
G1 X95.563 Y179.812 E7.03077
G1 X95.061 Y179.947 E7.04827
G1 X94.582 Y180.197 E7.06647
G1 X94.154 Y180.548 E7.08511
G1 X93.803 Y180.976 E7.10375
G0 F6000 X93.528 Y180.795
G1 F2400 E5.10375
G0 F6000 X94.528 Y181.456
G0 X90.684 Y202.59
G0 X90.532 Y203.705
;TYPE:WALL-INNER
G1 F2400 E7.10375
G1 F1200 X91.094 Y203.701 E7.12268
G1 X91.652 Y203.55 E7.14214
G1 X92.18 Y203.276 E7.16217
G1 X92.646 Y202.891 E7.18253
G1 X93.029 Y202.426 E7.20282
G1 X93.304 Y201.899 E7.22284
G1 X93.455 Y201.34 E7.24234
G1 X93.459 Y200.778 E7.26126
G1 X93.307 Y200.249 E7.2798
G1 X93.017 Y199.838 E7.29674
G1 X85.105 Y191.926 E7.67355
G1 X84.692 Y191.636 E7.69054
G1 X84.166 Y191.484 E7.70898
G1 X83.603 Y191.488 E7.72794
G1 X83.044 Y191.639 E7.74744
G1 X82.517 Y191.913 E7.76744
G1 X82.05 Y192.296 E7.78778
G1 X81.667 Y192.763 E7.80812
G1 X81.393 Y193.29 E7.82812
G1 X81.242 Y193.849 E7.84762
G1 X81.238 Y194.411 E7.86655
G1 X81.39 Y194.94 E7.88508
G1 X81.68 Y195.351 E7.90202
G1 X89.592 Y203.263 E8.27883
G1 X90.003 Y203.553 E8.29577
G1 X90.532 Y203.705 E8.3143
G0 F6000 X90.566 Y203.455
;TYPE:WALL-OUTER
G1 F1200 X91.06 Y203.451 E8.33094
G1 X91.561 Y203.316 E8.34841
G1 X92.041 Y203.066 E8.36664
G1 X92.468 Y202.714 E8.38528
G1 X92.819 Y202.287 E8.40389
G1 X93.07 Y201.807 E8.42213
G1 X93.205 Y201.306 E8.4396
G1 X93.209 Y200.812 E8.45624
G1 X93.078 Y200.359 E8.47212
G1 X92.825 Y199.999 E8.48694
G1 X84.944 Y192.118 E8.86227
G1 X84.583 Y191.865 E8.87712
G1 X84.131 Y191.734 E8.89296
G1 X83.637 Y191.738 E8.9096
G1 X83.135 Y191.873 E8.92711
G1 X82.656 Y192.123 E8.9453
G1 X82.228 Y192.474 E8.96394
G1 X81.877 Y192.902 E8.98258
G1 X81.627 Y193.381 E9.00078
G1 X81.492 Y193.883 E9.01828
G1 X81.488 Y194.377 E9.03492
G1 X81.619 Y194.83 E9.0508
G1 X81.872 Y195.19 E9.06562
G1 X89.753 Y203.071 E9.44095
G1 X90.113 Y203.324 E9.45577
G1 X90.566 Y203.455 E9.47165
G0 F6000 X90.521 Y203.781
G1 F2400 E7.47165
G0 F6000 X90.684 Y202.59
G0 X80.418 Y212.856
G0 X81.533 Y212.704
;TYPE:WALL-INNER
G1 F2400 E9.47165
G1 F1200 X81.381 Y212.175 E9.49018
G1 X81.091 Y211.764 E9.50712
G1 X73.179 Y203.852 E9.88393
G1 X72.768 Y203.562 E9.90087
G1 X72.239 Y203.41 E9.91941
G1 X71.677 Y203.414 E9.93833
G1 X71.118 Y203.565 E9.95783
G1 X70.591 Y203.839 E9.97783
G1 X70.124 Y204.222 E9.99817
G1 X69.741 Y204.689 E10.01851
G1 X69.467 Y205.216 E10.03851
G1 X69.316 Y205.775 E10.05801
G1 X69.312 Y206.337 E10.07694
G1 X69.464 Y206.866 E10.09548
G1 X69.754 Y207.277 E10.11242
G1 X77.666 Y215.189 E10.48922
G1 X78.077 Y215.479 E10.50616
G1 X78.606 Y215.631 E10.5247
G1 X79.168 Y215.627 E10.54362
G1 X79.726 Y215.476 E10.56309
G1 X80.254 Y215.202 E10.58312
G1 X80.72 Y214.818 E10.60346
G1 X81.104 Y214.352 E10.62379
G1 X81.378 Y213.824 E10.64383
G1 X81.529 Y213.266 E10.66329
G1 X81.533 Y212.704 E10.68222
G0 F6000 X81.283 Y212.738
;TYPE:WALL-OUTER
G1 F1200 X81.152 Y212.285 E10.6981
G1 X80.899 Y211.925 E10.71292
G1 X73.018 Y204.044 E11.08825
G1 X72.658 Y203.791 E11.10307
G1 X72.205 Y203.66 E11.11895
G1 X71.711 Y203.664 E11.13558
G1 X71.209 Y203.799 E11.15309
G1 X70.73 Y204.049 E11.17128
G1 X70.302 Y204.4 E11.18993
G1 X69.951 Y204.828 E11.20857
G1 X69.701 Y205.307 E11.22676
G1 X69.566 Y205.809 E11.24427
G1 X69.562 Y206.303 E11.2609
G1 X69.693 Y206.756 E11.27678
G1 X69.946 Y207.116 E11.2916
G1 X77.827 Y214.997 E11.66693
G1 X78.187 Y215.25 E11.68175
G1 X78.64 Y215.381 E11.69763
G1 X79.134 Y215.377 E11.71427
G1 X79.635 Y215.242 E11.73174
G1 X80.115 Y214.992 E11.74997
G1 X80.542 Y214.64 E11.7686
G1 X80.894 Y214.213 E11.78724
G1 X81.144 Y213.733 E11.80546
G1 X81.279 Y213.232 E11.82294
G1 X81.283 Y212.738 E11.83957
G0 F6000 X81.609 Y212.693
G1 F2400 E9.83957
G0 F6000 X80.418 Y212.856
G0 X58.501 Y218.111
G0 X57.386 Y218.263
;TYPE:WALL-INNER
G1 F2400 E11.83957
G1 F1200 X57.538 Y218.792 E11.85811
G1 X57.828 Y219.203 E11.87505
G1 X65.74 Y227.115 E12.25186
G1 X66.151 Y227.405 E12.2688
G1 X66.68 Y227.557 E12.28733
G1 X67.242 Y227.553 E12.30626
G1 X67.8 Y227.402 E12.32572
G1 X68.328 Y227.128 E12.34576
G1 X68.794 Y226.743 E12.36611
G1 X69.177 Y226.278 E12.3864
G1 X69.452 Y225.751 E12.40642
G1 X69.603 Y225.192 E12.42592
G1 X69.607 Y224.63 E12.44484
G1 X69.455 Y224.101 E12.46338
G1 X69.165 Y223.69 E12.48032
G1 X61.253 Y215.778 E12.85713
G1 X60.84 Y215.488 E12.87412
G1 X60.314 Y215.336 E12.89256
G1 X59.751 Y215.34 E12.91152
G1 X59.192 Y215.491 E12.93102
G1 X58.665 Y215.765 E12.95102
G1 X58.198 Y216.148 E12.97136
G1 X57.815 Y216.615 E12.9917
G1 X57.541 Y217.142 E13.0117
G1 X57.39 Y217.701 E13.0312
G1 X57.386 Y218.263 E13.05013
G0 F6000 X57.636 Y218.229
;TYPE:WALL-OUTER
G1 F1200 X57.767 Y218.682 E13.06601
G1 X58.02 Y219.042 E13.08083
G1 X65.901 Y226.923 E13.45616
G1 X66.261 Y227.176 E13.47098
G1 X66.714 Y227.307 E13.48686
G1 X67.208 Y227.303 E13.50349
G1 X67.709 Y227.168 E13.52097
G1 X68.189 Y226.918 E13.53919
G1 X68.616 Y226.566 E13.55783
G1 X68.967 Y226.139 E13.57644
G1 X69.218 Y225.659 E13.59468
G1 X69.353 Y225.158 E13.61216
G1 X69.357 Y224.664 E13.62879
G1 X69.226 Y224.211 E13.64467
G1 X68.973 Y223.851 E13.65949
G1 X61.092 Y215.97 E14.03482
G1 X60.731 Y215.717 E14.04967
G1 X60.279 Y215.586 E14.06552
G1 X59.785 Y215.59 E14.08215
G1 X59.283 Y215.725 E14.09966
G1 X58.804 Y215.975 E14.11785
G1 X58.376 Y216.326 E14.13649
G1 X58.025 Y216.754 E14.15513
G1 X57.775 Y217.233 E14.17333
G1 X57.64 Y217.735 E14.19084
G1 X57.636 Y218.229 E14.20747
G0 F6000 X57.31 Y218.274
G1 F2400 E12.20747
G0 F6000 X58.501 Y218.111
G0 X46.577 Y229.779
G0 X45.464 Y229.627
;TYPE:WALL-INNER
G1 F2400 E14.20747
G1 F1200 X45.46 Y230.189 E14.2264
G1 X45.612 Y230.718 E14.24493
G1 X45.902 Y231.129 E14.26187
G1 X53.814 Y239.041 E14.63868
G1 X54.225 Y239.331 E14.65562
G1 X54.754 Y239.483 E14.67416
G1 X55.316 Y239.479 E14.69308
G1 X55.874 Y239.328 E14.71255
G1 X56.402 Y239.054 E14.73258
G1 X56.868 Y238.67 E14.75292
G1 X57.252 Y238.204 E14.77325
G1 X57.526 Y237.676 E14.79328
G1 X57.677 Y237.118 E14.81275
G1 X57.681 Y236.556 E14.83168
G1 X57.529 Y236.027 E14.85021
G1 X57.239 Y235.616 E14.86715
G1 X49.327 Y227.704 E15.24396
G1 X48.916 Y227.414 E15.2609
G1 X48.387 Y227.262 E15.27943
G1 X47.825 Y227.266 E15.29836
G1 X47.266 Y227.417 E15.31786
G1 X46.739 Y227.691 E15.33786
G1 X46.272 Y228.074 E15.3582
G1 X45.889 Y228.541 E15.37854
G1 X45.615 Y229.068 E15.39854
G1 X45.464 Y229.627 E15.41804
G0 F6000 X45.714 Y229.661
;TYPE:WALL-OUTER
G1 F1200 X45.71 Y230.155 E15.43468
G1 X45.841 Y230.608 E15.45056
G1 X46.094 Y230.968 E15.46538
G1 X53.975 Y238.849 E15.84071
G1 X54.335 Y239.102 E15.85553
G1 X54.788 Y239.233 E15.87141
G1 X55.282 Y239.229 E15.88804
G1 X55.783 Y239.094 E15.90552
G1 X56.263 Y238.844 E15.92374
G1 X56.69 Y238.492 E15.94238
G1 X57.042 Y238.065 E15.96101
G1 X57.292 Y237.585 E15.97924
G1 X57.427 Y237.084 E15.99671
G1 X57.431 Y236.59 E16.01335
G1 X57.3 Y236.137 E16.02923
G1 X57.047 Y235.777 E16.04405
G1 X49.166 Y227.896 E16.41938
G1 X48.806 Y227.643 E16.4342
G1 X48.353 Y227.512 E16.45008
G1 X47.859 Y227.516 E16.46671
G1 X47.357 Y227.651 E16.48422
G1 X46.878 Y227.901 E16.50241
G1 X46.45 Y228.252 E16.52106
G1 X46.099 Y228.68 E16.5397
G1 X45.849 Y229.159 E16.55789
G1 X45.714 Y229.661 E16.5754
G0 F6000 X45.388 Y229.617
G1 F2400 E14.5754
G0 F6000 X46.577 Y229.779
G0 X44.15 Y249.804
G0 X44.942 Y250.596
;TYPE:WALL-INNER
G1 F2400 E16.5754
G1 F1200 X45.326 Y250.13 E16.59573
G1 X45.6 Y249.602 E16.61576
G1 X45.751 Y249.044 E16.63523
G1 X45.755 Y248.482 E16.65416
G1 X45.603 Y247.953 E16.67269
G1 X45.313 Y247.542 E16.68963
G1 X37.401 Y239.63 E17.06644
G1 X36.99 Y239.34 E17.08338
G1 X36.461 Y239.188 E17.10191
G1 X35.899 Y239.192 E17.12084
G1 X35.34 Y239.343 E17.14034
G1 X34.813 Y239.617 E17.16034
G1 X34.346 Y240 E17.18068
G1 X33.963 Y240.467 E17.20102
G1 X33.689 Y240.994 E17.22102
G1 X33.538 Y241.553 E17.24052
G1 X33.534 Y242.114 E17.25942
G1 X33.685 Y242.644 E17.27797
G1 X33.976 Y243.056 E17.29496
G1 X41.888 Y250.967 E17.67175
G1 X42.299 Y251.257 E17.68868
G1 X42.828 Y251.409 E17.70722
G1 X43.39 Y251.405 E17.72615
G1 X43.948 Y251.254 E17.74561
G1 X44.476 Y250.98 E17.76565
G1 X44.942 Y250.596 E17.78598
G0 F6000 X44.764 Y250.418
;TYPE:WALL-OUTER
G1 F1200 X45.116 Y249.991 E17.80462
G1 X45.366 Y249.511 E17.82284
G1 X45.501 Y249.01 E17.84032
G1 X45.505 Y248.516 E17.85695
G1 X45.374 Y248.063 E17.87283
G1 X45.121 Y247.703 E17.88765
G1 X37.24 Y239.822 E18.26298
G1 X36.88 Y239.569 E18.2778
G1 X36.427 Y239.438 E18.29368
G1 X35.933 Y239.442 E18.31032
G1 X35.431 Y239.577 E18.32782
G1 X34.952 Y239.827 E18.34602
G1 X34.524 Y240.178 E18.36466
G1 X34.173 Y240.606 E18.3833
G1 X33.923 Y241.085 E18.40149
G1 X33.788 Y241.587 E18.419
G1 X33.784 Y242.08 E18.4356
G1 X33.914 Y242.534 E18.45151
G1 X34.168 Y242.894 E18.46634
G1 X42.049 Y250.775 E18.84167
G1 X42.409 Y251.028 E18.85649
G1 X42.862 Y251.159 E18.87237
G1 X43.356 Y251.155 E18.88901
G1 X43.857 Y251.02 E18.90648
G1 X44.337 Y250.77 E18.92471
G1 X44.764 Y250.418 E18.94334
G0 F6000 X44.997 Y250.651
G1 F2400 E16.94334
G0 F6000 X44.15 Y249.804
G0 X22.723 Y253.889
G0 X21.608 Y254.041
;TYPE:WALL-INNER
G1 F2400 E18.94334
G1 F1200 X21.76 Y254.57 E18.96188
G1 X22.05 Y254.981 E18.97882
G1 X29.962 Y262.893 E19.35563
G1 X30.373 Y263.183 E19.37257
G1 X30.902 Y263.335 E19.3911
G1 X31.464 Y263.331 E19.41003
G1 X32.022 Y263.18 E19.42949
G1 X32.55 Y262.906 E19.44953
G1 X33.016 Y262.521 E19.46988
G1 X33.399 Y262.056 E19.49017
G1 X33.674 Y261.529 E19.51019
G1 X33.825 Y260.97 E19.52969
G1 X33.829 Y260.408 E19.54861
G1 X33.677 Y259.879 E19.56715
G1 X33.387 Y259.468 E19.58409
G1 X25.475 Y251.556 E19.9609
G1 X25.062 Y251.266 E19.97789
G1 X24.536 Y251.114 E19.99633
G1 X23.973 Y251.118 E20.01529
G1 X23.414 Y251.269 E20.03479
G1 X22.887 Y251.543 E20.05479
G1 X22.42 Y251.926 E20.07513
G1 X22.037 Y252.393 E20.09547
G1 X21.763 Y252.92 E20.11547
G1 X21.612 Y253.479 E20.13497
G1 X21.608 Y254.041 E20.1539
G0 F6000 X21.858 Y254.007
;TYPE:WALL-OUTER
G1 F1200 X21.989 Y254.46 E20.16978
G1 X22.242 Y254.82 E20.1846
G1 X30.123 Y262.701 E20.55993
G1 X30.483 Y262.954 E20.57475
G1 X30.936 Y263.085 E20.59063
G1 X31.43 Y263.081 E20.60726
G1 X31.931 Y262.946 E20.62474
G1 X32.411 Y262.696 E20.64296
G1 X32.838 Y262.344 E20.6616
G1 X33.189 Y261.917 E20.68021
G1 X33.44 Y261.437 E20.69845
G1 X33.575 Y260.936 E20.71593
G1 X33.579 Y260.442 E20.73256
G1 X33.448 Y259.989 E20.74844
G1 X33.195 Y259.629 E20.76326
G1 X25.314 Y251.748 E21.13859
G1 X24.953 Y251.495 E21.15344
