;FLAVOR:Marlin
;TIME:1954
;Filament used: 3.88858m
;Layer height: 0.35
;MINX:117.938
;MINY:124.555
;MINZ:0.35
;MAXX:180.799
;MAXY:178.909
;MAXZ:25.2
;Generated with Cura_SteamEngine 4.10.0
M140 S95
M105
M190 S95
M104 S240
M105
M109 S240
M82 ;absolute extrusion mode
G28 ; home all axes
 M117 Purge extruder
 G92 E0 ; reset extruder
 G1 Z1.0 F3000 ; move z up little to prevent scratching of surface
 G1 X2 Y20 Z0.3 F5000.0 ; move to start-line position
 G1 X2 Y200.0 Z0.3 F1500.0 E15 ; draw 1st line
 G1 X2 Y200.0 Z0.4 F5000.0 ; move to side a little
 G1 X2 Y20 Z0.4 F1500.0 E30 ; draw 2nd line
 G92 E0 ; reset extruder
 G1 Z1.0 F3000 ; move z up little to prevent scratching of surface
G92 E0
G92 E0
G1 F2100 E-2
;LAYER_COUNT:72
;LAYER:0
M107
G0 F6000 X124.205 Y132.555 Z0.35
;TYPE:SKIRT
G1 F2100 E0
G1 F1200 X124.525 Y132.261 E0.05887
G1 X125.612 Y131.314 E0.25418
G1 X125.919 Y131.06 E0.30815
G1 X127.073 Y130.148 E0.50742
G1 X127.552 Y129.796 E0.58795
G1 X127.672 Y129.714 E0.60764
G1 X128.274 Y129.279 E0.70825
G1 X128.608 Y129.044 E0.76358
G1 X128.949 Y128.817 E0.81908
G1 X130.154 Y128.055 E1.01222
G1 X130.487 Y127.854 E1.06491
G1 X131.7 Y127.164 E1.25397
G1 X132.429 Y126.796 E1.3646
G1 X132.923 Y126.604 E1.4364
G1 X133.335 Y126.348 E1.50211
G1 X133.951 Y126.038 E1.59553
G1 X134.365 Y125.852 E1.65702
G1 X134.864 Y125.634 E1.73079
G1 X135.277 Y125.46 E1.7915
G1 X135.914 Y125.207 E1.88436
G1 X136.586 Y124.975 E1.98067
G1 X136.827 Y124.903 E2.01474
G1 X137.619 Y124.708 E2.12524
G1 X138.427 Y124.591 E2.23584
G1 X139.336 Y124.555 E2.35909
G1 X160.216 Y124.869 E5.18807
G1 X161.031 Y124.921 E5.29871
G1 X161.836 Y125.053 E5.40922
G1 X162.684 Y125.282 E5.52822
G1 X162.913 Y125.357 E5.56086
G1 X163.648 Y125.637 E5.66742
G1 X164.223 Y125.888 E5.75241
G1 X164.755 Y126.13 E5.83159
G1 X165.286 Y126.383 E5.91127
G1 X165.593 Y126.535 E5.95768
G1 X166.306 Y126.932 E6.06824
G1 X166.552 Y127.103 E6.10882
G1 X166.714 Y127.163 E6.13223
G1 X167.751 Y127.696 E6.29018
G1 X168.885 Y128.383 E6.4698
G1 X169.274 Y128.634 E6.53252
G1 X170.51 Y129.48 E6.73543
G1 X170.803 Y129.69 E6.78427
G1 X171.967 Y130.563 E6.98138
G1 X172.322 Y130.844 E7.04271
G1 X173.431 Y131.774 E7.23879
G1 X173.744 Y132.05 E7.29532
G1 X174.769 Y133.001 E7.48474
G1 X175.062 Y133.287 E7.54021
G1 X176.112 Y134.362 E7.74379
G1 X176.426 Y134.703 E7.80659
G1 X177.345 Y135.755 E7.99582
G1 X177.715 Y136.209 E8.07517
G1 X178.094 Y136.71 E8.16027
G1 X178.563 Y137.399 E8.27318
G1 X178.874 Y137.909 E8.35411
G1 X179.332 Y138.769 E8.48611
G1 X179.614 Y139.383 E8.57764
G1 X179.887 Y140.053 E8.67565
G1 X180.062 Y140.542 E8.74601
G1 X180.315 Y141.39 E8.8659
G1 X180.457 Y141.977 E8.94771
G1 X180.595 Y142.678 E9.0445
G1 X180.681 Y143.241 E9.12166
G1 X180.772 Y144.216 E9.25432
G1 X180.795 Y144.892 E9.34595
G1 X180.799 Y145.301 E9.40136
G1 X180.59 Y159.151 E11.27787
G1 X180.569 Y159.635 E11.3435
G1 X180.522 Y160.275 E11.43044
G1 X180.43 Y161.04 E11.53482
G1 X180.349 Y161.524 E11.6013
G1 X180.156 Y162.389 E11.72137
G1 X179.977 Y163.03 E11.81153
G1 X179.726 Y163.788 E11.9197
G1 X179.51 Y164.348 E12.00101
G1 X179.141 Y165.169 E12.12295
G1 X178.866 Y165.702 E12.20421
G1 X178.469 Y166.39 E12.31182
G1 X178.157 Y166.875 E12.38994
G1 X177.68 Y167.541 E12.50092
G1 X177.268 Y168.061 E12.5908
G1 X176.816 Y168.585 E12.68455
G1 X175.843 Y169.623 E12.87729
G1 X175.574 Y169.897 E12.9293
G1 X174.552 Y170.891 E13.12244
G1 X174.214 Y171.202 E13.18467
G1 X173.138 Y172.139 E13.37796
G1 X172.843 Y172.385 E13.43
G1 X171.714 Y173.28 E13.62517
G1 X171.175 Y173.673 E13.71554
G1 X170.987 Y173.799 E13.7462
G1 X170.551 Y174.117 E13.81931
G1 X170.158 Y174.397 E13.88468
G1 X169.772 Y174.656 E13.94765
G1 X168.518 Y175.448 E14.14858
G1 X168.173 Y175.654 E14.20302
G1 X167.021 Y176.306 E14.38235
G1 X166.292 Y176.673 E14.49291
G1 X165.821 Y176.855 E14.56132
G1 X165.388 Y177.123 E14.63031
G1 X164.818 Y177.41 E14.71676
G1 X164.389 Y177.605 E14.7806
G1 X163.831 Y177.848 E14.86305
G1 X163.271 Y178.08 E14.94517
G1 X162.673 Y178.315 E15.03221
G1 X161.899 Y178.576 E15.14287
G1 X161.131 Y178.755 E15.2497
G1 X161.033 Y178.773 E15.2632
G1 X160.224 Y178.881 E15.37377
G1 X159.388 Y178.909 E15.48709
G1 X155.054 Y178.836 E16.07431
G1 X149.455 Y178.759 E16.83289
G1 X138.52 Y178.595 E18.31445
G1 X137.706 Y178.543 E18.42495
G1 X136.916 Y178.415 E18.53337
G1 X136.817 Y178.394 E18.54708
G1 X136.028 Y178.185 E18.65766
G1 X135.239 Y177.89 E18.77177
G1 X134.564 Y177.598 E18.87141
G1 X134.419 Y177.532 E18.89299
G1 X134.03 Y177.355 E18.95089
G1 X133.635 Y177.171 E19.00992
G1 X133.427 Y177.071 E19.04118
G1 X133.115 Y176.915 E19.08844
G1 X132.404 Y176.514 E19.19903
G1 X132.186 Y176.362 E19.23503
G1 X132.023 Y176.301 E19.25861
G1 X130.972 Y175.759 E19.41881
G1 X129.792 Y175.041 E19.60593
G1 X129.422 Y174.803 E19.66553
G1 X128.181 Y173.955 E19.86915
G1 X127.862 Y173.725 E19.92243
G1 X126.756 Y172.89 E20.11017
G1 X126.409 Y172.613 E20.17032
G1 X125.274 Y171.657 E20.37136
G1 X124.973 Y171.391 E20.42578
G1 X123.914 Y170.408 E20.62152
G1 X123.607 Y170.109 E20.67958
G1 X122.639 Y169.113 E20.86774
G1 X122.363 Y168.814 E20.92286
G1 X121.408 Y167.73 E21.11858
G1 X121.005 Y167.236 E21.20494
G1 X120.629 Y166.737 E21.28959
G1 X120.144 Y166.018 E21.40708
G1 X119.827 Y165.491 E21.4904
G1 X119.412 Y164.709 E21.61033
G1 X119.153 Y164.152 E21.69355
G1 X118.864 Y163.45 E21.79639
G1 X118.678 Y162.931 E21.87108
G1 X118.425 Y162.085 E21.99071
G1 X118.27 Y161.446 E22.07978
G1 X118.111 Y160.602 E22.19613
G1 X118.038 Y160.064 E22.26969
G1 X117.968 Y159.256 E22.37956
G1 X117.943 Y158.588 E22.47012
G1 X117.938 Y158.15 E22.52946
G1 X118.147 Y144.348 E24.39947
G1 X118.163 Y143.937 E24.45519
G1 X118.205 Y143.287 E24.54343
G1 X118.315 Y142.375 E24.66787
G1 X118.401 Y141.888 E24.73487
G1 X118.553 Y141.199 E24.83046
G1 X118.728 Y140.54 E24.92283
G1 X119.027 Y139.629 E25.05272
G1 X119.252 Y139.057 E25.13599
G1 X119.573 Y138.341 E25.24229
G1 X119.838 Y137.818 E25.32172
G1 X120.279 Y137.051 E25.44158
G1 X120.609 Y136.542 E25.52376
G1 X121.112 Y135.848 E25.63987
G1 X121.514 Y135.349 E25.72668
G1 X121.912 Y134.89 E25.80898
G1 X122.897 Y133.835 E26.00452
G1 X123.194 Y133.533 E26.0619
G1 X124.205 Y132.555 E26.25246
G0 F6000 X124.887 Y133.259
G1 F1200 X125.169 Y133 E26.30433
G1 X126.256 Y132.053 E26.49964
G1 X126.527 Y131.828 E26.54735
G1 X127.681 Y130.916 E26.74662
G1 X128.104 Y130.606 E26.81766
G1 X128.217 Y130.529 E26.83619
G1 X128.838 Y130.081 E26.93992
G1 X129.172 Y129.846 E26.99525
G1 X129.473 Y129.645 E27.04428
G1 X130.678 Y128.883 E27.23743
G1 X130.972 Y128.706 E27.28392
G1 X132.185 Y128.016 E27.47297
G1 X132.87 Y127.673 E27.57675
G1 X133.328 Y127.5 E27.64308
G1 X133.354 Y127.481 E27.64744
G1 X134.355 Y126.931 E27.80217
G1 X134.758 Y126.75 E27.86202
G1 X135.244 Y126.538 E27.93385
G1 X135.815 Y126.299 E28.01771
G1 X136.274 Y126.118 E28.08455
G1 X136.866 Y125.914 E28.16938
G1 X137.107 Y125.842 E28.20346
G1 X137.852 Y125.661 E28.30732
G1 X138.612 Y125.558 E28.41122
G1 X139.322 Y125.535 E28.50746
G1 X160.202 Y125.849 E31.33644
G1 X160.966 Y125.9 E31.44018
G1 X161.722 Y126.031 E31.54412
G1 X162.379 Y126.213 E31.63648
G1 X162.608 Y126.288 E31.66912
G1 X163.256 Y126.535 E31.76307
G1 X163.82 Y126.781 E31.84643
G1 X164.335 Y127.015 E31.92306
G1 X164.851 Y127.261 E32.0005
G1 X165.158 Y127.413 E32.04691
G1 X165.827 Y127.789 E32.15088
G1 X166.098 Y127.981 E32.19587
G1 X166.478 Y128.13 E32.25116
G1 X167.243 Y128.535 E32.36843
G1 X168.377 Y129.222 E32.54805
G1 X168.72 Y129.443 E32.60332
G1 X169.956 Y130.289 E32.80624
G1 X170.215 Y130.474 E32.84935
G1 X171.379 Y131.347 E33.04647
G1 X171.692 Y131.595 E33.10057
G1 X172.801 Y132.525 E33.29664
G1 X173.077 Y132.769 E33.34655
G1 X174.102 Y133.72 E33.53597
G1 X174.361 Y133.972 E33.58492
G1 X175.411 Y135.047 E33.7885
G1 X175.688 Y135.347 E33.84382
G1 X176.607 Y136.399 E34.03306
G1 X176.934 Y136.801 E34.10326
G1 X177.313 Y137.302 E34.18836
G1 X177.726 Y137.909 E34.28782
G1 X178.037 Y138.419 E34.36875
G1 X178.441 Y139.178 E34.48523
G1 X178.723 Y139.792 E34.57676
G1 X178.964 Y140.383 E34.66323
G1 X179.139 Y140.872 E34.73359
G1 X179.363 Y141.621 E34.8395
G1 X179.505 Y142.208 E34.92132
G1 X179.627 Y142.826 E35.00665
G1 X179.713 Y143.389 E35.08381
G1 X179.793 Y144.249 E35.20082
G1 X179.816 Y144.925 E35.29245
G1 X179.819 Y145.286 E35.34136
G1 X179.61 Y159.136 E37.21787
G1 X179.591 Y159.563 E37.27577
G1 X179.544 Y160.203 E37.36271
G1 X179.463 Y160.878 E37.45481
G1 X179.382 Y161.362 E37.52129
G1 X179.212 Y162.126 E37.62732
G1 X179.033 Y162.767 E37.71748
G1 X178.812 Y163.435 E37.8128
G1 X178.596 Y163.995 E37.89412
G1 X178.27 Y164.72 E38.00181
G1 X177.995 Y165.253 E38.08306
G1 X177.644 Y165.86 E38.17805
G1 X177.332 Y166.345 E38.25617
G1 X176.912 Y166.932 E38.35395
G1 X176.5 Y167.452 E38.44383
G1 X176.101 Y167.915 E38.52663
G1 X175.128 Y168.953 E38.71937
G1 X174.891 Y169.195 E38.76526
G1 X173.869 Y170.189 E38.9584
G1 X173.571 Y170.463 E39.01324
G1 X172.495 Y171.4 E39.20654
G1 X172.234 Y171.617 E39.25252
G1 X171.105 Y172.512 E39.4477
G1 X170.629 Y172.859 E39.5275
G1 X170.435 Y172.989 E39.55913
G1 X169.982 Y173.319 E39.63506
G1 X169.589 Y173.599 E39.70043
G1 X169.249 Y173.827 E39.75589
G1 X167.995 Y174.619 E39.95682
G1 X167.69 Y174.802 E40.005
G1 X166.538 Y175.454 E40.18433
G1 X165.852 Y175.796 E40.28817
G1 X165.409 Y175.962 E40.35226
G1 X165.371 Y175.99 E40.35866
G1 X164.411 Y176.519 E40.50715
G1 X163.995 Y176.708 E40.56905
G1 X163.455 Y176.944 E40.64889
G1 X162.912 Y177.168 E40.72846
G1 X162.314 Y177.403 E40.81551
G1 X161.587 Y177.646 E40.91935
G1 X160.954 Y177.791 E41.00733
G1 X160.856 Y177.809 E41.02082
G1 X160.096 Y177.908 E41.12465
G1 X159.404 Y177.929 E41.21844
G1 X155.07 Y177.856 E41.80567
G1 X149.47 Y177.779 E42.56438
G1 X138.535 Y177.615 E44.04594
G1 X137.77 Y177.564 E44.14981
G1 X137.12 Y177.456 E44.23908
G1 X137.021 Y177.435 E44.25279
G1 X136.28 Y177.237 E44.35669
G1 X135.628 Y176.991 E44.4511
G1 X134.953 Y176.699 E44.55073
G1 X134.824 Y176.64 E44.56995
G1 X134.443 Y176.467 E44.62664
G1 X134.048 Y176.283 E44.68567
G1 X133.553 Y176.038 E44.76049
G1 X132.886 Y175.66 E44.86435
G1 X132.638 Y175.482 E44.90571
G1 X132.259 Y175.334 E44.96083
G1 X131.481 Y174.922 E45.08009
G1 X130.301 Y174.204 E45.26722
G1 X129.975 Y173.994 E45.31975
G1 X128.734 Y173.146 E45.52338
G1 X128.452 Y172.943 E45.57045
G1 X127.346 Y172.108 E45.75819
G1 X127.04 Y171.864 E45.81121
G1 X125.905 Y170.908 E46.01225
G1 X125.64 Y170.673 E46.06023
G1 X124.581 Y169.69 E46.25597
G1 X124.31 Y169.426 E46.30723
G1 X123.342 Y168.43 E46.49539
G1 X123.098 Y168.166 E46.54409
G1 X122.143 Y167.082 E46.7398
G1 X121.788 Y166.646 E46.81597
G1 X121.412 Y166.147 E46.90061
G1 X120.984 Y165.513 E47.00424
G1 X120.667 Y164.986 E47.08756
G1 X120.3 Y164.296 E47.19343
G1 X120.041 Y163.739 E47.27665
G1 X119.787 Y163.12 E47.36729
G1 X119.601 Y162.601 E47.44198
G1 X119.377 Y161.854 E47.54763
G1 X119.222 Y161.215 E47.63671
G1 X119.082 Y160.47 E47.7394
G1 X119.009 Y159.932 E47.81296
G1 X118.947 Y159.219 E47.90991
G1 X118.922 Y158.551 E48.00047
G1 X118.918 Y158.165 E48.05277
G1 X119.127 Y144.363 E49.92278
G1 X119.141 Y144 E49.97199
G1 X119.183 Y143.35 E50.06023
G1 X119.28 Y142.546 E50.16994
G1 X119.366 Y142.059 E50.23694
G1 X119.5 Y141.451 E50.32128
G1 X119.675 Y140.792 E50.41365
G1 X119.939 Y139.987 E50.52842
G1 X120.164 Y139.415 E50.61169
G1 X120.448 Y138.784 E50.70543
G1 X120.713 Y138.261 E50.78486
G1 X121.102 Y137.585 E50.89052
G1 X121.432 Y137.076 E50.9727
G1 X121.875 Y136.463 E51.07516
G1 X122.277 Y135.964 E51.16197
G1 X122.629 Y135.559 E51.23466
G1 X123.614 Y134.504 E51.4302
G1 X123.876 Y134.237 E51.48087
G1 X124.887 Y133.259 E51.67143
G0 F6000 X125.568 Y133.964
G1 F1200 X125.813 Y133.739 E51.7165
G1 X126.9 Y132.792 E51.9118
G1 X127.134 Y132.597 E51.95307
G1 X128.288 Y131.685 E52.15233
G1 X128.655 Y131.416 E52.21397
G1 X128.799 Y131.318 E52.23757
G1 X129.401 Y130.882 E52.33827
G1 X129.735 Y130.647 E52.39359
G1 X129.996 Y130.473 E52.43609
G1 X131.201 Y129.711 E52.62924
G1 X131.456 Y129.558 E52.66952
G1 X132.669 Y128.868 E52.85858
G1 X133.308 Y128.551 E52.95521
G1 X133.804 Y128.371 E53.02669
G1 X134.058 Y128.195 E53.06856
G1 X134.758 Y127.824 E53.17588
G1 X135.151 Y127.647 E53.23427
G1 X135.625 Y127.441 E53.30429
G1 X136.174 Y127.211 E53.38493
G1 X136.633 Y127.03 E53.45177
G1 X137.147 Y126.853 E53.52542
G1 X137.388 Y126.781 E53.55949
G1 X138.082 Y126.615 E53.65616
G1 X138.79 Y126.528 E53.7528
G1 X139.307 Y126.515 E53.82286
G1 X160.187 Y126.829 E56.65185
G1 X160.899 Y126.879 E56.74854
G1 X161.6 Y127.009 E56.84513
G1 X162.074 Y127.144 E56.9119
G1 X162.303 Y127.219 E56.94454
G1 X162.865 Y127.433 E57.02601
G1 X163.416 Y127.674 E57.10748
G1 X163.915 Y127.901 E57.18175
G1 X164.416 Y128.139 E57.25689
G1 X164.723 Y128.291 E57.3033
G1 X165.344 Y128.643 E57.4
G1 X165.607 Y128.834 E57.44404
G1 X165.618 Y128.837 E57.44558
G1 X166.273 Y129.118 E57.54214
G1 X166.736 Y129.373 E57.61374
G1 X167.87 Y130.06 E57.79336
G1 X168.167 Y130.251 E57.8412
G1 X169.403 Y131.097 E58.04411
G1 X169.627 Y131.258 E58.08148
G1 X170.791 Y132.131 E58.2786
G1 X171.062 Y132.346 E58.32546
G1 X172.171 Y133.276 E58.52153
G1 X172.411 Y133.487 E58.56483
G1 X173.436 Y134.438 E58.75425
G1 X173.66 Y134.657 E58.79669
G1 X174.71 Y135.732 E59.00026
G1 X174.95 Y135.992 E59.0482
G1 X175.869 Y137.044 E59.23744
G1 X176.152 Y137.392 E59.2982
G1 X176.531 Y137.893 E59.38331
G1 X176.89 Y138.42 E59.46969
G1 X177.201 Y138.93 E59.55062
G1 X177.551 Y139.587 E59.65146
G1 X177.833 Y140.201 E59.743
G1 X178.042 Y140.714 E59.81804
G1 X178.217 Y141.203 E59.8884
G1 X178.41 Y141.851 E59.98
G1 X178.552 Y142.438 E60.06182
G1 X178.658 Y142.974 E60.13583
G1 X178.744 Y143.537 E60.21299
G1 X178.813 Y144.282 E60.31435
G1 X178.836 Y144.958 E60.40598
G1 X178.839 Y145.271 E60.44839
G1 X178.63 Y159.121 E62.3249
G1 X178.614 Y159.492 E62.3752
G1 X178.567 Y160.132 E62.46214
G1 X178.497 Y160.716 E62.54182
G1 X178.416 Y161.2 E62.6083
G1 X178.268 Y161.862 E62.7002
G1 X178.089 Y162.503 E62.79036
G1 X177.897 Y163.082 E62.873
G1 X177.681 Y163.642 E62.95431
G1 X177.399 Y164.271 E63.0477
G1 X177.124 Y164.804 E63.12895
G1 X176.82 Y165.329 E63.21113
G1 X176.508 Y165.814 E63.28926
G1 X176.144 Y166.324 E63.37414
G1 X175.732 Y166.844 E63.46402
G1 X175.386 Y167.244 E63.53567
G1 X174.413 Y168.282 E63.72841
G1 X174.207 Y168.492 E63.76826
G1 X173.185 Y169.486 E63.9614
G1 X172.927 Y169.724 E64.00895
G1 X171.851 Y170.661 E64.20225
G1 X171.625 Y170.849 E64.24207
G1 X170.496 Y171.744 E64.43725
G1 X170.084 Y172.045 E64.50637
G1 X169.872 Y172.187 E64.54094
G1 X169.413 Y172.521 E64.61784
G1 X169.02 Y172.801 E64.68321
G1 X168.726 Y172.999 E64.73123
G1 X167.472 Y173.791 E64.93216
G1 X167.208 Y173.949 E64.97384
G1 X166.056 Y174.601 E65.15317
G1 X165.416 Y174.917 E65.24986
G1 X164.936 Y175.09 E65.31899
G1 X164.669 Y175.274 E65.36291
G1 X164.003 Y175.627 E65.46503
G1 X163.601 Y175.811 E65.52492
G1 X163.078 Y176.039 E65.60222
G1 X162.554 Y176.256 E65.67905
G1 X161.956 Y176.491 E65.76609
G1 X161.278 Y176.714 E65.86278
G1 X160.777 Y176.827 E65.93236
G1 X160.679 Y176.845 E65.94586
G1 X159.971 Y176.935 E66.04255
G1 X159.421 Y176.949 E66.11708
G1 X155.087 Y176.876 E66.7043
G1 X149.484 Y176.799 E67.46343
G1 X138.549 Y176.635 E68.94499
G1 X137.838 Y176.585 E69.04155
G1 X137.323 Y176.497 E69.11233
G1 X137.224 Y176.476 E69.12604
G1 X136.536 Y176.289 E69.22262
G1 X136.017 Y176.091 E69.29788
G1 X135.342 Y175.799 E69.39751
G1 X134.857 Y175.578 E69.46971
G1 X134.303 Y175.318 E69.55262
G1 X133.991 Y175.162 E69.59988
G1 X133.372 Y174.807 E69.69655
G1 X133.13 Y174.63 E69.73716
G1 X133.119 Y174.627 E69.73871
G1 X132.464 Y174.346 E69.83526
G1 X131.991 Y174.085 E69.90845
G1 X130.811 Y173.367 E70.09558
G1 X130.528 Y173.184 E70.14123
G1 X129.287 Y172.336 E70.34485
G1 X129.043 Y172.161 E70.38553
G1 X127.937 Y171.326 E70.57327
G1 X127.671 Y171.114 E70.61935
G1 X126.536 Y170.158 E70.82039
G1 X126.306 Y169.955 E70.86195
G1 X125.247 Y168.972 E71.0577
G1 X125.013 Y168.743 E71.10205
G1 X124.045 Y167.747 E71.29021
G1 X123.833 Y167.518 E71.33248
G1 X122.878 Y166.434 E71.5282
G1 X122.571 Y166.056 E71.59417
G1 X122.195 Y165.557 E71.67881
