;FLAVOR:Marlin
;TIME:1769
;Filament used: 0.695634m
;Layer height: 0.2
;MINX:207.441
;MINY:147.116
;MINZ:0.2
;MAXX:257.64
;MAXY:226.314
;MAXZ:10.2
;Generated with Cura_SteamEngine 4.10.0
M140 S60
M105
M190 S60
M104 S225
M105
M109 S225
M82 ;absolute extrusion mode
G28 ; home all axes
 M117 Purge extruder
 G92 E0 ; reset extruder
 G1 Z1.0 F3000 ; move z up little to prevent scratching of surface
 G1 X2 Y20 Z0.3 F5000.0 ; move to start-line position
 G1 X2 Y200.0 Z0.3 F1500.0 E15 ; draw 1st line
 G1 X2 Y200.0 Z0.4 F5000.0 ; move to side a little
 G1 X2 Y20 Z0.4 F1500.0 E30 ; draw 2nd line
 G92 E0 ; reset extruder
 G1 Z1.0 F3000 ; move z up little to prevent scratching of surface
G92 E0
G92 E0
G1 F1500 E-2
;LAYER_COUNT:50
;LAYER:0
M107
G1 F300 Z0.4
G0 F6000 X209.943 Y153.536 Z0.4
;TYPE:SKIRT
G1 F300 Z0.2
G1 F1500 E0
G1 F600 X210.512 Y152.813 E0.02616
G1 X211.142 Y152.141 E0.05236
G1 X211.828 Y151.527 E0.07854
G1 X212.564 Y150.975 E0.1047
G1 X213.346 Y150.488 E0.1309
G1 X214.167 Y150.072 E0.15707
G1 X215.021 Y149.728 E0.18325
G1 X216.16 Y149.396 E0.21699
G1 X216.536 Y149.309 E0.22797
G1 X219.086 Y148.68 E0.30266
G1 X221.509 Y148.01 E0.37415
G1 X221.948 Y147.877 E0.38719
G1 X223.095 Y147.544 E0.42116
G1 X223.989 Y147.326 E0.44732
G1 X224.899 Y147.187 E0.4735
G1 X225.74 Y147.129 E0.49747
G1 X226.048 Y147.12 E0.50624
G1 X226.529 Y147.116 E0.51992
G1 X227.21 Y147.127 E0.53928
G1 X228.129 Y147.182 E0.56546
G1 X229.04 Y147.317 E0.59165
G1 X229.936 Y147.529 E0.61784
G1 X230.955 Y147.876 E0.64845
G1 X231.38 Y148.047 E0.66148
G1 X233.309 Y148.854 E0.72094
G1 X235.849 Y149.834 E0.79836
G1 X236.692 Y150.202 E0.82452
G1 X237.501 Y150.643 E0.85072
G1 X238.268 Y151.151 E0.87688
G1 X238.989 Y151.725 E0.90309
G1 X239.657 Y152.358 E0.92926
G1 X240.267 Y153.047 E0.95543
G1 X240.815 Y153.787 E0.98161
G1 X241.286 Y154.551 E1.00714
G1 X241.495 Y154.926 E1.01934
G1 X242.476 Y156.741 E1.07802
G1 X243.733 Y158.914 E1.1494
G1 X245.067 Y161.078 E1.2217
G1 X246.442 Y163.176 E1.29303
G1 X247.892 Y165.256 E1.36513
G1 X249.414 Y167.313 E1.4379
G1 X250.946 Y169.265 E1.50846
G1 X252.566 Y171.212 E1.58049
G1 X253.643 Y172.422 E1.62656
G1 X254.51 Y173.419 E1.66413
G1 X255.082 Y174.139 E1.69028
G1 X255.317 Y174.462 E1.70164
G1 X255.826 Y175.229 E1.72782
G1 X256.286 Y176.077 E1.75525
G1 X256.441 Y176.397 E1.76536
G1 X256.806 Y177.242 E1.79154
G1 X257.126 Y178.224 E1.82091
G1 X257.226 Y178.59 E1.8317
G1 X257.43 Y179.488 E1.85789
G1 X257.557 Y180.424 E1.88475
G1 X257.582 Y180.699 E1.8926
G1 X257.625 Y181.483 E1.91493
G1 X257.639 Y182.328 E1.93896
G1 X257.64 Y183.008 E1.9583
G1 X257.614 Y184.906 E2.01228
G1 X257.6 Y185.449 E2.02772
G1 X257.596 Y187.973 E2.0995
G1 X257.64 Y190.05 E2.15858
G1 X257.639 Y191.157 E2.19006
G1 X257.63 Y191.814 E2.20874
G1 X257.6 Y192.484 E2.22782
G1 X257.571 Y192.86 E2.23854
G1 X257.46 Y193.774 E2.26472
G1 X257.266 Y194.693 E2.29143
G1 X257.185 Y195.007 E2.30065
G1 X256.917 Y195.887 E2.32681
G1 X256.629 Y196.615 E2.34908
G1 X256.501 Y196.907 E2.35814
G1 X256.095 Y197.733 E2.38432
G1 X255.629 Y198.506 E2.40998
G1 X255.407 Y198.841 E2.42141
G1 X254.866 Y199.586 E2.4476
G1 X254.437 Y200.092 E2.46646
G1 X254.166 Y200.392 E2.47796
G1 X252.524 Y202.264 E2.54877
G1 X250.876 Y204.252 E2.6222
G1 X249.331 Y206.227 E2.69351
G1 X247.826 Y208.268 E2.76562
G1 X246.393 Y210.33 E2.83703
G1 X244.983 Y212.487 E2.91031
G1 X243.71 Y214.56 E2.97949
G1 X241.776 Y217.972 E3.09102
G1 X241.356 Y218.749 E3.11614
G1 X240.884 Y219.539 E3.14231
G1 X240.344 Y220.285 E3.1685
G1 X239.742 Y220.982 E3.19469
G1 X239.081 Y221.623 E3.22087
G1 X238.368 Y222.205 E3.24705
G1 X237.606 Y222.722 E3.27323
G1 X236.803 Y223.172 E3.29941
G1 X235.855 Y223.593 E3.32891
G1 X234.527 Y224.106 E3.36939
G1 X234.408 Y224.15 E3.373
G1 X232.015 Y225.113 E3.44635
G1 X231.158 Y225.472 E3.47278
G1 X230.222 Y225.813 E3.50111
G1 X229.3 Y226.06 E3.52825
G1 X228.393 Y226.218 E3.55443
G1 X227.34 Y226.301 E3.58447
G1 X227.034 Y226.31 E3.59317
G1 X226.566 Y226.314 E3.60648
G1 X225.887 Y226.304 E3.62579
G1 X224.968 Y226.25 E3.65197
G1 X224.057 Y226.117 E3.67815
G1 X222.964 Y225.848 E3.71016
G1 X220.354 Y225.087 E3.78748
G1 X217.902 Y224.45 E3.85952
G1 X217.052 Y224.254 E3.88433
G1 X216.015 Y223.999 E3.91469
G1 X215.131 Y223.741 E3.94088
G1 X214.274 Y223.406 E3.96705
G1 X213.448 Y222.998 E3.99325
G1 X212.661 Y222.521 E4.01942
G1 X211.919 Y221.976 E4.0456
G1 X211.226 Y221.37 E4.07178
G1 X210.589 Y220.705 E4.09796
G1 X210.011 Y219.988 E4.12415
G1 X209.499 Y219.224 E4.15031
G1 X209.054 Y218.417 E4.17651
G1 X208.681 Y217.576 E4.20268
G1 X208.383 Y216.705 E4.22885
G1 X208.161 Y215.811 E4.25505
G1 X208.018 Y214.902 E4.28122
G1 X207.955 Y214.024 E4.30625
G1 X207.945 Y213.69 E4.31575
G1 X207.94 Y213.373 E4.32477
G1 X207.94 Y202.783 E4.62592
G1 X207.903 Y200.158 E4.70058
G1 X207.797 Y197.666 E4.77151
G1 X207.586 Y194.757 E4.85445
G1 X207.492 Y193.685 E4.88505
G1 X207.453 Y192.926 E4.90666
G1 X207.444 Y192.352 E4.92299
G1 X207.444 Y192.032 E4.93209
G1 X207.451 Y191.55 E4.9458
G1 X207.46 Y191.253 E4.95425
G1 X207.487 Y190.622 E4.97221
G1 X207.562 Y187.966 E5.04777
G1 X207.562 Y185.455 E5.11917
G1 X207.489 Y182.861 E5.19297
G1 X207.471 Y182.515 E5.20282
G1 X207.462 Y182.288 E5.20928
G1 X207.445 Y181.707 E5.22581
G1 X207.441 Y181.244 E5.23898
G1 X207.45 Y180.621 E5.2567
G1 X207.46 Y180.283 E5.26631
G1 X207.484 Y179.832 E5.27915
G1 X207.52 Y179.351 E5.29287
G1 X207.697 Y177.344 E5.35017
G1 X207.848 Y174.793 E5.42284
G1 X207.927 Y172.258 E5.49496
G1 X207.94 Y170.685 E5.53969
G1 X207.941 Y160.229 E5.83704
G1 X207.951 Y159.564 E5.85595
G1 X208.005 Y158.645 E5.88213
G1 X208.138 Y157.734 E5.90831
G1 X208.35 Y156.838 E5.93449
G1 X208.639 Y155.963 E5.9607
G1 X209.003 Y155.118 E5.98686
G1 X209.438 Y154.307 E6.01303
G1 X209.943 Y153.536 E6.03924
G0 F6000 X210.338 Y153.672
G1 F600 X210.906 Y152.97 E6.06492
G1 X211.533 Y152.32 E6.0906
G1 X212.215 Y151.728 E6.11629
G1 X212.947 Y151.199 E6.14197
G1 X213.723 Y150.737 E6.16765
G1 X214.537 Y150.346 E6.19333
G1 X215.382 Y150.027 E6.21902
G1 X216.25 Y149.786 E6.24463
G1 X216.641 Y149.695 E6.25605
G1 X219.158 Y149.075 E6.32977
G1 X221.653 Y148.385 E6.40338
G1 X222.059 Y148.261 E6.41545
G1 X223.206 Y147.928 E6.44942
G1 X224.084 Y147.715 E6.47511
G1 X224.977 Y147.581 E6.50079
G1 X225.752 Y147.528 E6.52288
G1 X226.06 Y147.519 E6.53164
G1 X226.523 Y147.516 E6.54481
G1 X227.204 Y147.527 E6.56418
G1 X228.105 Y147.582 E6.58985
G1 X228.998 Y147.716 E6.61553
G1 X229.876 Y147.928 E6.64121
G1 X230.807 Y148.248 E6.66921
G1 X231.226 Y148.416 E6.68204
G1 X233.159 Y149.225 E6.74163
G1 X235.705 Y150.207 E6.81923
G1 X236.532 Y150.569 E6.84491
G1 X237.324 Y151.003 E6.87059
G1 X238.075 Y151.505 E6.89628
G1 X238.778 Y152.072 E6.92196
G1 X239.429 Y152.698 E6.94764
G1 X240.021 Y153.38 E6.97333
G1 X240.551 Y154.111 E6.999
G1 X240.937 Y154.746 E7.02014
G1 X241.143 Y155.117 E7.0322
G1 X242.121 Y156.926 E7.09068
G1 X243.395 Y159.13 E7.16308
G1 X244.724 Y161.285 E7.23508
G1 X246.107 Y163.394 E7.3068
G1 X247.575 Y165.5 E7.3798
G1 X249.077 Y167.53 E7.45161
G1 X250.64 Y169.523 E7.52364
G1 X252.257 Y171.467 E7.59554
G1 X253.341 Y172.685 E7.64191
G1 X254.208 Y173.682 E7.67948
G1 X254.759 Y174.374 E7.70464
G1 X254.994 Y174.697 E7.716
G1 X255.492 Y175.45 E7.74167
G1 X255.926 Y176.252 E7.7676
G1 X256.081 Y176.572 E7.77771
G1 X256.438 Y177.401 E7.80338
G1 X256.74 Y178.33 E7.83116
G1 X256.84 Y178.696 E7.84195
G1 X257.04 Y179.577 E7.86764
G1 X257.159 Y180.461 E7.89301
G1 X257.184 Y180.736 E7.90086
G1 X257.225 Y181.49 E7.92233
G1 X257.239 Y182.335 E7.94637
G1 X257.24 Y183.008 E7.9655
G1 X257.214 Y184.9 E8.01931
G1 X257.2 Y185.436 E8.03456
G1 X257.196 Y187.981 E8.10693
G1 X257.228 Y189.478 E8.14951
G1 X257.236 Y189.748 E8.1572
G1 X257.24 Y190.05 E8.16578
G1 X257.239 Y191.152 E8.19712
G1 X257.23 Y191.809 E8.21581
G1 X257.201 Y192.453 E8.23414
G1 X257.172 Y192.829 E8.24486
G1 X257.063 Y193.726 E8.27056
G1 X256.879 Y194.593 E8.29576
G1 X256.798 Y194.907 E8.30499
G1 X256.534 Y195.77 E8.33065
G1 X256.263 Y196.454 E8.35157
G1 X256.135 Y196.746 E8.36064
G1 X255.736 Y197.556 E8.38632
G1 X255.295 Y198.285 E8.41054
G1 X255.073 Y198.62 E8.42197
G1 X254.542 Y199.35 E8.44764
G1 X254.14 Y199.823 E8.4653
G1 X253.925 Y200.061 E8.47442
G1 X252.214 Y202.011 E8.54819
G1 X250.569 Y203.996 E8.6215
G1 X248.997 Y206.006 E8.69407
G1 X247.503 Y208.031 E8.76563
G1 X246.062 Y210.105 E8.83745
G1 X244.65 Y212.264 E8.91081
G1 X243.366 Y214.356 E8.98061
G1 X241.445 Y217.745 E9.09139
G1 X241.005 Y218.559 E9.1177
G1 X240.54 Y219.334 E9.14341
G1 X240.009 Y220.064 E9.16908
G1 X239.415 Y220.745 E9.19477
G1 X238.764 Y221.37 E9.22044
G1 X238.06 Y221.935 E9.24611
G1 X237.308 Y222.436 E9.2718
G1 X236.515 Y222.868 E9.29748
G1 X235.711 Y223.22 E9.32244
G1 X234.387 Y223.731 E9.3628
G1 X234.28 Y223.771 E9.36605
G1 X231.835 Y224.754 E9.44099
G1 X231.003 Y225.103 E9.46664
G1 X230.102 Y225.432 E9.49392
G1 X230.07 Y225.442 E9.49488
G1 X229.197 Y225.673 E9.52056
G1 X228.307 Y225.825 E9.54623
G1 X227.328 Y225.902 E9.57416
G1 X227.022 Y225.911 E9.58286
G1 X226.572 Y225.914 E9.59566
G1 X225.893 Y225.904 E9.61497
G1 X224.991 Y225.851 E9.64067
G1 X224.098 Y225.718 E9.66634
G1 X223.08 Y225.465 E9.69617
G1 X220.461 Y224.702 E9.77374
G1 X217.988 Y224.059 E9.84641
G1 X216.992 Y223.828 E9.87548
G1 X216.111 Y223.611 E9.90129
G1 X215.244 Y223.356 E9.92699
G1 X214.404 Y223.026 E9.95265
G1 X213.595 Y222.623 E9.97835
G1 X212.826 Y222.15 E10.00403
G1 X212.102 Y221.61 E10.02971
G1 X211.428 Y221.009 E10.05539
G1 X210.81 Y220.35 E10.08108
G1 X210.253 Y219.64 E10.10675
G1 X209.761 Y218.883 E10.13242
G1 X209.337 Y218.085 E10.15812
G1 X208.986 Y217.253 E10.1838
G1 X208.71 Y216.393 E10.20948
G1 X208.511 Y215.512 E10.23517
G1 X208.391 Y214.617 E10.26084
G1 X208.355 Y214.012 E10.27808
G1 X208.345 Y213.678 E10.28758
G1 X208.34 Y213.373 E10.29626
G1 X208.34 Y202.777 E10.59758
G1 X208.303 Y200.171 E10.67169
G1 X208.195 Y197.62 E10.7443
G1 X207.982 Y194.693 E10.82776
G1 X207.891 Y193.65 E10.85753
G1 X207.853 Y192.92 E10.87832
G1 X207.844 Y192.346 E10.89465
G1 X207.844 Y192.038 E10.9034
G1 X207.851 Y191.556 E10.91711
G1 X207.859 Y191.27 E10.92525
G1 X207.888 Y190.581 E10.94486
G1 X207.962 Y187.977 E11.01894
G1 X207.962 Y185.444 E11.09097
G1 X207.889 Y182.874 E11.16409
G1 X207.861 Y182.276 E11.18111
G1 X207.844 Y181.695 E11.19764
G1 X207.841 Y181.25 E11.21029
G1 X207.85 Y180.627 E11.22801
G1 X207.86 Y180.301 E11.23729
G1 X207.883 Y179.861 E11.24982
G1 X207.904 Y179.564 E11.25828
G1 X208.097 Y177.367 E11.321
G1 X208.247 Y174.829 E11.3933
G1 X208.327 Y172.275 E11.46597
G1 X208.34 Y170.688 E11.5111
G1 X208.341 Y160.235 E11.80835
G1 X208.351 Y159.57 E11.82727
G1 X208.405 Y158.668 E11.85296
G1 X208.538 Y157.775 E11.87864
G1 X208.749 Y156.897 E11.90432
G1 X209.038 Y156.041 E11.93001
G1 X209.401 Y155.214 E11.95569
G1 X209.835 Y154.423 E11.98135
G1 X210.338 Y153.672 E12.00706
G1 F1500 E10.00706
G1 F300 Z0.4
;MESH:universal-cartridge-clamp.stl
G0 F6000 X220.64 Y177.115 Z0.4
;TYPE:WALL-INNER
G1 F300 Z0.2
G1 F1500 E12.00706
G1 F600 X220.64 Y176.762 E12.01657
G1 X220.644 Y176.736 E12.01727
G1 X220.673 Y176.576 E12.02165
G1 X220.747 Y176.454 E12.0255
G1 X220.856 Y176.368 E12.02924
G1 X221.056 Y176.315 E12.03481
G1 X222.44 Y176.315 E12.0721
G1 X222.44 Y177.115 E12.09365
G1 X220.667 Y177.115 E12.14142
G1 X220.64 Y177.115 E12.14211
G0 F6000 X220.068 Y180.043
G0 X218.64 Y181.115
G1 F600 X218.64 Y180.761 E12.15165
G1 X218.644 Y180.736 E12.15233
G1 X218.673 Y180.576 E12.15671
G1 X218.747 Y180.454 E12.16056
G1 X218.856 Y180.368 E12.1643
G1 X219.089 Y180.315 E12.17074
G1 X222.024 Y180.315 E12.24981
G1 X222.223 Y180.368 E12.25536
G1 X222.331 Y180.451 E12.25903
G1 X222.378 Y180.529 E12.26148
G1 X222.407 Y180.576 E12.26297
G1 X222.44 Y180.904 E12.27185
G1 X222.385 Y180.908 E12.27322
G1 X220.022 Y181.115 E12.33713
G1 X218.666 Y181.115 E12.37366
G1 X218.64 Y181.115 E12.37433
G0 F6000 X218.24 Y181.515
;TYPE:WALL-OUTER
G1 F600 X218.24 Y180.725 E12.39561
G1 X218.292 Y180.432 E12.40363
G1 X218.442 Y180.185 E12.41141
G1 X218.665 Y180.009 E12.41907
G1 X218.942 Y179.921 E12.4269
G1 X219.07 Y179.915 E12.43035
G1 X220.24 Y179.915 E12.46187
G1 X220.24 Y176.727 E12.54776
G1 X220.292 Y176.432 E12.55583
G1 X220.442 Y176.185 E12.56361
G1 X220.665 Y176.009 E12.57127
G1 X220.942 Y175.921 E12.5791
G1 X221.052 Y175.915 E12.58206
G1 X222.84 Y175.915 E12.63023
G1 X222.84 Y177.515 E12.67334
G1 X220.44 Y177.515 E12.738
G1 X220.44 Y179.915 E12.80266
G1 X222.028 Y179.915 E12.84544
G1 X222.137 Y179.921 E12.84838
G1 X222.412 Y180.008 E12.85615
G1 X222.635 Y180.181 E12.86375
G1 X222.788 Y180.432 E12.87167
G1 X222.84 Y180.729 E12.87979
G1 X222.84 Y181.27 E12.89437
G1 X220.034 Y181.515 E12.97025
G1 X218.24 Y181.515 E13.01858
G0 F6000 X218.41 Y181.345
G0 X219.044 Y180.725
;TYPE:SKIN
G1 F600 X219.131 Y180.705 E13.02112
G1 X220.241 Y180.705 E13.05269
G1 X220.011 Y180.725 E13.05925
G1 X219.044 Y180.725 E13.08675
G0 F6000 X218.855 Y180.954
;TYPE:SKIN
G1 F600 X218.799 Y180.898 E13.08782
G0 F6000 X220.42 Y180.822
G1 F600 X220.509 Y180.911 E13.08952
G0 F6000 X220.769 Y180.888
G1 F600 X220.407 Y180.526 E13.09641
G0 F6000 X220.638 Y180.474
G1 F600 X221.029 Y180.865 E13.10386
G0 F6000 X221.289 Y180.843
G1 F600 X220.921 Y180.474 E13.11088
G0 F6000 X221.204 Y180.474
G1 F600 X221.549 Y180.82 E13.11746
G0 F6000 X221.81 Y180.798
G1 F600 X221.487 Y180.474 E13.12362
G0 F6000 X221.769 Y180.474
G1 F600 X222.07 Y180.775 E13.12936
G0 F6000 X222.257 Y180.679
G1 F600 X222.07 Y180.492 E13.13292
G0 F6000 X220.612 Y180.043
G0 X220.612 Y177.387
G0 X222.05 Y176.725
;TYPE:SKIN
G1 F600 X221.042 Y176.725 E13.16159
G1 X221.106 Y176.705 E13.16349
G1 X222.05 Y176.705 E13.19034
G1 X222.05 Y176.725 E13.19091
G0 F6000 X222.264 Y176.726
;TYPE:SKIN
G1 F600 X222.027 Y176.49 E13.19541
G0 F6000 X221.969 Y176.715
G1 F600 X221.687 Y176.715 E13.20536
G1 X220.945 Y176.821 E13.23179
G0 F6000 X221.063 Y176.94
G0 X220.612 Y177.387
G0 X220.612 Y180.043
G0 X220.936 Y180.489
G0 X221.106 Y180.659
G1 F600 X221.377 Y180.647 E13.23936
G1 X222.165 Y180.587 E13.26142
G0 F6000 X222.239 Y180.661
G0 X221.016 Y180.852
G0 X220.834 Y180.67
G1 F600 X220.562 Y180.682 E13.27086
G1 X219.195 Y180.729 E13.31825
G1 X218.979 Y180.796 E13.32609
G0 F6000 X219.123 Y180.94
G1 F1500 E11.32609
G1 F300 Z0.4
G0 F6000 X219.123 Y180.94 Z0.4
G0 X220.64 Y196.315
;TYPE:WALL-INNER
G1 F300 Z0.2
G1 F1500 E13.32609
G1 F600 X220.647 Y196.315 E13.32628
G1 X222.44 Y196.315 E13.37458
G1 X222.44 Y197.115 E13.39614
G1 X221.085 Y197.115 E13.43264
G1 X220.903 Y197.083 E13.43762
G1 X220.774 Y197.005 E13.44168
G1 X220.691 Y196.897 E13.44535
G1 X220.641 Y196.709 E13.45059
G1 X220.64 Y196.703 E13.45075
G1 X220.64 Y196.315 E13.46121
G0 F6000 X220.022 Y192.315
G1 F600 X222.377 Y192.522 E13.5249
G1 X222.44 Y192.527 E13.5266
G1 X222.404 Y192.86 E13.53562
G1 X222.362 Y192.907 E13.5372
G1 X222.222 Y193.063 E13.54284
G1 X222.024 Y193.115 E13.54836
G1 X219.085 Y193.115 E13.62754
G1 X218.902 Y193.083 E13.63254
G1 X218.78 Y193.01 E13.63637
G1 X218.689 Y192.893 E13.64036
G1 X218.641 Y192.709 E13.64549
G1 X218.64 Y192.703 E13.64565
G1 X218.64 Y192.315 E13.6561
G1 X218.647 Y192.315 E13.65629
G1 X220.022 Y192.315 E13.69333
G0 F6000 X220.44 Y193.515
;TYPE:WALL-OUTER
G1 F600 X220.44 Y195.915 E13.75799
G1 X222.84 Y195.915 E13.82265
G1 X222.84 Y197.515 E13.86576
G1 X221.05 Y197.515 E13.91398
G1 X220.759 Y197.464 E13.92194
G1 X220.504 Y197.309 E13.92998
G1 X220.329 Y197.083 E13.93768
G1 X220.246 Y196.809 E13.94539
G1 X220.24 Y196.703 E13.94825
G1 X220.24 Y193.515 E14.03414
G1 X219.05 Y193.515 E14.0662
G1 X218.759 Y193.464 E14.07416
G1 X218.51 Y193.314 E14.08199
G1 X218.329 Y193.083 E14.08989
G1 X218.247 Y192.818 E14.09737
G1 X218.24 Y192.703 E14.10047
G1 X218.24 Y191.915 E14.1217
G1 X220.034 Y191.915 E14.17003
G1 X222.84 Y192.161 E14.24592
G1 X222.84 Y192.702 E14.26049
G1 X222.785 Y193.004 E14.26876
G1 X222.635 Y193.249 E14.2765
G1 X222.411 Y193.422 E14.28413
G1 X222.135 Y193.509 E14.29192
G1 X222.028 Y193.515 E14.29481
G1 X220.44 Y193.515 E14.33759
G0 F6000 X220.129 Y193.075
G0 X220.239 Y192.725
;TYPE:SKIN
G1 F600 X219.117 Y192.725 E14.3695
