;FLAVOR:Marlin
;TIME:9031
;Filament used: 10.2506m
;Layer height: 0.3
;MINX:166.467
;MINY:94.902
;MINZ:0.3
;MAXX:244.387
;MAXY:249.822
;MAXZ:26.4
;Generated with Cura_SteamEngine 4.10.0
M104 S215
M105
M109 S215
M82 ;absolute extrusion mode
G28 ; home all axes
 M117 Purge extruder
 G92 E0 ; reset extruder
 G1 Z1.0 F3000 ; move z up little to prevent scratching of surface
 G1 X2 Y20 Z0.3 F5000.0 ; move to start-line position
 G1 X2 Y200.0 Z0.3 F1500.0 E15 ; draw 1st line
 G1 X2 Y200.0 Z0.4 F5000.0 ; move to side a little
 G1 X2 Y20 Z0.4 F1500.0 E30 ; draw 2nd line
 G92 E0 ; reset extruder
 G1 Z1.0 F3000 ; move z up little to prevent scratching of surface
G92 E0
G92 E0
G1 F1500 E-2
;LAYER_COUNT:88
;LAYER:0
M107
G0 F6000 X168.768 Y103.356 Z0.3
;TYPE:SKIRT
G1 F1500 E0
G1 F1200 X169.189 Y102.688 E0.04964
G1 X169.5 Y102.229 E0.08449
G1 X169.701 Y101.942 E0.10651
G1 X169.895 Y101.673 E0.12736
G1 X170.499 Y100.904 E0.18883
G1 X171.008 Y100.344 E0.2364
G1 X171.389 Y99.951 E0.27081
G1 X171.635 Y99.705 E0.29268
G1 X171.859 Y99.487 E0.31233
G1 X172.587 Y98.834 E0.3738
G1 X173.18 Y98.375 E0.42094
G1 X173.62 Y98.056 E0.45511
G1 X173.923 Y97.844 E0.47835
G1 X174.197 Y97.658 E0.49917
G1 X175.028 Y97.142 E0.56066
G1 X175.673 Y96.802 E0.60649
G1 X176.153 Y96.568 E0.64006
G1 X176.478 Y96.416 E0.66262
G1 X176.773 Y96.283 E0.68296
G1 X177.681 Y95.918 E0.74448
G1 X178.414 Y95.683 E0.79286
G1 X178.962 Y95.527 E0.82868
G1 X179.281 Y95.441 E0.84945
G1 X179.579 Y95.365 E0.86878
G1 X180.536 Y95.162 E0.93028
G1 X181.288 Y95.059 E0.97799
G1 X181.822 Y95.003 E1.01174
G1 X182.224 Y94.968 E1.03711
G1 X182.563 Y94.944 E1.05847
G1 X183.22 Y94.915 E1.09981
G1 X183.982 Y94.903 E1.14772
G1 X226.72 Y94.902 E3.8343
G1 X227.577 Y94.913 E3.88818
G1 X228.251 Y94.942 E3.93059
G1 X228.77 Y94.979 E3.9633
G1 X229.117 Y95.009 E3.98519
G1 X229.465 Y95.044 E4.00718
G1 X230.433 Y95.182 E4.06864
G1 X231.179 Y95.344 E4.11663
G1 X231.701 Y95.475 E4.15046
G1 X232.002 Y95.555 E4.17004
G1 X232.314 Y95.642 E4.1904
G1 X233.245 Y95.942 E4.25189
G1 X234 Y96.251 E4.30317
G1 X234.519 Y96.484 E4.33893
G1 X234.815 Y96.622 E4.35946
G1 X235.095 Y96.757 E4.379
G1 X235.958 Y97.217 E4.44048
G1 X236.621 Y97.636 E4.48978
G1 X237.048 Y97.926 E4.52223
G1 X237.314 Y98.112 E4.54263
G1 X237.61 Y98.325 E4.56555
G1 X238.379 Y98.928 E4.62698
G1 X238.952 Y99.449 E4.67567
G1 X239.32 Y99.806 E4.7079
G1 X239.554 Y100.039 E4.72865
G1 X239.792 Y100.283 E4.75008
G1 X240.445 Y101.01 E4.81151
G1 X240.906 Y101.605 E4.85883
G1 X241.238 Y102.062 E4.89433
G1 X241.453 Y102.367 E4.91779
G1 X241.625 Y102.62 E4.93702
G1 X242.141 Y103.45 E4.99846
G1 X242.488 Y104.11 E5.04533
G1 X242.725 Y104.597 E5.07938
G1 X242.88 Y104.929 E5.10241
G1 X243.013 Y105.225 E5.12281
G1 X243.377 Y106.133 E5.1843
G1 X243.608 Y106.855 E5.23196
G1 X243.761 Y107.393 E5.26712
G1 X243.842 Y107.694 E5.28671
G1 X243.922 Y108.006 E5.30696
G1 X244.126 Y108.963 E5.36847
G1 X244.233 Y109.744 E5.41802
G1 X244.284 Y110.236 E5.44912
G1 X244.315 Y110.582 E5.47095
G1 X244.342 Y110.945 E5.49384
G1 X244.374 Y111.648 E5.53807
G1 X244.386 Y112.428 E5.58711
G1 X244.387 Y232.146 E13.11278
G1 X244.377 Y232.982 E13.16534
G1 X244.347 Y233.685 E13.20957
G1 X244.309 Y234.211 E13.24272
G1 X244.278 Y234.562 E13.26487
G1 X244.241 Y234.925 E13.28781
G1 X244.102 Y235.893 E13.34928
G1 X243.942 Y236.629 E13.39663
G1 X243.816 Y237.13 E13.4291
G1 X243.735 Y237.434 E13.44888
G1 X243.643 Y237.763 E13.47036
G1 X243.341 Y238.693 E13.53182
G1 X243.047 Y239.416 E13.58089
G1 X242.827 Y239.909 E13.61482
G1 X242.69 Y240.206 E13.63538
G1 X242.55 Y240.498 E13.65574
G1 X242.091 Y241.361 E13.71718
G1 X241.666 Y242.036 E13.76733
G1 X241.355 Y242.495 E13.80218
G1 X241.156 Y242.779 E13.82398
G1 X240.965 Y243.044 E13.84451
G1 X240.362 Y243.813 E13.90594
G1 X239.85 Y244.376 E13.95378
G1 X239.47 Y244.768 E13.9881
G1 X239.21 Y245.028 E14.01121
G1 X238.977 Y245.254 E14.03162
G1 X238.248 Y245.906 E14.0931
G1 X237.681 Y246.344 E14.13814
G1 X237.253 Y246.655 E14.17139
G1 X236.93 Y246.882 E14.19621
G1 X236.651 Y247.071 E14.2174
G1 X235.819 Y247.586 E14.27891
G1 X235.188 Y247.917 E14.3237
G1 X234.729 Y248.141 E14.3558
G1 X234.378 Y248.306 E14.38018
G1 X234.048 Y248.454 E14.40292
G1 X233.14 Y248.817 E14.46439
G1 X232.431 Y249.043 E14.51117
G1 X231.915 Y249.19 E14.5449
G1 X231.607 Y249.274 E14.56496
G1 X231.287 Y249.356 E14.58573
G1 X230.33 Y249.559 E14.64723
G1 X229.544 Y249.667 E14.6971
G1 X228.991 Y249.724 E14.73205
G1 X228.65 Y249.754 E14.75357
G1 X228.34 Y249.777 E14.77311
G1 X227.639 Y249.809 E14.81722
G1 X226.861 Y249.821 E14.86613
G1 X184.134 Y249.822 E17.55202
G1 X183.305 Y249.812 E17.60414
G1 X182.604 Y249.782 E17.64824
G1 X182.078 Y249.744 E17.68139
G1 X181.72 Y249.713 E17.70398
G1 X181.369 Y249.677 E17.72616
G1 X180.401 Y249.537 E17.78765
G1 X179.678 Y249.379 E17.83417
G1 X179.12 Y249.239 E17.87033
G1 X178.808 Y249.156 E17.89063
G1 X178.515 Y249.074 E17.90975
G1 X177.584 Y248.773 E17.97126
G1 X176.831 Y248.464 E18.02243
G1 X176.362 Y248.253 E18.05475
G1 X176.104 Y248.133 E18.07264
G1 X175.797 Y247.986 E18.09404
G1 X174.933 Y247.528 E18.15551
G1 X174.253 Y247.1 E18.20602
G1 X173.794 Y246.789 E18.24087
G1 X173.507 Y246.588 E18.2629
G1 X173.238 Y246.394 E18.28374
G1 X172.469 Y245.79 E18.34521
G1 X171.909 Y245.281 E18.39278
G1 X171.516 Y244.9 E18.42719
G1 X171.27 Y244.654 E18.44906
G1 X171.052 Y244.43 E18.46871
G1 X170.399 Y243.702 E18.53019
G1 X169.94 Y243.109 E18.57733
G1 X169.621 Y242.669 E18.61149
G1 X169.415 Y242.376 E18.634
G1 X169.232 Y242.107 E18.65446
G1 X168.716 Y241.277 E18.71589
G1 X168.367 Y240.614 E18.76299
G1 X168.13 Y240.127 E18.79704
G1 X167.974 Y239.794 E18.82015
G1 X167.837 Y239.489 E18.84117
G1 X167.473 Y238.581 E18.90267
G1 X167.244 Y237.861 E18.95016
G1 X167.104 Y237.369 E18.98232
G1 X167.022 Y237.068 E19.00193
G1 X166.934 Y236.725 E19.02419
G1 X166.73 Y235.769 E19.08563
G1 X166.622 Y234.981 E19.13563
G1 X166.565 Y234.429 E19.17052
G1 X166.533 Y234.064 E19.19355
G1 X166.51 Y233.746 E19.21359
G1 X166.48 Y233.071 E19.25607
G1 X166.468 Y232.307 E19.3041
G1 X166.467 Y112.569 E26.83103
G1 X166.478 Y111.712 E26.8849
G1 X166.507 Y111.038 E26.92731
G1 X166.544 Y110.519 E26.96002
G1 X166.573 Y110.186 E26.98103
G1 X166.607 Y109.844 E27.00264
G1 X166.743 Y108.875 E27.06415
G1 X166.913 Y108.096 E27.11427
G1 X167.049 Y107.558 E27.14915
G1 X167.129 Y107.256 E27.16879
G1 X167.218 Y106.939 E27.18949
G1 X167.521 Y106.009 E27.25097
G1 X167.818 Y105.282 E27.30034
G1 X168.029 Y104.811 E27.33278
G1 X168.163 Y104.523 E27.35275
G1 X168.309 Y104.219 E27.37395
G1 X168.768 Y103.356 E27.4354
G0 F6000 X169.263 Y103.619
G1 F1200 X169.652 Y103.002 E27.48125
G1 X169.963 Y102.543 E27.5161
G1 X170.155 Y102.27 E27.53708
G1 X170.349 Y102.001 E27.55793
G1 X170.939 Y101.25 E27.61796
G1 X171.41 Y100.734 E27.66188
G1 X171.791 Y100.341 E27.69629
G1 X172.025 Y100.106 E27.71714
G1 X172.249 Y99.888 E27.73679
G1 X172.961 Y99.252 E27.7968
G1 X173.509 Y98.828 E27.84036
G1 X173.949 Y98.509 E27.87452
G1 X174.237 Y98.307 E27.89663
G1 X174.511 Y98.121 E27.91745
G1 X175.323 Y97.618 E27.97749
G1 X175.918 Y97.306 E28.01973
G1 X176.398 Y97.072 E28.05329
G1 X176.709 Y96.926 E28.07489
G1 X177.004 Y96.793 E28.09523
G1 X177.89 Y96.438 E28.15523
G1 X178.568 Y96.222 E28.19996
G1 X179.116 Y96.066 E28.23578
G1 X179.42 Y95.984 E28.25557
G1 X179.718 Y95.908 E28.27491
G1 X180.652 Y95.711 E28.33491
G1 X181.346 Y95.616 E28.37894
G1 X181.88 Y95.56 E28.4127
G1 X182.264 Y95.526 E28.43693
G1 X182.603 Y95.502 E28.45829
G1 X183.228 Y95.475 E28.49762
G1 X183.99 Y95.463 E28.54552
G1 X226.72 Y95.462 E31.2316
G1 X227.568 Y95.473 E31.28491
G1 X228.212 Y95.501 E31.32544
G1 X228.731 Y95.538 E31.35814
G1 X229.061 Y95.566 E31.37896
G1 X229.409 Y95.601 E31.40095
G1 X230.354 Y95.736 E31.46096
G1 X231.043 Y95.887 E31.5053
G1 X231.565 Y96.018 E31.53913
G1 X231.852 Y96.094 E31.55779
G1 X232.164 Y96.181 E31.57815
G1 X233.072 Y96.476 E31.63817
G1 X233.771 Y96.762 E31.68564
G1 X234.29 Y96.995 E31.7214
G1 X234.572 Y97.126 E31.74095
G1 X234.852 Y97.261 E31.76049
G1 X235.694 Y97.712 E31.82053
G1 X236.306 Y98.099 E31.86605
G1 X236.733 Y98.389 E31.8985
G1 X236.987 Y98.567 E31.918
G1 X237.283 Y98.78 E31.94092
G1 X238.034 Y99.369 E32.00092
G1 X238.562 Y99.851 E32.04586
G1 X238.93 Y100.208 E32.07809
G1 X239.153 Y100.43 E32.09787
G1 X239.391 Y100.674 E32.1193
G1 X240.028 Y101.385 E32.1793
G1 X240.453 Y101.934 E32.22295
G1 X240.785 Y102.391 E32.25846
G1 X240.99 Y102.682 E32.28083
G1 X241.162 Y102.935 E32.30006
G1 X241.665 Y103.746 E32.36005
G1 X241.985 Y104.356 E32.40335
G1 X242.222 Y104.843 E32.4374
G1 X242.37 Y105.159 E32.45934
G1 X242.503 Y105.455 E32.47974
G1 X242.857 Y106.341 E32.53971
G1 X243.069 Y107.009 E32.58377
G1 X243.222 Y107.547 E32.61893
G1 X243.3 Y107.834 E32.63762
G1 X243.38 Y108.146 E32.65787
G1 X243.578 Y109.079 E32.71783
G1 X243.676 Y109.802 E32.76369
G1 X243.727 Y110.294 E32.79479
G1 X243.757 Y110.623 E32.81555
G1 X243.784 Y110.986 E32.83843
G1 X243.814 Y111.657 E32.88066
G1 X243.827 Y112.612 E32.9407
G1 X243.826 Y232.298 E40.46436
G1 X243.817 Y232.975 E40.50692
G1 X243.788 Y233.644 E40.54901
G1 X243.75 Y234.17 E40.58216
G1 X243.721 Y234.505 E40.6033
G1 X243.684 Y234.868 E40.62624
G1 X243.548 Y235.813 E40.68625
G1 X243.399 Y236.492 E40.72995
G1 X243.273 Y236.993 E40.76243
G1 X243.196 Y237.283 E40.78129
G1 X243.104 Y237.612 E40.80276
G1 X242.808 Y238.52 E40.8628
G1 X242.535 Y239.188 E40.90816
G1 X242.315 Y239.681 E40.9421
G1 X242.185 Y239.964 E40.96167
G1 X242.045 Y240.256 E40.98203
G1 X241.596 Y241.098 E41.04201
G1 X241.203 Y241.722 E41.08837
G1 X240.892 Y242.181 E41.12322
G1 X240.702 Y242.452 E41.14403
G1 X240.511 Y242.717 E41.16456
G1 X239.921 Y243.467 E41.22455
G1 X239.448 Y243.986 E41.26869
G1 X239.068 Y244.378 E41.30301
G1 X238.82 Y244.626 E41.32506
G1 X238.587 Y244.852 E41.34546
G1 X237.875 Y245.487 E41.40543
G1 X237.351 Y245.891 E41.44703
G1 X236.923 Y246.202 E41.48029
G1 X236.616 Y246.418 E41.50388
G1 X236.337 Y246.607 E41.52507
G1 X235.524 Y247.109 E41.58513
G1 X234.943 Y247.414 E41.62638
G1 X234.484 Y247.638 E41.65848
G1 X234.149 Y247.795 E41.68174
G1 X233.819 Y247.943 E41.70448
G1 X232.932 Y248.297 E41.76451
G1 X232.277 Y248.505 E41.80771
G1 X231.761 Y248.652 E41.84144
G1 X231.468 Y248.731 E41.86052
G1 X231.148 Y248.813 E41.88128
G1 X230.214 Y249.011 E41.9413
G1 X229.487 Y249.11 E41.98742
G1 X228.934 Y249.167 E42.02237
G1 X228.608 Y249.196 E42.04294
G1 X228.298 Y249.219 E42.06248
G1 X227.631 Y249.249 E42.10445
G1 X226.677 Y249.262 E42.16443
G1 X183.98 Y249.261 E44.84843
G1 X183.312 Y249.252 E44.89043
G1 X182.645 Y249.223 E44.9324
G1 X182.119 Y249.185 E44.96555
G1 X181.777 Y249.156 E44.98712
G1 X181.426 Y249.12 E45.0093
G1 X180.481 Y248.982 E45.06934
G1 X179.815 Y248.836 E45.1122
G1 X179.257 Y248.696 E45.14836
G1 X178.959 Y248.617 E45.16774
G1 X178.666 Y248.535 E45.18687
G1 X177.758 Y248.24 E45.24688
G1 X177.061 Y247.953 E45.29427
G1 X176.592 Y247.742 E45.3266
G1 X176.346 Y247.628 E45.34364
G1 X176.039 Y247.481 E45.36504
G1 X175.196 Y247.033 E45.42505
G1 X174.567 Y246.637 E45.47177
G1 X174.108 Y246.326 E45.50662
G1 X173.835 Y246.134 E45.5276
G1 X173.566 Y245.94 E45.54845
G1 X172.815 Y245.35 E45.60849
G1 X172.299 Y244.879 E45.65241
G1 X171.906 Y244.498 E45.68681
G1 X171.671 Y244.264 E45.70766
G1 X171.453 Y244.04 E45.72731
G1 X170.817 Y243.328 E45.78732
G1 X170.393 Y242.78 E45.83088
G1 X170.074 Y242.34 E45.86504
G1 X169.878 Y242.061 E45.88648
G1 X169.695 Y241.792 E45.90693
G1 X169.192 Y240.981 E45.96692
G1 X168.87 Y240.368 E46.01044
G1 X168.633 Y239.881 E46.04449
G1 X168.485 Y239.564 E46.06648
G1 X168.348 Y239.259 E46.0875
G1 X167.994 Y238.373 E46.14748
G1 X167.782 Y237.708 E46.19135
G1 X167.642 Y237.216 E46.22351
G1 X167.565 Y236.929 E46.24219
G1 X167.477 Y236.586 E46.26445
G1 X167.278 Y235.652 E46.32448
G1 X167.179 Y234.924 E46.37066
G1 X167.122 Y234.372 E46.40555
G1 X167.092 Y234.023 E46.42757
G1 X167.069 Y233.705 E46.44761
G1 X167.04 Y233.062 E46.48807
G1 X167.028 Y232.298 E46.5361
G1 X167.027 Y112.569 E54.06247
G1 X167.038 Y111.721 E54.11578
G1 X167.066 Y111.077 E54.1563
G1 X167.103 Y110.558 E54.18901
G1 X167.13 Y110.241 E54.20901
G1 X167.164 Y109.899 E54.23061
G1 X167.298 Y108.954 E54.29061
G1 X167.456 Y108.233 E54.33701
G1 X167.592 Y107.695 E54.37189
G1 X167.668 Y107.408 E54.39055
G1 X167.757 Y107.091 E54.41125
G1 X168.054 Y106.183 E54.47131
G1 X168.329 Y105.511 E54.51695
G1 X168.54 Y105.04 E54.54939
G1 X168.668 Y104.766 E54.5684
G1 X168.814 Y104.462 E54.5896
G1 X169.263 Y103.619 E54.64964
G0 F6000 X169.757 Y103.883
G1 F1200 X170.116 Y103.317 E54.69178
G1 X170.427 Y102.858 E54.72663
G1 X170.609 Y102.597 E54.74663
G1 X170.803 Y102.328 E54.76748
G1 X171.379 Y101.597 E54.82598
G1 X171.812 Y101.124 E54.86629
G1 X172.193 Y100.731 E54.9007
G1 X172.416 Y100.508 E54.92053
G1 X172.64 Y100.29 E54.94018
G1 X173.334 Y99.67 E54.99867
G1 X173.837 Y99.282 E55.03861
G1 X174.277 Y98.963 E55.07277
G1 X174.552 Y98.77 E55.09389
G1 X174.826 Y98.584 E55.11471
G1 X175.618 Y98.095 E55.17322
G1 X176.164 Y97.809 E55.21197
G1 X176.644 Y97.575 E55.24553
G1 X176.939 Y97.437 E55.26601
G1 X177.234 Y97.304 E55.28635
G1 X178.098 Y96.958 E55.34485
G1 X178.721 Y96.76 E55.38595
G1 X179.269 Y96.604 E55.42176
G1 X179.558 Y96.526 E55.44058
G1 X179.856 Y96.45 E55.45991
G1 X180.767 Y96.259 E55.51843
G1 X181.404 Y96.173 E55.55883
G1 X181.938 Y96.117 E55.59258
G1 X182.303 Y96.085 E55.61562
G1 X182.642 Y96.061 E55.63698
G1 X183.237 Y96.035 E55.67442
G1 X184.17 Y96.022 E55.73307
G1 X226.72 Y96.022 E58.40784
G1 X227.56 Y96.033 E58.46065
G1 X228.172 Y96.059 E58.49915
G1 X228.691 Y96.096 E58.53186
G1 X229.005 Y96.123 E58.55167
G1 X229.353 Y96.158 E58.57366
G1 X230.274 Y96.291 E58.63215
G1 X230.907 Y96.43 E58.67289
G1 X231.429 Y96.561 E58.70673
G1 X231.702 Y96.633 E58.72447
G1 X232.014 Y96.72 E58.74483
G1 X232.899 Y97.009 E58.80336
G1 X233.542 Y97.273 E58.84705
G1 X234.061 Y97.506 E58.88281
G1 X234.329 Y97.631 E58.9014
G1 X234.609 Y97.766 E58.92094
G1 X235.429 Y98.206 E58.97944
G1 X235.991 Y98.563 E59.0213
G1 X236.418 Y98.853 E59.05374
G1 X236.66 Y99.021 E59.07226
G1 X236.956 Y99.234 E59.09519
G1 X237.687 Y99.81 E59.15369
G1 X238.172 Y100.253 E59.19498
G1 X238.54 Y100.61 E59.22721
G1 X238.752 Y100.821 E59.24601
G1 X238.99 Y101.065 E59.26744
G1 X239.611 Y101.759 E59.32598
G1 X240 Y102.263 E59.366
G1 X240.332 Y102.72 E59.40151
G1 X240.527 Y102.997 E59.42281
G1 X240.699 Y103.25 E59.44204
G1 X241.188 Y104.041 E59.50049
G1 X241.481 Y104.601 E59.54022
G1 X241.718 Y105.088 E59.57427
G1 X241.859 Y105.388 E59.59511
G1 X241.992 Y105.684 E59.61551
G1 X242.336 Y106.549 E59.67402
G1 X242.531 Y107.162 E59.71446
G1 X242.684 Y107.7 E59.74962
G1 X242.757 Y107.973 E59.76739
G1 X242.837 Y108.285 E59.78763
G1 X243.03 Y109.196 E59.84617
G1 X243.119 Y109.859 E59.88822
G1 X243.17 Y110.351 E59.91932
G1 X243.198 Y110.665 E59.93913
G1 X243.225 Y111.028 E59.96202
G1 X243.254 Y111.665 E60.0021
G1 X243.267 Y112.612 E60.06164
G1 X243.266 Y232.29 E67.58479
G1 X243.257 Y232.967 E67.62735
G1 X243.23 Y233.604 E67.66743
G1 X243.192 Y234.13 E67.70058
G1 X243.164 Y234.448 E67.72065
G1 X243.127 Y234.811 E67.74359
G1 X242.993 Y235.733 E67.80216
G1 X242.856 Y236.356 E67.84225
G1 X242.73 Y236.857 E67.87473
G1 X242.657 Y237.132 E67.89261
G1 X242.565 Y237.461 E67.91409
G1 X242.276 Y238.346 E67.97261
G1 X242.024 Y238.959 E68.01428
G1 X241.804 Y239.452 E68.04821
G1 X241.68 Y239.721 E68.06683
G1 X241.54 Y240.013 E68.08719
G1 X241.101 Y240.835 E68.14577
G1 X240.739 Y241.407 E68.18832
G1 X240.428 Y241.866 E68.22317
G1 X240.248 Y242.124 E68.24295
G1 X240.057 Y242.389 E68.26348
G1 X239.481 Y243.12 E68.32199
G1 X239.046 Y243.596 E68.36252
G1 X238.666 Y243.988 E68.39684
G1 X238.43 Y244.224 E68.41782
G1 X238.197 Y244.45 E68.43823
G1 X237.502 Y245.069 E68.49673
G1 X237.022 Y245.438 E68.53479
G1 X236.594 Y245.749 E68.56805
G1 X236.302 Y245.955 E68.59051
G1 X236.023 Y246.144 E68.6117
G1 X235.23 Y246.632 E68.67023
G1 X234.697 Y246.911 E68.70805
G1 X234.238 Y247.135 E68.74015
G1 X233.92 Y247.284 E68.76223
G1 X233.59 Y247.432 E68.78496
G1 X232.725 Y247.776 E68.84348
G1 X232.124 Y247.966 E68.8831
