;FLAVOR:Marlin
;TIME:7568
;Filament used: 10.2151m
;Layer height: 0.25
;MINX:-52.965
;MINY:-38.891
;MINZ:0.3
;MAXX:66.03
;MAXY:66.82
;MAXZ:46.076
;Generated with Cura_SteamEngine 4.10.0
M104 S205
M105
M109 S205
M82 ;absolute extrusion mode
G21        ;metric values
G90        ;absolute positioning
M107       ;start with the fan off
G28   ;move to endstops

;Z-Offset Reset und dann Z +0,1 für PLA
MacroZOffset0
MacroZOffsetPlus0100

G92 E0                  ;zero the extruded length
G1 F200 E3              ;extrude 3mm of feed stock
G92 E0                  ;zero the extruded length again
G1 F150.0
;Put printing message on LCD screen
M117 Printing...
G92 E0
G92 E0
G1 F2400 E-6
;LAYER_COUNT:164
;LAYER:0
M107
M204 S3000
G0 F3000 X17.23 Y9.167 Z0.3
M204 S1500
;TYPE:SKIRT
G1 F2400 E0
G1 F1200 X17.231 Y-24.196 E1.66449
G1 X17.242 Y-24.903 E1.69976
G1 X17.291 Y-25.494 E1.72935
G1 X17.427 Y-26.128 E1.7617
G1 X18.032 Y-28.76 E1.89644
G1 X18.57 Y-31.436 E2.03261
G1 X18.909 Y-33.405 E2.13229
G1 X18.986 Y-33.811 E2.15291
G1 X19.136 Y-34.385 E2.18251
G1 X19.361 Y-34.933 E2.21206
G1 X19.658 Y-35.446 E2.24163
G1 X20.021 Y-35.915 E2.27122
G1 X20.444 Y-36.331 E2.30082
G1 X20.919 Y-36.685 E2.33038
G1 X21.438 Y-36.973 E2.35999
G1 X21.99 Y-37.189 E2.38956
G1 X22.56 Y-37.327 E2.41882
G1 X22.977 Y-37.398 E2.43993
G1 X24.976 Y-37.713 E2.54089
G1 X27.661 Y-38.215 E2.67716
G1 X29.311 Y-38.564 E2.7613
G1 X30.335 Y-38.789 E2.81361
G1 X31.202 Y-38.891 E2.85716
G1 X31.634 Y-38.891 E2.87871
G1 X32.339 Y-38.861 E2.91392
G1 X33.781 Y-38.779 E2.98598
G1 X36.473 Y-38.702 E3.12034
G1 X37.878 Y-38.692 E3.19043
G1 X46.304 Y-38.693 E3.61081
G1 X50.43 Y-38.781 E3.8167
G1 X51.673 Y-38.834 E3.87877
G1 X52.238 Y-38.825 E3.90696
G1 X52.949 Y-38.732 E3.94274
G1 X53.626 Y-38.587 E3.97728
G1 X56.301 Y-38.05 E4.1134
G1 X58.963 Y-37.595 E4.24813
G1 X59.544 Y-37.511 E4.27742
G1 X60.633 Y-37.341 E4.33241
G1 X61.211 Y-37.211 E4.36197
G1 X61.767 Y-37.003 E4.39158
G1 X62.289 Y-36.723 E4.42113
G1 X62.769 Y-36.375 E4.45071
G1 X63.198 Y-35.966 E4.48028
G1 X63.569 Y-35.503 E4.50988
G1 X63.873 Y-34.994 E4.53946
G1 X64.106 Y-34.449 E4.56903
G1 X64.29 Y-33.74 E4.60558
G1 X64.459 Y-32.757 E4.65534
G1 X64.965 Y-30.051 E4.79268
G1 X65.539 Y-27.395 E4.92825
G1 X65.632 Y-27.018 E4.94762
G1 X65.907 Y-25.828 E5.00856
G1 X66.018 Y-24.969 E5.05177
G1 X66.03 Y-24.505 E5.07492
G1 X66.03 Y8.832 E6.73811
G1 X66.02 Y9.557 E6.77429
G1 X65.971 Y10.148 E6.80387
G1 X65.908 Y10.484 E6.82093
G1 X65.279 Y13.214 E6.9607
G1 X64.753 Y15.823 E7.09348
G1 X64.341 Y18.23 E7.21531
G1 X64.277 Y18.554 E7.23179
G1 X64.119 Y19.125 E7.26135
G1 X63.886 Y19.671 E7.29096
G1 X63.582 Y20.18 E7.32054
G1 X63.212 Y20.643 E7.35011
G1 X62.783 Y21.053 E7.37972
G1 X62.304 Y21.401 E7.40926
G1 X61.781 Y21.681 E7.43885
G1 X61.226 Y21.889 E7.46842
G1 X60.591 Y22.028 E7.50085
G1 X60.168 Y22.089 E7.52217
G1 X57.46 Y22.516 E7.65895
G1 X54.796 Y23.014 E7.79416
G1 X54.221 Y23.135 E7.82347
G1 X52.873 Y23.412 E7.89213
G1 X52.285 Y23.492 E7.92173
G1 X51.699 Y23.498 E7.95097
G1 X50.418 Y23.444 E8.01494
G1 X47.702 Y23.367 E8.15049
G1 X46.316 Y23.357 E8.21964
G1 X37.894 Y23.357 E8.63982
G1 X35.113 Y23.396 E8.77858
G1 X32.426 Y23.51 E8.91275
G1 X31.898 Y23.544 E8.93915
G1 X31.362 Y23.558 E8.9659
G1 X31.174 Y23.554 E8.97528
G1 X30.343 Y23.457 E9.01702
G1 X29.652 Y23.308 E9.05229
G1 X26.977 Y22.771 E9.18841
G1 X24.31 Y22.314 E9.3234
G1 X23.599 Y22.212 E9.35924
G1 X22.571 Y22.05 E9.41116
G1 X21.993 Y21.919 E9.44073
G1 X21.438 Y21.711 E9.4703
G1 X20.915 Y21.43 E9.49992
G1 X20.436 Y21.081 E9.52948
G1 X20.007 Y20.671 E9.55909
G1 X19.638 Y20.208 E9.58863
G1 X19.334 Y19.698 E9.61825
G1 X19.101 Y19.153 E9.64782
G1 X18.92 Y18.449 E9.68408
G1 X18.735 Y17.376 E9.73841
G1 X18.601 Y16.533 E9.78099
G1 X18.106 Y13.9 E9.91465
G1 X17.568 Y11.419 E10.04131
G1 X17.355 Y10.499 E10.08842
G1 X17.241 Y9.61 E10.13314
G1 X17.23 Y9.167 E10.15524
M204 S3000
G0 F3000 X17.63 Y9.167
M204 S1500
G1 F1200 X17.63 Y-24.19 E11.81943
G1 X17.641 Y-24.897 E11.85471
G1 X17.69 Y-25.46 E11.8829
G1 X17.816 Y-26.035 E11.91227
G1 X18.43 Y-28.705 E12.04895
G1 X18.964 Y-31.36 E12.18407
G1 X19.302 Y-33.33 E12.28379
G1 X19.379 Y-33.736 E12.3044
G1 X19.523 Y-34.283 E12.33262
G1 X19.743 Y-34.804 E12.36084
G1 X20.034 Y-35.288 E12.38901
G1 X20.391 Y-35.727 E12.41724
G1 X20.806 Y-36.111 E12.44545
G1 X21.271 Y-36.433 E12.47367
G1 X21.776 Y-36.686 E12.50185
G1 X22.313 Y-36.865 E12.53009
G1 X22.981 Y-36.994 E12.56403
G1 X25.047 Y-37.32 E12.66838
G1 X27.731 Y-37.822 E12.80461
G1 X29.41 Y-38.176 E12.89021
G1 X30.421 Y-38.398 E12.94185
G1 X31.21 Y-38.491 E12.98149
G1 X31.618 Y-38.491 E13.00184
G1 X32.316 Y-38.462 E13.0367
G1 X33.781 Y-38.379 E13.1099
G1 X36.46 Y-38.302 E13.24362
G1 X37.876 Y-38.292 E13.31426
G1 X46.313 Y-38.293 E13.73519
G1 X50.455 Y-38.381 E13.94188
G1 X51.69 Y-38.434 E14.00355
G1 X52.219 Y-38.425 E14.02994
G1 X52.865 Y-38.341 E14.06244
G1 X53.542 Y-38.196 E14.09699
G1 X56.226 Y-37.658 E14.23356
G1 X58.906 Y-37.199 E14.36921
G1 X59.482 Y-37.116 E14.39824
G1 X60.571 Y-36.946 E14.45323
G1 X61.122 Y-36.82 E14.48143
G1 X61.65 Y-36.617 E14.50965
G1 X62.143 Y-36.342 E14.53781
G1 X62.594 Y-35.999 E14.56608
G1 X62.991 Y-35.597 E14.59427
G1 X63.328 Y-35.143 E14.62248
G1 X63.597 Y-34.646 E14.65067
G1 X63.793 Y-34.116 E14.67886
G1 X63.896 Y-33.672 E14.7016
G1 X64.066 Y-32.683 E14.75167
G1 X64.575 Y-29.964 E14.88968
G1 X65.153 Y-27.287 E15.02631
G1 X65.242 Y-26.928 E15.04476
G1 X65.517 Y-25.738 E15.1057
G1 X65.618 Y-24.957 E15.14499
G1 X65.63 Y-24.505 E15.16754
G1 X65.63 Y8.826 E16.83044
G1 X65.62 Y9.551 E16.86661
G1 X65.572 Y10.114 E16.8948
G1 X65.518 Y10.394 E16.90903
G1 X64.891 Y13.116 E17.04838
G1 X64.36 Y15.748 E17.18234
G1 X63.947 Y18.162 E17.30452
G1 X63.885 Y18.474 E17.32039
G1 X63.733 Y19.018 E17.34857
G1 X63.506 Y19.536 E17.37679
G1 X63.208 Y20.016 E17.40498
G1 X62.845 Y20.45 E17.4332
G1 X62.425 Y20.828 E17.4614
G1 X61.955 Y21.143 E17.48962
G1 X61.446 Y21.389 E17.51783
G1 X60.908 Y21.561 E17.54601
G1 X60.123 Y21.691 E17.5857
G1 X57.389 Y22.122 E17.72379
G1 X54.725 Y22.621 E17.85901
G1 X54.127 Y22.745 E17.88948
G1 X52.792 Y23.02 E17.95748
G1 X51.986 Y23.102 E17.9979
G1 X51.716 Y23.098 E18.01137
G1 X50.447 Y23.044 E18.07474
G1 X47.716 Y22.967 E18.21104
G1 X46.319 Y22.957 E18.28074
G1 X37.889 Y22.957 E18.70131
G1 X35.09 Y22.997 E18.84097
G1 X32.427 Y23.11 E18.97395
G1 X31.88 Y23.144 E19.00129
G1 X31.371 Y23.158 E19.02669
G1 X31.183 Y23.154 E19.03608
G1 X30.427 Y23.066 E19.07405
G1 X29.736 Y22.917 E19.10931
G1 X27.018 Y22.371 E19.24762
G1 X24.401 Y21.923 E19.38009
G1 X23.661 Y21.817 E19.41738
G1 X22.633 Y21.655 E19.4693
G1 X22.083 Y21.528 E19.49746
G1 X21.555 Y21.324 E19.5257
G1 X21.062 Y21.048 E19.55389
G1 X20.612 Y20.706 E19.58209
G1 X20.215 Y20.303 E19.61031
G1 X19.879 Y19.848 E19.63853
G1 X19.611 Y19.351 E19.6667
G1 X19.415 Y18.821 E19.69489
G1 X19.314 Y18.382 E19.71737
G1 X19.13 Y17.313 E19.77149
G1 X18.997 Y16.474 E19.81387
G1 X18.495 Y13.806 E19.94931
G1 X17.958 Y11.329 E20.07576
G1 X17.745 Y10.409 E20.12287
G1 X17.641 Y9.599 E20.16361
G1 X17.63 Y9.167 E20.18517
M204 S3000
G0 F3000 X18.03 Y9.167
M204 S1500
G1 F1200 X18.03 Y-24.184 E21.84906
G1 X18.041 Y-24.891 E21.88434
G1 X18.142 Y-25.68 E21.92402
G1 X18.205 Y-25.941 E21.93742
G1 X18.818 Y-28.607 E22.0739
G1 X19.356 Y-31.279 E22.20988
G1 X19.695 Y-33.256 E22.30995
G1 X19.772 Y-33.662 E22.33057
G1 X19.911 Y-34.18 E22.35732
G1 X20.125 Y-34.671 E22.38405
G1 X20.41 Y-35.126 E22.41083
G1 X20.759 Y-35.533 E22.43758
G1 X21.165 Y-35.883 E22.46432
G1 X21.619 Y-36.17 E22.49112
G1 X22.11 Y-36.385 E22.51786
G1 X22.696 Y-36.538 E22.54808
G1 X23.101 Y-36.608 E22.56858
G1 X25.111 Y-36.925 E22.6701
G1 X27.854 Y-37.438 E22.80932
G1 X29.462 Y-37.778 E22.89132
G1 X30.507 Y-38.008 E22.9447
G1 X31.217 Y-38.091 E22.98036
G1 X31.601 Y-38.092 E22.99952
G1 X32.294 Y-38.062 E23.03413
G1 X33.714 Y-37.981 E23.10509
G1 X36.491 Y-37.902 E23.24369
G1 X37.873 Y-37.892 E23.31264
G1 X46.321 Y-37.893 E23.73411
G1 X50.434 Y-37.981 E23.93936
G1 X51.707 Y-38.035 E24.00292
G1 X52.199 Y-38.026 E24.02747
G1 X52.781 Y-37.95 E24.05676
G1 X53.438 Y-37.809 E24.09028
G1 X56.186 Y-37.258 E24.23011
G1 X58.823 Y-36.807 E24.36358
G1 X59.42 Y-36.721 E24.39367
G1 X60.509 Y-36.551 E24.44866
G1 X61.031 Y-36.429 E24.4754
G1 X61.53 Y-36.231 E24.50219
G1 X61.993 Y-35.961 E24.52893
G1 X62.411 Y-35.625 E24.55568
G1 X62.775 Y-35.231 E24.58245
G1 X63.076 Y-34.787 E24.60921
G1 X63.308 Y-34.303 E24.63598
G1 X63.502 Y-33.605 E24.67213
G1 X63.673 Y-32.61 E24.7225
G1 X64.184 Y-29.878 E24.86116
G1 X64.762 Y-27.203 E24.9977
G1 X64.853 Y-26.838 E25.01646
G1 X65.128 Y-25.648 E25.0774
G1 X65.218 Y-24.945 E25.11276
G1 X65.23 Y-24.505 E25.13472
G1 X65.23 Y8.821 E26.79736
G1 X65.22 Y9.546 E26.83353
G1 X65.128 Y10.304 E26.87163
G1 X64.503 Y13.019 E27.01062
G1 X63.962 Y15.7 E27.14707
G1 X63.552 Y18.095 E27.2683
G1 X63.493 Y18.394 E27.2835
G1 X63.347 Y18.91 E27.31026
G1 X63.126 Y19.398 E27.33698
G1 X62.834 Y19.848 E27.36375
G1 X62.479 Y20.25 E27.3905
G1 X62.069 Y20.595 E27.41724
G1 X61.611 Y20.875 E27.44402
G1 X61.117 Y21.084 E27.47078
G1 X60.477 Y21.237 E27.50361
G1 X60.01 Y21.304 E27.52714
G1 X57.331 Y21.727 E27.66246
G1 X54.648 Y22.229 E27.79863
G1 X54.041 Y22.355 E27.82956
G1 X52.712 Y22.628 E27.89725
G1 X51.986 Y22.702 E27.93366
G1 X51.733 Y22.699 E27.94628
G1 X50.476 Y22.646 E28.00905
G1 X47.682 Y22.567 E28.1485
G1 X46.322 Y22.557 E28.21635
G1 X37.883 Y22.557 E28.63738
G1 X35.103 Y22.596 E28.77608
G1 X32.34 Y22.714 E28.91406
G1 X31.617 Y22.755 E28.95018
G1 X31.191 Y22.754 E28.97144
G1 X30.511 Y22.675 E29.00559
G1 X29.82 Y22.526 E29.04086
G1 X27.093 Y21.979 E29.17962
G1 X24.459 Y21.527 E29.31295
G1 X23.724 Y21.422 E29.34999
G1 X22.696 Y21.26 E29.40191
G1 X22.174 Y21.137 E29.42867
G1 X21.676 Y20.939 E29.4554
G1 X21.213 Y20.668 E29.48217
G1 X20.795 Y20.331 E29.50896
G1 X20.432 Y19.937 E29.53568
G1 X20.132 Y19.492 E29.56246
G1 X19.901 Y19.008 E29.58922
G1 X19.708 Y18.314 E29.62515
G1 X19.526 Y17.25 E29.67901
G1 X19.398 Y16.442 E29.71982
G1 X18.887 Y13.726 E29.8577
G1 X18.337 Y11.19 E29.98716
G1 X18.135 Y10.319 E30.03177
G1 X18.04 Y9.588 E30.06855
G1 X18.03 Y9.167 E30.08956
M204 S3000
G0 F3000 X18.43 Y9.167
M204 S1500
G1 F1200 X18.43 Y-24.178 E31.75315
G1 X18.441 Y-24.885 E31.78842
G1 X18.53 Y-25.586 E31.82368
G1 X18.593 Y-25.847 E31.83707
G1 X19.213 Y-28.545 E31.97518
G1 X19.748 Y-31.204 E32.1105
G1 X20.088 Y-33.181 E32.21058
G1 X20.165 Y-33.587 E32.2312
G1 X20.298 Y-34.075 E32.25643
G1 X20.506 Y-34.536 E32.28166
G1 X20.785 Y-34.958 E32.3069
G1 X21.126 Y-35.331 E32.33212
G1 X21.522 Y-35.645 E32.35733
G1 X21.962 Y-35.894 E32.38255
G1 X22.436 Y-36.07 E32.40778
G1 X23.117 Y-36.205 E32.44242
G1 X25.21 Y-36.536 E32.54813
G1 X27.869 Y-37.033 E32.68309
G1 X29.575 Y-37.393 E32.77008
G1 X30.593 Y-37.617 E32.82208
G1 X31.224 Y-37.691 E32.85378
G1 X31.584 Y-37.692 E32.87174
G1 X32.271 Y-37.663 E32.90604
G1 X33.714 Y-37.581 E32.97815
G1 X36.477 Y-37.502 E33.11605
G1 X37.87 Y-37.492 E33.18555
G1 X46.33 Y-37.493 E33.60762
G1 X50.459 Y-37.581 E33.81367
G1 X51.724 Y-37.635 E33.87683
G1 X52.18 Y-37.626 E33.89959
G1 X52.697 Y-37.559 E33.9256
G1 X53.359 Y-37.417 E33.95938
G1 X56.111 Y-36.865 E34.09941
G1 X58.77 Y-36.41 E34.23399
G1 X59.359 Y-36.326 E34.26368
G1 X60.448 Y-36.156 E34.31867
G1 X60.939 Y-36.039 E34.34385
G1 X61.407 Y-35.845 E34.36912
G1 X61.838 Y-35.581 E34.39434
G1 X62.221 Y-35.252 E34.41953
G1 X62.549 Y-34.867 E34.44476
G1 X62.811 Y-34.435 E34.46997
G1 X63.003 Y-33.967 E34.49521
G1 X63.108 Y-33.537 E34.51729
G1 X63.287 Y-32.491 E34.57023
G1 X63.786 Y-29.825 E34.70555
G1 X64.371 Y-27.119 E34.84367
G1 X64.463 Y-26.748 E34.86274
G1 X64.738 Y-25.558 E34.92368
G1 X64.819 Y-24.933 E34.95512
G1 X64.83 Y-24.505 E34.97648
G1 X64.83 Y8.815 E36.63882
G1 X64.82 Y9.54 E36.67499
G1 X64.738 Y10.214 E36.70887
G1 X64.114 Y12.921 E36.84746
G1 X63.569 Y15.625 E36.98508
G1 X63.158 Y18.027 E37.10665
G1 X63.101 Y18.314 E37.12125
G1 X62.961 Y18.799 E37.14644
G1 X62.746 Y19.257 E37.17168
G1 X62.462 Y19.675 E37.19689
G1 X62.116 Y20.043 E37.22209
G1 X61.716 Y20.352 E37.24731
G1 X61.272 Y20.594 E37.27254
G1 X60.795 Y20.764 E37.2978
G1 X59.96 Y20.907 E37.34007
G1 X57.226 Y21.339 E37.47816
G1 X54.577 Y21.834 E37.6126
G1 X54.075 Y21.946 E37.63827
G1 X53.964 Y21.962 E37.64386
G1 X52.631 Y22.236 E37.71175
G1 X51.986 Y22.302 E37.7441
G1 X51.75 Y22.299 E37.75588
G1 X50.499 Y22.246 E37.81835
G1 X47.696 Y22.167 E37.95824
G1 X46.324 Y22.157 E38.02669
G1 X37.877 Y22.157 E38.44812
G1 X35.08 Y22.197 E38.58767
G1 X32.344 Y22.313 E38.7243
G1 X31.845 Y22.345 E38.74924
G1 X31.2 Y22.354 E38.78142
G1 X30.595 Y22.283 E38.81182
G1 X29.905 Y22.134 E38.84703
G1 X27.208 Y21.593 E38.98427
G1 X24.478 Y21.125 E39.12245
G1 X23.786 Y21.027 E39.15732
G1 X22.758 Y20.865 E39.20924
G1 X22.266 Y20.747 E39.23449
G1 X21.799 Y20.553 E39.25971
G1 X21.369 Y20.288 E39.28491
G1 X20.985 Y19.959 E39.31014
G1 X20.659 Y19.573 E39.33535
G1 X20.397 Y19.141 E39.36055
G1 X20.206 Y18.672 E39.38582
G1 X20.102 Y18.246 E39.4077
G1 X19.921 Y17.188 E39.46125
G1 X19.791 Y16.372 E39.50247
G1 X19.277 Y13.638 E39.64126
G1 X18.737 Y11.149 E39.76833
G1 X18.524 Y10.229 E39.81544
G1 X18.44 Y9.576 E39.84829
G1 X18.43 Y9.167 E39.8687
M204 S3000
G0 F3000 X21.83 Y9.297
M204 S1500
;TYPE:SUPPORT
G1 F1200 X21.83 Y-24.635 E41.90015
G1 X31.263 Y-24.636 E42.46488
G1 X31.662 Y-25.035 E42.49867
G1 X31.663 Y-34.136 E43.04353
G1 X31.638 Y-34.198 E43.04753
G1 X31.772 Y-34.142 E43.05622
G1 X36.657 Y-34.092 E43.34869
G1 X51.432 Y-34.093 E44.23325
G1 X51.597 Y-34.129 E44.24336
G1 X51.597 Y-25.034 E44.78786
G1 X51.996 Y-24.635 E44.82164
G1 X61.43 Y-24.635 E45.38644
G1 X61.43 Y9.298 E47.41795
G1 X51.995 Y9.298 E47.98281
G1 X51.596 Y9.697 E48.01659
G1 X51.596 Y18.795 E48.56127
G1 X51.432 Y18.757 E48.57135
G1 X36.651 Y18.757 E49.45626
G1 X31.771 Y18.805 E49.74843
G1 X31.632 Y18.863 E49.75745
G1 X31.655 Y18.809 E49.76096
G1 X31.656 Y9.696 E50.30654
G1 X31.257 Y9.297 E50.34032
G1 X21.83 Y9.297 E50.9047
M204 S3000
G0 F3000 X21.99 Y8.001
M204 S1500
G1 F1200 X61.27 Y8.001 E53.25633
M204 S3000
G0 F3000 X61.27 Y5.334
M204 S1500
G1 F1200 X21.99 Y5.334 E55.60795
M204 S3000
G0 F3000 X21.99 Y2.667
M204 S1500
G1 F1200 X61.27 Y2.667 E57.95957
M204 S3000
G0 F3000 X61.27 Y0.00
M204 S1500
G1 F1200 X21.99 Y0.00 E60.3112
M204 S3000
G0 F3000 X21.99 Y-2.666
M204 S1500
G1 F1200 X61.27 Y-2.666 E62.66282
M204 S3000
G0 F3000 X61.27 Y-5.333
M204 S1500
G1 F1200 X21.99 Y-5.333 E65.01445
M204 S3000
G0 F3000 X21.99 Y-8
M204 S1500
G1 F1200 X61.27 Y-8 E67.36607
M204 S3000
G0 F3000 X61.27 Y-10.667
M204 S1500
G1 F1200 X21.99 Y-10.667 E69.7177
M204 S3000
G0 F3000 X21.99 Y-13.334
M204 S1500
G1 F1200 X61.27 Y-13.334 E72.06932
M204 S3000
G0 F3000 X61.27 Y-16.001
M204 S1500
G1 F1200 X21.99 Y-16.001 E74.42095
M204 S3000
G0 F3000 X21.99 Y-18.669
M204 S1500
G1 F1200 X61.27 Y-18.668 E76.77257
M204 S3000
G0 F3000 X61.27 Y-21.335
M204 S1500
G1 F1200 X21.99 Y-21.336 E79.1242
M204 S3000
G0 F3000 X21.99 Y-24.003
M204 S1500
G1 F1200 X61.27 Y-24.002 E81.47582
M204 S3000
G0 F3000 X58.674 Y-24.475
M204 S1500
G1 F1200 X58.674 Y9.138 E83.48817
M204 S3000
G0 F3000 X56.007 Y9.138
M204 S1500
G1 F1200 X56.007 Y-24.475 E85.50052
M204 S3000
G0 F3000 X53.34 Y-24.475
M204 S1500
G1 F1200 X53.34 Y9.138 E87.51287
M204 S3000
G0 F3000 X51.436 Y10.668
M204 S1500
G1 F1200 X31.816 Y10.668 E88.68749
M204 S3000
G0 F3000 X31.816 Y13.335
M204 S1500
G1 F1200 X51.436 Y13.335 E89.8621
M204 S3000
G0 F3000 X51.436 Y16.002
M204 S1500
G1 F1200 X31.816 Y16.002 E91.03672
M204 S3000
G0 F3000 X32.004 Y18.643
M204 S1500
G1 F1200 X32.004 Y-33.979 E94.18711
M204 S3000
G0 F3000 X31.822 Y-32.003
M204 S1500
G1 F1200 X51.437 Y-32.003 E95.36142
M204 S3000
G0 F3000 X50.673 Y-33.933
M204 S1500
G1 F1200 X50.673 Y18.597 E98.5063
M204 S3000
G0 F3000 X48.006 Y18.597
M204 S1500
G1 F1200 X48.006 Y-33.933 E101.65118
M204 S3000
G0 F3000 X45.339 Y-33.933
M204 S1500
G1 F1200 X45.339 Y18.597 E104.79606
M204 S3000
G0 F3000 X42.672 Y18.597
M204 S1500
G1 F1200 X42.672 Y-33.933 E107.94094
M204 S3000
G0 F3000 X40.005 Y-33.933
M204 S1500
G1 F1200 X40.005 Y18.597 E111.08582
M204 S3000
