;FLAVOR:Marlin
;TIME:4875
;Filament used: 9.25069m
;Layer height: 0.3
;MINX:-22.54
;MINY:9.09
;MINZ:0.3
;MAXX:25.562
;MAXY:56.398
;MAXZ:54
;Generated with Cura_SteamEngine 4.10.0
M104 S230
M105
M109 S230
M82 ;absolute extrusion mode
G21        ;metric values
G90        ;absolute positioning
M107       ;start with the fan off
G28   ;move to endstops

;Z-Offset Reset und dann Z +0,1 für PLA
;MacroZOffset0
;MacroZOffsetPlus0100

G92 E0                  ;zero the extruded length
G1 F200 E3              ;extrude 3mm of feed stock
G92 E0                  ;zero the extruded length again
G1 F150.0
;Put printing message on LCD screen
M117 Printing...
G92 E0
G92 E0
G1 F2700 E-7
;LAYER_COUNT:180
;LAYER:0
M107
M204 S3000
G0 F3000 X0.631 Y9.286 Z0.3
M204 S1500
;TYPE:SKIRT
G1 F2700 E0
G1 F1200 X3.35 Y9.271 E0.13565
G1 X6.033 Y9.18 E0.26959
G1 X6.564 Y9.147 E0.29613
G1 X7.713 Y9.092 E0.35352
G1 X8.225 Y9.097 E0.37906
G1 X8.487 Y9.115 E0.39217
G1 X9.074 Y9.196 E0.42173
G1 X9.601 Y9.339 E0.44897
G1 X9.804 Y9.408 E0.45967
G1 X10.351 Y9.636 E0.48923
G1 X10.851 Y9.928 E0.51812
G1 X11.073 Y10.078 E0.53149
G1 X11.541 Y10.443 E0.5611
G1 X11.923 Y10.828 E0.58816
G1 X12.055 Y10.979 E0.59816
G1 X12.414 Y11.451 E0.62775
G1 X12.695 Y11.942 E0.65597
G1 X12.939 Y12.462 E0.68463
G1 X13.015 Y12.645 E0.69451
G1 X13.874 Y14.808 E0.81063
G1 X14.952 Y17.312 E0.94664
G1 X16.084 Y19.749 E1.08069
G1 X17.286 Y22.159 E1.21505
G1 X18.567 Y24.555 E1.3506
G1 X19.907 Y26.898 E1.48526
G1 X21.772 Y29.921 E1.66247
G1 X22.085 Y30.412 E1.69152
G1 X22.46 Y31.015 E1.72695
G1 X22.805 Y31.693 E1.7649
G1 X23.167 Y32.592 E1.81325
G1 X24.033 Y34.845 E1.93367
G1 X24.263 Y35.473 E1.96704
G1 X24.46 Y36.199 E2.00457
G1 X24.641 Y37.2 E2.05532
G1 X25.401 Y41.885 E2.29211
G1 X25.503 Y42.571 E2.32671
G1 X25.556 Y43.253 E2.36084
G1 X25.562 Y43.736 E2.38494
G1 X25.561 Y51.038 E2.74924
G1 X25.551 Y51.76 E2.78526
G1 X25.502 Y52.351 E2.81485
G1 X25.375 Y52.93 E2.84442
G1 X25.171 Y53.487 E2.87402
G1 X24.894 Y54.011 E2.90359
G1 X24.55 Y54.494 E2.93317
G1 X24.142 Y54.932 E2.96303
G1 X23.698 Y55.326 E2.99265
G1 X23.205 Y55.656 E3.02225
G1 X22.673 Y55.916 E3.05179
G1 X22.11 Y56.103 E3.08138
G1 X21.527 Y56.212 E3.11097
G1 X21.004 Y56.246 E3.13712
G1 X20.503 Y56.253 E3.16212
G1 X12.306 Y56.253 E3.57107
G1 X11.6 Y56.243 E3.6063
G1 X10.312 Y56.19 E3.67061
G1 X7.595 Y56.113 E3.80621
G1 X6.068 Y56.103 E3.8824
G1 X5.079 Y56.108 E3.93174
G1 X-3.324 Y56.196 E4.35099
G1 X-6.071 Y56.264 E4.48808
G1 X-8.495 Y56.385 E4.60917
G1 X-9.098 Y56.398 E4.63926
G1 X-10.887 Y56.398 E4.72851
G1 X-11.914 Y56.387 E4.77975
G1 X-17.453 Y56.266 E5.05616
G1 X-18.141 Y56.241 E5.09051
G1 X-18.731 Y56.18 E5.1201
G1 X-19.307 Y56.04 E5.14967
G1 X-19.859 Y55.823 E5.17926
G1 X-20.377 Y55.535 E5.20883
G1 X-21.06 Y54.987 E5.25252
G1 X-21.208 Y54.842 E5.26285
G1 X-21.603 Y54.399 E5.29247
G1 X-21.934 Y53.908 E5.32201
G1 X-22.197 Y53.376 E5.35162
G1 X-22.385 Y52.814 E5.38118
G1 X-22.497 Y52.231 E5.4108
G1 X-22.535 Y51.579 E5.44338
G1 X-22.539 Y51.182 E5.46319
G1 X-22.54 Y43.876 E5.82769
G1 X-22.53 Y43.165 E5.86316
G1 X-22.468 Y42.461 E5.89842
G1 X-22.4 Y42.008 E5.92128
G1 X-21.58 Y36.959 E6.17647
G1 X-21.465 Y36.304 E6.20965
G1 X-21.265 Y35.557 E6.24823
G1 X-20.909 Y34.584 E6.29992
G1 X-20.058 Y32.371 E6.41821
G1 X-19.812 Y31.754 E6.45135
G1 X-19.468 Y31.071 E6.4895
G1 X-18.991 Y30.301 E6.53469
G1 X-18.734 Y29.899 E6.5585
G1 X-17.26 Y27.525 E6.69791
G1 X-15.924 Y25.231 E6.83035
G1 X-14.619 Y22.84 E6.96625
G1 X-13.384 Y20.413 E7.10211
G1 X-12.234 Y17.987 E7.23605
G1 X-11.146 Y15.512 E7.37093
G1 X-10.073 Y12.843 E7.51445
G1 X-9.867 Y12.348 E7.5412
G1 X-9.754 Y12.096 E7.55497
G1 X-9.47 Y11.575 E7.58458
G1 X-9.037 Y10.99 E7.62089
G1 X-8.638 Y10.551 E7.65049
G1 X-8.168 Y10.158 E7.68105
G1 X-8.012 Y10.045 E7.69066
G1 X-7.51 Y9.73 E7.72023
G1 X-7.056 Y9.519 E7.74521
G1 X-6.832 Y9.43 E7.75723
G1 X-6.267 Y9.249 E7.78683
G1 X-5.678 Y9.144 E7.81668
G1 X-5.381 Y9.112 E7.83158
G1 X-4.758 Y9.09 E7.86268
G1 X-4.539 Y9.098 E7.87362
G1 X-2.086 Y9.224 E7.99616
G1 X0.631 Y9.286 E8.13174
M204 S3000
G0 F3000 X0.624 Y9.686
M204 S1500
G1 F1200 X3.331 Y9.671 E8.2668
G1 X6.072 Y9.578 E8.40363
G1 X6.583 Y9.547 E8.42917
G1 X7.732 Y9.492 E8.48656
G1 X8.459 Y9.514 E8.52284
G1 X9.019 Y9.593 E8.55106
G1 X9.675 Y9.787 E8.58519
G1 X10.196 Y10.006 E8.61338
G1 X10.627 Y10.26 E8.63834
G1 X10.849 Y10.41 E8.65171
G1 X11.294 Y10.758 E8.67989
G1 X11.754 Y11.242 E8.71321
G1 X12.095 Y11.693 E8.74141
G1 X12.468 Y12.39 E8.78085
G1 X12.643 Y12.793 E8.80277
G1 X13.506 Y14.965 E8.91938
G1 X14.573 Y17.444 E9.05402
G1 X15.735 Y19.946 E9.19165
G1 X16.933 Y22.348 E9.32557
G1 X18.21 Y24.737 E9.46071
G1 X19.558 Y27.092 E9.59609
G1 X21.435 Y30.137 E9.77455
G1 X21.746 Y30.624 E9.80338
G1 X22.121 Y31.227 E9.83881
G1 X22.434 Y31.843 E9.87328
G1 X22.793 Y32.736 E9.9213
G1 X23.657 Y34.982 E10.04135
G1 X23.887 Y35.61 E10.07472
G1 X24.067 Y36.271 E10.1089
G1 X24.246 Y37.264 E10.15924
G1 X25.006 Y41.944 E10.39578
G1 X25.108 Y42.63 E10.43038
G1 X25.156 Y43.269 E10.46235
G1 X25.162 Y43.736 E10.48565
G1 X25.161 Y51.032 E10.84965
G1 X25.151 Y51.754 E10.88568
G1 X25.103 Y52.318 E10.91392
G1 X24.976 Y52.869 E10.94213
G1 X24.773 Y53.396 E10.9703
G1 X24.498 Y53.89 E10.99851
G1 X23.999 Y54.508 E11.03814
G1 X23.857 Y54.652 E11.04823
G1 X23.433 Y55.025 E11.0764
G1 X22.96 Y55.335 E11.10462
G1 X22.448 Y55.575 E11.13283
G1 X21.908 Y55.741 E11.16101
G1 X21.141 Y55.841 E11.1996
G1 X20.498 Y55.853 E11.23169
G1 X12.311 Y55.853 E11.64014
G1 X11.605 Y55.843 E11.67536
G1 X10.341 Y55.79 E11.73848
G1 X7.609 Y55.713 E11.87483
G1 X6.069 Y55.703 E11.95167
G1 X5.075 Y55.708 E12.00126
G1 X-3.338 Y55.796 E12.42101
G1 X-6.099 Y55.864 E12.5588
G1 X-8.231 Y55.97 E12.66529
G1 X-8.733 Y55.993 E12.69036
G1 X-9.101 Y55.998 E12.70873
G1 X-10.883 Y55.998 E12.79763
G1 X-11.905 Y55.987 E12.84862
G1 X-17.438 Y55.866 E13.12473
G1 X-18.126 Y55.841 E13.15908
G1 X-18.688 Y55.781 E13.18727
G1 X-19.236 Y55.642 E13.21548
G1 X-19.759 Y55.427 E13.24369
G1 X-20.247 Y55.141 E13.27191
G1 X-20.78 Y54.701 E13.30639
G1 X-20.928 Y54.556 E13.31673
G1 X-21.303 Y54.133 E13.34493
G1 X-21.615 Y53.661 E13.37316
G1 X-21.856 Y53.15 E13.40135
G1 X-22.024 Y52.61 E13.42956
G1 X-22.127 Y51.823 E13.46916
G1 X-22.139 Y51.212 E13.49965
G1 X-22.14 Y43.882 E13.86534
G1 X-22.13 Y43.171 E13.90082
G1 X-22.071 Y42.511 E13.93388
G1 X-22.005 Y42.072 E13.95603
G1 X-21.186 Y37.028 E14.21097
G1 X-21.071 Y36.373 E14.24415
G1 X-20.889 Y35.694 E14.27922
G1 X-20.536 Y34.728 E14.33053
G1 X-19.687 Y32.52 E14.44855
G1 X-19.441 Y31.903 E14.48169
G1 X-19.128 Y31.282 E14.51638
G1 X-18.655 Y30.516 E14.5613
G1 X-18.364 Y30.062 E14.5882
G1 X-16.917 Y27.732 E14.72504
G1 X-15.569 Y25.417 E14.85868
G1 X-14.268 Y23.033 E14.99418
G1 X-13.031 Y20.602 E15.13026
G1 X-11.87 Y18.154 E15.26543
G1 X-10.778 Y15.668 E15.4009
G1 X-9.704 Y12.997 E15.54452
G1 X-9.498 Y12.502 E15.57127
G1 X-9.391 Y12.263 E15.58434
G1 X-9.119 Y11.768 E15.61252
G1 X-8.723 Y11.238 E15.64552
G1 X-8.342 Y10.821 E15.6737
G1 X-7.934 Y10.482 E15.70017
G1 X-7.778 Y10.369 E15.70978
G1 X-7.297 Y10.07 E15.73803
G1 X-6.684 Y9.802 E15.77141
G1 X-6.145 Y9.631 E15.79962
G1 X-5.635 Y9.542 E15.82545
G1 X-5.338 Y9.51 E15.84036
G1 X-4.772 Y9.489 E15.86861
G1 X-4.56 Y9.497 E15.8792
G1 X-2.081 Y9.624 E16.00304
G1 X0.624 Y9.686 E16.13803
M204 S3000
G0 F3000 X0.616 Y10.086
M204 S1500
G1 F1200 X3.347 Y10.071 E16.27428
G1 X6.075 Y9.979 E16.41046
G1 X6.602 Y9.946 E16.4368
G1 X7.751 Y9.891 E16.49419
G1 X8.432 Y9.913 E16.52818
G1 X8.963 Y9.99 E16.55495
G1 X9.547 Y10.166 E16.58538
G1 X10.04 Y10.375 E16.61209
G1 X10.625 Y10.741 E16.64652
G1 X11.046 Y11.074 E16.6733
G1 X11.452 Y11.506 E16.70288
G1 X11.774 Y11.935 E16.72964
G1 X12.109 Y12.566 E16.76528
G1 X12.272 Y12.941 E16.78568
G1 X13.139 Y15.122 E16.90277
G1 X14.214 Y17.621 E17.0385
G1 X15.372 Y20.114 E17.17564
G1 X16.573 Y22.523 E17.30993
G1 X17.861 Y24.93 E17.44613
G1 X19.229 Y27.321 E17.58356
G1 X21.098 Y30.353 E17.76126
G1 X21.406 Y30.835 E17.78979
G1 X21.781 Y31.438 E17.82522
G1 X22.063 Y31.992 E17.85623
G1 X22.42 Y32.879 E17.90394
G1 X23.281 Y35.12 E18.02371
G1 X23.511 Y35.748 E18.05707
G1 X23.673 Y36.342 E18.08779
G1 X23.851 Y37.328 E18.13778
G1 X24.61 Y42.003 E18.37407
G1 X24.712 Y42.689 E18.40867
G1 X24.756 Y43.284 E18.43844
G1 X24.762 Y43.735 E18.46094
G1 X24.761 Y51.027 E18.82474
G1 X24.751 Y51.749 E18.86076
G1 X24.703 Y52.283 E18.88751
G1 X24.577 Y52.804 E18.91425
G1 X24.375 Y53.301 E18.94102
G1 X24.101 Y53.762 E18.96777
G1 X23.714 Y54.227 E18.99796
G1 X23.572 Y54.371 E19.00804
G1 X23.168 Y54.723 E19.03478
G1 X22.717 Y55.012 E19.0615
G1 X22.227 Y55.231 E19.08828
G1 X21.71 Y55.374 E19.11504
G1 X21.128 Y55.441 E19.14427
G1 X20.493 Y55.453 E19.17595
G1 X12.317 Y55.453 E19.58386
G1 X11.509 Y55.44 E19.62417
G1 X10.37 Y55.392 E19.68105
G1 X7.577 Y55.313 E19.82045
G1 X6.069 Y55.303 E19.89568
G1 X5.071 Y55.308 E19.94547
G1 X-3.353 Y55.396 E20.36577
G1 X-6.089 Y55.464 E20.50231
G1 X-8.271 Y55.572 E20.61131
G1 X-8.441 Y55.582 E20.6198
G1 X-9.104 Y55.598 E20.65289
G1 X-10.879 Y55.598 E20.74145
G1 X-11.896 Y55.587 E20.79219
G1 X-17.424 Y55.467 E21.06804
G1 X-18.112 Y55.442 E21.10239
G1 X-18.645 Y55.382 E21.12915
G1 X-19.163 Y55.244 E21.1559
G1 X-19.655 Y55.031 E21.18264
G1 X-20.11 Y54.747 E21.2094
G1 X-20.5 Y54.416 E21.23492
G1 X-20.648 Y54.271 E21.24526
G1 X-21.002 Y53.868 E21.27202
G1 X-21.293 Y53.417 E21.2988
G1 X-21.513 Y52.928 E21.32555
G1 X-21.658 Y52.411 E21.35234
G1 X-21.727 Y51.811 E21.38247
G1 X-21.739 Y51.209 E21.41251
G1 X-21.74 Y43.887 E21.77781
G1 X-21.73 Y43.176 E21.81328
G1 X-21.674 Y42.561 E21.84409
G1 X-21.61 Y42.136 E21.86553
G1 X-20.792 Y37.097 E22.12022
G1 X-20.677 Y36.442 E22.1534
G1 X-20.513 Y35.831 E22.18496
G1 X-20.162 Y34.871 E22.23596
G1 X-19.315 Y32.668 E22.35371
G1 X-19.069 Y32.051 E22.38685
G1 X-18.788 Y31.492 E22.41806
G1 X-18.318 Y30.732 E22.46264
G1 X-18.027 Y30.278 E22.48955
G1 X-16.59 Y27.964 E22.62544
G1 X-15.207 Y25.589 E22.76256
G1 X-13.919 Y23.228 E22.89673
G1 X-12.678 Y20.79 E23.03322
G1 X-11.501 Y18.308 E23.17026
G1 X-10.41 Y15.825 E23.30557
G1 X-9.335 Y13.151 E23.44935
G1 X-9.129 Y12.656 E23.4761
G1 X-9.028 Y12.43 E23.48845
G1 X-8.768 Y11.961 E23.51521
G1 X-8.41 Y11.486 E23.54488
G1 X-8.046 Y11.092 E23.57164
G1 X-7.543 Y10.693 E23.60367
G1 X-7.086 Y10.411 E23.63046
G1 X-6.536 Y10.173 E23.66036
G1 X-6.025 Y10.013 E23.68708
G1 X-5.296 Y9.908 E23.72382
G1 X-4.786 Y9.889 E23.74928
G1 X-4.58 Y9.897 E23.75957
G1 X-2.109 Y10.024 E23.88301
G1 X0.616 Y10.086 E24.019
M204 S3000
G0 F3000 X0.609 Y10.486
M204 S1500
G1 F1200 X3.362 Y10.471 E24.15635
G1 X6.079 Y10.379 E24.29198
G1 X6.621 Y10.346 E24.31907
G1 X7.77 Y10.291 E24.37646
G1 X8.404 Y10.313 E24.40811
G1 X8.904 Y10.387 E24.43332
G1 X9.418 Y10.544 E24.46014
G1 X9.882 Y10.744 E24.48534
G1 X10.402 Y11.073 E24.51604
G1 X10.797 Y11.388 E24.54125
G1 X11.151 Y11.769 E24.5672
G1 X11.453 Y12.175 E24.59244
G1 X11.75 Y12.741 E24.62433
G1 X11.9 Y13.088 E24.64319
G1 X12.775 Y15.291 E24.76145
G1 X13.847 Y17.783 E24.89679
G1 X14.995 Y20.253 E25.03268
G1 X16.228 Y22.724 E25.17045
G1 X17.512 Y25.126 E25.30634
G1 X18.871 Y27.502 E25.4429
G1 X20.79 Y30.614 E25.6253
G1 X21.066 Y31.046 E25.65088
G1 X21.441 Y31.649 E25.6863
G1 X21.692 Y32.142 E25.7139
G1 X22.047 Y33.023 E25.76129
G1 X22.906 Y35.258 E25.88075
G1 X23.136 Y35.886 E25.91411
G1 X23.279 Y36.414 E25.9414
G1 X23.457 Y37.392 E25.991
G1 X24.214 Y42.061 E26.22698
G1 X24.316 Y42.747 E26.26158
G1 X24.357 Y43.3 E26.28924
G1 X24.362 Y43.735 E26.31095
G1 X24.361 Y51.021 E26.67445
G1 X24.351 Y51.743 E26.71047
G1 X24.304 Y52.247 E26.73572
G1 X24.178 Y52.736 E26.76092
G1 X23.977 Y53.2 E26.78615
G1 X23.705 Y53.627 E26.8114
G1 X23.288 Y54.09 E26.84249
G1 X22.905 Y54.421 E26.86775
G1 X22.476 Y54.687 E26.89293
G1 X22.009 Y54.883 E26.9182
G1 X21.518 Y55.002 E26.9434
G1 X20.964 Y55.046 E26.97113
G1 X20.488 Y55.053 E26.99488
G1 X12.323 Y55.053 E27.40223
G1 X11.617 Y55.043 E27.43746
G1 X10.394 Y54.992 E27.49853
G1 X7.591 Y54.913 E27.63842
G1 X6.07 Y54.903 E27.71431
G1 X5.066 Y54.908 E27.7644
G1 X-3.366 Y54.996 E28.1851
G1 X-6.119 Y55.064 E28.32249
G1 X-8.464 Y55.182 E28.43963
G1 X-9.107 Y55.198 E28.47172
G1 X-10.875 Y55.198 E28.55992
G1 X-11.888 Y55.187 E28.61046
G1 X-17.409 Y55.067 E28.88597
G1 X-18.097 Y55.042 E28.92032
G1 X-18.599 Y54.984 E28.94553
G1 X-19.086 Y54.847 E28.97077
G1 X-19.545 Y54.636 E28.99597
G1 X-19.965 Y54.354 E29.02121
G1 X-20.368 Y53.985 E29.04847
G1 X-20.701 Y53.604 E29.07372
G1 X-20.968 Y53.175 E29.09893
G1 X-21.165 Y52.709 E29.12417
G1 X-21.287 Y52.218 E29.14941
G1 X-21.335 Y51.542 E29.18322
G1 X-21.339 Y51.181 E29.20123
G1 X-21.34 Y43.893 E29.56483
G1 X-21.33 Y43.182 E29.60031
G1 X-21.278 Y42.612 E29.62886
G1 X-21.216 Y42.2 E29.64965
G1 X-20.398 Y37.167 E29.90404
G1 X-20.283 Y36.512 E29.93722
G1 X-20.137 Y35.968 E29.96532
G1 X-19.789 Y35.015 E30.01594
G1 X-18.943 Y32.816 E30.13348
G1 X-18.697 Y32.199 E30.16662
G1 X-18.447 Y31.702 E30.19438
G1 X-17.981 Y30.948 E30.2386
G1 X-17.69 Y30.494 E30.2655
G1 X-16.247 Y28.172 E30.4019
G1 X-14.868 Y25.803 E30.53865
G1 X-13.562 Y23.409 E30.67471
G1 X-12.311 Y20.95 E30.81235
G1 X-11.15 Y18.504 E30.94743
G1 X-10.042 Y15.981 E31.08491
G1 X-8.965 Y13.305 E31.22882
G1 X-8.759 Y12.81 E31.25557
G1 X-8.664 Y12.598 E31.26716
G1 X-8.417 Y12.157 E31.29237
G1 X-8.096 Y11.735 E31.31883
G1 X-7.752 Y11.364 E31.34407
G1 X-7.308 Y11.016 E31.37221
G1 X-6.877 Y10.753 E31.3974
G1 X-6.389 Y10.545 E31.42387
G1 X-5.905 Y10.396 E31.44913
G1 X-5.253 Y10.305 E31.48198
G1 X-4.655 Y10.294 E31.51182
G1 X-2.105 Y10.424 E31.6392
G1 X0.609 Y10.486 E31.77464
M204 S3000
G1 F2700 E24.77464
;MESH:AKLP_squeezerStand_PLA_04nz_1h30m_v03.3mf
G0 F3000 X6.532 Y13.806
G0 X7.651 Y14.432
G0 X5.228 Y19.755
G0 X5.027 Y20.75
G0 X5.301 Y21.861
G0 X10.495 Y27.43
G0 X11.044 Y28.142
G0 X11.514 Y28.908
G0 X11.9 Y29.722
G0 X12.193 Y30.575
G0 X12.392 Y31.453
G0 X12.86 Y44.547
M204 S1500
;TYPE:WALL-INNER
G1 F2700 E31.77464
G1 F1200 X12.86 Y32.956 E32.32979
G1 X12.856 Y32.325 E32.36001
G1 X12.748 Y31.392 E32.40499
G1 X12.54 Y30.475 E32.45003
G1 X12.234 Y29.586 E32.49506
G1 X11.831 Y28.736 E32.54011
G1 X11.342 Y27.937 E32.58498
G1 X10.769 Y27.195 E32.62988
G1 X10.565 Y26.981 E32.64404
G1 X10.111 Y26.515 E32.6752
G1 X9.391 Y25.915 E32.72009
G1 X8.61 Y25.397 E32.76497
G1 X8.35 Y25.261 E32.77902
G1 X7.773 Y24.966 E32.81006
G1 X7.495 Y24.857 E32.82436
G1 X6.872 Y24.622 E32.85625
G1 X6.325 Y24.477 E32.88336
G1 X5.98 Y24.336 E32.90121
G1 X5.518 Y24.051 E32.92721
G1 X5.015 Y23.604 E32.95944
G1 X4.579 Y22.955 E32.99688
G1 X4.428 Y22.601 E33.01532
G1 X4.321 Y22.207 E33.03487
G1 X4.267 Y21.56 E33.06596
G1 X4.365 Y21.275 E33.0804
G1 X4.38 Y21.231 E33.08263
G1 X4.539 Y20.766 E33.10616
G1 X4.575 Y20.702 E33.10968
G1 X4.689 Y20.498 E33.12087
G1 X4.665 Y20.752 E33.1231
G1 X4.727 Y21.349 E33.14201
G1 X4.743 Y21.393 E33.14417
G1 X4.976 Y22.023 E33.17634
G1 X5.293 Y22.52 E33.20457
G1 X5.707 Y22.945 E33.23299
G1 X6.337 Y23.326 E33.26825
G1 X8.433 Y24.726 E33.38897
G1 X13.268 Y27.947 E33.66722
G1 X15.82 Y30.642 E33.84498
G1 X17.853 Y33.816 E34.02551
G1 X19.185 Y37.281 E34.20331
G1 X19.472 Y39.063 E34.28975
G1 X20.162 Y43.305 E34.49559
G1 X20.161 Y50.853 E34.8571
G1 X12.075 Y50.853 E35.24438
G1 X11.926 Y50.703 E35.2545
G1 X5.506 Y50.703 E35.56199
G1 X-8.906 Y50.854 E36.25228
G1 X-9.051 Y50.998 E36.26207
G1 X-11.317 Y50.998 E36.3706
G1 X-17.139 Y50.872 E36.64951
G1 X-17.14 Y43.305 E37.01192
G1 X-16.162 Y37.284 E37.30408
G1 X-14.829 Y33.815 E37.48207
G1 X-12.799 Y30.645 E37.66236
G1 X-10.245 Y27.949 E37.84022
G1 X-3.338 Y23.344 E38.23781
G1 X-3.022 Y23.194 E38.25457
G1 X-2.556 Y22.84 E38.28259
G1 X-2.171 Y22.4 E38.3106
G1 X-1.884 Y21.893 E38.3385
G1 X-1.722 Y21.391 E38.36376
G1 X-1.704 Y21.334 E38.36663
G1 X-1.642 Y20.752 E38.39466
G1 X-1.667 Y20.498 E38.40688
G1 X-1.553 Y20.701 E38.40803
G1 X-1.517 Y20.765 E38.41029
G1 X-1.363 Y21.217 E38.42336
G1 X-1.344 Y21.273 E38.42606
G1 X-1.246 Y21.559 E38.44054
G1 X-1.3 Y22.203 E38.47149
G1 X-1.409 Y22.602 E38.4913
G1 X-1.558 Y22.954 E38.50961
G1 X-1.763 Y23.304 E38.52903
G1 X-2.003 Y23.615 E38.54785
G1 X-2.285 Y23.894 E38.56685
