; generated by PrusaSlicer 2.6.1+win64 on 2023-10-28 at 09:36:03 UTC


;
;
; 

; external perimeters extrusion width = 0.42mm
; perimeters extrusion width = 0.45mm
; infill extrusion width = 0.45mm
; solid infill extrusion width = 0.45mm
; top infill extrusion width = 0.42mm
; first layer extrusion width = 0.50mm

; external perimeters extrusion width = 0.42mm
; perimeters extrusion width = 0.45mm
; infill extrusion width = 0.45mm
; solid infill extrusion width = 0.45mm
; top infill extrusion width = 0.42mm
; first layer extrusion width = 0.50mm

;TYPE:Custom
G90 ; use absolute coordinates
M83 ; extruder relative mode
M140 S85 ; set bed temp
M190 S85 ; wait for bed temp
M104 S230 ; set extruder temp
M109 S230 ; wait for extruder temp
G28                                        ; move X/Y/Z to min endstops
G1 Z0.28                                   ; lift nozzle a bit 
G92 E0 
G1 Y3 F2400                                    ; zero the extruded length 
G1 X180  E40 F500                       ; Extrude 25mm of filament in a 5cm line. 
G92 E0                                     ; zero the extruded length again 
G1 E-0.2 F3000                                ; Retract a little 
G1 X181 F4000                              ; Quickly wipe away from the filament line
M117
G21 ; set units to millimeters
G90 ; use absolute coordinates
M82 ; use absolute distances for extrusion
G92 E0
; Filament gcode
M107
;LAYER_CHANGE
;Z:0.3
;HEIGHT:0.3
; BEFORE_LAYER_CHANGE 0 @ 0.3mm
G1 E-2.5 F4800
G92 E0
G1 Z.3 F18000
; AFTER_LAYER_CHANGE 0 @ 0.3mm
M204 S20000
G1 X57.064 Y132.3
G1 E2.5 F4800
M204 S5000
;TYPE:External perimeter
;WIDTH:0.5
G1 X30.037 Y132.3 E3.89503
G1 X29.214 Y132.395 E3.93779
G1 X28.457 Y132.603 E3.97831
G1 X27.759 Y132.909 E4.01765
G1 X27.135 Y133.306 E4.05582
G1 X26.579 Y133.819 E4.09487
G1 X26.195 Y134.323 E4.12757
G1 X25.927 Y134.873 E4.15915
G1 X25.824 Y135.254 E4.17952
G1 X25.792 Y137.3 E4.28514
G1 X15.25 Y137.3 E4.82928
G1 X15.25 Y131.556 E5.12576
G1 X15.288 Y130.79 E5.16535
G1 X15.399 Y130.038 E5.20459
G1 X15.581 Y129.312 E5.24322
G1 X15.84 Y128.584 E5.2831
G1 X16.165 Y127.897 E5.32233
G1 X16.556 Y127.244 E5.36162
G1 X17.009 Y126.634 E5.40084
G1 X17.512 Y126.079 E5.4395
G1 X18.084 Y125.559 E5.4794
G1 X18.694 Y125.106 E5.51862
G1 X19.347 Y124.715 E5.55791
G1 X20.024 Y124.395 E5.59656
G1 X20.751 Y124.134 E5.63643
G1 X21.488 Y123.949 E5.67565
G1 X22.24 Y123.838 E5.71489
G1 X23.006 Y123.8 E5.75448
G1 X105.542 Y123.8 E10.01467
G1 X105.69 Y123.742 E10.02287
G1 X105.76 Y123.582 E10.03188
G1 X105.76 Y97.152 E11.3961
G1 X110.105 Y92.7 E11.7172
G1 X119.895 Y92.7 E12.22252
G1 X124.24 Y97.152 E12.54362
G1 X124.24 Y123.582 E13.90784
G1 X124.31 Y123.742 E13.91685
G1 X124.458 Y123.8 E13.92505
G1 X206.857 Y123.8 E18.17817
G1 X207.48 Y123.824 E18.21035
G1 X208.232 Y123.908 E18.24941
G1 X208.973 Y124.065 E18.28851
G1 X209.695 Y124.293 E18.32759
G1 X210.391 Y124.592 E18.36669
G1 X211.05 Y124.953 E18.40547
G1 X211.678 Y125.384 E18.44478
G1 X212.263 Y125.874 E18.48417
G1 X212.794 Y126.417 E18.52337
G1 X213.269 Y127.009 E18.56255
G1 X213.684 Y127.646 E18.60179
G1 X214.035 Y128.321 E18.64106
G1 X214.318 Y129.027 E18.68032
G1 X214.53 Y129.757 E18.71956
G1 X214.67 Y130.506 E18.75889
G1 X214.732 Y131.19 E18.79434
G1 X214.75 Y131.694 E18.82037
G1 X214.75 Y137.3 E19.10973
G1 X204.246 Y137.3 E19.65191
G1 X204.202 Y135.185 E19.7611
G1 X204.004 Y134.617 E19.79215
G1 X203.565 Y133.946 E19.83354
G1 X203.158 Y133.514 E19.86418
G1 X202.577 Y133.081 E19.90158
G1 X201.913 Y132.733 E19.94027
G1 X201.181 Y132.478 E19.98028
G1 X200.429 Y132.331 E20.01983
G1 X200.001 Y132.3 E20.04198
G1 X120.25 Y132.3 E24.15842
G1 X120.25 Y125.518 E24.50848
G1 X120.18 Y125.358 E24.51749
G1 X120.032 Y125.3 E24.52569
G1 X109.968 Y125.3 E25.04516
G1 X109.82 Y125.358 E25.05336
G1 X109.75 Y125.518 E25.06237
G1 X109.75 Y132.3 E25.41243
G1 X57.124 Y132.3 E28.12878
M204 S20000
G1 X56.849 Y131.962 F18000
G1 X57.064 Y131.864
M204 S5000
;TYPE:Perimeter
G1 F4800
G1 X29.964 Y131.869 E29.52758
G1 X29.099 Y131.974 E29.57256
G1 X28.284 Y132.204 E29.61627
G1 X27.527 Y132.541 E29.65904
G1 X26.845 Y132.981 E29.70093
G1 X26.349 Y133.423 E29.73522
G1 X26.121 Y133.699 E29.7537
G1 X25.803 Y134.133 E29.78147
G1 X25.535 Y134.683 E29.81305
G1 X25.389 Y135.248 E29.84317
G1 X25.363 Y136.864 E29.92659
G1 X15.686 Y136.864 E30.42608
G1 X15.686 Y131.567 E30.69949
G1 X15.722 Y130.833 E30.73742
G1 X15.827 Y130.123 E30.77447
G1 X15.999 Y129.438 E30.81092
G1 X16.243 Y128.751 E30.84855
G1 X16.55 Y128.102 E30.88561
G1 X16.919 Y127.487 E30.92263
G1 X17.347 Y126.91 E30.95971
G1 X17.821 Y126.387 E30.99614
G1 X18.361 Y125.896 E31.03381
G1 X18.937 Y125.469 E31.07082
G1 X19.552 Y125.1 E31.10784
G1 X20.191 Y124.798 E31.14432
G1 X20.877 Y124.551 E31.18195
G1 X21.573 Y124.377 E31.21898
G1 X22.283 Y124.272 E31.25603
G1 X23.017 Y124.236 E31.29396
G1 X105.5 Y124.236 E35.55142
G1 X105.676 Y124.222 E35.56053
G1 X105.985 Y124.062 E35.57849
G1 X106.115 Y123.895 E35.58941
G1 X106.195 Y123.582 E35.60609
G1 X106.195 Y97.329 E36.96117
G1 X110.289 Y93.136 E37.26365
G1 X119.711 Y93.136 E37.74998
G1 X123.805 Y97.329 E38.05246
G1 X123.805 Y122.752 E39.3647
G1 X123.817 Y123.71 E39.41415
G1 X123.929 Y123.966 E39.42857
G1 X124.172 Y124.169 E39.44491
G1 X124.458 Y124.236 E39.46007
G1 X206.857 Y124.236 E43.71319
G1 X207.459 Y124.259 E43.74429
G1 X208.168 Y124.339 E43.78112
G1 X208.867 Y124.487 E43.818
G1 X209.548 Y124.703 E43.85488
G1 X210.205 Y124.985 E43.89178
G1 X210.826 Y125.327 E43.92837
G1 X211.419 Y125.734 E43.96549
G1 X211.971 Y126.197 E44.00268
G1 X212.471 Y126.709 E44.03962
G1 X212.919 Y127.269 E44.07664
G1 X213.311 Y127.87 E44.11368
G1 X213.641 Y128.507 E44.15071
G1 X213.908 Y129.173 E44.18775
G1 X214.108 Y129.863 E44.22483
G1 X214.239 Y130.57 E44.26194
G1 X214.291 Y131.099 E44.28938
G1 X214.314 Y131.694 E44.32011
G1 X214.314 Y136.864 E44.58697
G1 X204.675 Y136.864 E45.0845
G1 X204.65 Y135.247 E45.16797
G1 X204.614 Y135.042 E45.17871
G1 X204.416 Y134.474 E45.20976
G1 X204.187 Y134.078 E45.23337
G1 X203.883 Y133.648 E45.26055
G1 X203.42 Y133.166 E45.29505
G1 X202.78 Y132.696 E45.33604
G1 X202.057 Y132.322 E45.37806
G1 X201.265 Y132.051 E45.42127
G1 X200.513 Y131.903 E45.46083
G1 X200.001 Y131.864 E45.48733
G1 X120.686 Y131.864 E49.58127
G1 X120.673 Y125.39 E49.91543
G1 X120.561 Y125.134 E49.92985
G1 X120.319 Y124.931 E49.94615
G1 X120.032 Y124.864 E49.96136
G1 X109.968 Y124.864 E50.48083
G1 X109.834 Y124.878 E50.48778
G1 X109.524 Y125.038 E50.50579
G1 X109.394 Y125.205 E50.51671
G1 X109.314 Y125.518 E50.53339
G1 X109.314 Y131.864 E50.86095
G1 X57.124 Y131.864 E53.5548
M204 S20000
;WIPE_START
G1 F14400
G1 X49.229 Y131.865 E51.0548
;WIPE_END
G92 E0
G1 X213.665 Y129.013 F18000
G1 E2.5 F4800
M204 S5000
;TYPE:Solid infill
;WIDTH:0.50015
G1 X209.906 Y125.254 E2.77449
G1 X209.657 Y125.136 E2.78872
G1 X208.918 Y124.882 E2.82907
G1 X213.668 Y129.632 E3.17592
G1 X213.809 Y130.195 E3.20589
G1 X213.843 Y130.423 E3.21779
G1 X208.127 Y124.707 E3.63518
G1 X207.681 Y124.641 E3.65846
G1 X207.432 Y124.628 E3.67133
G1 X213.922 Y131.118 E4.14524
G1 X213.944 Y131.757 E4.17825
G1 X206.793 Y124.606 E4.70043
G1 X206.177 Y124.606 E4.73224
G1 X213.944 Y132.373 E5.2994
G1 X213.944 Y132.989 E5.33121
G1 X205.561 Y124.606 E5.94335
G1 X204.945 Y124.606 E5.97516
G1 X213.944 Y133.605 E6.63228
G1 X213.944 Y134.222 E6.66414
G1 X204.328 Y124.606 E7.36631
G1 X203.712 Y124.606 E7.39812
G1 X213.944 Y134.838 E8.14528
G1 X213.944 Y135.454 E8.17709
G1 X203.096 Y124.606 E8.96923
G1 X202.479 Y124.606 E9.00109
G1 X213.944 Y136.071 E9.83828
G1 X213.944 Y136.494 E9.86012
G1 X213.751 Y136.494 E9.87009
G1 X201.863 Y124.606 E10.73817
G1 X201.247 Y124.606 E10.76998
G1 X213.135 Y136.494 E11.63806
G1 X212.519 Y136.494 E11.66987
G1 X200.631 Y124.606 E12.53795
G1 X200.014 Y124.606 E12.56981
G1 X211.903 Y136.494 E13.43793
G1 X211.286 Y136.494 E13.46979
G1 X199.398 Y124.606 E14.33787
G1 X198.782 Y124.606 E14.36968
G1 X210.67 Y136.494 E15.23776
G1 X210.054 Y136.494 E15.26957
G1 X198.166 Y124.606 E16.13765
G1 X197.549 Y124.606 E16.16951
G1 X209.438 Y136.494 E17.03763
G1 X208.821 Y136.494 E17.06949
G1 X196.933 Y124.606 E17.93757
G1 X196.317 Y124.606 E17.96938
G1 X208.205 Y136.494 E18.83746
G1 X207.589 Y136.494 E18.86927
G1 X195.701 Y124.606 E19.73735
G1 X195.084 Y124.606 E19.76921
G1 X202.753 Y132.275 E20.32921
G1 X203.082 Y132.449 E20.34843
G1 X203.766 Y132.98 E20.39314
G1 X204.284 Y133.541 E20.43257
G1 X204.707 Y134.229 E20.47427
G1 X206.972 Y136.494 E20.63966
G1 X206.356 Y136.494 E20.67147
G1 X205.005 Y135.143 E20.77012
G1 X205.02 Y135.229 E20.77463
G1 X205.029 Y135.783 E20.80324
G1 X205.74 Y136.494 E20.85516
G1 X205.124 Y136.494 E20.88697
G1 X204.839 Y136.21 E20.90774
M204 S20000
;WIPE_START
G1 F14400
G1 X205.124 Y136.494 E20.78033
G1 X205.74 Y136.494 E20.58526
G1 X205.029 Y135.783 E20.26685
G1 X205.02 Y135.229 E20.09139
G1 X205.005 Y135.143 E20.06375
G1 X206.356 Y136.494 E19.45873
G1 X206.972 Y136.494 E19.26366
G1 X205.061 Y134.583 E18.40774
;WIPE_END
G92 E0
G1 X201.971 Y132.109 F18000
G1 E2.5 F4800
M204 S5000
G1 X194.468 Y124.606 E3.04788
G1 X193.852 Y124.606 E3.07969
G1 X200.835 Y131.589 E3.5896
G1 X200.576 Y131.538 E3.60323
G1 X200.131 Y131.501 E3.62629
G1 X193.235 Y124.606 E4.12981
G1 X192.619 Y124.606 E4.16162
G1 X199.509 Y131.496 E4.66474
G1 X198.893 Y131.496 E4.69655
G1 X192.003 Y124.606 E5.19967
G1 X191.387 Y124.606 E5.23148
G1 X198.277 Y131.496 E5.7346
G1 X197.661 Y131.496 E5.76641
G1 X190.77 Y124.606 E6.26956
G1 X190.154 Y124.606 E6.30137
G1 X197.044 Y131.496 E6.80449
G1 X196.428 Y131.496 E6.8363
G1 X189.538 Y124.606 E7.33942
G1 X188.922 Y124.606 E7.37123
G1 X195.812 Y131.496 E7.87435
G1 X195.195 Y131.496 E7.90621
G1 X188.305 Y124.606 E8.40933
G1 X187.689 Y124.606 E8.44114
G1 X194.579 Y131.496 E8.94426
G1 X193.963 Y131.496 E8.97607
G1 X187.073 Y124.606 E9.47919
G1 X186.456 Y124.606 E9.51105
G1 X193.347 Y131.496 E10.0142
G1 X192.73 Y131.496 E10.04606
G1 X185.84 Y124.606 E10.54918
G1 X185.224 Y124.606 E10.58099
G1 X192.114 Y131.496 E11.08411
G1 X191.498 Y131.496 E11.11592
G1 X184.608 Y124.606 E11.61904
G1 X183.991 Y124.606 E11.6509
G1 X190.881 Y131.496 E12.15402
G1 X190.265 Y131.496 E12.18583
G1 X183.375 Y124.606 E12.68895
G1 X182.759 Y124.606 E12.72076
G1 X189.649 Y131.496 E13.22388
G1 X189.033 Y131.496 E13.25569
G1 X182.143 Y124.606 E13.75881
G1 X181.526 Y124.606 E13.79067
G1 X188.416 Y131.496 E14.29379
G1 X187.8 Y131.496 E14.3256
G1 X180.91 Y124.606 E14.82872
G1 X180.294 Y124.606 E14.86053
G1 X187.184 Y131.496 E15.36365
G1 X186.567 Y131.496 E15.39551
G1 X179.677 Y124.606 E15.89863
G1 X179.061 Y124.606 E15.93044
G1 X185.951 Y131.496 E16.43356
G1 X185.335 Y131.496 E16.46537
G1 X178.445 Y124.606 E16.96849
G1 X177.829 Y124.606 E17.0003
G1 X184.719 Y131.496 E17.50342
G1 X184.102 Y131.496 E17.53528
G1 X177.212 Y124.606 E18.0384
G1 X176.596 Y124.606 E18.07021
G1 X183.486 Y131.496 E18.57333
G1 X182.87 Y131.496 E18.60514
G1 X175.98 Y124.606 E19.10826
G1 X175.364 Y124.606 E19.14007
G1 X182.253 Y131.496 E19.64315
G1 X181.637 Y131.496 E19.67496
G1 X174.747 Y124.606 E20.17808
G1 X174.131 Y124.606 E20.20989
G1 X181.021 Y131.496 E20.71301
G1 X180.405 Y131.496 E20.74482
G1 X173.515 Y124.606 E21.24794
G1 X172.899 Y124.606 E21.27975
G1 X179.788 Y131.496 E21.78283
G1 X179.172 Y131.496 E21.81464
G1 X172.282 Y124.606 E22.31776
G1 X171.666 Y124.606 E22.34957
G1 X178.556 Y131.496 E22.85269
G1 X177.939 Y131.496 E22.88455
G1 X171.05 Y124.606 E23.38763
G1 X170.433 Y124.606 E23.41949
G1 X177.323 Y131.496 E23.92261
G1 X176.707 Y131.496 E23.95442
G1 X169.817 Y124.606 E24.45754
G1 X169.201 Y124.606 E24.48935
G1 X176.091 Y131.496 E24.99247
G1 X175.474 Y131.496 E25.02433
G1 X168.585 Y124.606 E25.52741
G1 X167.968 Y124.606 E25.55927
G1 X174.858 Y131.496 E26.06239
G1 X174.242 Y131.496 E26.0942
G1 X167.352 Y124.606 E26.59732
G1 X166.736 Y124.606 E26.62913
G1 X173.625 Y131.495 E27.13217
G1 X173.009 Y131.495 E27.16398
G1 X166.12 Y124.606 E27.66702
G1 X165.503 Y124.606 E27.69888
G1 X172.393 Y131.495 E28.20196
G1 X171.777 Y131.495 E28.23377
G1 X164.887 Y124.606 E28.73685
G1 X164.271 Y124.606 E28.76866
G1 X171.16 Y131.495 E29.2717
G1 X170.544 Y131.495 E29.30351
G1 X163.654 Y124.606 E29.80659
G1 X163.038 Y124.606 E29.8384
G1 X169.928 Y131.495 E30.34148
G1 X169.311 Y131.495 E30.37334
G1 X162.422 Y124.606 E30.87638
G1 X161.806 Y124.606 E30.90819
G1 X168.695 Y131.495 E31.41123
G1 X168.079 Y131.495 E31.44304
G1 X161.189 Y124.606 E31.94612
G1 X160.573 Y124.606 E31.97793
G1 X167.463 Y131.495 E32.48101
G1 X166.846 Y131.495 E32.51287
G1 X159.957 Y124.606 E33.01591
G1 X159.341 Y124.606 E33.04772
G1 X166.23 Y131.495 E33.55076
G1 X165.614 Y131.495 E33.58257
G1 X158.724 Y124.606 E34.08565
G1 X158.108 Y124.606 E34.11746
G1 X164.997 Y131.495 E34.6205
G1 X164.381 Y131.495 E34.65231
G1 X157.492 Y124.606 E35.15535
G1 X156.875 Y124.606 E35.18721
G1 X163.765 Y131.495 E35.69029
G1 X163.149 Y131.495 E35.7221
G1 X156.259 Y124.606 E36.22518
G1 X155.643 Y124.606 E36.25699
G1 X162.532 Y131.495 E36.76003
G1 X161.916 Y131.495 E36.79184
G1 X155.027 Y124.606 E37.29488
G1 X154.41 Y124.606 E37.32674
G1 X161.3 Y131.495 E37.82982
G1 X160.683 Y131.495 E37.86168
G1 X153.794 Y124.606 E38.36472
G1 X153.178 Y124.606 E38.39653
G1 X160.067 Y131.495 E38.89957
G1 X159.451 Y131.495 E38.93138
G1 X152.562 Y124.606 E39.43442
G1 X151.945 Y124.606 E39.46628
G1 X158.835 Y131.495 E39.96936
G1 X158.218 Y131.495 E40.00122
G1 X151.329 Y124.606 E40.50426
G1 X150.713 Y124.606 E40.53607
G1 X157.602 Y131.495 E41.03911
G1 X156.986 Y131.495 E41.07092
G1 X150.097 Y124.606 E41.57396
G1 X149.48 Y124.606 E41.60582
G1 X156.369 Y131.495 E42.10886
G1 X155.753 Y131.495 E42.14067
G1 X148.864 Y124.606 E42.64371
G1 X148.248 Y124.606 E42.67552
G1 X155.137 Y131.495 E43.17856
G1 X154.521 Y131.495 E43.21037
G1 X147.631 Y124.606 E43.71345
G1 X147.015 Y124.606 E43.74526
G1 X153.904 Y131.495 E44.2483
G1 X153.288 Y131.495 E44.28011
G1 X146.399 Y124.606 E44.78315
G1 X145.783 Y124.606 E44.81496
G1 X152.672 Y131.495 E45.318
G1 X152.055 Y131.495 E45.34986
G1 X145.166 Y124.606 E45.8529
G1 X144.55 Y124.606 E45.88471
G1 X151.439 Y131.495 E46.38775
G1 X150.823 Y131.495 E46.41956
G1 X143.934 Y124.606 E46.9226
G1 X143.318 Y124.606 E46.95441
G1 X150.207 Y131.495 E47.45745
G1 X149.59 Y131.495 E47.48931
G1 X142.701 Y124.606 E47.99235
G1 X142.085 Y124.606 E48.02416
G1 X148.974 Y131.495 E48.5272
G1 X148.358 Y131.495 E48.55901
G1 X141.469 Y124.606 E49.06205
G1 X140.852 Y124.606 E49.09391
G1 X147.741 Y131.495 E49.59695
G1 X147.125 Y131.495 E49.62876
G1 X140.236 Y124.606 E50.1318
G1 X139.62 Y124.606 E50.16361
G1 X146.509 Y131.495 E50.66665
G1 X145.893 Y131.495 E50.69846
G1 X139.004 Y124.606 E51.2015
G1 X138.387 Y124.606 E51.23336
G1 X145.276 Y131.495 E51.7364
G1 X144.66 Y131.495 E51.76821
G1 X137.771 Y124.606 E52.27125
G1 X137.155 Y124.606 E52.30306
G1 X144.044 Y131.495 E52.8061
G1 X143.427 Y131.495 E52.83796
G1 X136.539 Y124.606 E53.34097
G1 X135.922 Y124.606 E53.37283
G1 X142.811 Y131.495 E53.87587
G1 X142.195 Y131.495 E53.90768
G1 X135.306 Y124.606 E54.41072
G1 X134.69 Y124.606 E54.44253
G1 X141.579 Y131.495 E54.94557
G1 X140.962 Y131.495 E54.97743
G1 X134.073 Y124.606 E55.48047
G1 X133.457 Y124.606 E55.51228
G1 X140.346 Y131.495 E56.01532
G1 X139.73 Y131.495 E56.04713
G1 X132.841 Y124.606 E56.55017
G1 X132.225 Y124.606 E56.58198
G1 X139.113 Y131.495 E57.08499
G1 X138.497 Y131.495 E57.1168
G1 X131.608 Y124.606 E57.61984
G1 X130.992 Y124.606 E57.65165
G1 X137.881 Y131.495 E58.15469
G1 X137.265 Y131.495 E58.1865
G1 X130.376 Y124.606 E58.68954
G1 X129.76 Y124.606 E58.72135
G1 X136.648 Y131.495 E59.22436
G1 X136.032 Y131.495 E59.25617
G1 X129.143 Y124.606 E59.75921
G1 X128.527 Y124.606 E59.79102
G1 X135.416 Y131.494 E60.29403
G1 X134.799 Y131.494 E60.32589
G1 X127.911 Y124.606 E60.82886
G1 X127.295 Y124.606 E60.86067
G1 X134.183 Y131.494 E61.36364
G1 X133.567 Y131.494 E61.39545
G1 X126.678 Y124.606 E61.89846
G1 X126.062 Y124.606 E61.93027
G1 X132.95 Y131.494 E62.43324
G1 X132.334 Y131.494 E62.46505
G1 X125.446 Y124.606 E62.96802
G1 X124.829 Y124.606 E62.99988
