; generated by PrusaSlicer 2.6.1+win64 on 2023-10-28 at 09:26:33 UTC


;
;
; 

; external perimeters extrusion width = 0.42mm
; perimeters extrusion width = 0.45mm
; infill extrusion width = 0.45mm
; solid infill extrusion width = 0.45mm
; top infill extrusion width = 0.42mm
; first layer extrusion width = 0.50mm

;TYPE:Custom
G90 ; use absolute coordinates
M83 ; extruder relative mode
M140 S85 ; set bed temp
M190 S85 ; wait for bed temp
M104 S230 ; set extruder temp
M109 S230 ; wait for extruder temp
G28                                        ; move X/Y/Z to min endstops
G1 Z0.28                                   ; lift nozzle a bit 
G92 E0 
G1 Y3 F2400                                    ; zero the extruded length 
G1 X180  E40 F500                       ; Extrude 25mm of filament in a 5cm line. 
G92 E0                                     ; zero the extruded length again 
G1 E-0.2 F3000                                ; Retract a little 
G1 X181 F4000                              ; Quickly wipe away from the filament line
M117
G21 ; set units to millimeters
G90 ; use absolute coordinates
M82 ; use absolute distances for extrusion
G92 E0
; Filament gcode
M107
;LAYER_CHANGE
;Z:0.3
;HEIGHT:0.3
; BEFORE_LAYER_CHANGE 0 @ 0.3mm
G1 E-2.5 F4800
G92 E0
G1 Z.3 F18000
; AFTER_LAYER_CHANGE 0 @ 0.3mm
M204 S20000
G1 X97.623 Y101.057
G1 E2.5 F4800
M204 S5000
;TYPE:Skirt/Brim
;WIDTH:0.5
G1 X111.549 Y93.017 E3.33
G1 X113.822 Y92.309 E3.45288
G1 X116.182 Y92.31 E3.57469
G1 X118.454 Y93.018 E3.69752
G1 X132.377 Y101.057 E4.52736
G1 X134.414 Y103.126 E4.67723
G1 X134.604 Y103.38 E4.6936
G1 X135.398 Y105.114 E4.79204
G1 X135.764 Y107.05 E4.89374
G1 X135.764 Y123.078 E5.72104
G1 X134.99 Y125.878 E5.87099
G1 X134.818 Y126.25 E5.89214
G1 X133.723 Y127.762 E5.9885
G1 X132.267 Y129.007 E6.08738
G1 X118.497 Y136.957 E6.90809
G1 X116.637 Y137.608 E7.00981
G1 X114.738 Y137.787 E7.10826
G1 X114.424 Y137.75 E7.12458
G1 X111.613 Y137.021 E7.27447
G1 X97.623 Y128.943 E8.10831
G1 X95.586 Y126.874 E8.25818
G1 X95.396 Y126.62 E8.27455
G1 X94.602 Y124.886 E8.37299
G1 X94.236 Y122.95 E8.47469
G1 X94.236 Y107.05 E9.29539
G1 X94.586 Y105.166 E9.3943
G1 X95.349 Y103.462 E9.49067
G1 X95.585 Y103.127 E9.51182
G1 X97.581 Y101.1 E9.65866
M204 S20000
G1 X97.867 Y101.419 F18000
M204 S5000
G1 F4800
G1 X111.746 Y93.406 E10.48586
G1 X113.918 Y92.735 E10.6032
G1 X116.147 Y92.745 E10.71825
G1 X118.256 Y93.407 E10.83235
G1 X132.133 Y101.419 E11.65944
G1 X134.091 Y103.419 E11.80391
G1 X134.239 Y103.619 E11.81675
G1 X134.99 Y105.27 E11.91037
G1 X135.328 Y107.07 E12.0049
G1 X135.328 Y123.048 E12.82962
G1 X134.575 Y125.742 E12.974
G1 X134.433 Y126.045 E12.99127
G1 X133.386 Y127.485 E13.08317
G1 X132.032 Y128.639 E13.175
G1 X118.296 Y136.57 E13.9937
G1 X116.569 Y137.177 E14.08819
G1 X114.764 Y137.352 E14.18179
G1 X114.516 Y137.324 E14.19467
G1 X111.805 Y136.628 E14.33914
G1 X97.867 Y128.581 E15.16986
G1 X95.909 Y126.581 E15.31433
G1 X95.761 Y126.381 E15.32717
G1 X95.01 Y124.73 E15.42079
G1 X94.672 Y122.93 E15.51532
G1 X94.672 Y107.069 E16.334
G1 X94.994 Y105.319 E16.42584
G1 X95.718 Y103.693 E16.51771
G1 X95.909 Y103.418 E16.53499
G1 X97.825 Y101.462 E16.67632
M204 S20000
G1 X98.111 Y101.781 F18000
M204 S5000
G1 F4800
G1 X111.943 Y93.795 E17.50073
G1 X113.952 Y93.171 E17.60931
G1 X116.05 Y93.171 E17.7176
G1 X118.06 Y93.797 E17.82626
G1 X131.889 Y101.781 E18.65048
G1 X133.768 Y103.711 E18.78951
G1 X133.873 Y103.856 E18.79875
G1 X134.582 Y105.425 E18.88762
G1 X134.892 Y107.09 E18.97504
G1 X134.892 Y123.017 E19.79713
G1 X134.161 Y125.607 E19.93604
G1 X134.067 Y125.807 E19.94745
G1 X133.083 Y127.171 E20.03426
G1 X131.797 Y128.272 E20.12164
G1 X118.096 Y136.183 E20.93826
G1 X116.499 Y136.746 E21.02566
G1 X114.786 Y136.917 E21.11452
G1 X114.607 Y136.898 E21.12381
G1 X111.997 Y136.236 E21.26279
G1 X98.111 Y128.219 E22.09041
G1 X96.232 Y126.289 E22.22944
G1 X96.127 Y126.144 E22.23868
G1 X95.418 Y124.575 E22.32755
G1 X95.108 Y122.91 E22.41497
G1 X95.108 Y107.09 E23.23154
G1 X95.418 Y105.425 E23.31896
G1 X96.107 Y103.891 E23.40576
G1 X96.234 Y103.71 E23.41717
G1 X98.069 Y101.824 E23.55299
M204 S20000
G1 X98.355 Y102.143 F18000
M204 S5000
G1 F4800
G1 X112.139 Y94.185 E24.37453
G1 X114.048 Y93.597 E24.47763
G1 X115.953 Y93.597 E24.57596
G1 X117.863 Y94.186 E24.67913
G1 X131.645 Y102.143 E25.50055
G1 X133.442 Y104.001 E25.63397
G1 X133.505 Y104.09 E25.6396
G1 X134.159 Y105.532 E25.72133
G1 X134.457 Y107.11 E25.80422
G1 X134.457 Y122.987 E26.62373
G1 X133.747 Y125.472 E26.75713
G1 X133.701 Y125.572 E26.76281
G1 X132.779 Y126.859 E26.84453
G1 X131.561 Y127.905 E26.9274
G1 X117.896 Y135.795 E27.74186
G1 X116.38 Y136.326 E27.82477
G1 X114.805 Y136.481 E27.90646
G1 X114.695 Y136.471 E27.91216
G1 X112.188 Y135.843 E28.04556
G1 X98.355 Y127.857 E28.87001
G1 X96.558 Y125.999 E29.00343
G1 X96.495 Y125.91 E29.00906
G1 X95.841 Y124.468 E29.09079
G1 X95.543 Y122.89 E29.17368
G1 X95.543 Y107.11 E29.98818
G1 X95.841 Y105.532 E30.07107
G1 X96.495 Y104.09 E30.1528
G1 X96.558 Y104.001 E30.15843
G1 X98.313 Y102.186 E30.28875
M204 S20000
G1 X98.6 Y102.505 F18000
M204 S5000
G1 F4800
G1 X112.336 Y94.574 E31.10745
G1 X114.084 Y94.032 E31.20191
G1 X115.858 Y94.023 E31.29348
G1 X117.667 Y94.576 E31.39112
G1 X131.4 Y102.505 E32.20963
G1 X133.133 Y104.317 E32.33905
G1 X133.751 Y105.687 E32.41663
G1 X134.021 Y107.13 E32.4924
G1 X134.021 Y122.955 E33.30923
G1 X133.318 Y125.362 E33.43866
G1 X132.441 Y126.583 E33.51626
G1 X131.326 Y127.538 E33.59204
G1 X117.695 Y135.408 E34.40447
G1 X116.31 Y135.896 E34.48027
G1 X114.814 Y136.045 E34.55787
G1 X112.379 Y135.451 E34.68724
G1 X98.6 Y127.495 E35.5085
G1 X96.867 Y125.683 E35.63792
G1 X96.249 Y124.313 E35.7155
G1 X95.979 Y122.87 E35.79127
G1 X95.979 Y107.13 E36.60371
G1 X96.249 Y105.687 E36.67948
G1 X96.867 Y104.317 E36.75706
G1 X98.558 Y102.548 E36.88338
M204 S20000
G1 X98.845 Y102.866 F18000
M204 S5000
G1 F4800
G1 X112.532 Y94.964 E37.69914
G1 X114.18 Y94.458 E37.78812
G1 X115.824 Y94.458 E37.87298
G1 X117.47 Y94.965 E37.96188
G1 X131.155 Y102.866 E38.77752
G1 X132.76 Y104.548 E38.89752
G1 X133.328 Y105.795 E38.96825
G1 X133.586 Y107.151 E39.0395
G1 X133.586 Y122.924 E39.85364
G1 X132.932 Y125.155 E39.97364
G1 X132.136 Y126.27 E40.04435
G1 X131.09 Y127.171 E40.11561
G1 X117.495 Y135.02 E40.92589
G1 X116.192 Y135.475 E40.99713
G1 X114.828 Y135.607 E41.06786
G1 X112.569 Y135.058 E41.18786
G1 X98.845 Y127.134 E42.00584
G1 X97.24 Y125.452 E42.12584
G1 X96.672 Y124.205 E42.19657
G1 X96.414 Y122.849 E42.26782
G1 X96.414 Y107.151 E43.07809
G1 X96.672 Y105.795 E43.14934
G1 X97.24 Y104.548 E43.22007
G1 X98.803 Y102.91 E43.33693
M204 S20000
G1 X99.089 Y103.228 F18000
M204 S5000
G1 F4800
G1 X112.729 Y95.353 E44.14989
G1 X114.215 Y94.893 E44.23018
G1 X115.73 Y94.885 E44.30838
G1 X117.274 Y95.355 E44.39169
G1 X130.911 Y103.228 E45.20446
G1 X132.38 Y104.764 E45.31416
G1 X132.906 Y105.904 E45.37896
G1 X133.15 Y107.172 E45.44561
G1 X133.15 Y122.893 E46.25707
G1 X132.555 Y124.933 E46.36675
G1 X131.83 Y125.959 E46.4316
G1 X130.854 Y126.804 E46.49823
G1 X117.296 Y134.632 E47.30631
G1 X116.075 Y135.055 E47.37301
G1 X114.825 Y135.17 E47.4378
G1 X112.761 Y134.665 E47.54748
G1 X99.089 Y126.772 E48.36233
G1 X97.62 Y125.236 E48.47203
G1 X97.094 Y124.096 E48.53683
G1 X96.85 Y122.828 E48.60348
G1 X96.85 Y107.172 E49.41158
G1 X97.094 Y105.904 E49.47823
G1 X97.62 Y104.764 E49.54303
G1 X99.048 Y103.272 E49.64963
M204 S20000
G1 X99.334 Y103.59 F18000
M204 S5000
G1 F4800
G1 X112.925 Y95.743 E50.45968
G1 X114.31 Y95.32 E50.53443
G1 X115.696 Y95.32 E50.60597
G1 X117.078 Y95.745 E50.6806
G1 X130.666 Y103.59 E51.49046
G1 X131.999 Y104.979 E51.58983
G1 X132.499 Y106.062 E51.6514
G1 X132.714 Y107.192 E51.71077
G1 X132.714 Y122.862 E52.5196
G1 X132.178 Y124.712 E52.61902
G1 X131.49 Y125.686 E52.68057
G1 X130.619 Y126.437 E52.73993
G1 X117.096 Y134.245 E53.54593
G1 X116.009 Y134.624 E53.60535
G1 X114.821 Y134.732 E53.66692
G1 X112.952 Y134.272 E53.76627
G1 X99.334 Y126.41 E54.57791
G1 X98.001 Y125.021 E54.67728
G1 X97.501 Y123.938 E54.73885
G1 X97.286 Y122.808 E54.79822
G1 X97.286 Y107.192 E55.60426
G1 X97.501 Y106.062 E55.66363
G1 X98 Y104.979 E55.72518
G1 X99.292 Y103.633 E55.82148
M204 S20000
G1 X99.578 Y103.952 F18000
M204 S5000
G1 F4800
G1 X113.121 Y96.133 E56.62866
G1 X114.404 Y95.746 E56.69783
G1 X115.66 Y95.755 E56.76266
G1 X116.881 Y96.134 E56.82865
G1 X130.422 Y103.952 E57.63571
G1 X131.621 Y105.197 E57.72493
G1 X132.077 Y106.172 E57.78049
G1 X132.279 Y107.214 E57.83528
G1 X132.279 Y122.832 E58.64142
G1 X131.8 Y124.492 E58.7306
G1 X131.183 Y125.375 E58.7862
G1 X130.382 Y126.071 E58.84097
G1 X116.896 Y133.857 E59.64475
G1 X115.893 Y134.203 E59.69951
G1 X114.82 Y134.295 E59.7551
G1 X113.143 Y133.88 E59.84427
G1 X99.578 Y126.048 E60.65277
G1 X98.379 Y124.803 E60.74199
G1 X97.923 Y123.828 E60.79755
G1 X97.721 Y122.786 E60.85234
G1 X97.721 Y107.214 E61.65611
G1 X97.923 Y106.172 E61.7109
G1 X98.379 Y105.197 E61.76646
G1 X99.536 Y103.995 E61.85257
M204 S20000
G1 X99.822 Y104.314 F18000
M204 S5000
G1 F4800
G1 X113.317 Y96.523 E62.65688
G1 X114.437 Y96.182 E62.71731
G1 X115.565 Y96.182 E62.77553
G1 X116.685 Y96.524 E62.83598
G1 X130.178 Y104.314 E63.64018
G1 X131.243 Y105.416 E63.71928
G1 X131.655 Y106.284 E63.76887
G1 X131.843 Y107.235 E63.81891
G1 X131.843 Y122.802 E64.62242
G1 X131.421 Y124.275 E64.70151
G1 X130.876 Y125.066 E64.75109
G1 X130.146 Y125.704 E64.80113
G1 X116.697 Y133.469 E65.60271
G1 X115.779 Y133.782 E65.65277
G1 X114.822 Y133.859 E65.70233
G1 X113.335 Y133.487 E65.78145
G1 X99.822 Y125.686 E66.58682
G1 X98.757 Y124.584 E66.66592
G1 X98.345 Y123.716 E66.71551
G1 X98.157 Y122.765 E66.76555
G1 X98.157 Y107.235 E67.56715
G1 X98.345 Y106.284 E67.61719
G1 X98.757 Y105.416 E67.66678
G1 X99.78 Y104.357 E67.74278
M204 S20000
G1 X100.066 Y104.677 F18000
M204 S5000
G1 F4800
G1 X113.514 Y96.912 E68.54432
G1 X114.473 Y96.617 E68.59611
G1 X115.472 Y96.609 E68.64768
G1 X116.489 Y96.914 E68.70248
G1 X129.934 Y104.677 E69.50383
G1 X130.866 Y105.638 E69.57293
G1 X131.234 Y106.398 E69.61652
G1 X131.408 Y107.258 E69.66181
G1 X131.408 Y122.772 E70.46258
G1 X131.041 Y124.06 E70.53171
G1 X130.566 Y124.758 E70.57529
G1 X129.909 Y125.338 E70.62053
G1 X116.499 Y133.081 E71.4198
G1 X115.668 Y133.36 E71.46505
G1 X114.825 Y133.422 E71.50868
G1 X113.527 Y133.095 E71.57777
G1 X100.066 Y125.323 E72.38007
G1 X99.134 Y124.362 E72.44917
G1 X98.766 Y123.602 E72.49276
G1 X98.592 Y122.742 E72.53805
G1 X98.592 Y107.258 E73.33728
G1 X98.766 Y106.398 E73.38257
G1 X99.134 Y105.638 E73.42616
G1 X100.024 Y104.72 E73.49216
M204 S20000
G1 X100.309 Y105.039 F18000
M204 S5000
G1 F4800
G1 X113.71 Y97.302 E74.29087
G1 X114.567 Y97.044 E74.33707
G1 X115.439 Y97.044 E74.38208
G1 X116.293 Y97.304 E74.42816
G1 X129.691 Y105.039 E75.22669
G1 X130.49 Y105.859 E75.28579
G1 X130.829 Y106.563 E75.32612
G1 X130.972 Y107.279 E75.36381
G1 X130.972 Y122.742 E76.16195
G1 X130.661 Y123.844 E76.22105
G1 X130.221 Y124.49 E76.26139
G1 X129.673 Y124.971 E76.29903
G1 X116.299 Y132.693 E77.09615
G1 X115.608 Y132.927 E77.13381
G1 X114.829 Y132.985 E77.17413
G1 X113.719 Y132.703 E77.23324
G1 X100.309 Y124.961 E78.03249
G1 X99.51 Y124.141 E78.09159
G1 X99.171 Y123.437 E78.13192
G1 X99.028 Y122.721 E78.16961
G1 X99.028 Y107.279 E78.96667
G1 X99.171 Y106.563 E79.00436
G1 X99.51 Y105.859 E79.04469
G1 X100.267 Y105.082 E79.10068
M204 S20000
G1 X100.553 Y105.401 F18000
M204 S5000
G1 F4800
G1 X113.906 Y97.692 E79.89653
G1 X114.604 Y97.478 E79.93421
G1 X115.348 Y97.471 E79.97261
G1 X116.098 Y97.694 E80.013
G1 X129.447 Y105.401 E80.80862
G1 X130.115 Y106.084 E80.85793
G1 X130.409 Y106.679 E80.89219
G1 X130.536 Y107.301 E80.92496
G1 X130.536 Y122.712 E81.72042
G1 X130.279 Y123.632 E81.76972
G1 X129.91 Y124.184 E81.80399
G1 X129.435 Y124.606 E81.83679
G1 X116.101 Y132.304 E82.6315
G1 X115.498 Y132.505 E82.66431
G1 X114.836 Y132.548 E82.69855
G1 X113.911 Y132.311 E82.74784
G1 X100.553 Y124.599 E83.54399
G1 X99.885 Y123.916 E83.5933
G1 X99.591 Y123.321 E83.62756
G1 X99.464 Y122.699 E83.66033
G1 X99.464 Y107.301 E84.45512
G1 X99.591 Y106.679 E84.48789
G1 X99.885 Y106.084 E84.52215
G1 X100.511 Y105.444 E84.56836
M204 S20000
G1 X100.796 Y105.764 F18000
M204 S5000
G1 F4800
G1 X114.101 Y98.082 E85.36136
G1 X114.696 Y97.905 E85.3934
G1 X115.314 Y97.906 E85.4253
G1 X115.901 Y98.084 E85.45696
G1 X129.204 Y105.764 E86.24982
G1 X129.742 Y106.312 E86.28946
G1 X129.989 Y106.799 E86.31765
G1 X130.101 Y107.325 E86.34541
G1 X130.101 Y122.683 E87.13813
G1 X129.895 Y123.423 E87.17778
G1 X129.597 Y123.88 E87.20594
G1 X129.197 Y124.24 E87.23372
G1 X115.904 Y131.915 E88.02601
G1 X115.392 Y132.081 E88.05379
G1 X114.847 Y132.111 E88.08196
G1 X114.103 Y131.919 E88.12162
G1 X100.796 Y124.236 E88.91474
G1 X100.258 Y123.688 E88.95438
G1 X100.011 Y123.201 E88.98257
G1 X99.899 Y122.675 E89.01033
G1 X99.899 Y107.325 E89.80264
G1 X100.011 Y106.799 E89.8304
G1 X100.258 Y106.312 E89.85859
G1 X100.754 Y105.807 E89.89513
M204 S20000
G1 X101.039 Y106.127 F18000
M204 S5000
G1 F4800
G1 X114.298 Y98.472 E90.68538
G1 X114.734 Y98.34 E90.70889
G1 X115.225 Y98.334 E90.73424
G1 X115.707 Y98.474 E90.76015
G1 X128.961 Y106.127 E91.55013
G1 X129.372 Y106.543 E91.58031
G1 X129.571 Y106.923 E91.60245
G1 X129.665 Y107.35 E91.62502
G1 X129.665 Y122.654 E92.41495
G1 X129.51 Y123.218 E92.44514
G1 X129.28 Y123.58 E92.46728
G1 X128.958 Y123.875 E92.48982
G1 X115.707 Y131.525 E93.27958
G1 X115.291 Y131.657 E93.30211
G1 X114.862 Y131.675 E93.32427
G1 X114.296 Y131.527 E93.35447
G1 X101.039 Y123.873 E94.14461
G1 X100.628 Y123.457 E94.17479
G1 X100.429 Y123.077 E94.19693
G1 X100.335 Y122.65 E94.2195
G1 X100.335 Y107.35 E95.00923
G1 X100.429 Y106.923 E95.0318
G1 X100.628 Y106.543 E95.05394
G1 X100.997 Y106.169 E95.08106
M204 S20000
G1 X101.281 Y106.49 F18000
M204 S5000
G1 F4800
G1 X114.491 Y98.863 E95.8684
G1 X114.821 Y98.768 E95.88613
G1 X115.19 Y98.769 E95.90518
G1 X115.511 Y98.864 E95.92246
G1 X128.719 Y106.49 E96.70968
G1 X129.001 Y106.774 E96.73034
G1 X129.17 Y107.098 E96.7492
G1 X129.229 Y107.372 E96.76367
G1 X129.229 Y122.626 E97.55102
G1 X129.124 Y123.013 E97.57172
G1 X128.928 Y123.321 E97.59056
G1 X128.721 Y123.509 E97.60499
G1 X115.509 Y131.137 E98.39244
G1 X115.242 Y131.223 E98.40692
G1 X114.877 Y131.238 E98.42578
G1 X114.489 Y131.136 E98.44649
G1 X101.281 Y123.51 E99.23371
G1 X100.999 Y123.226 E99.25437
G1 X100.83 Y122.902 E99.27323
G1 X100.771 Y122.628 E99.2877
G1 X100.771 Y107.372 E100.07516
G1 X100.829 Y107.098 E100.08962
G1 X100.999 Y106.774 E100.10851
G1 X101.239 Y106.532 E100.1261
M204 S20000
G1 X101.524 Y106.853 F18000
M204 S5000
G1 F4800
G1 X114.683 Y99.256 E100.91038
G1 X114.9 Y99.197 E100.92199
G1 X115.148 Y99.203 E100.93479
G1 X115.314 Y99.254 E100.94375
G1 X128.476 Y106.853 E101.72822
G1 X128.636 Y107.012 E101.73986
G1 X128.754 Y107.23 E101.75265
G1 X128.794 Y107.399 E101.76161
G1 X128.794 Y122.597 E102.54607
G1 X128.736 Y122.815 E102.55771
G1 X128.606 Y123.026 E102.5705
G1 X128.48 Y123.145 E102.57945
G1 X115.314 Y130.746 E103.36415
G1 X115.148 Y130.797 E103.37311
G1 X114.9 Y130.803 E103.38591
G1 X114.683 Y130.744 E103.39752
G1 X101.524 Y123.147 E104.1818
G1 X101.364 Y122.988 E104.19344
G1 X101.246 Y122.77 E104.20623
G1 X101.206 Y122.601 E104.21519
G1 X101.206 Y107.399 E104.99986
G1 X101.246 Y107.23 E105.00882
G1 X101.364 Y107.012 E105.02161
G1 X101.481 Y106.895 E105.03015
M204 S20000
G1 X101.766 Y107.216 F18000
M204 S5000
G1 F4800
G1 X114.876 Y99.647 E105.81152
G1 X115.069 Y99.632 E105.82151
G1 X115.124 Y99.647 E105.82445
G1 X128.234 Y107.216 E106.60582
G1 X128.274 Y107.256 E106.60874
G1 X128.358 Y107.431 E106.61876
G1 X128.358 Y122.569 E107.40013
G1 X128.274 Y122.744 E107.41015
G1 X128.234 Y122.784 E107.41307
G1 X115.124 Y130.353 E108.19444
G1 X115.069 Y130.368 E108.19738
G1 X114.876 Y130.353 E108.20737
G1 X101.766 Y122.784 E108.98874
G1 X101.726 Y122.744 E108.99166
G1 X101.642 Y122.569 E109.00168
G1 X101.642 Y107.431 E109.78305
G1 X101.724 Y107.259 E109.79289
M204 S20000
;WIPE_START
G1 F14400
G1 X108.557 Y103.304 E107.29289
;WIPE_END
G92 E0
G1 X127.74 Y113.627 F18000
