;FLAVOR:Marlin
;TIME:2328
;Filament used: 3.64876m
;Layer height: 0.3
;MINX:-24.633
;MINY:-9.187
;MINZ:0.3
;MAXX:21.84
;MAXY:74.892
;MAXZ:22.5
;Generated with Cura_SteamEngine 4.10.0
M140 S60
M105
M190 S60
M104 S228
M105
M109 S228
M82 ;absolute extrusion mode
G21        ;metric values
G90        ;absolute positioning
M107       ;start with the fan off
G28   ;move to endstops

;Z-Offset Reset und dann Z +0,1 für PLA
;MacroZOffset0
;MacroZOffsetPlus0100

G92 E0                  ;zero the extruded length
G1 F200 E3              ;extrude 3mm of feed stock
G92 E0                  ;zero the extruded length again
G1 F120
;Put printing message on LCD screen
M117 Printing...
G92 E0
G92 E0
G1 F2400 E-6
;LAYER_COUNT:75
;LAYER:0
M107
G0 F600 X0.4 Y-9.179 Z0.3
;TYPE:SKIRT
G1 F2400 E0
G1 F300 X0.966 Y-9.154 E0.05936
G1 X1.204 Y-9.137 E0.08436
G1 X2.608 Y-8.996 E0.23219
G1 X2.85 Y-8.964 E0.25777
G1 X3.486 Y-8.863 E0.32524
G1 X3.619 Y-8.84 E0.33938
G1 X4.277 Y-8.714 E0.40957
G1 X4.528 Y-8.658 E0.43651
G1 X5.587 Y-8.388 E0.55101
G1 X5.745 Y-8.344 E0.56819
G1 X6.474 Y-8.128 E0.64785
G1 X6.873 Y-7.997 E0.69185
G1 X7.897 Y-7.62 E0.80618
G1 X8.336 Y-7.443 E0.85577
G1 X8.986 Y-7.158 E0.93013
G1 X9.489 Y-6.917 E0.98856
G1 X10.066 Y-6.62 E1.05655
G1 X10.736 Y-6.251 E1.13669
G1 X10.858 Y-6.181 E1.15143
G1 X11.452 Y-5.826 E1.22393
G1 X11.797 Y-5.606 E1.26679
G1 X12.454 Y-5.155 E1.35029
G1 X12.571 Y-5.072 E1.36531
G1 X13.001 Y-4.755 E1.42128
G1 X13.117 Y-4.666 E1.4366
G1 X13.904 Y-4.043 E1.54176
G1 X14.196 Y-3.797 E1.58177
G1 X14.759 Y-3.296 E1.66072
G1 X15.031 Y-3.037 E1.70007
G1 X16.022 Y-2.023 E1.84862
G1 X16.454 Y-1.538 E1.91667
G1 X16.546 Y-1.429 E1.93161
G1 X17.187 Y-.644 E2.03779
G1 X17.399 Y-.367 E2.07434
G1 X17.705 Y0.05 E2.12853
G1 X17.82 Y0.214 E2.14951
G1 X18.517 Y1.266 E2.28173
G1 X18.958 Y2.009 E2.37225
G1 X19.019 Y2.118 E2.38534
G1 X19.403 Y2.831 E2.47018
G1 X19.613 Y3.25 E2.51928
G1 X19.868 Y3.79 E2.58185
G1 X19.94 Y3.951 E2.60033
G1 X20.27 Y4.732 E2.68916
G1 X20.392 Y5.05 E2.72484
G1 X20.852 Y6.391 E2.87337
G1 X21.016 Y6.946 E2.93401
G1 X21.347 Y8.292 E3.07923
G1 X21.417 Y8.626 E3.11498
G1 X21.557 Y9.409 E3.19832
G1 X21.578 Y9.538 E3.21201
G1 X21.67 Y10.162 E3.27809
G1 X21.729 Y10.678 E3.33251
G1 X21.775 Y11.233 E3.39085
G1 X21.831 Y12.342 E3.50719
G1 X21.84 Y12.879 E3.56346
G1 X21.831 Y13.565 E3.63534
G1 X21.827 Y13.701 E3.64959
G1 X21.797 Y14.365 E3.71923
G1 X21.767 Y14.762 E3.76094
G1 X21.653 Y15.787 E3.86899
G1 X21.567 Y16.377 E3.93146
G1 X21.407 Y17.276 E4.02713
G1 X21.282 Y17.868 E4.09052
G1 X21.134 Y18.47 E4.15547
G1 X20.965 Y19.074 E4.22118
G1 X20.64 Y20.116 E4.33554
G1 X19.853 Y22.767 E4.62526
G1 X19.152 Y25.399 E4.91063
G1 X18.535 Y28.011 E5.19181
G1 X17.977 Y30.708 E5.48036
G1 X17.513 Y33.333 E5.75965
G1 X17.114 Y36.023 E6.04456
G1 X16.797 Y38.685 E6.32543
G1 X16.549 Y41.413 E6.61242
G1 X16.381 Y44.098 E6.89427
G1 X16.289 Y46.826 E7.18024
G1 X16.273 Y49.515 E7.46197
G1 X16.387 Y53.469 E7.87641
G1 X16.412 Y54.161 E7.94895
G1 X16.413 Y54.3 E7.96352
G1 X16.402 Y55.053 E8.04242
G1 X16.379 Y55.535 E8.09297
G1 X16.316 Y56.353 E8.17893
G1 X16.265 Y56.818 E8.22794
G1 X16.149 Y57.641 E8.31501
G1 X16.055 Y58.177 E8.37203
G1 X15.883 Y59.003 E8.46042
G1 X15.773 Y59.453 E8.50896
G1 X15.534 Y60.312 E8.60237
G1 X15.453 Y60.57 E8.63071
G1 X15.095 Y61.599 E8.74485
G1 X14.962 Y61.945 E8.78369
G1 X14.624 Y62.745 E8.87468
G1 X14.395 Y63.241 E8.93191
G1 X14.095 Y63.844 E9.00248
G1 X13.852 Y64.295 E9.05615
G1 X13.417 Y65.044 E9.1469
G1 X13.163 Y65.449 E9.19698
G1 X12.643 Y66.224 E9.29476
G1 X12.454 Y66.484 E9.32844
G1 X11.923 Y67.178 E9.41999
G1 X11.612 Y67.558 E9.47144
G1 X11.005 Y68.251 E9.56796
G1 X10.703 Y68.574 E9.61428
G1 X10.059 Y69.215 E9.70948
G1 X9.77 Y69.486 E9.75099
G1 X9.12 Y70.056 E9.84156
G1 X8.772 Y70.342 E9.88876
G1 X8.097 Y70.865 E9.97822
G1 X7.726 Y71.133 E10.02617
G1 X7.055 Y71.587 E10.11105
G1 X6.61 Y71.867 E10.16613
G1 X5.789 Y72.347 E10.26577
G1 X5.472 Y72.516 E10.30341
G1 X4.707 Y72.9 E10.39309
G1 X4.284 Y73.095 E10.44189
G1 X3.549 Y73.408 E10.52558
G1 X3.072 Y73.593 E10.57919
G1 X2.295 Y73.866 E10.66547
G1 X1.86 Y74.004 E10.71328
G1 X0.998 Y74.245 E10.80706
G1 X0.543 Y74.356 E10.85613
G1 X-.239 Y74.523 E10.9399
G1 X-.693 Y74.604 E10.98822
G1 X-1.568 Y74.732 E11.08087
G1 X-2.045 Y74.786 E11.13116
G1 X-2.871 Y74.853 E11.21799
G1 X-3.342 Y74.876 E11.26739
G1 X-4.3 Y74.892 E11.36778
G1 X-4.655 Y74.884 E11.40498
G1 X-5.474 Y74.846 E11.49088
G1 X-5.957 Y74.808 E11.54164
G1 X-6.728 Y74.723 E11.6229
G1 X-7.228 Y74.653 E11.6758
G1 X-8.059 Y74.507 E11.7642
G1 X-8.569 Y74.401 E11.81877
G1 X-9.316 Y74.22 E11.8993
G1 X-9.747 Y74.102 E11.94612
G1 X-10.614 Y73.833 E12.04122
G1 X-11.077 Y73.673 E12.09254
G1 X-11.827 Y73.386 E12.17668
G1 X-12.218 Y73.22 E12.22118
G1 X-13.107 Y72.813 E12.32362
G1 X-13.51 Y72.612 E12.3708
G1 X-14.217 Y72.23 E12.45499
G1 X-14.664 Y71.968 E12.50928
G1 X-15.369 Y71.527 E12.5964
G1 X-15.754 Y71.269 E12.64496
G1 X-16.459 Y70.76 E12.73606
G1 X-16.841 Y70.464 E12.78669
G1 X-17.441 Y69.971 E12.86805
G1 X-17.836 Y69.624 E12.92313
G1 X-18.418 Y69.08 E13.0066
G1 X-18.779 Y68.719 E13.06009
G1 X-19.348 Y68.114 E13.1471
G1 X-19.706 Y67.706 E13.20397
G1 X-20.148 Y67.173 E13.27652
G1 X-20.47 Y66.759 E13.33146
G1 X-20.951 Y66.096 E13.41728
G1 X-21.232 Y65.681 E13.46979
G1 X-21.694 Y64.949 E13.56048
G1 X-21.925 Y64.554 E13.60842
G1 X-22.403 Y63.673 E13.71343
G1 X-22.566 Y63.344 E13.7519
G1 X-22.95 Y62.508 E13.84829
G1 X-23.092 Y62.167 E13.88699
G1 X-23.402 Y61.368 E13.97678
G1 X-23.546 Y60.957 E14.0224
G1 X-23.8 Y60.151 E14.11094
G1 X-23.933 Y59.677 E14.16252
G1 X-24.135 Y58.858 E14.2509
G1 X-24.23 Y58.406 E14.29929
G1 X-24.382 Y57.556 E14.38975
G1 X-24.452 Y57.08 E14.44016
G1 X-24.542 Y56.282 E14.5243
G1 X-24.58 Y55.821 E14.57276
G1 X-24.624 Y54.918 E14.66748
G1 X-24.633 Y54.438 E14.71778
G1 X-24.623 Y53.72 E14.79301
G1 X-24.599 Y53.2 E14.84755
G1 X-24.535 Y52.366 E14.93518
G1 X-24.485 Y51.921 E14.9821
G1 X-24.369 Y51.098 E15.06917
G1 X-24.274 Y50.559 E15.12652
G1 X-24.016 Y49.326 E15.25849
G1 X-23.569 Y47.353 E15.47044
G1 X-23.04 Y44.67 E15.75695
G1 X-22.597 Y42.038 E16.03658
G1 X-22.218 Y39.308 E16.32535
G1 X-21.927 Y36.664 E16.60403
G1 X-21.703 Y33.938 E16.89059
G1 X-21.561 Y31.254 E17.17219
G1 X-21.492 Y28.522 E17.45851
G1 X-21.501 Y25.829 E17.74065
G1 X-21.587 Y23.105 E18.02619
G1 X-21.749 Y20.412 E18.30884
G1 X-21.986 Y17.732 E18.59072
G1 X-22.293 Y14.982 E18.88063
G1 X-22.327 Y14.529 E18.92822
G1 X-22.38 Y13.291 E19.05804
G1 X-22.383 Y13.035 E19.08487
G1 X-22.366 Y12.063 E19.18672
G1 X-22.347 Y11.655 E19.22951
G1 X-22.27 Y10.685 E19.33146
G1 X-22.212 Y10.161 E19.38669
G1 X-22.198 Y10.049 E19.39852
G1 X-22.1 Y9.36 E19.47143
G1 X-22.049 Y9.073 E19.50197
G1 X-21.749 Y7.668 E19.65249
G1 X-21.68 Y7.387 E19.6828
G1 X-21.475 Y6.653 E19.76265
G1 X-21.286 Y6.047 E19.82915
G1 X-21.024 Y5.281 E19.91397
G1 X-20.852 Y4.824 E19.96513
G1 X-20.508 Y3.998 E20.05887
G1 X-20.294 Y3.533 E20.1125
G1 X-19.918 Y2.768 E20.20181
G1 X-19.65 Y2.269 E20.26115
G1 X-19.123 Y1.366 E20.37069
G1 X-18.974 Y1.131 E20.39985
G1 X-18.294 Y0.116 E20.52785
G1 X-18.139 Y-.1 E20.5557
G1 X-17.571 Y-.843 E20.65368
G1 X-17.237 Y-1.253 E20.70909
G1 X-16.463 Y-2.137 E20.83219
G1 X-16.29 Y-2.322 E20.85872
G1 X-15.783 Y-2.839 E20.93459
G1 X-15.468 Y-3.138 E20.98009
G1 X-14.42 Y-4.067 E21.12682
G1 X-13.936 Y-4.458 E21.19201
G1 X-13.833 Y-4.537 E21.20561
G1 X-13.043 Y-5.124 E21.30872
G1 X-12.916 Y-5.215 E21.32509
G1 X-12.442 Y-5.541 E21.38536
G1 X-12.198 Y-5.697 E21.41571
G1 X-11.017 Y-6.396 E21.55949
G1 X-10.793 Y-6.52 E21.58631
G1 X-9.897 Y-6.98 E21.69183
G1 X-9.462 Y-7.187 E21.7423
G1 X-8.817 Y-7.472 E21.81618
G1 X-8.289 Y-7.683 E21.87576
G1 X-7.42 Y-8.003 E21.97278
G1 X-6.965 Y-8.151 E22.02291
G1 X-6.196 Y-8.381 E22.107
G1 X-5.698 Y-8.509 E22.16087
G1 X-4.521 Y-8.773 E22.28725
G1 X-3.865 Y-8.893 E22.35712
G1 X-3.717 Y-8.916 E22.37281
G1 X-2.897 Y-9.024 E22.45946
G1 X-2.726 Y-9.043 E22.47749
G1 X-1.668 Y-9.139 E22.58879
G1 X-1.404 Y-9.154 E22.61649
G1 X-.192 Y-9.187 E22.74352
G1 X0.4 Y-9.179 E22.80555
G0 F600 X0.363 Y-8.34
G1 F300 X0.929 Y-8.315 E22.86491
G1 X1.12 Y-8.301 E22.88497
G1 X2.524 Y-8.16 E23.03281
G1 X2.718 Y-8.135 E23.0533
G1 X3.354 Y-8.034 E23.12077
G1 X4.119 Y-7.889 E23.20234
G1 X4.321 Y-7.844 E23.22403
G1 X5.38 Y-7.574 E23.33853
G1 X5.507 Y-7.539 E23.35233
G1 X6.236 Y-7.323 E23.43199
G1 X6.583 Y-7.208 E23.47029
G1 X7.695 Y-6.797 E23.59449
G1 X7.998 Y-6.674 E23.62876
G1 X8.648 Y-6.389 E23.70311
G1 X9.106 Y-6.169 E23.75635
G1 X9.661 Y-5.884 E23.82171
G1 X10.331 Y-5.515 E23.90185
G1 X10.429 Y-5.459 E23.91368
G1 X11.007 Y-5.114 E23.9842
G1 X11.322 Y-4.914 E24.02329
G1 X11.979 Y-4.463 E24.10678
G1 X12.502 Y-4.079 E24.17476
G1 X12.596 Y-4.008 E24.1871
G1 X13.383 Y-3.385 E24.29226
G1 X13.638 Y-3.17 E24.32721
G1 X14.201 Y-2.669 E24.40617
G1 X14.43 Y-2.449 E24.43944
G1 X15.421 Y-1.435 E24.58798
G1 X15.822 Y-.985 E24.65113
G1 X16.467 Y-.199 E24.75766
G1 X16.722 Y0.13 E24.80127
G1 X17.028 Y0.547 E24.85546
G1 X17.12 Y0.678 E24.87223
G1 X17.748 Y1.624 E24.99119
G1 X18.231 Y2.43 E25.08964
G1 X18.61 Y3.128 E25.17285
G1 X18.854 Y3.609 E25.22936
G1 X19.109 Y4.149 E25.29193
G1 X19.166 Y4.278 E25.3067
G1 X19.542 Y5.172 E25.40831
G1 X19.597 Y5.322 E25.42505
G1 X20.057 Y6.663 E25.57358
G1 X20.2 Y7.148 E25.62656
G1 X20.527 Y8.475 E25.76975
G1 X20.591 Y8.774 E25.80178
G1 X20.731 Y9.557 E25.88512
G1 X20.839 Y10.284 E25.96212
G1 X20.902 Y10.852 E26.022
G1 X20.936 Y11.276 E26.06656
G1 X20.992 Y12.385 E26.1829
G1 X21 Y12.868 E26.23351
G1 X20.988 Y13.663 E26.31681
G1 X20.953 Y14.404 E26.39453
G1 X20.932 Y14.669 E26.42238
G1 X20.818 Y15.694 E26.53043
G1 X20.74 Y16.23 E26.58718
G1 X20.559 Y17.238 E26.69448
G1 X20.35 Y18.146 E26.79209
G1 X20.195 Y18.715 E26.85388
G1 X20.163 Y18.824 E26.86578
G1 X19.835 Y19.877 E26.98133
G1 X19.039 Y22.556 E27.27414
G1 X18.335 Y25.201 E27.5609
G1 X17.715 Y27.826 E27.84349
G1 X17.156 Y30.53 E28.13277
G1 X16.682 Y33.208 E28.41771
G1 X16.282 Y35.905 E28.70336
G1 X15.959 Y38.618 E28.98961
G1 X15.71 Y41.355 E29.27755
G1 X15.542 Y44.054 E29.56087
G1 X15.449 Y46.792 E29.84789
G1 X15.433 Y49.505 E30.13214
G1 X15.55 Y53.535 E30.55453
G1 X15.572 Y54.176 E30.62173
G1 X15.573 Y54.288 E30.63347
G1 X15.562 Y55.041 E30.71237
G1 X15.542 Y55.471 E30.75746
G1 X15.479 Y56.289 E30.84342
G1 X15.434 Y56.7 E30.88674
G1 X15.318 Y57.523 E30.97382
G1 X15.232 Y58.006 E31.02521
G1 X15.06 Y58.832 E31.11361
G1 X14.964 Y59.228 E31.1563
G1 X14.725 Y60.087 E31.24972
G1 X14.66 Y60.294 E31.27245
G1 X14.302 Y61.323 E31.38659
G1 X14.188 Y61.618 E31.41973
G1 X13.85 Y62.418 E31.51072
G1 X13.643 Y62.866 E31.56242
G1 X13.293 Y63.567 E31.64451
G1 X13.125 Y63.874 E31.68118
G1 X12.69 Y64.623 E31.77192
G1 X12.465 Y64.982 E31.81631
G1 X11.959 Y65.736 E31.91145
G1 X11.787 Y65.973 E31.94213
G1 X11.256 Y66.667 E32.03368
G1 X10.98 Y67.004 E32.07932
G1 X10.304 Y67.774 E32.18667
G1 X10.109 Y67.979 E32.21631
G1 X9.479 Y68.607 E32.30951
G1 X9.216 Y68.854 E32.34731
G1 X8.566 Y69.424 E32.43788
G1 X8.258 Y69.678 E32.47971
G1 X7.583 Y70.201 E32.56917
G1 X7.256 Y70.438 E32.61148
G1 X6.585 Y70.892 E32.69636
G1 X6.185 Y71.143 E32.74584
G1 X5.481 Y71.556 E32.83135
G1 X5.095 Y71.766 E32.87739
G1 X4.33 Y72.15 E32.96707
G1 X3.955 Y72.323 E33.01034
G1 X3.22 Y72.636 E33.09404
G1 X2.794 Y72.801 E33.1419
G1 X2.017 Y73.074 E33.22818
G1 X1.634 Y73.195 E33.27026
G1 X0.772 Y73.436 E33.36404
G1 X0.367 Y73.535 E33.40772
G1 X-.415 Y73.702 E33.4915
G1 X-.815 Y73.773 E33.53406
G1 X-1.69 Y73.901 E33.62671
G1 X-2.112 Y73.949 E33.67121
G1 X-2.938 Y74.016 E33.75803
G1 X-3.358 Y74.036 E33.80208
G1 X-4.288 Y74.052 E33.89953
G1 X-4.617 Y74.045 E33.93401
G1 X-5.436 Y74.007 E34.01991
G1 X-5.865 Y73.973 E34.065
G1 X-6.732 Y73.876 E34.1564
G1 X-7.083 Y73.825 E34.19356
G1 X-8.009 Y73.661 E34.29208
G1 X-8.371 Y73.585 E34.33084
G1 X-9.118 Y73.404 E34.41136
G1 X-9.498 Y73.299 E34.45267
G1 X-10.467 Y72.997 E34.55901
G1 X-10.777 Y72.888 E34.59343
G1 X-11.527 Y72.601 E34.67757
G1 X-11.869 Y72.457 E34.71645
G1 X-12.758 Y72.05 E34.81888
G1 X-13.111 Y71.873 E34.86026
G1 X-13.818 Y71.491 E34.94445
G1 X-14.219 Y71.255 E34.9932
G1 X-15.007 Y70.761 E35.09064
G1 X-15.262 Y70.588 E35.12292
G1 X-15.967 Y70.079 E35.21402
G1 X-16.308 Y69.815 E35.2592
G1 X-16.908 Y69.322 E35.34056
G1 X-17.262 Y69.01 E35.39
G1 X-17.935 Y68.379 E35.48666
G1 X-18.167 Y68.143 E35.52133
G1 X-18.736 Y67.538 E35.60834
G1 X-19.06 Y67.17 E35.65971
G1 X-19.502 Y66.637 E35.73226
G1 X-19.79 Y66.265 E35.78155
G1 X-20.271 Y65.602 E35.86736
G1 X-20.522 Y65.232 E35.91421
G1 X-20.984 Y64.5 E36.00489
G1 X-21.187 Y64.152 E36.0471
G1 X-21.654 Y63.292 E36.14963
G1 X-21.804 Y62.992 E36.18477
G1 X-22.131 Y62.283 E36.26658
G1 X-22.308 Y61.863 E36.31433
G1 X-22.655 Y60.966 E36.41509
G1 X-22.745 Y60.705 E36.44402
G1 X-22.999 Y59.899 E36.53255
G1 X-23.117 Y59.476 E36.57856
G1 X-23.347 Y58.537 E36.67985
G1 X-23.404 Y58.258 E36.70968
G1 X-23.556 Y57.408 E36.80015
G1 X-23.617 Y56.986 E36.84482
G1 X-23.717 Y56.09 E36.93928
G1 X-23.741 Y55.78 E36.97186
G1 X-23.785 Y54.877 E37.06657
G1 X-23.793 Y54.449 E37.11142
G1 X-23.783 Y53.731 E37.18666
G1 X-23.761 Y53.264 E37.23564
G1 X-23.697 Y52.43 E37.32327
G1 X-23.654 Y52.039 E37.36448
G1 X-23.538 Y51.216 E37.45156
G1 X-23.452 Y50.731 E37.50317
G1 X-23.196 Y49.511 E37.63377
G1 X-22.745 Y47.522 E37.84745
G1 X-22.221 Y44.862 E38.13149
G1 X-21.759 Y42.115 E38.42333
G1 X-21.388 Y39.446 E38.70565
G1 X-21.091 Y36.752 E38.98961
G1 X-20.864 Y33.982 E39.28079
G1 X-20.721 Y31.285 E39.56375
G1 X-20.652 Y28.54 E39.85144
G1 X-20.661 Y25.8 E40.13851
G1 X-20.746 Y23.098 E40.42173
G1 X-20.911 Y20.358 E40.70932
G1 X-21.154 Y17.61 E40.99835
G1 X-21.459 Y14.888 E41.28532
G1 X-21.488 Y14.493 E41.32681
G1 X-21.541 Y13.255 E41.45664
G1 X-21.543 Y13.049 E41.47822
G1 X-21.523 Y11.972 E41.59108
G1 X-21.509 Y11.721 E41.61741
G1 X-21.432 Y10.751 E41.71936
G1 X-21.366 Y10.167 E41.78094
G1 X-21.268 Y9.478 E41.85385
G1 X-21.227 Y9.248 E41.87832
G1 X-20.93 Y7.855 E42.02755
G1 X-20.871 Y7.611 E42.05385
G1 X-20.704 Y7.008 E42.1194
G1 X-20.673 Y6.903 E42.13087
G1 X-20.453 Y6.202 E42.20785
G1 X-20.198 Y5.464 E42.28965
G1 X-20.076 Y5.147 E42.32524
G1 X-19.732 Y4.321 E42.41899
G1 X-19.54 Y3.903 E42.46718
G1 X-19.164 Y3.138 E42.55648
G1 X-18.924 Y2.692 E42.60955
G1 X-18.408 Y1.807 E42.71688
G1 X-18.276 Y1.598 E42.74278
G1 X-17.596 Y0.583 E42.87078
G1 X-17.472 Y0.41 E42.89308
G1 X-16.839 Y-.416 E43.0021
G1 X-16.605 Y-.7 E43.04066
G1 X-15.845 Y-1.568 E43.16153
G1 X-15.69 Y-1.734 E43.18533
G1 X-15.183 Y-2.251 E43.26119
G1 X-14.911 Y-2.509 E43.30047
G1 X-13.863 Y-3.438 E43.4472
G1 X-13.414 Y-3.8 E43.50762
G1 X-13.332 Y-3.863 E43.51846
G1 X-12.542 Y-4.45 E43.62157
G1 X-12.44 Y-4.523 E43.63471
G1 X-11.966 Y-4.849 E43.69498
G1 X-11.77 Y-4.974 E43.71934
G1 X-10.589 Y-5.673 E43.86312
G1 X-10.409 Y-5.772 E43.88464
G1 X-9.513 Y-6.232 E43.99017
G1 X-9.122 Y-6.418 E44.03553
G1 X-8.477 Y-6.703 E44.10941
G1 X-7.982 Y-6.901 E44.16526
G1 X-7.131 Y-7.214 E44.26026
G1 X-6.724 Y-7.347 E44.30512
G1 X-5.955 Y-7.577 E44.38922
G1 X-5.515 Y-7.689 E44.43678
G1 X-4.338 Y-7.953 E44.56316
G1 X-3.726 Y-8.065 E44.62835
G1 X-3.608 Y-8.083 E44.64085
G1 X-2.788 Y-8.191 E44.7275
G1 X-2.65 Y-8.206 E44.74205
G1 X-1.592 Y-8.302 E44.85335
G1 X-1.38 Y-8.315 E44.8756
G1 X-.289 Y-8.346 E44.98995
G1 X0.363 Y-8.34 E45.05826
G1 F2400 E39.05826
;MESH:AKP_cap_Inset_x0,77_v03_PETG_05nz_0h48m_v01.3mf
G0 F600 X-1.651 Y-3.6
G0 X-11.105 Y0.474
G0 X-11.17 Y0.399
;TYPE:WALL-INNER
G1 F2400 E45.05826
G1 F300 X-10.428 Y-.207 E45.15864
G1 X-10.288 Y-.315 E45.17716
G1 X-9.512 Y-.869 E45.27705
G1 X-8.571 Y-1.453 E45.39309
G1 X-8.502 Y-1.492 E45.40139
G1 X-7.733 Y-1.906 E45.49289
G1 X-7.632 Y-1.955 E45.50465
G1 X-6.736 Y-2.366 E45.60793
G1 X-6.66 Y-2.398 E45.61657
G1 X-5.729 Y-2.754 E45.721
G1 X-5.586 Y-2.801 E45.73677
G1 X-4.767 Y-3.058 E45.8267
G1 X-4.672 Y-3.083 E45.83699
G1 X-3.713 Y-3.317 E45.94041
G1 X-2.661 Y-3.504 E46.05236
G1 X-2.609 Y-3.512 E46.05787
G1 X-1.652 Y-3.619 E46.15876
G1 X-1.524 Y-3.629 E46.17221
G1 X-.582 Y-3.674 E46.27102
G1 X-.503 Y-3.675 E46.27929
G1 X0.363 Y-3.662 E46.37003
