;FLAVOR:Marlin
;TIME:4166
;Filament used: 5.44589m
;Layer height: 0.3
;MINX:-44.447
;MINY:-75.807
;MINZ:0.3
;MAXX:19.254
;MAXY:62.381
;MAXZ:15
;Generated with Cura_SteamEngine 4.10.0
M140 S30
M105
M190 S30
M104 S237
M105
M109 S237
M82 ;absolute extrusion mode
G21        ;metric values
G90        ;absolute positioning
M107       ;start with the fan off
G28   ;move to endstops

;Z-Offset Reset und dann Z +0,1 für PLA
;MacroZOffset0
;MacroZOffsetPlus0100

G92 E0                  ;zero the extruded length
G1 F200 E3              ;extrude 3mm of feed stock
G92 E0                  ;zero the extruded length again
G1 F120
;Put printing message on LCD screen
M117 Printing...
G92 E0
G92 E0
G1 F2400 E-6
;LAYER_COUNT:50
;LAYER:0
M106 S127.5
G0 F600 X12.989 Y-1.847 Z0.3
;TYPE:SKIRT
G1 F2400 E0
G1 F300 X13.548 Y0.812 E0.28467
G1 X14.175 Y3.429 E0.56661
G1 X14.88 Y6.036 E0.84956
G1 X15.668 Y8.657 E1.1363
G1 X16.517 Y11.216 E1.41878
G1 X17.234 Y13.187 E1.63851
G1 X17.709 Y14.562 E1.79093
G1 X17.955 Y15.318 E1.87422
G1 X18.137 Y15.904 E1.93851
G1 X18.206 Y16.151 E1.96538
G1 X18.447 Y17.136 E2.07162
G1 X18.624 Y17.914 E2.15521
G1 X18.747 Y18.491 E2.21702
G1 X18.793 Y18.741 E2.24365
G1 X18.95 Y19.781 E2.35385
G1 X19.048 Y20.523 E2.43226
G1 X19.122 Y21.135 E2.49685
G1 X19.146 Y21.398 E2.52452
G1 X19.205 Y22.426 E2.6324
G1 X19.237 Y23.175 E2.71094
G1 X19.254 Y23.816 E2.77812
G1 X19.253 Y24.067 E2.80442
G1 X19.219 Y25.1 E2.91271
G1 X19.181 Y25.843 E2.99065
G1 X19.14 Y26.484 E3.05795
G1 X19.116 Y26.74 E3.08488
G1 X18.988 Y27.76 E3.19259
G1 X18.886 Y28.48 E3.26877
G1 X18.784 Y29.132 E3.33791
G1 X18.737 Y29.384 E3.36477
G1 X18.518 Y30.379 E3.47151
G1 X18.345 Y31.112 E3.55042
G1 X18.188 Y31.733 E3.61753
G1 X18.12 Y31.973 E3.64366
G1 X17.813 Y32.942 E3.75016
G1 X17.565 Y33.677 E3.83143
G1 X17.355 Y34.276 E3.89793
G1 X17.261 Y34.519 E3.92523
G1 X16.891 Y35.398 E4.02515
G1 X16.558 Y36.154 E4.11169
G1 X16.295 Y36.729 E4.17794
G1 X16.181 Y36.959 E4.20483
G1 X15.728 Y37.809 E4.30575
G1 X15.304 Y38.572 E4.3972
G1 X15.032 Y39.046 E4.45445
G1 X14.9 Y39.261 E4.48089
G1 X14.31 Y40.159 E4.59346
G1 X13.891 Y40.775 E4.67151
G1 X13.534 Y41.284 E4.73665
G1 X13.379 Y41.491 E4.76374
G1 X12.762 Y42.266 E4.86753
G1 X12.237 Y42.903 E4.95401
G1 X11.857 Y43.351 E5.01556
G1 X11.686 Y43.54 E5.04226
G1 X10.972 Y44.285 E5.15037
G1 X10.425 Y44.837 E5.23179
G1 X10.006 Y45.248 E5.29328
G1 X9.822 Y45.419 E5.3196
G1 X9 Y46.134 E5.43374
G1 X8.405 Y46.633 E5.5151
G1 X7.929 Y47.021 E5.57944
G1 X7.727 Y47.176 E5.60612
G1 X6.943 Y47.74 E5.7073
G1 X6.311 Y48.178 E5.78786
G1 X5.585 Y48.666 E5.87951
G1 X5.196 Y48.913 E5.92779
G1 X2.906 Y50.41 E6.21443
G1 X0.691 Y51.949 E6.49701
G1 X-1.475 Y53.547 E6.77901
G1 X-3.643 Y55.244 E7.06746
G1 X-5.704 Y56.952 E7.3479
G1 X-7.745 Y58.745 E7.63253
G1 X-9.196 Y60.086 E7.83953
G1 X-9.689 Y60.489 E7.90625
G1 X-10.24 Y60.877 E7.97685
G1 X-10.608 Y61.122 E8.02317
G1 X-11.275 Y61.482 E8.10258
G1 X-11.881 Y61.742 E8.17167
G1 X-12.299 Y61.908 E8.21879
G1 X-12.992 Y62.112 E8.29447
G1 X-13.631 Y62.243 E8.36281
G1 X-14.076 Y62.321 E8.41015
G1 X-14.813 Y62.381 E8.48762
G1 X-15.498 Y62.377 E8.55938
G1 X-15.923 Y62.363 E8.60394
G1 X-16.647 Y62.273 E8.68037
G1 X-17.258 Y62.143 E8.74582
G1 X-17.74 Y62.024 E8.79783
G1 X-18.425 Y61.789 E8.87371
G1 X-19.033 Y61.52 E8.94336
G1 X-19.439 Y61.325 E8.99055
G1 X-20.062 Y60.953 E9.06657
G1 X-20.611 Y60.558 E9.13743
G1 X-20.957 Y60.294 E9.18303
G1 X-21.497 Y59.796 E9.25999
G1 X-21.951 Y59.299 E9.33052
G1 X-22.405 Y58.762 E9.40419
G1 X-22.886 Y58.131 E9.48732
G1 X-24.556 Y56.003 E9.77072
G1 X-26.278 Y53.931 E10.05299
G1 X-28.102 Y51.859 E10.3422
G1 X-29.902 Y49.927 E10.61885
G1 X-31.822 Y47.981 E10.90526
G1 X-33.791 Y46.094 E11.19099
G1 X-34.403 Y45.54 E11.27748
G1 X-35.074 Y44.915 E11.37355
G1 X-35.873 Y44.126 E11.4912
G1 X-36.445 Y43.541 E11.57692
G1 X-36.894 Y43.068 E11.64525
G1 X-37.062 Y42.88 E11.67166
G1 X-37.69 Y42.134 E11.77383
G1 X-38.207 Y41.498 E11.8597
G1 X-38.572 Y41.037 E11.9213
G1 X-38.727 Y40.829 E11.94848
G1 X-39.304 Y40 E12.0543
G1 X-39.711 Y39.394 E12.13078
G1 X-40.081 Y38.828 E12.20163
G1 X-40.217 Y38.605 E12.22899
G1 X-40.69 Y37.773 E12.32926
G1 X-41.053 Y37.109 E12.40855
G1 X-41.364 Y36.524 E12.47796
G1 X-41.48 Y36.289 E12.50542
G1 X-41.895 Y35.377 E12.61039
G1 X-42.188 Y34.703 E12.68739
G1 X-42.439 Y34.104 E12.75544
G1 X-42.53 Y33.869 E12.78184
G1 X-42.866 Y32.91 E12.8883
G1 X-43.111 Y32.169 E12.97007
G1 X-43.297 Y31.577 E13.03508
G1 X-43.364 Y31.341 E13.06078
G1 X-43.595 Y30.422 E13.16006
G1 X-43.784 Y29.607 E13.24771
G1 X-43.913 Y29.021 E13.31058
G1 X-43.962 Y28.764 E13.33799
G1 X-44.116 Y27.778 E13.44255
G1 X-44.222 Y27.01 E13.52377
G1 X-44.298 Y26.405 E13.58765
G1 X-44.322 Y26.152 E13.61428
G1 X-44.389 Y25.119 E13.72273
G1 X-44.426 Y24.36 E13.80235
G1 X-44.446 Y23.749 E13.8664
G1 X-44.447 Y23.503 E13.89217
G1 X-44.42 Y22.471 E14.00033
G1 X-44.389 Y21.751 E14.07583
G1 X-44.351 Y21.082 E14.14604
G1 X-44.329 Y20.832 E14.17233
G1 X-44.219 Y19.883 E14.27242
G1 X-44.112 Y19.087 E14.35657
G1 X-44.02 Y18.468 E14.42213
G1 X-43.975 Y18.219 E14.44864
G1 X-43.765 Y17.223 E14.55529
G1 X-43.595 Y16.479 E14.63525
G1 X-43.448 Y15.875 E14.70037
G1 X-43.383 Y15.637 E14.72622
G1 X-43.091 Y14.685 E14.83055
G1 X-42.843 Y13.924 E14.91441
G1 X-42.654 Y13.367 E14.97603
G1 X-42.564 Y13.126 E15.00298
G1 X-42.188 Y12.207 E15.10701
G1 X-41.89 Y11.513 E15.18614
G1 X-41.628 Y10.925 E15.25359
G1 X-41.518 Y10.697 E15.28011
G1 X-41.029 Y9.755 E15.39131
G1 X-40.675 Y9.104 E15.46894
G1 X-40.04 Y7.971 E15.60502
G1 X-39.211 Y6.54 E15.77829
G1 X-37.923 Y4.168 E16.06107
G1 X-36.689 Y1.733 E16.34707
G1 X-35.539 Y-.706 E16.62959
G1 X-34.446 Y-3.204 E16.91526
G1 X-33.435 Y-5.7 E17.1974
G1 X-32.496 Y-8.236 E17.48072
G1 X-31.622 Y-10.809 E17.76542
G1 X-30.83 Y-13.378 E18.04708
G1 X-30.098 Y-16.014 E18.3337
G1 X-29.452 Y-18.621 E18.61509
G1 X-28.865 Y-21.306 E18.90304
G1 X-28.375 Y-23.922 E19.18189
G1 X-27.946 Y-26.621 E19.46821
G1 X-27.599 Y-29.285 E19.74967
G1 X-27.324 Y-31.991 E20.03464
G1 X-27.127 Y-34.688 E20.31795
G1 X-27.006 Y-37.415 E20.60394
G1 X-26.961 Y-40.315 E20.90781
G1 X-26.961 Y-57.911 E22.75133
G1 X-26.951 Y-58.607 E22.82426
G1 X-26.904 Y-59.23 E22.88972
G1 X-26.808 Y-59.915 E22.96218
G1 X-26.685 Y-60.485 E23.02328
G1 X-26.556 Y-60.861 E23.06493
G1 X-26.372 Y-61.328 E23.11751
G1 X-26.149 Y-61.848 E23.17679
G1 X-25.582 Y-63.071 E23.31803
G1 X-25.547 Y-63.158 E23.32785
G1 X-25.314 Y-63.647 E23.3846
G1 X-24.221 Y-66.129 E23.66874
G1 X-23.507 Y-67.859 E23.86482
G1 X-22.997 Y-69.128 E24.00811
G1 X-22.743 Y-69.653 E24.06921
G1 X-22.42 Y-70.139 E24.13035
G1 X-22.023 Y-70.593 E24.19353
G1 X-21.733 Y-70.891 E24.2371
G1 X-18.496 Y-74.128 E24.71671
G1 X-18.009 Y-74.599 E24.78769
G1 X-17.562 Y-74.975 E24.84889
G1 X-17.069 Y-75.287 E24.91002
G1 X-16.538 Y-75.528 E24.97111
G1 X-15.978 Y-75.694 E25.0323
G1 X-15.191 Y-75.795 E25.11543
G1 X-14.542 Y-75.807 E25.18344
G1 X-9.759 Y-75.807 E25.68455
G1 X-8.985 Y-75.795 E25.76565
G1 X-8.403 Y-75.746 E25.82685
G1 X-7.59 Y-75.538 E25.91477
G1 X-7.341 Y-75.446 E25.94258
G1 X-5.157 Y-74.604 E26.18781
G1 X-2.621 Y-73.707 E26.46964
G1 X0.003 Y-72.864 E26.75839
G1 X2.573 Y-72.116 E27.03882
G1 X5.192 Y-71.434 E27.32236
G1 X7.853 Y-70.821 E27.60846
G1 X9.888 Y-70.409 E27.82599
G1 X10.081 Y-70.366 E27.8467
G1 X10.64 Y-70.199 E27.90783
G1 X11.171 Y-69.956 E27.96901
G1 X11.663 Y-69.644 E28.03005
G1 X12.108 Y-69.266 E28.09122
G1 X12.498 Y-68.832 E28.15235
G1 X12.824 Y-68.349 E28.2134
G1 X13.082 Y-67.825 E28.27459
G1 X13.318 Y-67.041 E28.36037
G1 X13.51 Y-66.067 E28.46438
G1 X13.657 Y-65.265 E28.54981
G1 X14.232 Y-62.55 E28.84057
G1 X14.843 Y-60.013 E29.11397
G1 X15.283 Y-58.356 E29.29359
G1 X15.42 Y-57.857 E29.3478
G1 X15.456 Y-57.718 E29.36284
G1 X15.652 Y-56.895 E29.45148
G1 X15.715 Y-56.602 E29.48288
G1 X15.796 Y-56.024 E29.54403
G1 X15.792 Y-55.127 E29.63801
G1 X15.732 Y-54.322 E29.72258
G1 X15.648 Y-53.783 E29.77973
G1 X12.662 Y-36.847 E31.58147
G1 X12.235 Y-34.201 E31.86228
G1 X11.872 Y-31.477 E32.1502
G1 X11.594 Y-28.806 E32.43155
G1 X11.387 Y-26.08 E32.71797
G1 X11.261 Y-23.394 E32.99969
G1 X11.209 Y-20.7 E33.28199
G1 X11.236 Y-17.97 E33.56803
G1 X11.336 Y-15.277 E33.85037
G1 X11.516 Y-12.556 E34.13607
G1 X11.769 Y-9.873 E34.41841
G1 X12.098 Y-7.203 E34.70026
G1 X12.508 Y-4.502 E34.98648
G1 X12.989 Y-1.847 E35.26917
G0 F600 X12.161 Y-1.703
G1 F300 X12.728 Y0.994 E35.55791
G1 X13.355 Y3.614 E35.84016
G1 X14.074 Y6.275 E36.12895
G1 X14.862 Y8.897 E36.41579
G1 X15.72 Y11.481 E36.70105
G1 X16.44 Y13.461 E36.92178
G1 X16.91 Y14.822 E37.07264
G1 X17.153 Y15.568 E37.15484
G1 X17.335 Y16.154 E37.21913
G1 X17.39 Y16.351 E37.24055
G1 X17.628 Y17.322 E37.3453
G1 X17.803 Y18.089 E37.42772
G1 X17.926 Y18.666 E37.48953
G1 X17.962 Y18.867 E37.51092
G1 X18.117 Y19.892 E37.61953
G1 X18.214 Y20.623 E37.69679
G1 X18.288 Y21.235 E37.76138
G1 X18.307 Y21.447 E37.78368
G1 X18.366 Y22.462 E37.8902
G1 X18.397 Y23.197 E37.96727
G1 X18.414 Y23.838 E38.03445
G1 X18.413 Y24.039 E38.05551
G1 X18.38 Y25.058 E38.16233
G1 X18.343 Y25.789 E38.23901
G1 X18.302 Y26.43 E38.30631
G1 X18.283 Y26.636 E38.32798
G1 X18.156 Y27.643 E38.43432
G1 X18.056 Y28.351 E38.50923
G1 X17.954 Y29.003 E38.57837
G1 X17.916 Y29.205 E38.59991
G1 X17.701 Y30.187 E38.70523
G1 X17.531 Y30.906 E38.78263
G1 X17.374 Y31.527 E38.84974
G1 X17.319 Y31.72 E38.87077
G1 X17.017 Y32.674 E38.97561
G1 X16.772 Y33.399 E39.05579
G1 X16.562 Y33.998 E39.12229
G1 X16.487 Y34.194 E39.14427
G1 X16.144 Y35.009 E39.23692
G1 X15.794 Y35.805 E39.32802
G1 X15.531 Y36.38 E39.39426
G1 X15.44 Y36.564 E39.41577
G1 X14.993 Y37.401 E39.51518
G1 X14.575 Y38.154 E39.60541
G1 X14.303 Y38.628 E39.66267
G1 X14.197 Y38.801 E39.68393
G1 X13.616 Y39.687 E39.79493
G1 X13.203 Y40.293 E39.87176
G1 X12.846 Y40.802 E39.9369
G1 X12.722 Y40.968 E39.95861
G1 X12.113 Y41.732 E40.06097
G1 X11.596 Y42.359 E40.14611
G1 X11.216 Y42.807 E40.20766
G1 X11.079 Y42.959 E40.2291
G1 X10.375 Y43.694 E40.33573
G1 X9.837 Y44.238 E40.41589
G1 X9.418 Y44.649 E40.47738
G1 X9.27 Y44.785 E40.49844
G1 X8.46 Y45.49 E40.61094
G1 X7.874 Y45.982 E40.69111
G1 X7.398 Y46.37 E40.75545
G1 X7.236 Y46.494 E40.77682
G1 X6.463 Y47.05 E40.87658
G1 X5.842 Y47.482 E40.95584
G1 X5.135 Y47.957 E41.04508
G1 X4.728 Y48.215 E41.09556
G1 X2.448 Y49.706 E41.38098
G1 X0.188 Y51.276 E41.66929
G1 X-1.993 Y52.885 E41.95324
G1 X-4.159 Y54.58 E42.2414
G1 X-6.254 Y56.317 E42.52652
G1 X-8.295 Y58.11 E42.81115
G1 X-9.756 Y59.46 E43.01956
G1 X-10.173 Y59.802 E43.07606
G1 X-10.809 Y60.248 E43.15745
G1 X-11.071 Y60.421 E43.19034
G1 X-11.607 Y60.71 E43.25414
G1 X-12.213 Y60.97 E43.32323
G1 X-12.605 Y61.125 E43.36739
G1 X-13.161 Y61.289 E43.42812
G1 X-13.8 Y61.42 E43.49646
G1 X-14.217 Y61.493 E43.54082
G1 X-14.808 Y61.541 E43.60294
G1 X-15.493 Y61.537 E43.67471
G1 X-15.891 Y61.523 E43.71643
G1 X-16.472 Y61.451 E43.77777
G1 X-17.083 Y61.321 E43.84321
G1 X-17.535 Y61.21 E43.89198
G1 X-18.085 Y61.021 E43.95291
G1 X-18.693 Y60.752 E44.02256
G1 X-19.071 Y60.57 E44.06652
G1 X-19.571 Y60.271 E44.12755
G1 X-20.12 Y59.876 E44.19841
G1 X-20.443 Y59.629 E44.24101
G1 X-20.877 Y59.23 E44.30278
G1 X-21.331 Y58.733 E44.37331
G1 X-21.737 Y58.252 E44.43925
G1 X-22.189 Y57.659 E44.51737
G1 X-23.912 Y55.463 E44.80981
G1 X-25.647 Y53.377 E45.09407
G1 X-27.451 Y51.327 E45.38017
G1 X-29.317 Y49.323 E45.66705
G1 X-31.254 Y47.36 E45.95598
G1 X-33.188 Y45.507 E46.2366
G1 X-33.83 Y44.926 E46.32732
G1 X-34.501 Y44.301 E46.42339
G1 X-35.324 Y43.487 E46.54467
G1 X-35.877 Y42.92 E46.62765
G1 X-36.285 Y42.49 E46.68975
G1 X-36.42 Y42.339 E46.71097
G1 X-37.039 Y41.604 E46.81165
G1 X-37.548 Y40.977 E46.89626
G1 X-37.913 Y40.516 E46.95786
G1 X-38.038 Y40.349 E46.97972
G1 X-38.607 Y39.532 E47.08403
G1 X-39.008 Y38.934 E47.15946
G1 X-39.378 Y38.368 E47.23031
G1 X-39.487 Y38.189 E47.25226
G1 X-39.953 Y37.369 E47.35108
G1 X-40.312 Y36.714 E47.42933
G1 X-40.623 Y36.129 E47.49875
G1 X-40.716 Y35.941 E47.52072
G1 X-41.125 Y35.041 E47.62429
G1 X-41.413 Y34.379 E47.69993
G1 X-41.664 Y33.78 E47.76798
G1 X-41.737 Y33.59 E47.7893
G1 X-42.068 Y32.645 E47.8942
G1 X-42.31 Y31.917 E47.97458
G1 X-42.496 Y31.325 E48.03959
G1 X-42.549 Y31.136 E48.06016
G1 X-42.777 Y30.231 E48.15794
G1 X-42.964 Y29.426 E48.24452
G1 X-43.093 Y28.84 E48.30739
G1 X-43.132 Y28.634 E48.32935
G1 X-43.284 Y27.662 E48.43243
G1 X-43.388 Y26.905 E48.51248
G1 X-43.464 Y26.3 E48.57637
G1 X-43.484 Y26.097 E48.59774
G1 X-43.55 Y25.078 E48.70472
G1 X-43.586 Y24.333 E48.78287
G1 X-43.606 Y23.722 E48.84691
G1 X-43.607 Y23.524 E48.86766
G1 X-43.581 Y22.507 E48.97424
G1 X-43.55 Y21.799 E49.04849
G1 X-43.512 Y21.13 E49.1187
G1 X-43.495 Y20.929 E49.13983
G1 X-43.386 Y19.994 E49.23845
G1 X-43.281 Y19.21 E49.32132
G1 X-43.189 Y18.591 E49.38689
G1 X-43.153 Y18.391 E49.40818
G1 X-42.959 Y17.467 E49.5071
G1 X-42.779 Y16.677 E49.59199
G1 X-42.632 Y16.073 E49.65711
G1 X-42.58 Y15.883 E49.67775
G1 X-42.293 Y14.945 E49.78052
G1 X-42.048 Y14.194 E49.86329
G1 X-41.859 Y13.637 E49.92491
G1 X-41.786 Y13.443 E49.94663
G1 X-41.416 Y12.538 E50.04906
G1 X-41.123 Y11.855 E50.12693
G1 X-40.861 Y11.267 E50.19437
G1 X-40.773 Y11.084 E50.21564
G1 X-40.29 Y10.155 E50.32534
G1 X-39.943 Y9.514 E50.40171
G1 X-39.314 Y8.393 E50.53638
G1 X-38.475 Y6.946 E50.71162
G1 X-37.165 Y4.532 E50.99938
G1 X-35.938 Y2.111 E51.28374
G1 X-34.78 Y-.345 E51.56822
G1 X-33.683 Y-2.853 E51.85502
G1 X-32.64 Y-5.427 E52.14599
G1 X-31.701 Y-7.961 E52.42912
G1 X-30.827 Y-10.536 E52.71402
G1 X-30.018 Y-13.16 E53.0017
G1 X-29.294 Y-15.766 E53.28507
G1 X-28.629 Y-18.452 E53.57498
G1 X-28.048 Y-21.111 E53.86014
G1 X-27.541 Y-23.815 E54.14837
G1 X-27.116 Y-26.489 E54.43204
G1 X-26.763 Y-29.196 E54.71805
G1 X-26.489 Y-31.895 E55.00228
G1 X-26.289 Y-34.626 E55.28917
G1 X-26.167 Y-37.363 E55.57621
G1 X-26.121 Y-40.368 E55.89108
G1 X-26.121 Y-57.899 E57.72779
G1 X-26.111 Y-58.595 E57.80072
G1 X-26.068 Y-59.146 E57.85862
G1 X-25.977 Y-59.793 E57.92707
G1 X-25.862 Y-60.303 E57.98185
G1 X-25.775 Y-60.553 E58.00958
G1 X-25.55 Y-61.12 E58.07349
G1 X-25.387 Y-61.495 E58.11633
G1 X-24.829 Y-62.697 E58.25517
G1 X-24.788 Y-62.797 E58.26649
G1 X-24.565 Y-63.266 E58.3209
G1 X-23.434 Y-65.832 E58.6147
G1 X-22.743 Y-67.508 E58.80463
G1 X-22.218 Y-68.815 E58.9522
G1 X-21.986 Y-69.283 E59.00692
G1 X-21.55 Y-69.867 E59.08328
G1 X-21.165 Y-70.271 E59.14175
G1 X-17.912 Y-73.524 E59.62373
G1 X-17.425 Y-73.995 E59.69471
G1 X-17.022 Y-74.329 E59.74955
G1 X-16.574 Y-74.597 E59.80425
G1 X-16.09 Y-74.794 E59.85899
G1 X-15.581 Y-74.915 E59.91381
G1 X-15.014 Y-74.96 E59.9734
G1 X-14.532 Y-74.967 E60.0239
G1 X-9.706 Y-74.967 E60.52952
G1 X-8.998 Y-74.956 E60.60371
G1 X-8.477 Y-74.908 E60.65852
G1 X-7.878 Y-74.749 E60.72345
G1 X-7.643 Y-74.662 E60.74971
G1 X-5.441 Y-73.813 E60.99696
G1 X-2.893 Y-72.912 E61.28011
G1 X-.268 Y-72.068 E61.569
G1 X2.339 Y-71.31 E61.85344
G1 X5.004 Y-70.616 E62.14197
G1 X7.684 Y-69.999 E62.43009
G1 X9.798 Y-69.569 E62.65611
G1 X9.895 Y-69.547 E62.66653
G1 X10.395 Y-69.393 E62.72134
G1 X10.865 Y-69.165 E62.77607
G1 X11.295 Y-68.867 E62.83089
G1 X11.674 Y-68.508 E62.88558
G1 X11.994 Y-68.094 E62.9404
G1 X12.248 Y-67.637 E62.99518
G1 X12.429 Y-67.147 E63.04991
G1 X12.494 Y-66.878 E63.0789
G1 X12.684 Y-65.915 E63.18174
G1 X12.835 Y-65.09 E63.26961
G1 X13.405 Y-62.4 E63.5577
G1 X14.044 Y-59.749 E63.84339
G1 X14.469 Y-58.151 E64.01664
G1 X14.639 Y-57.523 E64.0848
G1 X14.835 Y-56.7 E64.17344
G1 X14.893 Y-56.428 E64.20257
G1 X14.962 Y-55.91 E64.25732
G1 X14.953 Y-55.15 E64.33695
G1 X14.9 Y-54.443 E64.41123
G1 X14.819 Y-53.921 E64.46658
G1 X11.835 Y-36.993 E66.26746
G1 X11.4 Y-34.302 E66.55305
G1 X11.043 Y-31.616 E66.83694
G1 X10.755 Y-28.851 E67.12819
G1 X10.55 Y-26.147 E67.4123
G1 X10.421 Y-23.413 E67.69906
G1 X10.369 Y-20.708 E67.98252
G1 X10.395 Y-17.966 E68.26981
G1 X10.498 Y-15.227 E68.55697
G1 X10.678 Y-12.495 E68.84382
G1 X10.937 Y-9.758 E69.13186
G1 X11.266 Y-7.083 E69.41423
G1 X11.679 Y-4.364 E69.70236
G1 X12.161 Y-1.703 E69.98569
G1 F2400 E63.98569
;MESH:BagClipShortSalzBraille_v01.stl
G0 F600 X3.097 Y-3.304
G0 X1.478 Y-3.588
G0 X6.353 Y-57.617
;TYPE:WALL-INNER
