;FLAVOR:Marlin
;TIME:1257
;Filament used: 1.36184m
;Layer height: 0.4
;MINX:136.397
;MINY:136.397
;MINZ:0.4
;MAXX:163.603
;MAXY:163.603
;MAXZ:42
;Generated with Cura_SteamEngine 5.4.0
M140 S95
M105
M190 S95
M104 S240
M105
M109 S240
M82 ;absolute extrusion mode
G28 ; home all axes
 M117 Purge extruder
 G92 E0 ; reset extruder
 G1 Z1.0 F3000 ; move z up little to prevent scratching of surface
 G1 X2 Y20 Z0.3 F5000.0 ; move to start-line position
 G1 X2 Y200.0 Z0.3 F1500.0 E15 ; draw 1st line
 G1 X2 Y200.0 Z0.4 F5000.0 ; move to side a little
 G1 X2 Y20 Z0.4 F1500.0 E30 ; draw 2nd line
 G92 E0 ; reset extruder
 G1 Z1.0 F3000 ; move z up little to prevent scratching of surface
G92 E0
G92 E0
G1 F1500 E-2
;LAYER_COUNT:105
;LAYER:0
M107
G0 F6000 X140.492 Y140.267 Z0.4
;TYPE:SKIRT
G1 F1500 E0
G1 F1200 X141.579 Y139.316 E0.19215
G1 X142.086 Y138.935 E0.27652
G1 X142.707 Y138.519 E0.37597
G1 X143.454 Y138.078 E0.49137
G1 X144.4 Y137.605 E0.63209
G1 X145.072 Y137.323 E0.72904
G1 X146.072 Y136.978 E0.86978
G1 X146.707 Y136.801 E0.95748
G1 X147.517 Y136.626 E1.06773
G1 X148.29 Y136.506 E1.1718
G1 X149.402 Y136.41 E1.32029
G1 X149.859 Y136.397 E1.38111
G1 X151.114 Y136.445 E1.5482
G1 X151.757 Y136.512 E1.63421
G1 X152.829 Y136.698 E1.77896
G1 X153.607 Y136.888 E1.88551
G1 X154.499 Y137.167 E2.00985
G1 X155.252 Y137.454 E2.11706
G1 X155.953 Y137.771 E2.21941
G1 X156.799 Y138.218 E2.34671
G1 X157.343 Y138.552 E2.43164
G1 X158.156 Y139.116 E2.56328
G1 X158.786 Y139.618 E2.67045
G1 X159.506 Y140.27 E2.79968
G1 X159.964 Y140.74 E2.88698
G1 X160.588 Y141.46 E3.01374
G1 X161.126 Y142.177 E3.133
G1 X161.584 Y142.874 E3.24396
G1 X162.064 Y143.707 E3.37186
G1 X162.261 Y144.104 E3.43082
G1 X162.694 Y145.11 E3.57653
G1 X162.939 Y145.804 E3.67445
G1 X163.245 Y146.898 E3.82558
G1 X163.374 Y147.517 E3.9097
G1 X163.494 Y148.294 E4.0143
G1 X163.59 Y149.401 E4.16213
G1 X163.603 Y149.855 E4.22255
G1 X163.555 Y151.113 E4.39004
G1 X163.473 Y151.881 E4.4928
G1 X163.391 Y152.388 E4.56112
G1 X163.107 Y153.645 E4.73257
G1 X162.98 Y154.071 E4.79171
G1 X162.596 Y155.132 E4.94183
G1 X162.236 Y155.937 E5.05915
G1 X161.873 Y156.636 E5.16394
G1 X161.367 Y157.467 E5.29337
G1 X160.923 Y158.102 E5.39646
G1 X160.363 Y158.807 E5.51624
G1 X159.773 Y159.466 E5.63392
G1 X159.508 Y159.733 E5.68397
G1 X158.421 Y160.684 E5.87612
G1 X157.914 Y161.065 E5.96049
G1 X157.293 Y161.481 E6.05993
G1 X156.546 Y161.922 E6.17534
G1 X155.6 Y162.395 E6.31605
G1 X154.928 Y162.677 E6.41301
G1 X153.928 Y163.022 E6.55374
G1 X153.293 Y163.199 E6.64144
G1 X152.483 Y163.374 E6.75169
G1 X151.71 Y163.494 E6.85577
G1 X150.598 Y163.59 E7.00426
G1 X150.144 Y163.603 E7.06468
G1 X148.88 Y163.553 E7.23298
G1 X148.003 Y163.456 E7.35036
G1 X147.538 Y163.377 E7.41312
G1 X146.444 Y163.127 E7.56241
G1 X145.703 Y162.905 E7.66533
G1 X145.145 Y162.706 E7.74414
G1 X143.964 Y162.186 E7.91582
G1 X143.201 Y161.784 E8.03056
G1 X142.752 Y161.511 E8.10047
G1 X141.914 Y160.935 E8.23575
G1 X141.176 Y160.348 E8.36121
G1 X140.478 Y159.713 E8.48675
G1 X139.952 Y159.17 E8.58732
G1 X139.44 Y158.573 E8.69196
G1 X138.83 Y157.762 E8.82697
G1 X138.536 Y157.321 E8.89748
G1 X138.026 Y156.452 E9.03153
G1 X137.61 Y155.61 E9.15648
G1 X137.32 Y154.92 E9.25606
G1 X136.978 Y153.928 E9.39565
G1 X136.801 Y153.293 E9.48336
G1 X136.626 Y152.483 E9.59361
G1 X136.506 Y151.71 E9.69768
G1 X136.41 Y150.598 E9.84617
G1 X136.397 Y150.145 E9.90646
G1 X136.445 Y148.886 E10.07408
G1 X136.512 Y148.243 E10.16009
G1 X136.698 Y147.171 E10.30484
G1 X136.888 Y146.393 E10.41139
G1 X137.167 Y145.503 E10.53547
G1 X137.474 Y144.7 E10.64985
G1 X137.77 Y144.049 E10.74499
G1 X138.204 Y143.228 E10.86854
G1 X138.606 Y142.572 E10.9709
G1 X139.077 Y141.898 E11.08029
G1 X139.637 Y141.193 E11.20007
G1 X140.227 Y140.534 E11.31775
G1 X140.492 Y140.267 E11.3678
G0 F6000 X141.06 Y140.831
G1 F1200 X142.06 Y139.956 E11.54458
G1 X142.567 Y139.575 E11.62895
G1 X143.115 Y139.207 E11.71677
G1 X143.813 Y138.793 E11.82474
G1 X144.712 Y138.342 E11.95855
G1 X145.334 Y138.079 E12.04839
G1 X146.287 Y137.749 E12.18257
G1 X146.922 Y137.572 E12.27027
G1 X147.64 Y137.417 E12.36799
G1 X148.413 Y137.297 E12.47207
G1 X149.425 Y137.21 E12.6072
G1 X149.882 Y137.197 E12.66802
G1 X151.031 Y137.241 E12.821
G1 X151.674 Y137.308 E12.90701
G1 X152.641 Y137.476 E13.03758
G1 X153.369 Y137.652 E13.13723
G1 X154.214 Y137.915 E13.25497
G1 X154.967 Y138.202 E13.36218
G1 X155.58 Y138.479 E13.45167
G1 X156.382 Y138.901 E13.57224
G1 X156.888 Y139.21 E13.65112
G1 X157.657 Y139.742 E13.77552
G1 X158.287 Y140.244 E13.88269
G1 X158.934 Y140.829 E13.99874
G1 X159.359 Y141.264 E14.07965
G1 X159.983 Y141.984 E14.2064
G1 X160.457 Y142.616 E14.3115
G1 X160.915 Y143.313 E14.42246
G1 X161.347 Y144.063 E14.53761
G1 X161.544 Y144.46 E14.59657
G1 X161.959 Y145.426 E14.73645
G1 X162.169 Y146.021 E14.82039
G1 X162.462 Y147.062 E14.96427
G1 X162.583 Y147.639 E15.0427
G1 X162.703 Y148.416 E15.1473
G1 X162.79 Y149.424 E15.2819
G1 X162.803 Y149.878 E15.34233
G1 X162.759 Y151.029 E15.49557
G1 X162.683 Y151.753 E15.59242
G1 X162.601 Y152.26 E15.66075
G1 X162.34 Y153.416 E15.81842
G1 X162.213 Y153.842 E15.87756
G1 X161.844 Y154.859 E16.02149
G1 X161.526 Y155.568 E16.12487
G1 X161.163 Y156.267 E16.22966
G1 X160.711 Y157.01 E16.34536
G1 X160.297 Y157.604 E16.44169
G1 X159.737 Y158.309 E16.56147
G1 X159.205 Y158.902 E16.66746
G1 X158.94 Y159.169 E16.7175
G1 X157.94 Y160.044 E16.89428
G1 X157.433 Y160.425 E16.97866
G1 X156.885 Y160.793 E17.06648
G1 X156.187 Y161.207 E17.17445
G1 X155.288 Y161.658 E17.30826
G1 X154.666 Y161.921 E17.3981
G1 X153.713 Y162.251 E17.53228
G1 X153.078 Y162.428 E17.61998
G1 X152.36 Y162.583 E17.7177
G1 X151.587 Y162.703 E17.82177
G1 X150.575 Y162.79 E17.95691
G1 X150.121 Y162.803 E18.01733
G1 X148.967 Y162.758 E18.17098
G1 X148.137 Y162.667 E18.28206
G1 X147.672 Y162.588 E18.34481
G1 X146.673 Y162.36 E18.48114
G1 X145.972 Y162.151 E18.57846
G1 X145.414 Y161.952 E18.65727
G1 X144.336 Y161.478 E18.81394
G1 X143.617 Y161.1 E18.92201
G1 X143.168 Y160.827 E18.99192
G1 X142.368 Y160.276 E19.12116
G1 X141.714 Y159.756 E19.23232
G1 X141.053 Y159.156 E19.35108
G1 X140.527 Y158.613 E19.45166
G1 X140.079 Y158.091 E19.54318
G1 X139.496 Y157.318 E19.67199
G1 X139.202 Y156.877 E19.7425
G1 X138.743 Y156.096 E19.86302
G1 X138.348 Y155.3 E19.98124
G1 X138.058 Y154.61 E20.08082
G1 X137.749 Y153.713 E20.20704
G1 X137.572 Y153.078 E20.29474
G1 X137.417 Y152.36 E20.39246
G1 X137.297 Y151.587 E20.49654
G1 X137.21 Y150.575 E20.63167
G1 X137.197 Y150.122 E20.69196
G1 X137.241 Y148.969 E20.84547
G1 X137.308 Y148.326 E20.93148
G1 X137.476 Y147.359 E21.06205
G1 X137.652 Y146.631 E21.1617
G1 X137.915 Y145.787 E21.27931
G1 X138.203 Y145.03 E21.38706
G1 X138.478 Y144.422 E21.47584
G1 X138.887 Y143.645 E21.59266
G1 X139.263 Y143.029 E21.68867
G1 X139.703 Y142.396 E21.79124
G1 X140.263 Y141.691 E21.91102
G1 X140.795 Y141.098 E22.01701
G1 X141.06 Y140.831 E22.06705
G0 F6000 X141.628 Y141.395
G1 F1200 X142.541 Y140.596 E22.22847
G1 X143.048 Y140.215 E22.31284
G1 X143.523 Y139.895 E22.38904
G1 X144.221 Y139.481 E22.497
G1 X145.024 Y139.079 E22.61648
G1 X145.646 Y138.816 E22.70632
G1 X146.502 Y138.52 E22.82682
G1 X147.137 Y138.343 E22.91452
G1 X147.763 Y138.208 E22.99972
G1 X148.536 Y138.088 E23.10379
G1 X149.448 Y138.01 E23.22557
G1 X149.905 Y137.997 E23.28639
G1 X150.948 Y138.037 E23.42525
G1 X151.591 Y138.104 E23.51126
G1 X152.455 Y138.254 E23.62793
G1 X153.132 Y138.416 E23.72054
G1 X153.93 Y138.663 E23.83168
G1 X154.639 Y138.932 E23.93256
G1 X155.209 Y139.188 E24.01569
G1 X155.965 Y139.584 E24.12923
G1 X156.471 Y139.893 E24.20811
G1 X157.158 Y140.368 E24.31923
G1 X157.788 Y140.87 E24.4264
G1 X158.363 Y141.39 E24.52954
G1 X158.755 Y141.789 E24.60396
G1 X159.344 Y142.466 E24.72334
G1 X159.788 Y143.055 E24.82147
G1 X160.246 Y143.752 E24.93243
G1 X160.631 Y144.421 E25.03512
G1 X160.809 Y144.777 E25.08807
G1 X161.205 Y145.695 E25.22108
G1 X161.399 Y146.239 E25.29792
G1 X161.679 Y147.228 E25.43467
G1 X161.792 Y147.761 E25.50716
G1 X161.912 Y148.538 E25.61175
G1 X161.99 Y149.447 E25.73313
G1 X162.003 Y149.901 E25.79356
G1 X161.963 Y150.945 E25.93255
G1 X161.887 Y151.669 E26.02941
G1 X161.821 Y152.084 E26.08531
G1 X161.572 Y153.19 E26.23614
G1 X161.46 Y153.571 E26.28897
G1 X161.113 Y154.533 E26.42503
G1 X160.816 Y155.199 E26.52204
G1 X160.453 Y155.898 E26.62683
G1 X160.054 Y156.554 E26.72898
G1 X159.67 Y157.107 E26.81855
G1 X159.141 Y157.775 E26.93191
G1 X158.637 Y158.338 E27.03244
G1 X158.372 Y158.605 E27.08249
G1 X157.459 Y159.404 E27.2439
G1 X156.952 Y159.785 E27.32828
G1 X156.477 Y160.105 E27.40447
G1 X155.779 Y160.519 E27.51244
G1 X154.976 Y160.921 E27.63191
G1 X154.354 Y161.184 E27.72176
G1 X153.498 Y161.48 E27.84226
G1 X152.863 Y161.657 E27.92996
G1 X152.237 Y161.792 E28.01516
G1 X151.464 Y161.912 E28.11923
G1 X150.552 Y161.99 E28.241
G1 X150.098 Y162.003 E28.30143
G1 X149.053 Y161.963 E28.44056
G1 X148.271 Y161.878 E28.54521
G1 X147.806 Y161.799 E28.60796
G1 X146.902 Y161.593 E28.73131
G1 X146.201 Y161.384 E28.82863
G1 X145.684 Y161.199 E28.90168
G1 X144.707 Y160.769 E29.04369
G1 X144.033 Y160.416 E29.14492
G1 X143.584 Y160.143 E29.21483
G1 X142.865 Y159.649 E29.33089
G1 X142.251 Y159.163 E29.43507
G1 X141.627 Y158.598 E29.54706
G1 X141.133 Y158.09 E29.64133
G1 X140.717 Y157.608 E29.72603
G1 X140.162 Y156.874 E29.84846
G1 X139.868 Y156.433 E29.91897
G1 X139.459 Y155.739 E30.02614
G1 X139.085 Y154.988 E30.13776
G1 X138.814 Y154.348 E30.23023
G1 X138.52 Y153.498 E30.34988
G1 X138.343 Y152.863 E30.43758
G1 X138.208 Y152.237 E30.52278
G1 X138.088 Y151.464 E30.62686
G1 X138.01 Y150.552 E30.74863
G1 X137.997 Y150.099 E30.80892
G1 X138.037 Y149.052 E30.94832
G1 X138.104 Y148.409 E31.03433
G1 X138.254 Y147.545 E31.15099
G1 X138.416 Y146.868 E31.2436
G1 X138.663 Y146.07 E31.35474
G1 X138.932 Y145.36 E31.45575
G1 X139.207 Y144.752 E31.54453
G1 X139.57 Y144.062 E31.64826
G1 X139.946 Y143.446 E31.74427
G1 X140.33 Y142.893 E31.83384
G1 X140.859 Y142.225 E31.9472
G1 X141.363 Y141.662 E32.04773
G1 X141.628 Y141.395 E32.09778
G0 F6000 X142.196 Y141.959
G1 F1200 X143.022 Y141.236 E32.24382
G1 X143.529 Y140.855 E32.3282
G1 X143.933 Y140.582 E32.39307
G1 X144.58 Y140.196 E32.4933
G1 X145.336 Y139.816 E32.60587
G1 X145.958 Y139.553 E32.69571
G1 X146.717 Y139.291 E32.80254
G1 X147.352 Y139.114 E32.89024
G1 X147.886 Y138.999 E32.96291
G1 X148.659 Y138.879 E33.06698
G1 X149.471 Y138.81 E33.1754
G1 X149.928 Y138.797 E33.23622
G1 X150.865 Y138.833 E33.36098
G1 X151.508 Y138.9 E33.44698
G1 X152.27 Y139.032 E33.54987
G1 X152.897 Y139.181 E33.63561
G1 X153.648 Y139.412 E33.74014
G1 X154.311 Y139.662 E33.83441
G1 X154.881 Y139.918 E33.91754
G1 X155.549 Y140.267 E34.01781
G1 X156.017 Y140.552 E34.09071
G1 X156.659 Y140.994 E34.19441
G1 X157.289 Y141.496 E34.30158
G1 X157.794 Y141.953 E34.39219
G1 X158.151 Y142.314 E34.45974
G1 X158.74 Y142.991 E34.57912
G1 X159.12 Y143.496 E34.6632
G1 X159.553 Y144.152 E34.76777
G1 X159.915 Y144.779 E34.8641
G1 X160.093 Y145.135 E34.91705
G1 X160.451 Y145.964 E35.03718
G1 X160.645 Y146.508 E35.11402
G1 X160.897 Y147.394 E35.23657
G1 X161.001 Y147.883 E35.30308
G1 X161.121 Y148.66 E35.40768
G1 X161.19 Y149.47 E35.51583
G1 X161.203 Y149.924 E35.57626
G1 X161.167 Y150.861 E35.70101
G1 X161.091 Y151.585 E35.79786
G1 X161.031 Y151.956 E35.84786
G1 X160.804 Y152.964 E35.98532
G1 X160.692 Y153.345 E36.03816
G1 X160.382 Y154.208 E36.16015
G1 X160.105 Y154.832 E36.25098
G1 X159.768 Y155.484 E36.34863
G1 X159.396 Y156.099 E36.44425
G1 X159.042 Y156.611 E36.52706
G1 X158.544 Y157.242 E36.63401
G1 X158.069 Y157.774 E36.72889
G1 X157.804 Y158.041 E36.77894
G1 X156.978 Y158.764 E36.92498
G1 X156.471 Y159.145 E37.00936
G1 X156.067 Y159.418 E37.07422
G1 X155.42 Y159.804 E37.17446
G1 X154.664 Y160.184 E37.28703
G1 X154.042 Y160.447 E37.37687
G1 X153.283 Y160.709 E37.4837
G1 X152.648 Y160.886 E37.5714
G1 X152.114 Y161.001 E37.64407
G1 X151.341 Y161.121 E37.74814
G1 X150.529 Y161.19 E37.85656
G1 X150.075 Y161.203 E37.91698
G1 X149.138 Y161.167 E38.04174
G1 X148.405 Y161.089 E38.1398
G1 X147.94 Y161.01 E38.20256
G1 X147.131 Y160.826 E38.31293
G1 X146.43 Y160.617 E38.41025
G1 X145.955 Y160.446 E38.47742
G1 X145.077 Y160.06 E38.60502
G1 X144.449 Y159.732 E38.69928
G1 X144 Y159.459 E38.76919
G1 X143.319 Y158.99 E38.87919
G1 X142.787 Y158.569 E38.96945
G1 X142.2 Y158.04 E39.07458
G1 X141.739 Y157.567 E39.16245
G1 X141.323 Y157.085 E39.24716
G1 X140.828 Y156.43 E39.35639
G1 X140.534 Y155.989 E39.4269
G1 X140.149 Y155.334 E39.52798
G1 X139.822 Y154.676 E39.62573
G1 X139.551 Y154.036 E39.7182
G1 X139.291 Y153.283 E39.82418
G1 X139.114 Y152.648 E39.91188
G1 X138.999 Y152.114 E39.98456
G1 X138.879 Y151.341 E40.08863
G1 X138.81 Y150.529 E40.19705
G1 X138.797 Y150.076 E40.25734
G1 X138.833 Y149.135 E40.38262
G1 X138.9 Y148.492 E40.46863
G1 X139.032 Y147.73 E40.57152
G1 X139.181 Y147.103 E40.65725
G1 X139.412 Y146.352 E40.76179
G1 X139.662 Y145.688 E40.85618
G1 X139.916 Y145.123 E40.9386
G1 X140.254 Y144.477 E41.03559
G1 X140.604 Y143.901 E41.12526
G1 X140.958 Y143.389 E41.20807
G1 X141.456 Y142.758 E41.31502
G1 X141.931 Y142.226 E41.4099
G1 X142.196 Y141.959 E41.45995
G0 F6000 X142.764 Y142.523
G1 F1200 X143.503 Y141.876 E41.59062
G1 X144.01 Y141.495 E41.675
G1 X144.38 Y141.246 E41.73433
G1 X144.941 Y140.91 E41.82133
G1 X145.65 Y140.552 E41.927
G1 X146.22 Y140.309 E42.00944
G1 X146.932 Y140.062 E42.1097
G1 X147.567 Y139.885 E42.1974
G1 X148.009 Y139.79 E42.25755
G1 X148.782 Y139.67 E42.36162
G1 X149.494 Y139.61 E42.45668
G1 X149.951 Y139.597 E42.5175
G1 X150.782 Y139.629 E42.62814
G1 X151.425 Y139.696 E42.71415
G1 X152.087 Y139.811 E42.80354
G1 X152.663 Y139.946 E42.88225
G1 X153.367 Y140.161 E42.98018
G1 X153.985 Y140.393 E43.068
G1 X154.512 Y140.628 E43.14477
G1 X155.134 Y140.951 E43.23801
G1 X155.563 Y141.211 E43.30475
G1 X156.205 Y141.653 E43.40845
G1 X156.753 Y142.09 E43.5017
G1 X157.225 Y142.516 E43.58629
G1 X157.582 Y142.877 E43.65383
G1 X158.102 Y143.474 E43.75916
G1 X158.453 Y143.938 E43.83657
G1 X158.861 Y144.553 E43.93475
G1 X159.199 Y145.137 E44.02453
G1 X159.377 Y145.493 E44.07748
G1 X159.697 Y146.233 E44.18474
G1 X159.891 Y146.777 E44.26158
G1 X160.115 Y147.562 E44.37018
G1 X160.21 Y148.005 E44.43046
G1 X160.33 Y148.782 E44.53506
G1 X160.39 Y149.493 E44.62999
G1 X160.403 Y149.947 E44.69041
G1 X160.371 Y150.779 E44.80118
G1 X160.301 Y151.457 E44.89186
G1 X160.241 Y151.828 E44.94186
G1 X160.036 Y152.738 E45.06596
G1 X159.924 Y153.119 E45.1188
G1 X159.65 Y153.885 E45.22703
G1 X159.393 Y154.467 E45.31167
G1 X159.083 Y155.071 E45.40199
G1 X158.736 Y155.646 E45.49134
G1 X158.414 Y156.115 E45.56703
G1 X157.916 Y156.746 E45.67397
G1 X157.501 Y157.21 E45.75679
G1 X157.236 Y157.477 E45.80684
G1 X156.497 Y158.124 E45.93751
G1 X155.99 Y158.505 E46.02189
G1 X155.62 Y158.754 E46.08122
G1 X155.059 Y159.09 E46.16822
G1 X154.35 Y159.448 E46.27389
G1 X153.78 Y159.691 E46.35633
G1 X153.068 Y159.938 E46.45659
G1 X152.433 Y160.115 E46.54429
G1 X151.991 Y160.21 E46.60444
G1 X151.218 Y160.33 E46.70851
G1 X150.506 Y160.39 E46.80357
G1 X150.052 Y160.403 E46.86399
G1 X149.221 Y160.371 E46.97463
G1 X148.539 Y160.3 E47.06586
G1 X148.074 Y160.221 E47.12861
G1 X147.309 Y160.046 E47.23301
G1 X146.701 Y159.864 E47.31745
G1 X146.226 Y159.693 E47.38461
G1 X145.446 Y159.35 E47.49797
G1 X144.863 Y159.047 E47.58539
G1 X144.454 Y158.8 E47.64895
G1 X143.773 Y158.331 E47.75896
G1 X143.285 Y157.943 E47.8419
G1 X142.772 Y157.481 E47.93375
G1 X142.345 Y157.044 E48.01504
G1 X141.929 Y156.562 E48.09974
G1 X141.493 Y155.985 E48.19596
G1 X141.223 Y155.582 E48.2605
G1 X140.865 Y154.976 E48.35414
G1 X140.558 Y154.362 E48.44546
G1 X140.307 Y153.773 E48.53064
G1 X140.062 Y153.068 E48.62994
G1 X139.885 Y152.433 E48.71764
G1 X139.79 Y151.991 E48.77779
G1 X139.67 Y151.218 E48.88186
G1 X139.61 Y150.506 E48.97692
G1 X139.597 Y150.053 E49.03721
G1 X139.629 Y149.218 E49.14838
G1 X139.696 Y148.575 E49.23439
G1 X139.811 Y147.913 E49.32378
G1 X139.946 Y147.337 E49.40249
G1 X140.161 Y146.633 E49.50042
G1 X140.393 Y146.014 E49.58837
G1 X140.626 Y145.492 E49.66442
