;FLAVOR:Marlin
;TIME:3041
;Filament used: 1.2248m
;Layer height: 0.2
;MINX:128.298
;MINY:128.298
;MINZ:0.3
;MAXX:171.702
;MAXY:171.702
;MAXZ:42.1
;Generated with Cura_SteamEngine 4.10.0
M140 S90
M105
M190 S90
M104 S235
M105
M109 S235
M82 ;absolute extrusion mode
G28 ; home all axes
 M117 Purge extruder
 G92 E0 ; reset extruder
 G1 Z1.0 F3000 ; move z up little to prevent scratching of surface
 G1 X2 Y20 Z0.3 F5000.0 ; move to start-line position
 G1 X2 Y200.0 Z0.3 F1500.0 E15 ; draw 1st line
 G1 X2 Y200.0 Z0.4 F5000.0 ; move to side a little
 G1 X2 Y20 Z0.4 F1500.0 E30 ; draw 2nd line
 G92 E0 ; reset extruder
 G1 Z1.0 F3000 ; move z up little to prevent scratching of surface
G92 E0
G92 E0
G1 F2100 E-2
;LAYER_COUNT:210
;LAYER:0
M107
G1 F300 Z0.5
G0 F6000 X134.74 Y134.56 Z0.5
;TYPE:SKIRT
G1 F300 Z0.3
G1 F2100 E0
G1 F600 X135.554 Y133.796 E0.08148
G1 X135.839 Y133.547 E0.10911
G1 X136.556 Y132.957 E0.17688
G1 X136.853 Y132.727 E0.2043
G1 X137.625 Y132.166 E0.27395
G1 X137.939 Y131.952 E0.30169
G1 X138.722 Y131.451 E0.36954
G1 X139.043 Y131.259 E0.39684
G1 X140.031 Y130.715 E0.47916
G1 X140.368 Y130.545 E0.50671
G1 X141.175 Y130.167 E0.57175
G1 X141.522 Y130.016 E0.59937
G1 X142.525 Y129.62 E0.67808
G1 X142.882 Y129.493 E0.70574
G1 X143.749 Y129.212 E0.77226
G1 X144.109 Y129.107 E0.79963
G1 X145.069 Y128.86 E0.87198
G1 X145.439 Y128.777 E0.89966
G1 X146.369 Y128.597 E0.9688
G1 X146.74 Y128.537 E0.99623
G1 X147.841 Y128.399 E1.07722
G1 X148.219 Y128.365 E1.10492
G1 X149.082 Y128.311 E1.16804
G1 X149.457 Y128.298 E1.19542
G1 X150.545 Y128.298 E1.27484
G1 X150.92 Y128.311 E1.30222
G1 X151.787 Y128.365 E1.36563
G1 X152.164 Y128.399 E1.39326
G1 X153.288 Y128.542 E1.47596
G1 X153.661 Y128.603 E1.50355
G1 X154.503 Y128.764 E1.56612
G1 X154.871 Y128.845 E1.59362
G1 X155.958 Y129.126 E1.67557
G1 X156.319 Y129.233 E1.70305
G1 X157.159 Y129.508 E1.76756
G1 X157.513 Y129.635 E1.79501
G1 X158.442 Y130.001 E1.86789
G1 X158.789 Y130.151 E1.89548
G1 X159.614 Y130.537 E1.96197
G1 X159.952 Y130.707 E1.98958
G1 X160.982 Y131.274 E2.0754
G1 X161.305 Y131.468 E2.1029
G1 X162.036 Y131.935 E2.16621
G1 X162.347 Y132.146 E2.19364
G1 X163.157 Y132.735 E2.26674
G1 X163.456 Y132.967 E2.29437
G1 X164.198 Y133.579 E2.36457
G1 X164.479 Y133.826 E2.39188
G1 X165.215 Y134.517 E2.46556
G1 X165.482 Y134.784 E2.49312
G1 X166.168 Y135.515 E2.56629
G1 X166.417 Y135.798 E2.59381
G1 X167.043 Y136.556 E2.66556
G1 X167.273 Y136.853 E2.69298
G1 X167.834 Y137.625 E2.76263
G1 X168.048 Y137.939 E2.79037
G1 X168.549 Y138.722 E2.85822
G1 X168.741 Y139.043 E2.88552
G1 X169.293 Y140.048 E2.96921
G1 X169.463 Y140.386 E2.99682
G1 X169.849 Y141.211 E3.0633
G1 X169.999 Y141.558 E3.0909
G1 X170.357 Y142.463 E3.16193
G1 X170.485 Y142.818 E3.18948
G1 X170.791 Y143.759 E3.2617
G1 X170.896 Y144.12 E3.28914
G1 X171.138 Y145.06 E3.35999
G1 X171.221 Y145.429 E3.38759
G1 X171.403 Y146.368 E3.45741
G1 X171.463 Y146.739 E3.48484
G1 X171.601 Y147.84 E3.56583
G1 X171.635 Y148.218 E3.59353
G1 X171.688 Y149.078 E3.65642
G1 X171.701 Y149.451 E3.68366
G1 X171.702 Y150.538 E3.763
G1 X171.689 Y150.916 E3.79061
G1 X171.635 Y151.787 E3.8543
G1 X171.601 Y152.164 E3.88193
G1 X171.458 Y153.288 E3.96463
G1 X171.397 Y153.661 E3.99222
G1 X171.236 Y154.503 E4.05479
G1 X171.155 Y154.871 E4.08229
G1 X170.874 Y155.958 E4.16424
G1 X170.767 Y156.319 E4.19172
G1 X170.51 Y157.109 E4.25236
G1 X170.384 Y157.464 E4.27985
G1 X169.984 Y158.478 E4.35941
G1 X169.833 Y158.825 E4.38704
G1 X169.463 Y159.615 E4.45071
G1 X169.294 Y159.951 E4.47816
G1 X168.719 Y160.993 E4.56503
G1 X168.524 Y161.317 E4.59263
G1 X168.065 Y162.036 E4.65489
G1 X167.854 Y162.347 E4.68232
G1 X167.265 Y163.157 E4.75542
G1 X167.033 Y163.456 E4.78304
G1 X166.421 Y164.198 E4.85325
G1 X166.174 Y164.479 E4.88055
G1 X165.525 Y165.173 E4.94991
G1 X165.26 Y165.44 E4.97736
G1 X164.446 Y166.204 E5.05885
G1 X164.161 Y166.453 E5.08647
G1 X163.444 Y167.043 E5.15424
G1 X163.147 Y167.273 E5.18166
G1 X162.375 Y167.834 E5.25132
G1 X162.061 Y168.048 E5.27905
G1 X161.278 Y168.549 E5.3469
G1 X160.957 Y168.741 E5.3742
G1 X159.969 Y169.285 E5.45652
G1 X159.632 Y169.455 E5.48407
G1 X158.825 Y169.833 E5.54912
G1 X158.478 Y169.984 E5.57674
G1 X157.475 Y170.38 E5.65544
G1 X157.118 Y170.507 E5.6831
G1 X156.251 Y170.788 E5.74962
G1 X155.891 Y170.893 E5.777
G1 X154.931 Y171.14 E5.84935
G1 X154.561 Y171.223 E5.87702
G1 X153.631 Y171.403 E5.94616
G1 X153.26 Y171.463 E5.9736
G1 X152.159 Y171.601 E6.05459
G1 X151.781 Y171.635 E6.08229
G1 X150.921 Y171.688 E6.14518
G1 X150.548 Y171.701 E6.17242
G1 X149.46 Y171.702 E6.25183
G1 X149.083 Y171.689 E6.27936
G1 X148.213 Y171.635 E6.34299
G1 X147.836 Y171.601 E6.37062
G1 X146.712 Y171.458 E6.45332
G1 X146.339 Y171.397 E6.4809
G1 X145.497 Y171.236 E6.54347
G1 X145.129 Y171.155 E6.57098
G1 X144.042 Y170.874 E6.65292
G1 X143.681 Y170.767 E6.68041
G1 X142.841 Y170.492 E6.74492
G1 X142.487 Y170.365 E6.77237
G1 X141.558 Y169.999 E6.84525
G1 X141.211 Y169.849 E6.87284
G1 X140.386 Y169.463 E6.93932
G1 X140.048 Y169.293 E6.96694
G1 X139.018 Y168.726 E7.05276
G1 X138.695 Y168.532 E7.08026
G1 X137.955 Y168.058 E7.1444
G1 X137.643 Y167.846 E7.17193
G1 X136.842 Y167.264 E7.2442
G1 X136.543 Y167.032 E7.27182
G1 X135.801 Y166.42 E7.34203
G1 X135.52 Y166.173 E7.36933
G1 X134.784 Y165.482 E7.44302
G1 X134.517 Y165.215 E7.47058
G1 X133.831 Y164.484 E7.54375
G1 X133.582 Y164.201 E7.57126
G1 X132.956 Y163.443 E7.64302
G1 X132.726 Y163.146 E7.67044
G1 X132.159 Y162.365 E7.74088
G1 X131.946 Y162.052 E7.76851
G1 X131.459 Y161.291 E7.83446
G1 X131.266 Y160.969 E7.86186
G1 X130.706 Y159.951 E7.94666
G1 X130.537 Y159.615 E7.97411
G1 X130.167 Y158.825 E8.03779
G1 X130.016 Y158.478 E8.06541
G1 X129.62 Y157.475 E8.14412
G1 X129.493 Y157.118 E8.17177
G1 X129.212 Y156.251 E8.23829
G1 X129.107 Y155.891 E8.26567
G1 X128.86 Y154.931 E8.33802
G1 X128.777 Y154.561 E8.36569
G1 X128.597 Y153.631 E8.43483
G1 X128.537 Y153.26 E8.46227
G1 X128.399 Y152.159 E8.54326
G1 X128.365 Y151.781 E8.57096
G1 X128.312 Y150.923 E8.6337
G1 X128.299 Y150.551 E8.66087
G1 X128.298 Y149.462 E8.74036
G1 X128.311 Y149.084 E8.76796
G1 X128.365 Y148.213 E8.83166
G1 X128.399 Y147.836 E8.85929
G1 X128.542 Y146.712 E8.94199
G1 X128.603 Y146.339 E8.96957
G1 X128.764 Y145.497 E9.03214
G1 X128.845 Y145.129 E9.05965
G1 X129.126 Y144.042 E9.1416
G1 X129.233 Y143.681 E9.16908
G1 X129.508 Y142.841 E9.23359
G1 X129.635 Y142.487 E9.26104
G1 X130.001 Y141.558 E9.33392
G1 X130.151 Y141.211 E9.36151
G1 X130.529 Y140.403 E9.42662
G1 X130.698 Y140.066 E9.45414
G1 X131.281 Y139.007 E9.54237
G1 X131.476 Y138.683 E9.56998
G1 X131.935 Y137.964 E9.63224
G1 X132.146 Y137.653 E9.65967
G1 X132.735 Y136.843 E9.73277
G1 X132.967 Y136.544 E9.76039
G1 X133.579 Y135.802 E9.83059
G1 X133.826 Y135.521 E9.8579
G1 X134.475 Y134.827 E9.92725
G1 X134.74 Y134.56 E9.95471
G0 F6000 X135.177 Y134.994
G1 F600 X135.959 Y134.26 E10.03299
G1 X136.244 Y134.011 E10.06062
G1 X136.933 Y133.444 E10.12575
G1 X137.23 Y133.214 E10.15316
G1 X137.972 Y132.675 E10.2201
G1 X138.286 Y132.461 E10.24784
G1 X139.038 Y131.98 E10.31299
G1 X139.359 Y131.788 E10.34029
G1 X140.309 Y131.265 E10.41945
G1 X140.646 Y131.095 E10.447
G1 X141.421 Y130.731 E10.50949
G1 X141.768 Y130.58 E10.53711
G1 X142.732 Y130.2 E10.61274
G1 X143.089 Y130.073 E10.6404
G1 X143.921 Y129.804 E10.70422
G1 X144.281 Y129.699 E10.7316
G1 X145.204 Y129.461 E10.80117
G1 X145.574 Y129.378 E10.82885
G1 X146.468 Y129.206 E10.89529
G1 X146.839 Y129.146 E10.92273
G1 X147.896 Y129.013 E11.00048
G1 X148.274 Y128.979 E11.02818
G1 X149.103 Y128.927 E11.08881
G1 X149.478 Y128.914 E11.1162
G1 X150.524 Y128.914 E11.19255
G1 X150.899 Y128.927 E11.21993
G1 X151.732 Y128.979 E11.28085
G1 X152.109 Y129.013 E11.30848
G1 X153.189 Y129.15 E11.38794
G1 X153.562 Y129.211 E11.41553
G1 X154.37 Y129.366 E11.47558
G1 X154.738 Y129.447 E11.50308
G1 X155.783 Y129.716 E11.58184
G1 X156.144 Y129.823 E11.60932
G1 X156.951 Y130.088 E11.67132
G1 X157.305 Y130.215 E11.69877
G1 X158.197 Y130.567 E11.76876
G1 X158.544 Y130.717 E11.79636
G1 X159.337 Y131.087 E11.86023
G1 X159.675 Y131.257 E11.88784
G1 X160.665 Y131.802 E11.97033
G1 X160.988 Y131.996 E11.99783
G1 X161.69 Y132.445 E12.05865
G1 X162.001 Y132.656 E12.08608
G1 X162.78 Y133.221 E12.15632
G1 X163.079 Y133.453 E12.18394
G1 X163.791 Y134.042 E12.25139
G1 X164.072 Y134.289 E12.2787
G1 X164.78 Y134.952 E12.34949
G1 X165.047 Y135.219 E12.37706
G1 X165.706 Y135.922 E12.44739
G1 X165.955 Y136.205 E12.4749
G1 X166.556 Y136.933 E12.5438
G1 X166.786 Y137.23 E12.57122
G1 X167.325 Y137.972 E12.63816
G1 X167.539 Y138.286 E12.6659
G1 X168.02 Y139.038 E12.73105
G1 X168.212 Y139.359 E12.75835
G1 X168.743 Y140.325 E12.83881
G1 X168.913 Y140.663 E12.86643
G1 X169.283 Y141.456 E12.9303
G1 X169.433 Y141.803 E12.95789
G1 X169.777 Y142.672 E13.02611
G1 X169.905 Y143.027 E13.05365
G1 X170.199 Y143.931 E13.12303
G1 X170.304 Y144.292 E13.15047
G1 X170.537 Y145.195 E13.21854
G1 X170.62 Y145.564 E13.24615
G1 X170.794 Y146.467 E13.31327
G1 X170.854 Y146.838 E13.3407
G1 X170.987 Y147.895 E13.41846
G1 X171.021 Y148.273 E13.44616
G1 X171.073 Y149.099 E13.50657
G1 X171.086 Y149.472 E13.53381
G1 X171.086 Y150.517 E13.61008
G1 X171.073 Y150.895 E13.63769
G1 X171.021 Y151.732 E13.6989
G1 X170.987 Y152.109 E13.72653
G1 X170.85 Y153.189 E13.80599
G1 X170.789 Y153.562 E13.83358
G1 X170.634 Y154.37 E13.89363
G1 X170.553 Y154.738 E13.92113
G1 X170.284 Y155.783 E13.99989
G1 X170.177 Y156.144 E14.02737
G1 X169.93 Y156.903 E14.08563
G1 X169.804 Y157.258 E14.11313
G1 X169.42 Y158.232 E14.18954
G1 X169.269 Y158.579 E14.21717
G1 X168.913 Y159.338 E14.27836
G1 X168.744 Y159.674 E14.30581
G1 X168.192 Y160.675 E14.38924
G1 X167.997 Y160.999 E14.41684
G1 X167.555 Y161.69 E14.47671
G1 X167.344 Y162.001 E14.50415
G1 X166.779 Y162.78 E14.57438
G1 X166.547 Y163.079 E14.60201
G1 X165.958 Y163.791 E14.66945
G1 X165.711 Y164.072 E14.69676
G1 X165.088 Y164.739 E14.76338
G1 X164.823 Y165.006 E14.79084
G1 X164.041 Y165.74 E14.86912
G1 X163.756 Y165.989 E14.89674
G1 X163.067 Y166.556 E14.96187
G1 X162.77 Y166.786 E14.98929
G1 X162.028 Y167.325 E15.05623
G1 X161.714 Y167.539 E15.08396
G1 X160.962 Y168.02 E15.14912
G1 X160.641 Y168.212 E15.17642
G1 X159.691 Y168.735 E15.25557
G1 X159.354 Y168.905 E15.28312
G1 X158.579 Y169.269 E15.34562
G1 X158.232 Y169.42 E15.37324
G1 X157.268 Y169.8 E15.44887
G1 X156.911 Y169.927 E15.47653
G1 X156.079 Y170.196 E15.54035
G1 X155.719 Y170.301 E15.56772
G1 X154.796 Y170.539 E15.63729
G1 X154.426 Y170.622 E15.66497
G1 X153.532 Y170.794 E15.73142
G1 X153.161 Y170.854 E15.75885
G1 X152.104 Y170.987 E15.83661
G1 X151.726 Y171.021 E15.86431
G1 X150.9 Y171.073 E15.92472
G1 X150.527 Y171.086 E15.95196
G1 X149.481 Y171.086 E16.02831
G1 X149.104 Y171.073 E16.05584
G1 X148.268 Y171.021 E16.11698
G1 X147.891 Y170.987 E16.1446
G1 X146.811 Y170.85 E16.22406
G1 X146.438 Y170.789 E16.25165
G1 X145.63 Y170.634 E16.3117
G1 X145.262 Y170.553 E16.33921
G1 X144.217 Y170.284 E16.41797
G1 X143.856 Y170.177 E16.44545
G1 X143.049 Y169.912 E16.50744
G1 X142.695 Y169.785 E16.5349
G1 X141.803 Y169.433 E16.60489
G1 X141.456 Y169.283 E16.63248
G1 X140.663 Y168.913 E16.69635
G1 X140.325 Y168.743 E16.72397
G1 X139.335 Y168.198 E16.80645
G1 X139.012 Y168.004 E16.83395
G1 X138.301 Y167.549 E16.89556
G1 X137.989 Y167.337 E16.9231
G1 X137.219 Y166.778 E16.99255
G1 X136.92 Y166.546 E17.02017
G1 X136.208 Y165.957 E17.08762
G1 X135.927 Y165.71 E17.11492
G1 X135.219 Y165.047 E17.18572
G1 X134.952 Y164.78 E17.21328
G1 X134.293 Y164.077 E17.28361
G1 X134.044 Y163.794 E17.31113
G1 X133.443 Y163.066 E17.38003
G1 X133.213 Y162.769 E17.40745
G1 X132.668 Y162.019 E17.47512
G1 X132.455 Y161.706 E17.50275
G1 X131.987 Y160.974 E17.56616
G1 X131.794 Y160.652 E17.59357
G1 X131.256 Y159.674 E17.67504
G1 X131.087 Y159.338 E17.70249
G1 X130.731 Y158.579 E17.76368
G1 X130.58 Y158.232 E17.7913
G1 X130.2 Y157.268 E17.86693
G1 X130.073 Y156.911 E17.89459
G1 X129.804 Y156.079 E17.95841
G1 X129.699 Y155.719 E17.98578
G1 X129.461 Y154.796 E18.05535
G1 X129.378 Y154.426 E18.08303
G1 X129.206 Y153.532 E18.14948
G1 X129.146 Y153.161 E18.17691
G1 X129.013 Y152.104 E18.25467
G1 X128.979 Y151.726 E18.28237
G1 X128.927 Y150.901 E18.34271
G1 X128.914 Y150.529 E18.36988
G1 X128.914 Y149.483 E18.44622
G1 X128.927 Y149.105 E18.47383
G1 X128.979 Y148.268 E18.53504
G1 X129.013 Y147.891 E18.56267
G1 X129.15 Y146.811 E18.64213
G1 X129.211 Y146.438 E18.66971
G1 X129.366 Y145.63 E18.72977
G1 X129.447 Y145.262 E18.75727
G1 X129.716 Y144.217 E18.83603
G1 X129.823 Y143.856 E18.86351
G1 X130.088 Y143.049 E18.92551
G1 X130.215 Y142.695 E18.95296
G1 X130.567 Y141.803 E19.02295
G1 X130.717 Y141.456 E19.05054
G1 X131.079 Y140.679 E19.11311
G1 X131.248 Y140.342 E19.14063
G1 X131.808 Y139.325 E19.22537
G1 X132.003 Y139.001 E19.25297
G1 X132.445 Y138.31 E19.31284
G1 X132.656 Y137.999 E19.34027
G1 X133.221 Y137.22 E19.41051
G1 X133.453 Y136.921 E19.43813
G1 X134.042 Y136.209 E19.50558
G1 X134.289 Y135.928 E19.53288
G1 X134.912 Y135.261 E19.5995
G1 X135.177 Y134.994 E19.62696
G0 F6000 X135.615 Y135.427
G1 F600 X136.365 Y134.724 E19.70199
G1 X136.65 Y134.475 E19.72961
G1 X137.311 Y133.931 E19.7921
G1 X137.608 Y133.701 E19.81951
G1 X138.319 Y133.184 E19.88368
G1 X138.633 Y132.97 E19.91141
G1 X139.354 Y132.509 E19.97388
G1 X139.675 Y132.317 E20.00118
G1 X140.586 Y131.815 E20.0771
G1 X140.923 Y131.645 E20.10465
G1 X141.667 Y131.296 E20.16463
G1 X142.014 Y131.145 E20.19225
G1 X142.938 Y130.78 E20.26476
G1 X143.295 Y130.653 E20.29242
G1 X144.094 Y130.395 E20.35371
G1 X144.454 Y130.29 E20.38108
G1 X145.338 Y130.062 E20.44771
G1 X145.708 Y129.979 E20.47539
G1 X146.566 Y129.814 E20.53916
G1 X146.937 Y129.754 E20.56659
G1 X147.951 Y129.626 E20.64119
G1 X148.329 Y129.592 E20.66889
G1 X149.124 Y129.543 E20.72703
G1 X149.499 Y129.53 E20.75442
G1 X150.503 Y129.53 E20.8277
G1 X150.878 Y129.543 E20.85508
G1 X151.676 Y129.593 E20.91344
G1 X152.053 Y129.627 E20.94107
G1 X153.089 Y129.758 E21.01729
G1 X153.462 Y129.819 E21.04488
G1 X154.238 Y129.967 E21.10254
G1 X154.606 Y130.048 E21.13004
G1 X155.608 Y130.307 E21.20558
G1 X155.969 Y130.414 E21.23306
G1 X156.743 Y130.667 E21.2925
G1 X157.097 Y130.794 E21.31995
G1 X157.953 Y131.132 E21.38712
G1 X158.3 Y131.282 E21.41471
G1 X159.06 Y131.638 E21.47597
G1 X159.398 Y131.808 E21.50359
G1 X160.347 Y132.33 E21.58264
G1 X160.67 Y132.524 E21.61014
G1 X161.344 Y132.955 E21.66853
G1 X161.655 Y133.166 E21.69597
G1 X162.402 Y133.708 E21.76333
G1 X162.701 Y133.94 E21.79095
G1 X163.384 Y134.504 E21.8556
G1 X163.665 Y134.751 E21.88291
G1 X164.344 Y135.388 E21.95086
G1 X164.611 Y135.655 E21.97843
G1 X165.243 Y136.329 E22.04586
G1 X165.492 Y136.612 E22.07338
G1 X166.069 Y137.311 E22.13953
G1 X166.299 Y137.608 E22.16695
G1 X166.816 Y138.319 E22.23112
G1 X167.03 Y138.633 E22.25885
G1 X167.491 Y139.354 E22.32131
G1 X167.683 Y139.675 E22.34862
G1 X168.192 Y140.602 E22.42581
G1 X168.362 Y140.94 E22.45342
G1 X168.718 Y141.7 E22.51468
G1 X168.868 Y142.047 E22.54227
G1 X169.198 Y142.881 E22.60773
G1 X169.326 Y143.236 E22.63528
G1 X169.608 Y144.103 E22.70182
G1 X169.713 Y144.464 E22.72926
G1 X169.936 Y145.33 E22.79454
G1 X170.019 Y145.699 E22.82214
G1 X170.186 Y146.565 E22.88651
G1 X170.246 Y146.936 E22.91395
G1 X170.374 Y147.95 E22.98854
G1 X170.408 Y148.328 E23.01625
G1 X170.457 Y149.121 E23.07424
G1 X170.47 Y149.494 E23.10148
G1 X170.47 Y150.496 E23.17461
G1 X170.457 Y150.874 E23.20222
G1 X170.407 Y151.676 E23.26087
G1 X170.373 Y152.053 E23.2885
G1 X170.242 Y153.089 E23.36472
G1 X170.181 Y153.462 E23.39231
G1 X170.033 Y154.238 E23.44997
G1 X169.952 Y154.606 E23.47747
G1 X169.693 Y155.608 E23.55301
G1 X169.586 Y155.969 E23.58049
G1 X169.349 Y156.697 E23.63637
G1 X169.223 Y157.052 E23.66387
G1 X168.855 Y157.986 E23.73714
G1 X168.704 Y158.333 E23.76476
G1 X168.362 Y159.062 E23.82353
G1 X168.193 Y159.398 E23.85099
G1 X167.664 Y160.358 E23.93099
G1 X167.469 Y160.682 E23.95859
G1 X167.045 Y161.344 E24.01597
G1 X166.834 Y161.655 E24.0434
G1 X166.292 Y162.402 E24.11077
G1 X166.06 Y162.701 E24.13839
G1 X165.496 Y163.384 E24.20304
G1 X165.249 Y163.665 E24.23035
