;FLAVOR:Marlin
;TIME:1317
;Filament used: 1.6374m
;Layer height: 0.15
;MINX:18.553
;MINY:-18.078
;MINZ:0.2
;MAXX:41.973
;MAXY:42.431
;MAXZ:8
;Generated with Cura_SteamEngine 4.10.0
M104 S228
M105
M109 S228
M82 ;absolute extrusion mode
G21        ;metric values
G90        ;absolute positioning
M107       ;start with the fan off
G28   ;move to endstops

;Z-Offset Reset und dann Z +0,1 für PLA
;MacroZOffset0
;MacroZOffsetPlus0100

G92 E0                  ;zero the extruded length
G1 F200 E3              ;extrude 3mm of feed stock
G92 E0                  ;zero the extruded length again
G1 F120
;Put printing message on LCD screen
M117 Printing...
G92 E0
G92 E0
G1 F2400 E-6
;LAYER_COUNT:53
;LAYER:0
M107
G0 X18.553 Y4.35 Z0.2
;TYPE:SKIRT
G1 F2400 E0
G1 F1200 X18.554 Y-10.724 E0.60916
G1 X18.575 Y-11.958 E0.65903
G1 X18.587 Y-12.209 E0.66919
G1 X18.645 Y-12.907 E0.69749
G1 X18.674 Y-13.155 E0.70758
G1 X18.772 Y-13.81 E0.73434
G1 X18.886 Y-14.391 E0.75827
G1 X19.073 Y-15.071 E0.78677
G1 X19.342 Y-15.754 E0.81643
G1 X19.596 Y-16.243 E0.8387
G1 X19.917 Y-16.692 E0.86101
G1 X20.301 Y-17.089 E0.88333
G1 X20.737 Y-17.426 E0.9056
G1 X21.218 Y-17.697 E0.92791
G1 X21.732 Y-17.896 E0.95018
G1 X22.27 Y-18.018 E0.97247
G1 X22.773 Y-18.06 E0.99287
G1 X23.593 Y-18.075 E1.02601
G1 X24.682 Y-18.078 E1.07002
G1 X25.571 Y-18.058 E1.10596
G1 X27.902 Y-17.969 E1.20022
G1 X30.656 Y-17.941 E1.31152
G1 X33.35 Y-17.991 E1.42041
G1 X34.402 Y-18.038 E1.46296
G1 X35.887 Y-18.076 E1.52299
G1 X37.038 Y-18.075 E1.5695
G1 X37.74 Y-18.064 E1.59788
G1 X38.289 Y-18.015 E1.62015
G1 X38.826 Y-17.888 E1.64245
G1 X39.339 Y-17.684 E1.66476
G1 X39.817 Y-17.408 E1.68706
G1 X40.25 Y-17.067 E1.70934
G1 X40.629 Y-16.666 E1.73163
G1 X40.947 Y-16.215 E1.75394
G1 X41.181 Y-15.756 E1.77476
G1 X41.456 Y-15.06 E1.805
G1 X41.612 Y-14.526 E1.82748
G1 X41.755 Y-13.825 E1.85639
G1 X41.814 Y-13.453 E1.87161
G1 X41.905 Y-12.71 E1.90186
G1 X41.949 Y-12.057 E1.92831
G1 X41.973 Y-10.66 E1.98477
G1 X41.973 Y4.225 E2.58629
G1 X41.963 Y4.931 E2.61482
G1 X41.89 Y5.749 E2.64801
G1 X41.843 Y6.014 E2.65889
G1 X41.502 Y7.765 E2.73098
G1 X41.054 Y10.464 E2.84154
G1 X40.687 Y13.146 E2.95093
G1 X40.395 Y15.854 E3.061
G1 X40.178 Y18.568 E3.17102
G1 X40.04 Y21.281 E3.2808
G1 X39.973 Y24.841 E3.42469
G1 X39.973 Y37.864 E3.95096
G1 X39.963 Y38.57 E3.9795
G1 X39.915 Y39.12 E4.00181
G1 X39.788 Y39.657 E4.02411
G1 X39.585 Y40.17 E4.0464
G1 X39.311 Y40.648 E4.06867
G1 X38.847 Y41.21 E4.09812
G1 X38.752 Y41.305 E4.10355
G1 X38.335 Y41.666 E4.12584
G1 X37.87 Y41.963 E4.14813
G1 X37.367 Y42.189 E4.17042
G1 X36.836 Y42.341 E4.19274
G1 X36.187 Y42.419 E4.21915
G1 X35.548 Y42.431 E4.24498
G1 X25.116 Y42.431 E4.66655
G1 X24.414 Y42.421 E4.69492
G1 X23.864 Y42.373 E4.71723
G1 X23.327 Y42.246 E4.73953
G1 X22.814 Y42.043 E4.76182
G1 X22.336 Y41.768 E4.78411
G1 X21.774 Y41.305 E4.81353
G1 X21.679 Y41.21 E4.81896
G1 X21.318 Y40.793 E4.84125
G1 X21.021 Y40.328 E4.86355
G1 X20.795 Y39.825 E4.88583
G1 X20.643 Y39.294 E4.90815
G1 X20.566 Y38.654 E4.9342
G1 X20.553 Y37.952 E4.96258
G1 X20.553 Y24.921 E5.48917
G1 X20.514 Y22.149 E5.6012
G1 X20.397 Y19.397 E5.71252
G1 X20.207 Y16.715 E5.82117
G1 X19.939 Y14.015 E5.93082
G1 X19.594 Y11.318 E6.04069
G1 X19.168 Y8.608 E6.15155
G1 X18.679 Y5.989 E6.25922
G1 X18.59 Y5.372 E6.28441
G1 X18.558 Y4.785 E6.30817
G1 X18.553 Y4.35 E6.32575
G0 F2400 X19.093 Y4.344
G1 F1200 X19.093 Y-10.715 E6.9343
G1 X19.114 Y-11.949 E6.98417
G1 X19.125 Y-12.164 E6.99287
G1 X19.183 Y-12.862 E7.02117
G1 X19.208 Y-13.075 E7.02984
G1 X19.306 Y-13.73 E7.0566
G1 X19.41 Y-14.261 E7.07847
G1 X19.582 Y-14.89 E7.10482
G1 X19.838 Y-15.541 E7.13309
G1 X20.076 Y-15.993 E7.15373
G1 X20.381 Y-16.403 E7.17438
G1 X20.746 Y-16.76 E7.19502
G1 X21.163 Y-17.056 E7.21568
G1 X21.621 Y-17.284 E7.23636
G1 X22.108 Y-17.437 E7.25699
G1 X22.783 Y-17.52 E7.28447
G1 X23.594 Y-17.535 E7.31725
G1 X24.683 Y-17.538 E7.36125
G1 X25.604 Y-17.517 E7.39848
G1 X27.911 Y-17.428 E7.49178
G1 X30.661 Y-17.401 E7.60292
G1 X33.348 Y-17.451 E7.71152
G1 X34.415 Y-17.498 E7.75468
G1 X35.991 Y-17.537 E7.81839
G1 X37.029 Y-17.535 E7.86033
G1 X37.731 Y-17.524 E7.88871
G1 X38.24 Y-17.476 E7.90937
G1 X38.735 Y-17.349 E7.93002
G1 X39.205 Y-17.147 E7.95069
G1 X39.637 Y-16.874 E7.97134
G1 X40.021 Y-16.537 E7.99199
G1 X40.348 Y-16.144 E8.01265
G1 X40.685 Y-15.543 E8.04049
G1 X40.939 Y-14.902 E8.06836
G1 X41.087 Y-14.399 E8.08955
G1 X41.225 Y-13.722 E8.11747
G1 X41.278 Y-13.388 E8.13113
G1 X41.369 Y-12.645 E8.16138
G1 X41.41 Y-12.047 E8.1856
G1 X41.433 Y-10.716 E8.2394
G1 X41.433 Y4.217 E8.84286
G1 X41.423 Y4.923 E8.87139
G1 X41.358 Y5.655 E8.90109
G1 X41.313 Y5.911 E8.91159
G1 X40.967 Y7.686 E8.98467
G1 X40.522 Y10.368 E9.09454
G1 X40.15 Y13.09 E9.20556
G1 X39.859 Y15.786 E9.31514
G1 X39.639 Y18.533 E9.4265
G1 X39.5 Y21.274 E9.53741
G1 X39.433 Y24.841 E9.68158
G1 X39.433 Y37.856 E10.20753
G1 X39.423 Y38.562 E10.23607
G1 X39.376 Y39.071 E10.25672
G1 X39.25 Y39.567 E10.2774
G1 X39.048 Y40.036 E10.29804
G1 X38.776 Y40.469 E10.3187
G1 X38.37 Y40.923 E10.34332
G1 X37.982 Y41.255 E10.36395
G1 X37.546 Y41.523 E10.38463
G1 X37.074 Y41.719 E10.40529
G1 X36.578 Y41.839 E10.42591
G1 X36.02 Y41.884 E10.44853
G1 X35.541 Y41.891 E10.46789
G1 X25.123 Y41.891 E10.88889
G1 X24.421 Y41.881 E10.91727
G1 X23.913 Y41.833 E10.93789
G1 X23.417 Y41.708 E10.95856
G1 X22.948 Y41.506 E10.97919
G1 X22.515 Y41.234 E10.99986
G1 X22.061 Y40.828 E11.02447
G1 X21.729 Y40.44 E11.04511
G1 X21.461 Y40.004 E11.06579
G1 X21.265 Y39.532 E11.08644
G1 X21.145 Y39.036 E11.10706
G1 X21.099 Y38.47 E11.13001
G1 X21.093 Y37.947 E11.15115
G1 X21.093 Y24.913 E11.67786
G1 X21.053 Y22.118 E11.79082
G1 X20.938 Y19.405 E11.90056
G1 X20.744 Y16.659 E12.0118
G1 X20.477 Y13.964 E12.12125
G1 X20.124 Y11.208 E12.23353
G1 X19.702 Y8.526 E12.34324
G1 X19.211 Y5.896 E12.45136
G1 X19.128 Y5.332 E12.4744
G1 X19.098 Y4.779 E12.49678
G1 X19.093 Y4.344 E12.51436
G1 F2400 E6.51436
;MESH:gate_new.stl
G0 X23.681 Y8.279
G0 X24.752 Y8.513
G0 X25.466 Y30.058
G0 X30.473 Y31.411
;TYPE:WALL-INNER
G1 F2400 E12.51436
G1 F1200 X34.273 Y31.411 E12.66792
G1 X34.273 Y36.731 E12.88291
G1 X26.253 Y36.731 E13.207
G1 X26.253 Y31.68 E13.41112
G1 X26.253 Y31.41 E13.42203
G1 X26.523 Y31.41 E13.42909
G1 X30.053 Y31.411 E13.57174
G1 X30.053 Y5.464 E14.62029
G1 X27.301 Y2.711 E14.7776
G1 X33.225 Y2.711 E15.01699
G1 X30.473 Y5.464 E15.1743
G1 X30.473 Y31.411 E15.98983
G0 F2400 X31.013 Y30.871
G1 F1200 X34.813 Y30.871 E16.14339
G1 X34.813 Y37.271 E16.40202
G1 X25.713 Y37.271 E16.76976
G1 X25.713 Y31.14 E17.01752
G1 X25.713 Y30.87 E17.02844
G1 X25.983 Y30.87 E17.0355
G1 X29.243 Y30.871 E17.16724
G1 X29.513 Y30.871 E17.17815
G1 X29.513 Y30.601 E17.18521
G1 X29.513 Y5.688 E18.19197
G1 X26.457 Y2.631 E18.36665
G1 X25.997 Y2.171 E18.39294
G1 X26.647 Y2.171 E18.40707
G1 X26.648 Y2.171 E18.40711
G1 X33.878 Y2.171 E18.69929
G1 X33.879 Y2.171 E18.69933
G1 X34.529 Y2.171 E18.72559
G1 X34.069 Y2.631 E18.73974
G1 X31.013 Y5.688 E18.91442
G1 X31.013 Y30.871 E19.93209
G0 F2400 X35.061 Y30.059
G0 X35.069 Y7.37
G0 X37.669 Y4.769
G0 X37.645 Y-9.211
G0 X36.808 Y-11.601
G1 F1200 X36.811 Y-11.529 E19.935
G1 X36.636 Y-11.585 E19.93869
G1 X36.613 Y-11.593
G1 X36.613 Y-12.068 E19.95414
G1 X36.613 Y-12.578 E19.97475
G1 X36.613 Y-12.916 E19.98841
G1 X36.681 Y-12.916
G1 X36.739 Y-12.578 E19.991
G1 X36.791 Y-12.068 E19.99687
G1 X36.808 Y-11.601 E20.00329
G0 F2400 X35.801 Y-12.585
G0 X24.725 Y-12.585
G0 X23.891 Y-11.586
G1 F1200 X23.716 Y-11.529 E20.01073
G1 X23.718 Y-11.599
G1 X23.735 Y-12.064 E20.02424
G1 X23.787 Y-12.58 E20.0452
G1 X23.845 Y-12.916 E20.05898
G1 X23.913 Y-12.916 E20.06173
G1 X23.913 Y-12.58 E20.06413
G1 X23.913 Y-12.064 E20.06999
G1 X23.913 Y-11.593 E20.07664
G1 X23.891 Y-11.586
G0 F2400 X23.606 Y-10.882
G1 F1200 X23.173 Y-10.547 E20.09876
G1 X23.173 Y-10.882 E20.10266
G1 X23.173 Y-10.965 E20.10601
G1 X23.173 Y-11.467 E20.1263
G1 X23.195 Y-12.083 E20.1512
G1 X23.252 Y-12.655 E20.17443
G1 X23.344 Y-13.19 E20.19637
G1 X23.414 Y-13.455 E20.20745
G1 X24.183 Y-13.457 E20.23852
G1 X24.453 Y-13.457 E20.24944
G1 X24.453 Y-13.187 E20.2565
G1 X24.453 Y-11.164 E20.33825
G1 X23.973 Y-11.053 E20.35816
G1 X23.681 Y-10.917 E20.37117
G1 X23.606 Y-10.882 E20.37424
G0 F2400 X24.725 Y-12.585
G0 X35.801 Y-12.585
G0 X36.554 Y-11.053
G1 F1200 X36.073 Y-11.164 E20.39419
G1 X36.073 Y-13.187 E20.47594
G1 X36.073 Y-13.457 E20.48685
G1 X36.343 Y-13.457 E20.49391
G1 X37.112 Y-13.455 E20.52499
G1 X37.172 Y-13.244 E20.53385
G1 X37.274 Y-12.653 E20.55809
G1 X37.331 Y-12.097 E20.58067
G1 X37.353 Y-11.48 E20.60562
G1 X37.353 Y-10.966 E20.6264
G1 X37.353 Y-10.883 E20.62975
G1 X37.353 Y-10.55 E20.64321
G1 X36.919 Y-10.883 E20.65572
G1 X36.844 Y-10.918 E20.65878
G1 X36.554 Y-11.053 E20.67171
G0 F2400 X37.561 Y-9.524
G0 X37.669 Y4.769
G0 X35.504 Y7.548
G1 F1200 X35.473 Y7.632 E20.67533
G1 X35.473 Y7.537 E20.67562
G1 X35.528 Y7.482 E20.67852
G1 X35.504 Y7.548 E20.67852
G0 F2400 X35.061 Y30.059
G0 X25.466 Y30.058
G0 X25.053 Y7.537
G1 F1200 X25.053 Y7.631 E20.68232
G1 X25.021 Y7.551 E20.68235
G1 X24.988 Y7.472 E20.68558
G1 X25.053 Y7.537 E20.68585
G0 F2400 X25.466 Y30.058
G0 X31.553 Y30.331
G1 F1200 X35.353 Y30.331 E20.83941
G1 X35.353 Y37.811 E21.14169
G1 X25.173 Y37.811 E21.55307
G1 X25.173 Y30.6 E21.84448
G1 X25.173 Y30.33 E21.85539
G1 X25.443 Y30.33 E21.86245
G1 X28.703 Y30.331 E21.99419
G1 X28.973 Y30.331 E22.0051
G1 X28.973 Y30.061 E22.01216
G1 X28.973 Y5.912 E22.98805
G1 X25.153 Y2.091 E23.20639
G1 X24.693 Y1.631 E23.23268
G1 X25.343 Y1.631 E23.24681
G1 X25.344 Y1.631 E23.24685
G1 X35.182 Y1.631 E23.64442
G1 X35.183 Y1.631 E23.64446
G1 X35.833 Y1.631 E23.67072
G1 X35.373 Y2.091 E23.68487
G1 X31.553 Y5.912 E23.90321
G1 X31.553 Y30.331 E24.89001
G0 F2400 X28.532 Y30.13
G0 X28.533 Y29.891
;TYPE:WALL-OUTER
G1 F1200 X28.533 Y29.621 E24.90092
G1 X28.533 Y6.094 E25.85167
G1 X24.133 Y1.693 E26.10316
G1 X24.133 Y-7.201 E26.46258
G1 X36.123 Y-7.202 E26.9471
G1 X36.393 Y-7.202 E26.95802
G1 X36.393 Y-6.932 E26.96508
G1 X36.393 Y1.693 E27.31362
G1 X31.993 Y6.094 E27.56511
G1 X31.993 Y29.891 E28.52677
G1 X35.033 Y29.891 E28.64962
G1 X35.033 Y7.355 E29.56033
G1 X35.996 Y6.392 E29.61536
G1 X36.039 Y6.349 E29.61782
G1 X36.429 Y5.959 E29.64011
G1 X37.146 Y5.241 E29.68111
G1 X37.257 Y5.13 E29.68746
G1 X37.471 Y4.916 E29.69969
G1 X37.633 Y4.754 E29.70894
G1 X37.633 Y-8.895 E30.26051
G1 X37.606 Y-9.205 E30.27309
G1 X37.522 Y-9.519 E30.28622
G1 X37.384 Y-9.815 E30.29942
G1 X37.265 Y-9.985 E30.30781
G1 X37.197 Y-10.083 E30.31263
G1 X36.967 Y-10.313 E30.32577
G1 X36.699 Y-10.5 E30.33898
G1 X36.403 Y-10.638 E30.35218
G1 X36.088 Y-10.722 E30.36535
G1 X35.633 Y-10.749 E30.38377
G1 X35.633 Y-12.557 E30.45683
G1 X24.893 Y-12.557 E30.89085
G1 X24.893 Y-10.749 E30.96391
G1 X24.438 Y-10.722 E30.98233
G1 X24.124 Y-10.638 E30.99547
G1 X23.827 Y-10.5 E31.0087
G1 X23.56 Y-10.312 E31.0219
G1 X23.331 Y-10.083 E31.03498
G1 X23.261 Y-9.983 E31.03992
G1 X23.142 Y-9.815 E31.04824
G1 X23.005 Y-9.519 E31.06142
G1 X22.92 Y-9.206 E31.07452
G1 X22.893 Y-8.895 E31.08714
G1 X22.893 Y4.754 E31.63871
G1 X22.962 Y4.823 E31.64265
G1 X23.175 Y5.036 E31.65483
G1 X23.508 Y5.369 E31.67386
G1 X24.233 Y6.095 E31.71532
G1 X24.492 Y6.354 E31.73012
G1 X24.537 Y6.399 E31.73269
G1 X25.493 Y7.355 E31.78733
G1 X25.494 Y29.89 E32.69799
G1 X28.263 Y29.891 E32.80989
G1 X28.533 Y29.891 E32.81695
G0 F2400 X28.533 Y29.621
G0 X28.533 Y29.491
G0 X28.773 Y29.491
G0 X31.817 Y6.021
G0 X35.661 Y1.359
G0 X35.703 Y-6.624
G0 X35.633 Y-6.554
G1 F1200 X24.893 Y-6.554 E33.25097
G1 X24.893 Y1.191 E33.56395
G1 X35.633 Y1.191 E33.99797
G1 X35.633 Y-6.554 E34.31095
G0 F2400 X35.233 Y-6.554
G0 X35.233 Y-6.654
G0 X36.365 Y-7.174
G0 X36.101 Y1.755
G0 X31.817 Y6.021
G0 X31.825 Y30.059
G0 X35.061 Y30.059
G0 X35.069 Y7.37
G0 X37.669 Y4.769
G0 X37.645 Y-9.211
G0 X35.633 Y-13.104
G0 X35.633 Y-13.204
G1 F1200 X35.633 Y-13.627 E34.32804
G1 X35.633 Y-13.897 E34.33895
G1 X35.903 Y-13.897 E34.34602
G1 X37.444 Y-13.895 E34.40829
G1 X37.603 Y-13.335 E34.43181
G1 X37.71 Y-12.715 E34.45724
G1 X37.771 Y-12.12 E34.48141
G1 X37.793 Y-11.495 E34.50668
G1 X37.793 Y-10.023 E34.56617
G1 X37.793 Y-9.815 E34.57293
G1 X37.793 Y-9.519 E34.58035
G1 X37.793 Y-9.205 E34.58567
G1 X37.793 Y-8.895 E34.58969
G1 X37.793 Y4.754 E34.75312
G1 X37.793 Y4.863 E34.75403
G1 X37.745 Y5.188 E34.76233
G1 X37.603 Y5.474 E34.77285
G1 X37.501 Y5.595 E34.77871
G1 X36.785 Y6.314 E34.81679
G1 X36.41 Y6.72 E34.83801
G1 X36.38 Y6.772 E34.8404
G1 X36.047 Y7.343 E34.86711
G1 X35.892 Y7.767 E34.88535
G1 X35.793 Y8.522 E34.91612
G1 X35.793 Y38.251 E36.1175
G1 X24.733 Y38.251 E36.56445
G1 X24.733 Y8.523 E37.76579
G1 X24.709 Y8.147 E37.78102
G1 X24.633 Y7.766 E37.79672
G1 X24.361 Y7.103 E37.82567
G1 X24.154 Y6.78 E37.84118
G1 X24.12 Y6.727 E37.84369
G1 X23.88 Y6.449 E37.85782
G1 X23.153 Y5.725 E37.89625
G1 X22.852 Y5.359 E37.91335
G1 X22.747 Y5.039 E37.92324
G1 X22.733 Y4.862 E37.92686
G1 X22.733 Y4.754 E37.92859
G1 X22.733 Y-8.895 E38.09201
G1 X22.733 Y-9.206 E38.09605
G1 X22.733 Y-9.519 E38.10137
G1 X22.733 Y-9.815 E38.1088
G1 X22.733 Y-10.021 E38.11616
G1 X22.733 Y-11.482 E38.1752
G1 X22.755 Y-12.112 E38.20068
G1 X22.816 Y-12.715 E38.22517
G1 X22.912 Y-13.279 E38.24829
G1 X23.063 Y-13.845 E38.27196
G1 X23.083 Y-13.894 E38.2741
G1 X24.623 Y-13.898 E38.33634
G1 X24.893 Y-13.898 E38.34725
G1 X24.893 Y-13.628 E38.35431
G1 X24.893 Y-13.204 E38.37144
G1 X35.633 Y-13.204 E38.80546
G0 F2400 X35.633 Y-13.604
G0 X35.873 Y-13.604
G0 X37.561 Y-9.524
G0 X37.669 Y4.769
G0 X35.069 Y7.37
G0 X35.061 Y30.059
G0 X31.825 Y30.059
G0 X31.817 Y6.021
G0 X31.945 Y3.241
;TYPE:SKIN
G1 F1200 X30.263 Y4.924 E38.9123
G1 X28.581 Y3.241 E39.01913
G1 X31.945 Y3.241 E39.17018
G0 F2400 X29.812 Y3.751
G1 F1200 X30.262 Y4.202 E39.19879
G1 X30.596 Y3.867 E39.22003
G1 X30.479 Y3.751 E39.22743
G1 X30.712 Y3.75 E39.23789
G0 F2400 X31.825 Y30.059
G0 X33.743 Y31.941
G1 F1200 X33.743 Y36.201 E39.42917
G1 X26.783 Y36.201 E39.74168
G1 X26.783 Y31.94 E39.933
G1 X33.743 Y31.941 E40.24552
G0 F2400 X33.231 Y32.451
G1 F1200 X33.214 Y32.451 E40.24628
G1 X32.451 Y32.451 E40.28054
G1 X33.232 Y33.232 E40.33013
G1 X33.232 Y33.996 E40.36444
G1 X31.687 Y32.451 E40.46254
G1 X30.923 Y32.45 E40.49685
G1 X33.232 Y34.759 E40.64347
G1 X33.232 Y35.523 E40.67778
G1 X30.159 Y32.45 E40.87291
G1 X29.395 Y32.45 E40.90721
G1 X32.635 Y35.69 E41.11295
G1 X31.872 Y35.69 E41.14721
G1 X28.631 Y32.449 E41.35302
G1 X27.867 Y32.449 E41.38732
G1 X31.108 Y35.69 E41.59312
G1 X30.344 Y35.69 E41.62743
G1 X27.292 Y32.638 E41.82123
G1 X27.292 Y33.402 E41.85554
G1 X29.581 Y35.69 E42.00085
G1 X28.817 Y35.69 E42.03516
G1 X27.292 Y34.165 E42.132
G1 X27.292 Y34.929 E42.1663
G1 X28.053 Y35.69 E42.21462
G1 X27.292 Y35.69 E42.24879
G0 F2400 X25.238 Y29.905
G0 X25.112 Y29.779
;TYPE:SKIN
G1 F1200 X25.112 Y29.355 E42.25696
G1 X25.109 Y8.563 E42.65764
G1 X25.083 Y8.112 E42.66634
G0 F2400 X24.93 Y7.959
G0 X25.466 Y30.058
G0 X28.701 Y30.059
G0 X28.709 Y6.021
G0 X28.327 Y3.295
G1 F1200 X27.997 Y2.966 E42.6768
G0 F2400 X24.637 Y1.303
G0 X24.512 Y1.177
G1 F1200 X24.512 Y0.753 E42.68342
G1 X24.512 Y-6.458 E42.79593
G1 X24.543 Y-6.851 E42.80208
G1 X30.033 Y-6.877 E42.88775
G1 X35.548 Y-6.877 E42.9738
G1 X36.02 Y-6.829 E42.9812
G1 X36.012 Y1.222 E43.10683
G0 F2400 X36.137 Y1.347
G0 X32.424 Y3.15
G1 F1200 X32.24 Y2.966 E43.11267
G0 F2400 X31.817 Y6.021
G0 X31.825 Y30.059
G0 X35.061 Y30.059
G0 X35.448 Y7.871
G0 X35.524 Y7.947
G1 F1200 X35.418 Y8.266 E43.11909
G1 X35.411 Y19.713 E43.33782
G1 X35.411 Y29.896 E43.53241
G0 F2400 X35.537 Y30.021
G0 X31.825 Y30.059
G0 X28.709 Y6.021
G0 X24.465 Y1.554
G1 F1200 X24.387 Y1.477 E43.53487
G0 F2400 X28.709 Y6.021
G0 X28.701 Y30.059
G0 X25.466 Y30.058
G0 X25.457 Y7.37
G0 X22.857 Y4.769
G0 X22.88 Y-9.21
G0 X24.563 Y-12.31
G0 X24.878 Y-12.88
G1 F1200 X25.303 Y-12.88 E43.53934
G1 X35.485 Y-12.88 E43.64652
G0 F2400 X35.554 Y-12.664
;MESH:NONMESH
G0 F600 X35.554 Y-12.664 Z0.35
G0 F2400 X37.418 Y-9.836
G0 X37.669 Y4.769
G0 X35.069 Y7.37
G0 X35.061 Y30.059
G0 X30.438 Y31.446
;TIME_ELAPSED:78.785901
;LAYER:1
M106 S25.5
;TYPE:WALL-INNER
;MESH:gate_new.stl
