; generated by PrusaSlicer 2.8.1+win64 on 2025-02-04 at 15:08:06 UTC

; 

; external perimeters extrusion width = 0.44mm
; perimeters extrusion width = 0.44mm
; infill extrusion width = 0.44mm
; solid infill extrusion width = 0.44mm
; top infill extrusion width = 0.40mm
; support material extrusion width = 0.44mm
; first layer extrusion width = 0.44mm

M73 P0 R23
;TYPE:Custom
;G28 ; home all axes
;G1 Z5 F5000 ; lift nozzle
M109 S205
G28 ;home
G92 E0 ;Reset Extruder
G1 Z4.0 F3000 ;Move Z Axis up
G92 E0 ;Reset Extruder
G1 X3.1 Y20 Z0.28 F5000.0 ;Move to start position
G1 X3.1 Y80.0 Z0.28 F1500.0 E10 ;Draw the first line
G1 X3.4 Y80.0 Z0.28 F5000.0 ;Move to side a little
G1 X3.4 Y20 Z0.28 F1500.0 E20 ;Draw the second line
G92 E0 ;Reset Extruder
G1 Z2.0 F3000 ;Move Z Axis up
G21 ; set units to millimeters
G90 ; use absolute coordinates
M82 ; use absolute distances for extrusion
G92 E0
; Filament gcode
M107
;LAYER_CHANGE
;Z:0.3
;HEIGHT:0.3
G1 E-2 F2400
G1 Z.7 F9000
G1 X84.018 Y55.784
G1 Z.3
G1 E0 F2400
;TYPE:Skirt/Brim
;WIDTH:0.44
G1 F1800
G1 X85.591 Y53.733 E.11504
G1 X86.733 Y52.591 E.18692
G1 X88.783 Y51.018 E.30192
G1 X90.182 Y50.21 E.37382
G1 X92.57 Y49.221 E.48886
G1 X94.13 Y48.803 E.56074
G1 X97.506 Y48.412 E.712
G1 X137.494 Y48.412 E2.49174
G1 X138.301 Y48.465 E2.52773
G1 X140.87 Y48.803 E2.64305
G1 X142.43 Y49.221 E2.71493
G1 X144.818 Y50.21 E2.82997
G1 X146.217 Y51.018 E2.90187
G1 X148.267 Y52.591 E3.01687
G1 X149.409 Y53.733 E3.08875
G1 X150.982 Y55.784 E3.20379
G1 X151.79 Y57.182 E3.27566
G1 X152.779 Y59.57 E3.3907
G1 X153.197 Y61.13 E3.46258
G1 X153.535 Y63.699 E3.5779
G1 X153.588 Y64.507 E3.61394
G1 X153.588 Y170.493 E8.33104
G1 X153.197 Y173.87 E8.48234
M73 P0 R22
G1 X152.779 Y175.43 E8.55422
G1 X151.79 Y177.818 E8.66926
G1 X150.982 Y179.216 E8.74113
G1 X149.409 Y181.267 E8.85617
G1 X148.267 Y182.409 E8.92805
G1 X146.216 Y183.982 E9.04309
G1 X144.817 Y184.79 E9.11499
G1 X142.43 Y185.779 E9.22999
G1 X140.87 Y186.197 E9.30187
G1 X137.493 Y186.588 E9.45317
G1 X97.506 Y186.588 E11.23287
G1 X94.13 Y186.197 E11.38413
M73 P1 R22
G1 X92.57 Y185.779 E11.45601
G1 X90.182 Y184.79 E11.57105
G1 X88.783 Y183.982 E11.64295
G1 X86.733 Y182.409 E11.75795
G1 X85.591 Y181.267 E11.82983
G1 X84.018 Y179.216 E11.94487
G1 X83.21 Y177.818 E12.01674
G1 X82.221 Y175.43 E12.13178
G1 X81.803 Y173.87 E12.20366
G1 X81.465 Y171.301 E12.31898
G1 X81.412 Y170.493 E12.35502
G1 X81.412 Y64.507 E17.07212
G1 X81.803 Y61.13 E17.22342
G1 X82.221 Y59.57 E17.2953
G1 X83.21 Y57.182 E17.41034
G1 X83.988 Y55.835 E17.47957
G1 E15.47957 F2400
G92 E0
G1 X83.988 Y55.835 Z.7 F9000
G92 E0
G1 X118.268 Y163.633
G1 Z.3
G1 E2 F2400
;TYPE:External perimeter
;WIDTH:0.44
G1 F420
G1 X118.964 Y163.915 E2.03342
G1 X119.583 Y164.382 E2.06793
G1 X120.06 Y164.993 E2.10243
G1 X120.363 Y165.707 E2.13695
G1 X120.471 Y166.475 E2.17147
G1 X120.376 Y167.245 E2.206
G1 X120.085 Y167.964 E2.24052
G1 X119.618 Y168.583 E2.27503
G1 X119.007 Y169.061 E2.30956
G1 X118.293 Y169.363 E2.34406
G1 X117.524 Y169.471 E2.37862
G1 X116.755 Y169.376 E2.41311
G1 X116.036 Y169.085 E2.44763
G1 X115.417 Y168.618 E2.48214
G1 X114.939 Y168.007 E2.51667
G1 X114.637 Y167.293 E2.55117
G1 X114.529 Y166.525 E2.58569
G1 X114.624 Y165.755 E2.62022
G1 X114.915 Y165.036 E2.65474
G1 X115.382 Y164.417 E2.68925
G1 X115.993 Y163.939 E2.72378
G1 X116.722 Y163.631 E2.759
G1 X117.475 Y163.529 E2.79282
G1 X118.21 Y163.62 E2.82578
G1 X118.584 Y163.762 F9000
G1 E.82578 F2400
G92 E0
G1 Z.7 F9000
G1 X139.884 Y171.139
G1 Z.3
G1 E2 F2400
G1 F420
G1 X139.652 Y171.714 E2.0276
G1 X139.264 Y172.23 E2.05633
G1 X138.757 Y172.628 E2.08502
G1 X138.163 Y172.88 E2.11374
G1 X137.524 Y172.971 E2.14247
G1 X136.884 Y172.893 E2.17117
G1 X136.286 Y172.652 E2.19987
G1 X135.77 Y172.264 E2.2286
G1 X135.372 Y171.757 E2.25729
G1 X135.12 Y171.163 E2.28601
G1 X135.029 Y170.525 E2.31469
G1 X135.107 Y169.884 E2.34343
G1 X135.348 Y169.286 E2.37213
G1 X135.735 Y168.77 E2.40084
G1 X136.243 Y168.372 E2.42956
G1 X136.837 Y168.12 E2.45828
G1 X137.524 Y168.029 E2.48912
G1 X138.116 Y168.107 E2.5157
G1 X138.714 Y168.348 E2.5444
G1 X139.23 Y168.736 E2.57313
G1 X139.627 Y169.243 E2.60179
G1 X139.88 Y169.837 E2.63053
G1 X139.971 Y170.475 E2.65921
G1 X139.897 Y171.081 E2.68638
G1 X139.755 Y171.455 F9000
G1 E.68638 F2400
G92 E0
G1 Z.7 F9000
G1 X138.139 Y128.116
G1 Z.3
G1 E2 F2400
G1 F420
G1 X138.714 Y128.348 E2.0276
G1 X139.23 Y128.736 E2.05633
G1 X139.628 Y129.243 E2.08502
G1 X139.88 Y129.837 E2.11374
G1 X139.971 Y130.475 E2.14242
G1 X139.893 Y131.116 E2.17116
G1 X139.652 Y131.714 E2.19986
G1 X139.265 Y132.23 E2.22857
G1 X138.757 Y132.628 E2.25729
G1 X138.163 Y132.88 E2.28601
G1 X137.525 Y132.971 E2.31469
G1 X136.884 Y132.893 E2.34343
G1 X136.286 Y132.652 E2.37213
G1 X135.77 Y132.264 E2.40086
M73 P2 R22
G1 X135.373 Y131.757 E2.42952
G1 X135.12 Y131.163 E2.45826
G1 X135.029 Y130.525 E2.48694
G1 X135.107 Y129.884 E2.51568
G1 X135.358 Y129.265 E2.54541
G1 X135.736 Y128.77 E2.57313
G1 X136.243 Y128.372 E2.60182
G1 X136.837 Y128.12 E2.63054
G1 X137.476 Y128.029 E2.65927
G1 X138.081 Y128.103 E2.6864
G1 X138.455 Y128.245 F9000
G1 E.6864 F2400
G92 E0
G1 Z.7 F9000
G1 X118.984 Y137.07
G1 Z.3
G1 E2 F2400
G1 F420
G1 X118.293 Y137.363 E2.0334
G1 X117.524 Y137.471 E2.06796
G1 X116.755 Y137.376 E2.10245
G1 X116.036 Y137.085 E2.13697
G1 X115.417 Y136.618 E2.17148
G1 X114.939 Y136.007 E2.20601
G1 X114.637 Y135.293 E2.24051
G1 X114.529 Y134.525 E2.27503
G1 X114.634 Y133.716 E2.31134
G1 X114.915 Y133.036 E2.34409
G1 X115.382 Y132.417 E2.3786
G1 X115.993 Y131.939 E2.41313
G1 X116.707 Y131.637 E2.44763
G1 X117.475 Y131.529 E2.48215
G1 X118.245 Y131.624 E2.51668
G1 X118.964 Y131.915 E2.5512
G1 X119.583 Y132.382 E2.58571
G1 X120.06 Y132.993 E2.62021
G1 X120.363 Y133.707 E2.65473
G1 X120.459 Y134.39 E2.68543
G1 X120.471 Y134.525 E2.69146
G1 X120.376 Y135.245 E2.72378
G1 X120.085 Y135.964 E2.7583
G1 X119.618 Y136.583 E2.79281
G1 X119.034 Y137.039 E2.82579
G1 X118.669 Y137.202 F9000
G1 E.82579 F2400
G92 E0
G1 Z.7 F9000
G1 X96.266 Y128.363
G1 Z.3
G1 E2 F2400
G1 F420
G1 X96.837 Y128.12 E2.02762
G1 X97.475 Y128.029 E2.0563
G1 X98.116 Y128.107 E2.08504
G1 X98.714 Y128.348 E2.11374
G1 X99.23 Y128.736 E2.14247
G1 X99.627 Y129.243 E2.17113
G1 X99.88 Y129.837 E2.19987
G1 X99.971 Y130.475 E2.22855
G1 X99.893 Y131.116 E2.25729
G1 X99.652 Y131.714 E2.28599
G1 X99.264 Y132.23 E2.31472
G1 X98.757 Y132.628 E2.34341
G1 X98.163 Y132.88 E2.37213
G1 X97.524 Y132.971 E2.40086
G1 X96.884 Y132.893 E2.42956
G1 X96.286 Y132.652 E2.45826
G1 X95.77 Y132.264 E2.48699
G1 X95.372 Y131.757 E2.51568
G1 X95.12 Y131.163 E2.5444
G1 X95.029 Y130.525 E2.57308
G1 X95.107 Y129.884 E2.60182
G1 X95.348 Y129.286 E2.63052
G1 X95.735 Y128.77 E2.65923
G1 X96.216 Y128.394 E2.6864
G1 X96.581 Y128.23 F9000
G1 E.6864 F2400
G92 E0
G1 Z.7 F9000
G1 X96.861 Y172.884
G1 Z.3
G1 E2 F2400
G1 F420
G1 X96.286 Y172.652 E2.0276
G1 X95.77 Y172.264 E2.05633
G1 X95.372 Y171.757 E2.08502
G1 X95.12 Y171.163 E2.11374
G1 X95.028 Y170.487 E2.1441
G1 X95.107 Y169.884 E2.17117
G1 X95.348 Y169.286 E2.19987
G1 X95.735 Y168.77 E2.22858
G1 X96.243 Y168.372 E2.2573
G1 X96.837 Y168.12 E2.28602
G1 X97.475 Y168.029 E2.3147
G1 X98.116 Y168.107 E2.34344
G1 X98.714 Y168.348 E2.37214
G1 X99.23 Y168.736 E2.40087
G1 X99.627 Y169.243 E2.42953
G1 X99.88 Y169.837 E2.45827
G1 X99.971 Y170.475 E2.48695
G1 X99.893 Y171.116 E2.51569
G1 X99.652 Y171.714 E2.54439
G1 X99.264 Y172.23 E2.57312
G1 X98.757 Y172.628 E2.60181
G1 X98.163 Y172.88 E2.63053
G1 X97.524 Y172.971 E2.65926
G1 X96.919 Y172.897 E2.68639
G1 X96.545 Y172.755 F9000
G1 E.68639 F2400
G92 E0
G1 Z.7 F9000
G1 X95.034 Y121.299
G1 Z.3
G1 E2 F2400
G1 F1080
G1 X97.531 Y120.97 E2.11209
G1 X137.469 Y120.97 E3.8896
G1 X139.966 Y121.299 E4.00169
G1 X142.263 Y122.25 E4.11234
G1 X144.236 Y123.764 E4.22303
G1 X145.75 Y125.737 E4.33372
G1 X146.701 Y128.035 E4.44441
G1 X146.986 Y130.199 E4.54155
G1 X147.03 Y130.762 E4.56668
G1 X147.03 Y170.469 E6.33391
G1 X146.701 Y172.965 E6.44596
M73 P3 R22
G1 X145.75 Y175.263 E6.55665
G1 X144.236 Y177.236 E6.66734
G1 X142.263 Y178.75 E6.77803
G1 X139.965 Y179.701 E6.88872
G1 X137.469 Y180.03 E7.00077
G1 X97.531 Y180.03 E8.77828
G1 X95.034 Y179.701 E8.89037
G1 X92.737 Y178.75 E9.00102
G1 X90.764 Y177.236 E9.11171
G1 X89.25 Y175.263 E9.2224
G1 X88.299 Y172.965 E9.33309
G1 X87.97 Y170.469 E9.44514
G1 X87.97 Y130.531 E11.22265
G1 X88.299 Y128.035 E11.3347
G1 X89.25 Y125.737 E11.44539
G1 X90.764 Y123.764 E11.55608
G1 X92.737 Y122.25 E11.66677
G1 X94.979 Y121.322 E11.77476
G1 X95.374 Y121.256 F9000
G1 E9.77476 F2400
G92 E0
G1 Z.7 F9000
G1 X92.822 Y122.357
G1 Z.3
G1 E2 F2400
;TYPE:Solid infill
;WIDTH:0.441347
G1 F1800
G1 X98.33 Y127.865 E2.34793
G1 X98.266 Y127.837 E2.35105
G1 X97.681 Y127.749 E2.37747
G1 X92.637 Y122.705 E2.69609
G1 X92.336 Y122.937 E2.71306
G1 X97.167 Y127.768 E3.01822
G1 X96.782 Y127.821 E3.03558
G1 X96.714 Y127.848 E3.03885
G1 X92.034 Y123.168 E3.33448
G1 X91.733 Y123.4 E3.35145
G1 X96.336 Y128.003 E3.64221
G1 X96.158 Y128.076 E3.6508
G1 X95.996 Y128.196 E3.6598
G1 X91.431 Y123.631 E3.94816
G1 X91.129 Y123.863 E3.96517
G1 X95.691 Y128.424 E4.25331
G1 X95.539 Y128.538 E4.2618
G1 X95.423 Y128.689 E4.27031
G1 X90.863 Y124.129 E4.55836
G1 X90.631 Y124.431 E4.57537
G1 X95.191 Y128.991 E4.86342
G1 X95.098 Y129.113 E4.87027
G1 X95.004 Y129.337 E4.88112
G1 X90.4 Y124.733 E5.17194
G1 X90.168 Y125.034 E5.18891
G1 X94.846 Y129.712 E5.48441
G1 X94.775 Y130.174 E5.50529
G1 X89.937 Y125.336 E5.8109
G1 X89.705 Y125.638 E5.82791
G1 X94.748 Y130.68 E6.14643
G1 X94.813 Y131.185 E6.16917
G1 X94.875 Y131.341 E6.17667
G1 X89.487 Y125.952 E6.51705
G1 X89.33 Y126.329 E6.53529
G1 X141.671 Y178.67 E9.84156
G1 X142.048 Y178.513 E9.8598
M73 P4 R22
G1 X136.654 Y173.12 E10.2005
G1 X136.831 Y173.189 E10.20899
G1 X137.321 Y173.253 E10.23106
G1 X142.362 Y178.295 E10.54952
G1 X142.664 Y178.063 E10.56653
G1 X137.825 Y173.224 E10.8722
G1 X138.288 Y173.154 E10.89312
G1 X142.966 Y177.832 E11.18862
G1 X143.267 Y177.6 E11.20559
G1 X138.663 Y172.996 E11.49641
G1 X138.887 Y172.902 E11.50726
G1 X139.009 Y172.809 E11.51411
G1 X143.569 Y177.369 E11.80216
G1 X143.871 Y177.137 E11.81917
G1 X139.311 Y172.577 E12.10722
G1 X139.461 Y172.461 E12.11569
G1 X139.577 Y172.311 E12.12416
G1 X144.137 Y176.871 E12.41221
G1 X144.369 Y176.569 E12.42922
G1 X139.809 Y172.009 E12.71727
G1 X139.902 Y171.887 E12.72412
G1 X139.996 Y171.663 E12.73497
G1 X144.6 Y176.267 E13.02579
G1 X144.832 Y175.966 E13.04276
G1 X140.154 Y171.288 E13.33826
G1 X140.224 Y170.825 E13.35918
G1 X145.063 Y175.664 E13.66485
G1 X145.295 Y175.362 E13.68186
G1 X140.253 Y170.321 E14.00032
G1 X140.189 Y169.831 E14.02239
G1 X140.12 Y169.654 E14.03088
G1 X145.513 Y175.048 E14.37158
G1 X145.67 Y174.671 E14.38982
G1 X93.329 Y122.33 E17.69609
G1 X93.706 Y122.174 E17.71431
G1 X145.826 Y174.294 E21.00662
G1 X145.982 Y173.917 E21.02484
G1 X94.083 Y122.018 E24.30319
G1 X94.46 Y121.862 E24.32141
G1 X146.138 Y173.54 E27.5858
G1 X146.294 Y173.163 E27.60402
M73 P5 R21
G1 X94.837 Y121.706 E30.85445
G1 X95.113 Y121.591 E30.86781
G1 X95.239 Y121.575 E30.87348
G1 X146.425 Y172.761 E34.10679
G1 X146.487 Y172.29 E34.12801
G1 X95.71 Y121.513 E37.33548
G1 X96.181 Y121.451 E37.3567
G1 X146.549 Y171.819 E40.53834
G1 X146.611 Y171.348 E40.55956
G1 X96.652 Y121.389 E43.71536
G1 X97.123 Y121.327 E43.73658
G1 X146.673 Y170.877 E46.86655
G1 X146.729 Y170.4 E46.888
M73 P6 R21
G1 X97.6 Y121.27 E49.9914
G1 X98.133 Y121.27 E50.01521
G1 X146.729 Y169.867 E53.08495
G1 X146.729 Y169.334 E53.10876
G1 X98.666 Y121.27 E56.14483
G1 X99.199 Y121.27 E56.16864
G1 X146.898 Y168.97 E59.18171
G1 E57.18171 F2400
G92 E0
G1 X146.898 Y168.97 Z.7 F9000
G1 X138.644 Y168.179
G1 Z.3
G1 E2 F2400
G1 F1800
G1 X100.132 Y129.667 E4.43272
G1 X100.18 Y129.785 E4.43841
G1 X100.252 Y130.32 E4.46252
G1 X137.688 Y167.756 E6.82727
G1 X137.481 Y167.726 E6.83661
M73 P7 R21
G1 X137.168 Y167.769 E6.85072
G1 X100.225 Y130.826 E9.18433
G1 X100.154 Y131.288 E9.20521
G1 X136.714 Y167.848 E11.51463
G1 X136.336 Y168.003 E11.53288
G1 X99.997 Y131.664 E13.82834
G1 X99.906 Y131.88 E13.83881
G1 X99.808 Y132.008 E13.84601
G1 X135.996 Y168.196 E16.13193
G1 X135.691 Y168.424 E16.14894
G1 X99.577 Y132.31 E18.43018
G1 X99.462 Y132.461 E18.43866
G1 X99.309 Y132.575 E18.44718
G1 X135.424 Y168.691 E20.72852
G1 X135.196 Y168.996 E20.74553
G1 X99.004 Y132.803 E23.03173
G1 X98.842 Y132.924 E23.04076
G1 X98.664 Y132.997 E23.04935
G1 X135.003 Y169.336 E25.34481
G1 X134.85 Y169.716 E25.36311
M73 P8 R21
G1 X98.286 Y133.152 E27.67278
G1 X98.217 Y133.179 E27.67609
G1 X97.832 Y133.231 E27.69344
G1 X134.768 Y170.167 E30.02661
G1 X134.726 Y170.487 E30.04103
G1 X134.755 Y170.687 E30.05006
G1 X97.312 Y133.244 E32.41525
G1 X96.735 Y133.163 E32.44128
G1 X96.672 Y133.137 E32.44432
G1 X135.179 Y171.644 E34.87672
G1 E32.87672 F2400
G92 E0
G1 X135.179 Y171.644 Z.7 F9000
G1 X141.424 Y178.955
G1 Z.3
G1 E2 F2400
G1 F1800
G1 X89.174 Y126.706 E5.30049
G1 X89.018 Y127.083 E5.31871
G1 X140.917 Y178.982 E8.59706
G1 X140.54 Y179.138 E8.61528
G1 X88.862 Y127.46 E11.87967
G1 X88.706 Y127.837 E11.89789
M73 P9 R21
G1 X140.163 Y179.294 E15.14832
G1 X139.887 Y179.409 E15.16168
G1 X139.761 Y179.425 E15.16735
G1 X88.575 Y128.239 E18.40066
G1 X88.513 Y128.71 E18.42188
M73 P9 R20
G1 X139.29 Y179.487 E21.62935
G1 X138.819 Y179.549 E21.65057
G1 X88.451 Y129.181 E24.83221
G1 X88.389 Y129.652 E24.85343
G1 X138.348 Y179.611 E28.00923
G1 X137.877 Y179.673 E28.03045
G1 X88.327 Y130.123 E31.16042
G1 X88.27 Y130.6 E31.18188
M73 P10 R20
G1 X137.4 Y179.73 E34.28532
G1 X136.867 Y179.73 E34.30913
G1 X88.27 Y131.133 E37.3789
G1 X88.27 Y131.666 E37.40271
G1 X136.334 Y179.73 E40.43881
G1 X135.801 Y179.73 E40.46262
G1 X88.27 Y132.199 E43.46505
G1 X88.27 Y132.732 E43.48886
G1 X135.268 Y179.73 E46.45762
G1 X134.734 Y179.73 E46.48147
G1 X120.663 Y165.658 E47.37034
G1 X120.745 Y166.273 E47.39805
M73 P11 R20
G1 X134.201 Y179.73 E48.24807
G1 X133.668 Y179.73 E48.27188
G1 X120.731 Y166.793 E49.08908
G1 X120.665 Y167.26 E49.11015
G1 X133.135 Y179.73 E49.89785
G1 X132.602 Y179.73 E49.92166
G1 X120.534 Y167.662 E50.68397
G1 X120.377 Y168.038 E50.70217
G1 X132.069 Y179.73 E51.44073
G1 X131.536 Y179.73 E51.46454
G1 X120.165 Y168.359 E52.18282
G1 X119.934 Y168.66 E52.19977
G1 X131.003 Y179.73 E52.89901
G1 X130.47 Y179.73 E52.92282
G1 X119.666 Y168.926 E53.60529
G1 X119.362 Y169.155 E53.62229
G1 X129.936 Y179.73 E54.29026
G1 X129.403 Y179.73 E54.31407
G1 X119.049 Y169.375 E54.96814
G1 X118.671 Y169.53 E54.98639
G1 X128.87 Y179.73 E55.63067
G1 X128.337 Y179.73 E55.65448
G1 X118.279 Y169.671 E56.28985
G1 X117.808 Y169.733 E56.31107
G1 X127.804 Y179.73 E56.94253
G1 X127.271 Y179.73 E56.96634
G1 X117.287 Y169.746 E57.59701
G1 X116.673 Y169.665 E57.62467
G1 X126.738 Y179.73 E58.26045
G1 X126.205 Y179.73 E58.28426
G1 X88.27 Y141.795 E60.68053
G1 X88.27 Y141.262 E60.70434
G1 X114.346 Y167.337 E62.35147
G1 X114.258 Y166.716 E62.37948
G1 X88.27 Y140.729 E64.02105
G1 X88.27 Y140.196 E64.04486
G1 X114.266 Y166.192 E65.68697
G1 X114.329 Y165.721 E65.7082
G1 X88.27 Y139.663 E67.35426
G1 X88.27 Y139.13 E67.37807
M73 P12 R20
G1 X114.47 Y165.329 E69.03304
G1 X114.625 Y164.951 E69.05129
G1 X88.27 Y138.597 E70.71605
G1 X88.27 Y138.063 E70.7399
G1 X114.845 Y164.638 E72.41859
G1 X115.073 Y164.333 E72.4356
G1 X88.27 Y137.53 E74.12869
G1 X88.27 Y136.997 E74.1525
G1 X115.341 Y164.068 E75.86252
G1 X115.646 Y163.839 E75.87956
G1 X88.27 Y136.464 E77.60881
G1 X88.27 Y135.931 E77.63262
G1 X115.96 Y163.621 E79.38174
G1 X116.339 Y163.466 E79.40003
G1 X88.27 Y135.398 E81.17306
G1 X88.27 Y134.865 E81.19687
G1 X116.733 Y163.327 E82.99478
G1 X117.202 Y163.264 E83.01592
G1 X88.27 Y134.332 E84.84349
G1 X88.27 Y133.799 E84.8673
M73 P13 R20
G1 X117.734 Y163.263 E86.72848
G1 X118.353 Y163.348 E86.75639
G1 X88.101 Y133.096 E88.66734
G1 E86.66734 F2400
G92 E0
G1 X88.101 Y133.096 Z.7 F9000
G1 X93.35 Y178.861
G1 Z.3
G1 E2 F2400
G1 F1800
G1 X89.451 Y174.962 E2.24629
G1 X89.074 Y174.052 E2.29029
G1 X93.948 Y178.926 E2.59817
G1 X94.858 Y179.303 E2.64217
G1 X88.697 Y173.142 E3.03135
G1 X88.591 Y172.887 E3.04368
G1 X88.533 Y172.445 E3.06359
