;FLAVOR:Marlin
;TIME:4523
;Filament used: 2.89911m
;Layer height: 0.2
;MINX:-73.572
;MINY:-73.217
;MINZ:0.2
;MAXX:73.572
;MAXY:73.217
;MAXZ:6.4
;Generated with Cura_SteamEngine 4.10.0
M104 S220
M105
M109 S220
M82 ;absolute extrusion mode
G21        ;metric values
G90        ;absolute positioning
M107       ;start with the fan off
G28   ;move to endstops
G92 E0                  ;zero the extruded length
G1 F200 E3              ;extrude 3mm of feed stock
G92 E0                  ;zero the extruded length again
G1 F120
;Put printing message on LCD screen
M117 Printing...
G92 E0
G92 E0
G1 F2700 E-7
;LAYER_COUNT:33
;LAYER:0
M107
M204 S4000
G0 F3600 X58.614 Y44.322 Z0.2
M204 S1800
;TYPE:SKIRT
G1 F2700 E0
G1 F1200 X49.981 Y53.91 E0.40337
G1 X49.517 Y54.413 E0.42477
G1 X49.042 Y54.844 E0.44482
G1 X48.151 Y55.516 E0.47971
G1 X37.642 Y63.153 E0.88586
G1 X37.118 Y63.523 E0.90592
G1 X36.567 Y63.843 E0.92584
G1 X35.541 Y64.322 E0.96124
G1 X23.692 Y69.596 E1.36673
G1 X23.101 Y69.85 E1.38685
G1 X22.497 Y70.049 E1.40673
G1 X21.412 Y70.301 E1.44155
G1 X8.689 Y73.005 E1.84822
G1 X8.073 Y73.127 E1.86785
G1 X7.447 Y73.195 E1.88754
G1 X6.336 Y73.217 E1.92228
G1 X-6.66 Y73.217 E2.32859
G1 X-7.305 Y73.208 E2.34876
G1 X-7.932 Y73.144 E2.36846
G1 X-9.059 Y72.927 E2.40435
G1 X-21.726 Y70.234 E2.80922
G1 X-22.373 Y70.087 E2.82997
G1 X-22.975 Y69.893 E2.84974
G1 X-24.032 Y69.446 E2.88562
G1 X-35.829 Y64.194 E3.28935
G1 X-36.454 Y63.906 E3.31086
G1 X-37.009 Y63.587 E3.33088
G1 X-37.939 Y62.936 E3.36637
G1 X-48.422 Y55.319 E3.7715
G1 X-48.945 Y54.927 E3.79193
G1 X-49.41 Y54.51 E3.81146
G1 X-50.184 Y53.685 E3.84683
G1 X-58.883 Y44.023 E4.2533
G1 X-59.301 Y43.544 E4.27318
G1 X-59.669 Y43.04 E4.29269
G1 X-60.229 Y42.114 E4.32652
G1 X-66.752 Y30.813 E4.73447
G1 X-67.052 Y30.277 E4.75368
G1 X-67.312 Y29.699 E4.77349
G1 X-67.674 Y28.654 E4.80807
G1 X-71.683 Y16.315 E5.21369
G1 X-71.884 Y15.666 E5.23493
G1 X-72.017 Y15.046 E5.25476
G1 X-72.154 Y13.941 E5.28957
G1 X-73.509 Y1.05 E5.69482
G1 X-73.57 Y0.38 E5.71586
G1 X-73.572 Y-.251 E5.73558
G1 X-73.478 Y-1.345 E5.76991
G1 X-72.118 Y-14.28 E6.17655
G1 X-72.041 Y-14.923 E6.1968
G1 X-71.912 Y-15.54 E6.2165
G1 X-71.58 Y-16.632 E6.25219
G1 X-67.569 Y-28.978 E6.65804
G1 X-67.366 Y-29.574 E6.67772
G1 X-67.111 Y-30.15 E6.69742
G1 X-66.574 Y-31.124 E6.73219
G1 X-60.072 Y-42.383 E7.13868
G1 X-59.738 Y-42.94 E7.15898
G1 X-59.375 Y-43.443 E7.17838
G1 X-58.614 Y-44.322 E7.21473
G1 X-49.981 Y-53.91 E7.6181
G1 X-49.517 Y-54.413 E7.63949
G1 X-49.042 Y-54.844 E7.65955
G1 X-48.151 Y-55.516 E7.69444
G1 X-37.639 Y-63.155 E8.1007
G1 X-37.114 Y-63.525 E8.12079
G1 X-36.567 Y-63.842 E8.14055
G1 X-35.541 Y-64.322 E8.17597
G1 X-23.692 Y-69.596 E8.58146
G1 X-23.101 Y-69.85 E8.60157
G1 X-22.497 Y-70.049 E8.62145
G1 X-21.412 Y-70.301 E8.65628
G1 X-8.689 Y-73.005 E9.06294
G1 X-8.073 Y-73.127 E9.08257
G1 X-7.447 Y-73.195 E9.10226
G1 X-6.336 Y-73.217 E9.137
G1 X6.66 Y-73.217 E9.54331
G1 X7.305 Y-73.208 E9.56348
G1 X7.932 Y-73.144 E9.58319
G1 X9.059 Y-72.927 E9.61907
G1 X21.726 Y-70.234 E10.02395
G1 X22.373 Y-70.087 E10.04469
G1 X22.974 Y-69.893 E10.06444
G1 X24.016 Y-69.453 E10.0998
G1 X35.829 Y-64.194 E10.50407
G1 X36.454 Y-63.906 E10.52559
G1 X37.008 Y-63.588 E10.54556
G1 X37.934 Y-62.94 E10.58089
G1 X48.422 Y-55.319 E10.98622
G1 X48.945 Y-54.927 E11.00666
G1 X49.41 Y-54.51 E11.02619
G1 X50.184 Y-53.685 E11.06155
G1 X58.879 Y-44.028 E11.46782
G1 X59.302 Y-43.543 E11.48794
G1 X59.669 Y-43.04 E11.50741
G1 X60.229 Y-42.114 E11.54124
G1 X66.752 Y-30.813 E11.9492
G1 X67.052 Y-30.277 E11.9684
G1 X67.312 Y-29.699 E11.98822
G1 X67.674 Y-28.654 E12.02279
G1 X71.683 Y-16.315 E12.42842
G1 X71.884 Y-15.666 E12.44966
G1 X72.017 Y-15.046 E12.46948
G1 X72.154 Y-13.941 E12.5043
G1 X73.509 Y-1.05 E12.90955
G1 X73.57 Y-.38 E12.93058
G1 X73.572 Y0.251 E12.95031
G1 X73.478 Y1.345 E12.98464
G1 X72.118 Y14.281 E13.39131
G1 X72.041 Y14.923 E13.41152
G1 X71.912 Y15.538 E13.43117
G1 X71.58 Y16.632 E13.46691
G1 X67.57 Y28.972 E13.87257
G1 X67.366 Y29.572 E13.89239
G1 X67.111 Y30.15 E13.91214
G1 X66.574 Y31.124 E13.94691
G1 X60.072 Y42.383 E14.3534
G1 X59.738 Y42.94 E14.37371
G1 X59.375 Y43.443 E14.3931
G1 X58.614 Y44.322 E14.42945
M204 S4000
G0 F3600 X58.317 Y44.054
M204 S1800
G1 F1200 X49.687 Y53.639 E14.83269
G1 X49.223 Y54.142 E14.85408
G1 X48.801 Y54.525 E14.8719
G1 X47.916 Y55.193 E14.90657
G1 X37.411 Y62.826 E15.31255
G1 X36.887 Y63.196 E15.3326
G1 X36.397 Y63.48 E15.35031
G1 X35.378 Y63.956 E15.38547
G1 X23.535 Y69.229 E15.79078
G1 X22.944 Y69.483 E15.81089
G1 X22.406 Y69.659 E15.82859
G1 X21.328 Y69.91 E15.86319
G1 X8.612 Y72.613 E16.26963
G1 X7.996 Y72.735 E16.28927
G1 X7.439 Y72.795 E16.30678
G1 X6.336 Y72.817 E16.34127
G1 X-6.655 Y72.817 E16.74743
G1 X-7.3 Y72.808 E16.7676
G1 X-7.857 Y72.751 E16.7851
G1 X-8.976 Y72.536 E16.82073
G1 X-21.637 Y69.843 E17.22543
G1 X-22.284 Y69.696 E17.24617
G1 X-22.819 Y69.524 E17.26374
G1 X-23.87 Y69.08 E17.29941
G1 X-35.661 Y63.83 E17.70294
G1 X-36.286 Y63.542 E17.72446
G1 X-36.78 Y63.259 E17.74225
G1 X-37.704 Y62.613 E17.7775
G1 X-48.182 Y54.999 E18.18245
G1 X-48.705 Y54.607 E18.20288
G1 X-49.119 Y54.236 E18.22026
G1 X-49.887 Y53.417 E18.25537
G1 X-58.582 Y43.76 E18.66164
G1 X-59 Y43.281 E18.68151
G1 X-59.327 Y42.833 E18.69886
G1 X-59.882 Y41.914 E18.73242
G1 X-66.403 Y30.618 E19.14021
G1 X-66.703 Y30.082 E19.15941
G1 X-66.934 Y29.568 E19.17703
G1 X-67.293 Y28.531 E19.21134
G1 X-71.301 Y16.197 E19.6168
G1 X-71.502 Y15.548 E19.63805
G1 X-71.62 Y14.996 E19.65569
G1 X-71.756 Y13.9 E19.69022
G1 X-73.111 Y1.014 E20.09532
G1 X-73.172 Y0.344 E20.11635
G1 X-73.173 Y-.217 E20.13389
G1 X-73.08 Y-1.303 E20.16797
G1 X-71.721 Y-14.232 E20.57442
G1 X-71.644 Y-14.875 E20.59466
G1 X-71.529 Y-15.424 E20.6122
G1 X-71.199 Y-16.509 E20.64766
G1 X-67.19 Y-28.849 E21.05331
G1 X-66.987 Y-29.445 E21.07299
G1 X-66.761 Y-29.957 E21.09049
G1 X-66.227 Y-30.924 E21.12503
G1 X-59.729 Y-42.178 E21.53132
G1 X-59.395 Y-42.735 E21.55162
G1 X-59.072 Y-43.181 E21.56884
G1 X-58.317 Y-44.054 E21.60493
G1 X-49.687 Y-53.639 E22.00816
G1 X-49.223 Y-54.142 E22.02956
G1 X-48.801 Y-54.525 E22.04738
G1 X-47.916 Y-55.193 E22.08204
G1 X-37.408 Y-62.828 E22.48813
G1 X-36.883 Y-63.198 E22.50821
G1 X-36.397 Y-63.48 E22.52578
G1 X-35.378 Y-63.956 E22.56094
G1 X-23.535 Y-69.229 E22.96625
G1 X-22.944 Y-69.483 E22.98636
G1 X-22.406 Y-69.659 E23.00406
G1 X-21.328 Y-69.91 E23.03867
G1 X-8.612 Y-72.613 E23.44511
G1 X-7.996 Y-72.735 E23.46474
G1 X-7.439 Y-72.795 E23.48226
G1 X-6.336 Y-72.817 E23.51675
G1 X6.655 Y-72.817 E23.92291
G1 X7.3 Y-72.808 E23.94307
G1 X7.857 Y-72.751 E23.96058
G1 X8.976 Y-72.536 E23.9962
G1 X21.637 Y-69.843 E24.4009
G1 X22.284 Y-69.696 E24.42164
G1 X22.818 Y-69.525 E24.43917
G1 X23.853 Y-69.087 E24.47431
G1 X35.661 Y-63.83 E24.87842
G1 X36.286 Y-63.542 E24.89993
G1 X36.779 Y-63.26 E24.91769
G1 X37.699 Y-62.617 E24.95278
G1 X48.182 Y-54.999 E25.35793
G1 X48.705 Y-54.607 E25.37836
G1 X49.119 Y-54.236 E25.39574
G1 X49.887 Y-53.417 E25.43084
G1 X58.578 Y-43.765 E25.83692
G1 X59.001 Y-43.28 E25.85704
G1 X59.327 Y-42.833 E25.87433
G1 X59.882 Y-41.914 E25.9079
G1 X66.403 Y-30.618 E26.31569
G1 X66.703 Y-30.082 E26.33489
G1 X66.934 Y-29.568 E26.35251
G1 X67.293 Y-28.531 E26.38682
G1 X71.301 Y-16.197 E26.79228
G1 X71.502 Y-15.548 E26.81352
G1 X71.62 Y-14.996 E26.83117
G1 X71.756 Y-13.9 E26.8657
G1 X73.111 Y-1.014 E27.2708
G1 X73.172 Y-.344 E27.29183
G1 X73.173 Y0.217 E27.30937
G1 X73.08 Y1.303 E27.34345
G1 X71.721 Y14.233 E27.74992
G1 X71.644 Y14.875 E27.77014
G1 X71.529 Y15.422 E27.78762
G1 X71.199 Y16.509 E27.82313
G1 X67.192 Y28.843 E28.22859
G1 X66.988 Y29.443 E28.2484
G1 X66.761 Y29.957 E28.26597
G1 X66.227 Y30.924 E28.3005
G1 X59.729 Y42.178 E28.70679
G1 X59.395 Y42.735 E28.7271
G1 X59.072 Y43.181 E28.74432
G1 X58.317 Y44.054 E28.7804
M204 S4000
G1 F2700 E21.7804
;MESH:calibrate_size.stl
G0 F3600 X56.434 Y42.356
G0 X55.494 Y41.511
G0 X52.314 Y34.05
G0 X52.218 Y34.075
M204 S1800
;TYPE:WALL-INNER
G1 F2700 E28.7804
G1 F1200 X4 Y6.235 E30.52115
G1 X3.4 Y6.583 E30.54283
G1 X3.4 Y62.26 E32.28355
G1 X6.544 Y62.26 E32.38184
G1 X19.345 Y59.539 E32.791
G1 X31.302 Y54.216 E33.2002
G1 X41.89 Y46.523 E33.60938
G1 X50.647 Y36.797 E34.01856
G1 X52.218 Y34.075 E34.11681
M204 S4000
G0 F3600 X52.314 Y34.05
G0 X6.7 Y0.00
G0 X6.8 Y0.00
M204 S1800
G1 F1200 X7.099 Y0.173 E34.12762
G1 X55.618 Y28.185 E35.8792
G1 X57.191 Y25.464 E35.97746
G1 X61.235 Y13.017 E36.38664
G1 X62.603 Y0.00 E36.79585
G1 X61.235 Y-13.017 E37.20506
G1 X57.191 Y-25.464 E37.61423
G1 X55.618 Y-28.185 E37.7125
G1 X7.099 Y-.173 E39.46408
G1 X6.8 Y0.00 E39.4702
M204 S4000
G0 F3600 X6.7 Y0.00
G0 X-6.7 Y0.00
G0 X-6.8 Y0.00
M204 S1800
G1 F1200 X-7.099 Y-.173 E39.481
G1 X-55.618 Y-28.185 E41.23259
G1 X-57.191 Y-25.464 E41.33085
G1 X-61.235 Y-13.017 E41.74002
G1 X-62.603 Y0.00 E42.14924
G1 X-61.235 Y13.017 E42.55845
G1 X-57.191 Y25.464 E42.96762
G1 X-55.618 Y28.185 E43.06588
G1 X-7.099 Y0.173 E44.81747
G1 X-6.8 Y0.00 E44.82359
M204 S4000
G0 F3600 X-6.7 Y0.00
G0 X-52.314 Y34.05
G0 X-52.218 Y34.075
M204 S1800
G1 F1200 X-50.647 Y36.797 E44.92185
G1 X-41.89 Y46.523 E45.33102
G1 X-31.302 Y54.216 E45.7402
G1 X-19.345 Y59.539 E46.1494
G1 X-6.544 Y62.26 E46.55856
G1 X-3.4 Y62.26 E46.65685
G1 X-3.4 Y6.583 E48.39757
G1 X-4 Y6.235 E48.41925
G1 X-52.218 Y34.075 E50.16
M204 S4000
G0 F3600 X-52.314 Y34.05
G0 X-57.227 Y25.48
G0 X-61.274 Y13.025
G0 X-62.643 Y0.00
G0 X-61.274 Y-13.025
G0 X-57.227 Y-25.48
G0 X-52.314 Y-34.05
G0 X-52.218 Y-34.075
M204 S1800
G1 F1200 X-4 Y-6.235 E51.90075
G1 X-3.4 Y-6.583 E51.92243
G1 X-3.4 Y-62.26 E53.66315
G1 X-6.544 Y-62.26 E53.76144
G1 X-19.345 Y-59.539 E54.1706
G1 X-31.302 Y-54.216 E54.5798
G1 X-41.89 Y-46.523 E54.98898
G1 X-50.647 Y-36.797 E55.39816
G1 X-52.218 Y-34.075 E55.49641
M204 S4000
G0 F3600 X-52.314 Y-34.05
G0 X-50.679 Y-36.82
G0 X-41.916 Y-46.552
G0 X-31.322 Y-54.25
G0 X-19.357 Y-59.577
G0 X-6.548 Y-62.299
G0 X3.33 Y-62.33
G0 X3.4 Y-62.26
M204 S1800
G1 F1200 X3.4 Y-6.583 E57.23713
G1 X4 Y-6.235 E57.25882
G1 X52.218 Y-34.075 E58.99956
G1 X50.647 Y-36.797 E59.09782
G1 X41.89 Y-46.523 E59.50699
G1 X31.302 Y-54.216 E59.91617
G1 X19.345 Y-59.539 E60.32537
G1 X6.544 Y-62.26 E60.73453
G1 X3.4 Y-62.26 E60.83283
M204 S4000
G0 F3600 X3.33 Y-62.33
G0 X6.548 Y-62.299
G0 X19.357 Y-59.577
G0 X31.322 Y-54.25
G0 X41.916 Y-46.552
G0 X63.306 Y-28.187
G0 X63.397 Y-28.227
M204 S1800
G1 F1200 X67.879 Y-14.432 E61.28631
G1 X69.397 Y0.00 E61.74001
G1 X67.879 Y14.432 E62.19371
G1 X63.397 Y28.227 E62.6472
G1 X56.146 Y40.787 E63.10062
G1 X46.436 Y51.57 E63.55429
G1 X34.695 Y60.101 E64.00803
G1 X21.446 Y66 E64.46146
G1 X7.253 Y69.017 E64.91511
G1 X-7.253 Y69.017 E65.36863
G1 X-21.446 Y66 E65.82229
G1 X-34.695 Y60.101 E66.27571
G1 X-46.436 Y51.57 E66.72946
G1 X-56.146 Y40.787 E67.18312
G1 X-63.397 Y28.227 E67.63655
G1 X-67.879 Y14.432 E68.09003
G1 X-69.397 Y0.00 E68.54373
G1 X-67.879 Y-14.432 E68.99743
G1 X-63.397 Y-28.227 E69.45092
G1 X-56.146 Y-40.787 E69.90434
G1 X-46.436 Y-51.57 E70.35801
G1 X-34.695 Y-60.101 E70.81175
G1 X-21.446 Y-66 E71.26518
G1 X-7.253 Y-69.017 E71.71883
G1 X7.253 Y-69.017 E72.17235
G1 X21.446 Y-66 E72.626
G1 X34.695 Y-60.101 E73.07943
G1 X46.436 Y-51.57 E73.53317
G1 X56.146 Y-40.787 E73.98684
G1 X63.397 Y-28.227 E74.44026
M204 S4000
G0 F3600 X63.764 Y-28.39
M204 S1800
;TYPE:WALL-OUTER
G1 F1200 X68.273 Y-14.513 E74.89645
G1 X69.799 Y0.00 E75.35269
G1 X68.273 Y14.513 E75.80894
G1 X63.764 Y28.39 E76.26512
G1 X56.47 Y41.025 E76.72125
G1 X46.704 Y51.87 E77.17753
G1 X34.898 Y60.448 E77.63378
G1 X21.57 Y66.382 E78.08991
G1 X7.294 Y69.417 E78.54621
G1 X-7.294 Y69.417 E79.0023
G1 X-21.57 Y66.382 E79.45861
G1 X-34.898 Y60.448 E79.91474
G1 X-46.704 Y51.87 E80.37099
G1 X-56.47 Y41.025 E80.82727
G1 X-63.764 Y28.39 E81.28339
G1 X-68.273 Y14.513 E81.73958
G1 X-69.799 Y0.00 E82.19582
G1 X-68.273 Y-14.513 E82.65206
G1 X-63.764 Y-28.39 E83.10825
G1 X-56.47 Y-41.025 E83.56438
G1 X-46.704 Y-51.87 E84.02066
G1 X-34.898 Y-60.448 E84.47691
G1 X-21.57 Y-66.382 E84.93303
G1 X-7.294 Y-69.417 E85.38934
G1 X7.294 Y-69.417 E85.84543
G1 X21.57 Y-66.382 E86.30174
G1 X34.898 Y-60.448 E86.75786
G1 X46.704 Y-51.87 E87.21412
G1 X56.47 Y-41.025 E87.67039
G1 X63.764 Y-28.39 E88.12652
M204 S4000
G0 F3600 X63.825 Y-28.2
G0 X63.35 Y-28.047
G0 X55.628 Y-28.223
G0 X6.76 Y0.00
G0 X7.6 Y0.00
M204 S1800
G1 F1200 X7.899 Y0.173 E88.13732
G1 X55.472 Y27.639 E89.85476
G1 X56.824 Y25.3 E89.93922
G1 X60.842 Y12.933 E90.34577
G1 X62.201 Y0.00 E90.75234
G1 X60.842 Y-12.933 E91.15891
G1 X56.824 Y-25.3 E91.56545
G1 X55.472 Y-27.639 E91.64991
G1 X7.899 Y-.173 E93.36735
G1 X7.6 Y0.00 E93.37347
M204 S4000
G0 F3600 X7.773 Y0.1
G0 X7.523 Y0.532
G0 X-7.35 Y-.432
G0 X-7.6 Y0.00
M204 S1800
G1 F1200 X-7.899 Y-.173 E93.38427
G1 X-55.472 Y-27.639 E95.10171
G1 X-56.824 Y-25.3 E95.18617
G1 X-60.842 Y-12.933 E95.59272
G1 X-62.201 Y0.00 E95.99929
G1 X-60.842 Y12.933 E96.40586
G1 X-56.824 Y25.3 E96.8124
G1 X-55.472 Y27.639 E96.89687
G1 X-7.899 Y0.173 E98.6143
G1 X-7.6 Y0.00 E98.62042
M204 S4000
G0 F3600 X-7.773 Y-.1
G0 X-7.523 Y-.532
G0 X-6.76 Y0.00
G0 X-51.921 Y33.789
G0 X-51.672 Y34.221
M204 S1800
G1 F1200 X-50.322 Y36.561 E98.70488
G1 X-41.621 Y46.224 E99.11142
G1 X-31.101 Y53.868 E99.51798
G1 X-19.221 Y59.156 E99.92454
G1 X-6.502 Y61.86 E100.33108
G1 X-3.8 Y61.86 E100.41555
G1 X-3.8 Y6.959 E102.13201
G1 X-3.8 Y6.813 E102.13657
G1 X-4 Y6.697 E102.1438
G1 X-4.126 Y6.77 E102.14835
G1 X-51.672 Y34.221 E103.86482
M204 S4000
G0 F3600 X-51.573 Y34.394
G0 X-52.005 Y34.643
G0 X-57.227 Y25.48
G0 X-61.274 Y13.025
G0 X-62.643 Y0.00
G0 X-61.274 Y-13.025
G0 X-57.227 Y-25.48
G0 X-55.788 Y-27.948
G0 X-51.922 Y-33.79
G0 X-51.672 Y-34.221
M204 S1800
G1 F1200 X-4.126 Y-6.77 E105.58129
G1 X-4 Y-6.697 E105.58585
G1 X-3.8 Y-6.813 E105.59308
G1 X-3.8 Y-6.959 E105.59764
G1 X-3.8 Y-61.86 E107.31409
G1 X-6.502 Y-61.86 E107.39857
G1 X-19.221 Y-59.156 E107.80511
G1 X-31.101 Y-53.868 E108.21167
G1 X-41.621 Y-46.224 E108.61823
G1 X-50.322 Y-36.561 E109.02476
G1 X-51.672 Y-34.221 E109.10922
M204 S4000
G0 F3600 X-51.499 Y-34.121
G0 X-51.749 Y-33.69
G0 X-50.679 Y-36.82
G0 X-41.916 Y-46.552
G0 X-31.322 Y-54.25
G0 X-19.357 Y-59.577
G0 X-6.548 Y-62.299
G0 X3.8 Y-62.36
G0 X3.8 Y-61.86
M204 S1800
G1 F1200 X3.8 Y-6.959 E110.82568
G1 X3.8 Y-6.813 E110.83024
G1 X4 Y-6.697 E110.83747
G1 X4.126 Y-6.77 E110.84202
G1 X51.672 Y-34.221 E112.5585
G1 X50.322 Y-36.561 E112.64296
G1 X41.621 Y-46.224 E113.04949
G1 X31.101 Y-53.868 E113.45605
G1 X19.221 Y-59.156 E113.86261
G1 X6.502 Y-61.86 E114.26915
G1 X3.8 Y-61.86 E114.35363
M204 S4000
G0 F3600 X3.8 Y-61.66
G0 X3.3 Y-61.66
G0 X3.366 Y-6.564
G0 X6.76 Y0.00
G0 X51.922 Y33.79
G0 X51.672 Y34.221
M204 S1800
G1 F1200 X4.126 Y6.77 E116.0701
G1 X4 Y6.697 E116.07465
G1 X3.8 Y6.813 E116.08188
G1 X3.8 Y6.959 E116.08644
G1 X3.8 Y61.86 E117.8029
G1 X6.502 Y61.86 E117.88737
G1 X19.221 Y59.156 E118.29391
G1 X31.101 Y53.868 E118.70047
G1 X41.621 Y46.224 E119.10703
G1 X50.322 Y36.561 E119.51357
G1 X51.672 Y34.221 E119.59803
M204 S4000
G0 F3600 X51.499 Y34.121
G0 X51.749 Y33.69
G0 X52.751 Y33.932
M204 S1800
;TYPE:SKIN
G1 F1200 X4 Y5.784 E121.35802
G1 X3.01 Y6.359 E121.39381
G1 X3.01 Y62.65 E123.15373
G1 X6.585 Y62.65 E123.2655
G1 X19.466 Y59.912 E123.67721
G1 X31.499 Y54.555 E124.08902
G1 X42.153 Y46.814 E124.50075
G1 X50.965 Y37.027 E124.91249
G1 X52.751 Y33.932 E125.02421
M204 S4000
G0 F3600 X55.76 Y28.717
M204 S1800
G1 F1200 X57.55 Y25.624 E125.13593
G1 X61.619 Y13.099 E125.54767
G1 X62.995 Y0.00 E125.95946
G1 X61.619 Y-13.099 E126.37124
G1 X57.55 Y-25.624 E126.78298
G1 X55.76 Y-28.717 E126.8947
G1 X6.41 Y-.225 E128.67629
G1 X6.41 Y0.225 E128.69036
G1 X55.76 Y28.717 E130.47195
M204 S4000
G0 F3600 X55.829 Y40.557
M204 S1800
G1 F1200 X46.175 Y51.276 E130.92296
G1 X34.497 Y59.762 E131.37428
G1 X21.326 Y65.626 E131.82504
G1 X7.209 Y68.627 E132.27626
G1 X-7.209 Y68.627 E132.72703
G1 X-21.326 Y65.626 E133.17826
G1 X-34.497 Y59.762 E133.62901
G1 X-46.175 Y51.276 E134.08033
G1 X-55.829 Y40.557 E134.53134
G1 X-63.038 Y28.067 E134.98221
G1 X-67.495 Y14.35 E135.43314
G1 X-69.005 Y0.00 E135.88426
G1 X-67.495 Y-14.35 E136.33538
