;FLAVOR:Marlin
;TIME:3339
;Filament used: 3.022m
;Layer height: 0.2
;MINX:119.302
;MINY:125.949
;MINZ:0.3
;MAXX:180.7
;MAXY:174.05
;MAXZ:20.9
;Generated with Cura_SteamEngine 4.10.0
M140 S90
M105
M190 S90
M104 S230
M105
M109 S230
M82 ;absolute extrusion mode
G28 ; home all axes
 M117 Purge extruder
 G92 E0 ; reset extruder
 G1 Z1.0 F3000 ; move z up little to prevent scratching of surface
 G1 X2 Y20 Z0.3 F5000.0 ; move to start-line position
 G1 X2 Y200.0 Z0.3 F1500.0 E15 ; draw 1st line
 G1 X2 Y200.0 Z0.4 F5000.0 ; move to side a little
 G1 X2 Y20 Z0.4 F1500.0 E30 ; draw 2nd line
 G92 E0 ; reset extruder
 G1 Z1.0 F3000 ; move z up little to prevent scratching of surface
G92 E0
G92 E0
G1 F2100 E-2
;LAYER_COUNT:105
;LAYER:0
M107
G0 F6000 X124.825 Y131.093 Z0.3
;TYPE:SKIRT
G1 F2100 E0
G1 F1200 X125.324 Y130.627 E0.04983
G1 X125.69 Y130.306 E0.08537
G1 X126.223 Y129.868 E0.13572
G1 X126.627 Y129.558 E0.17289
G1 X127.181 Y129.161 E0.22264
G1 X127.606 Y128.877 E0.25994
G1 X128.191 Y128.514 E0.3102
G1 X128.619 Y128.267 E0.34626
G1 X129.236 Y127.937 E0.39734
G1 X129.705 Y127.706 E0.43549
G1 X130.331 Y127.424 E0.48561
G1 X130.789 Y127.236 E0.52174
G1 X131.434 Y126.994 E0.57203
G1 X131.914 Y126.831 E0.60903
G1 X132.57 Y126.633 E0.65904
G1 X133.05 Y126.505 E0.6953
G1 X133.716 Y126.35 E0.74521
G1 X134.212 Y126.252 E0.78211
G1 X134.887 Y126.141 E0.83204
G1 X135.392 Y126.075 E0.86922
G1 X136.072 Y126.009 E0.91908
G1 X136.559 Y125.977 E0.9547
G1 X137.247 Y125.954 E1.00495
G1 X137.597 Y125.949 E1.0305
G1 X138.381 Y125.984 E1.08778
G1 X139.157 Y126.098 E1.14503
G1 X139.918 Y126.291 E1.20233
G1 X140.655 Y126.56 E1.25959
G1 X141.361 Y126.902 E1.31685
G1 X142.028 Y127.315 E1.37411
G1 X142.65 Y127.793 E1.43137
G1 X143.22 Y128.332 E1.48863
G1 X143.322 Y128.45 E1.50001
G1 X150 Y128.45 E1.98744
G1 X150.493 Y128.466 E2.02344
G1 X150.68 Y128.478 E2.03712
G1 X151.46 Y128.568 E2.09443
G1 X152.06 Y128.693 E2.13916
G1 X152.411 Y128.781 E2.16557
G1 X153.161 Y129.01 E2.22281
G1 X154.129 Y129.438 E2.30006
G1 X154.442 Y129.603 E2.32589
G1 X155.116 Y130.004 E2.38313
G1 X155.666 Y130.427 E2.43377
G1 X155.861 Y130.051 E2.46469
G1 X156.292 Y129.395 E2.52198
G1 X156.788 Y128.787 E2.57925
G1 X157.343 Y128.233 E2.63649
G1 X157.952 Y127.738 E2.69377
G1 X158.608 Y127.307 E2.75106
G1 X159.304 Y126.945 E2.80832
G1 X160.033 Y126.656 E2.86556
G1 X160.788 Y126.443 E2.92282
G1 X161.561 Y126.308 E2.98009
G1 X162.344 Y126.252 E3.03739
G1 X163.199 Y126.282 E3.09983
G1 X164.1 Y126.364 E3.16587
G1 X164.48 Y126.408 E3.19379
G1 X165.371 Y126.534 E3.25947
G1 X165.773 Y126.602 E3.28923
G1 X166.692 Y126.782 E3.35758
G1 X167.086 Y126.869 E3.38703
G1 X167.963 Y127.089 E3.45303
G1 X168.326 Y127.19 E3.48053
G1 X169.156 Y127.442 E3.54384
G1 X169.538 Y127.569 E3.57322
G1 X170.42 Y127.888 E3.64168
G1 X170.794 Y128.034 E3.67098
G1 X171.626 Y128.385 E3.73689
G1 X171.973 Y128.542 E3.76469
G1 X172.756 Y128.919 E3.82812
G1 X173.107 Y129.099 E3.85691
G1 X173.931 Y129.549 E3.92544
G1 X174.271 Y129.746 E3.95412
G1 X175.01 Y130.2 E4.01743
G1 X175.329 Y130.407 E4.04518
G1 X176.071 Y130.915 E4.11082
G1 X176.401 Y131.154 E4.14056
G1 X177.121 Y131.705 E4.20673
G1 X177.92 Y132.41 E4.28451
G1 X178.156 Y132.649 E4.30902
G1 X178.678 Y133.234 E4.36625
G1 X179.209 Y133.982 E4.4332
G1 X179.385 Y134.264 E4.45747
G1 X179.766 Y134.95 E4.51474
G1 X180.123 Y135.802 E4.58217
G1 X180.233 Y136.117 E4.60652
G1 X180.453 Y136.87 E4.66378
G1 X180.615 Y137.801 E4.73275
G1 X180.652 Y138.132 E4.75706
G1 X180.7 Y138.987 E4.81957
G1 X180.7 Y140.062 E4.89803
G1 X180.641 Y141.017 E4.96787
G1 X180.596 Y141.377 E4.99435
G1 X180.459 Y142.15 E5.05165
G1 X180.165 Y143.126 E5.12605
G1 X180.039 Y143.462 E5.15224
G1 X179.726 Y144.181 E5.20948
G1 X179.163 Y145.136 E5.29039
G1 X178.957 Y145.434 E5.31684
G1 X178.478 Y146.056 E5.37414
G1 X177.717 Y146.83 E5.45336
G1 X177.445 Y147.07 E5.47984
G1 X176.831 Y147.558 E5.53709
G1 X175.948 Y148.104 E5.61286
G1 X175.63 Y148.272 E5.63911
G1 X174.918 Y148.603 E5.69642
G1 X174.494 Y148.74 E5.72895
G1 X174.343 Y149.318 E5.77255
G1 X174.066 Y150.06 E5.83036
G1 X174.166 Y150.281 E5.84806
G1 X174.415 Y151.025 E5.90533
G1 X174.488 Y151.35 E5.92964
G1 X174.564 Y151.373 E5.93544
G1 X174.9 Y151.499 E5.96163
G1 X175.619 Y151.812 E6.01886
G1 X176.583 Y152.381 E6.10057
G1 X176.883 Y152.589 E6.12721
G1 X177.504 Y153.068 E6.18446
G1 X178.271 Y153.824 E6.26306
G1 X178.51 Y154.095 E6.28944
G1 X178.998 Y154.709 E6.34668
G1 X179.552 Y155.608 E6.42376
G1 X179.719 Y155.926 E6.44998
G1 X180.048 Y156.638 E6.50722
G1 X180.377 Y157.658 E6.58545
G1 X180.464 Y158.01 E6.61192
G1 X180.613 Y158.781 E6.66923
G1 X180.675 Y159.386 E6.71362
G1 X180.686 Y159.565 E6.72671
G1 X180.7 Y160.037 E6.76118
G1 X180.7 Y161.112 E6.83964
G1 X180.653 Y161.96 E6.90163
G1 X180.616 Y162.294 E6.92616
G1 X180.49 Y163.068 E6.9834
G1 X180.23 Y163.992 E7.05346
G1 X180.12 Y164.306 E7.07774
G1 X179.823 Y165.032 E7.13499
G1 X179.388 Y165.833 E7.20152
G1 X179.211 Y166.117 E7.22595
G1 X178.762 Y166.761 E7.28325
G1 X178.132 Y167.477 E7.35286
G1 X177.898 Y167.712 E7.37707
G1 X177.119 Y168.396 E7.45273
G1 X176.401 Y168.945 E7.5187
G1 X176.072 Y169.183 E7.54834
G1 X175.328 Y169.692 E7.61414
G1 X175.012 Y169.897 E7.64163
G1 X174.244 Y170.369 E7.70743
G1 X173.899 Y170.569 E7.73653
G1 X173.105 Y171.002 E7.80255
G1 X172.759 Y171.179 E7.83091
G1 X171.945 Y171.571 E7.89686
G1 X171.579 Y171.736 E7.92616
G1 X170.746 Y172.085 E7.99208
G1 X170.376 Y172.229 E8.02106
G1 X169.525 Y172.535 E8.08707
G1 X169.157 Y172.657 E8.11536
G1 X168.294 Y172.919 E8.18119
G1 X167.914 Y173.024 E8.20997
G1 X167.037 Y173.242 E8.27593
G1 X166.647 Y173.328 E8.30508
G1 X165.761 Y173.5 E8.37095
G1 X165.378 Y173.564 E8.3993
G1 X164.485 Y173.691 E8.46513
G1 X164.1 Y173.736 E8.49342
G1 X163.2 Y173.818 E8.55939
G1 X162.416 Y173.85 E8.61666
G1 X161.633 Y173.801 E8.67392
G1 X160.859 Y173.673 E8.73118
G1 X160.101 Y173.467 E8.78851
G1 X159.369 Y173.184 E8.8458
G1 X158.67 Y172.829 E8.90302
G1 X158.01 Y172.405 E8.96028
G1 X157.397 Y171.915 E9.01756
G1 X156.837 Y171.366 E9.0748
G1 X156.335 Y170.762 E9.13212
G1 X155.898 Y170.111 E9.18935
G1 X155.665 Y169.674 E9.2255
G1 X155.376 Y169.904 E9.25245
G1 X155.083 Y170.107 E9.27847
G1 X154.416 Y170.521 E9.33577
G1 X153.406 Y170.986 E9.41693
G1 X153.068 Y171.113 E9.44328
G1 X152.321 Y171.351 E9.50051
G1 X151.315 Y171.546 E9.5753
G1 X150.955 Y171.591 E9.60178
G1 X150 Y171.65 E9.67162
G1 X143.188 Y171.65 E10.16882
G1 X142.734 Y172.098 E10.21538
G1 X142.122 Y172.59 E10.27269
G1 X141.464 Y173.016 E10.3299
G1 X140.765 Y173.374 E10.38723
G1 X140.034 Y173.658 E10.44447
G1 X139.278 Y173.867 E10.50172
G1 X138.504 Y173.998 E10.55901
G1 X137.61 Y174.05 E10.62438
G1 X137.243 Y174.046 E10.65116
G1 X136.555 Y174.023 E10.70141
G1 X136.075 Y173.992 E10.73652
G1 X135.409 Y173.928 E10.78535
G1 X134.903 Y173.862 E10.8226
G1 X134.206 Y173.748 E10.87415
G1 X133.679 Y173.643 E10.91337
G1 X133.01 Y173.485 E10.96354
G1 X132.548 Y173.36 E10.99848
G1 X131.891 Y173.161 E11.04858
G1 X131.402 Y172.995 E11.08627
G1 X130.756 Y172.751 E11.13668
G1 X130.307 Y172.565 E11.17215
G1 X129.685 Y172.284 E11.22197
G1 X129.213 Y172.051 E11.26039
G1 X128.602 Y171.723 E11.311
G1 X128.18 Y171.479 E11.34658
G1 X127.599 Y171.118 E11.39651
G1 X127.176 Y170.835 E11.43365
G1 X126.621 Y170.437 E11.4835
G1 X126.215 Y170.125 E11.52088
G1 X125.678 Y169.683 E11.57164
G1 X125.303 Y169.354 E11.60805
G1 X124.802 Y168.884 E11.65819
G1 X124.448 Y168.53 E11.69473
G1 X123.98 Y168.03 E11.74472
G1 X123.65 Y167.653 E11.78129
G1 X123.215 Y167.123 E11.83134
G1 X122.908 Y166.723 E11.86814
G1 X122.506 Y166.162 E11.91851
G1 X122.219 Y165.731 E11.95631
G1 X121.861 Y165.153 E12.00593
G1 X121.619 Y164.734 E12.04125
G1 X121.295 Y164.129 E12.09134
G1 X121.068 Y163.669 E12.12878
G1 X120.782 Y163.037 E12.17942
G1 X120.588 Y162.568 E12.21646
G1 X120.344 Y161.918 E12.26714
G1 X120.18 Y161.431 E12.30464
G1 X119.982 Y160.773 E12.3548
G1 X119.855 Y160.299 E12.39062
G1 X119.701 Y159.637 E12.44023
G1 X119.605 Y159.15 E12.47645
G1 X119.495 Y158.486 E12.52558
G1 X119.43 Y158.002 E12.56122
G1 X119.364 Y157.349 E12.60913
G1 X119.337 Y157.006 E12.63424
G1 X119.323 Y156.71 E12.65587
G1 X119.31 Y156.297 E12.68603
G1 X119.321 Y156.297 E12.68683
G1 X119.302 Y156.026 E12.70666
G1 X119.304 Y143.923 E13.59005
G1 X119.314 Y143.459 E13.62393
G1 X119.335 Y143.036 E13.65484
G1 X119.36 Y142.701 E13.67936
G1 X119.427 Y142.022 E13.72916
G1 X119.492 Y141.529 E13.76546
G1 X119.603 Y140.854 E13.81538
G1 X119.701 Y140.359 E13.85222
G1 X119.848 Y139.727 E13.89958
G1 X119.925 Y139.423 E13.92247
G1 X119.995 Y139.178 E13.94106
G1 X120.192 Y138.529 E13.99057
G1 X120.358 Y138.043 E14.02805
G1 X120.6 Y137.403 E14.07799
G1 X120.789 Y136.947 E14.11402
G1 X121.07 Y136.327 E14.16371
G1 X121.294 Y135.873 E14.20066
G1 X121.622 Y135.26 E14.2514
G1 X121.872 Y134.827 E14.2879
G1 X122.232 Y134.248 E14.33766
G1 X122.512 Y133.829 E14.37444
G1 X122.914 Y133.268 E14.42482
G1 X123.23 Y132.857 E14.46266
G1 X123.665 Y132.329 E14.51259
G1 X123.988 Y131.962 E14.54828
G1 X124.46 Y131.458 E14.59867
G1 X124.825 Y131.093 E14.63635
G0 F6000 X125.245 Y131.544
G1 F1200 X125.744 Y131.078 E14.68619
G1 X126.081 Y130.782 E14.71892
G1 X126.614 Y130.344 E14.76928
G1 X126.986 Y130.059 E14.80348
G1 X127.54 Y129.662 E14.85323
G1 X127.931 Y129.401 E14.88754
G1 X128.516 Y129.038 E14.93779
G1 X128.91 Y128.81 E14.97102
G1 X129.527 Y128.48 E15.02209
G1 X129.958 Y128.268 E15.05715
G1 X130.584 Y127.986 E15.10726
G1 X131.006 Y127.812 E15.14058
G1 X131.651 Y127.57 E15.19086
G1 X132.092 Y127.421 E15.22484
G1 X132.748 Y127.223 E15.27485
G1 X133.189 Y127.105 E15.30817
G1 X133.855 Y126.95 E15.35808
G1 X134.312 Y126.86 E15.39208
G1 X134.987 Y126.749 E15.44201
G1 X135.452 Y126.688 E15.47624
G1 X136.132 Y126.622 E15.52611
G1 X136.579 Y126.593 E15.5588
G1 X137.267 Y126.57 E15.60904
G1 X137.601 Y126.565 E15.63343
G1 X138.353 Y126.6 E15.68837
G1 X139.097 Y126.714 E15.74331
G1 X139.824 Y126.907 E15.79821
G1 X140.527 Y127.176 E15.85315
G1 X141.198 Y127.517 E15.90809
G1 X141.828 Y127.928 E15.96299
G1 X142.412 Y128.404 E16.01798
G1 X142.941 Y128.939 E16.0729
G1 X143.043 Y129.066 E16.08479
G1 X150 Y129.066 E16.59258
G1 X150.454 Y129.081 E16.62573
G1 X150.641 Y129.093 E16.63941
G1 X151.388 Y129.181 E16.69431
G1 X151.91 Y129.291 E16.73325
G1 X152.261 Y129.379 E16.75966
G1 X152.98 Y129.6 E16.81456
G1 X153.841 Y129.983 E16.88334
G1 X154.154 Y130.148 E16.90917
G1 X154.801 Y130.534 E16.96416
G1 X155.546 Y131.111 E17.03294
G1 X155.816 Y131.35 E17.05925
G1 X155.889 Y131.422 E17.06674
G1 X156.138 Y130.836 E17.11321
G1 X156.504 Y130.179 E17.1681
G1 X156.938 Y129.564 E17.22304
G1 X157.435 Y128.999 E17.27797
G1 X157.989 Y128.489 E17.33293
G1 X158.593 Y128.041 E17.38782
G1 X159.242 Y127.66 E17.44275
G1 X159.928 Y127.35 E17.49769
G1 X160.642 Y127.114 E17.55258
G1 X161.378 Y126.956 E17.60752
G1 X162.126 Y126.876 E17.66243
G1 X163.143 Y126.895 E17.73668
G1 X164.044 Y126.977 E17.80271
G1 X164.394 Y127.018 E17.82843
G1 X165.285 Y127.144 E17.89411
G1 X165.655 Y127.206 E17.92149
G1 X166.574 Y127.386 E17.98985
G1 X166.936 Y127.467 E18.01692
G1 X167.813 Y127.687 E18.08292
G1 X168.147 Y127.78 E18.10822
G1 X168.977 Y128.032 E18.17153
G1 X169.328 Y128.148 E18.19852
G1 X170.21 Y128.467 E18.26697
G1 X170.555 Y128.602 E18.29401
G1 X171.387 Y128.953 E18.35992
G1 X171.706 Y129.097 E18.38547
G1 X172.489 Y129.474 E18.4489
G1 X172.811 Y129.64 E18.47534
G1 X173.635 Y130.09 E18.54387
G1 X173.948 Y130.271 E18.57026
G1 X174.687 Y130.725 E18.63357
G1 X174.981 Y130.916 E18.65916
G1 X175.723 Y131.424 E18.72479
G1 X176.026 Y131.643 E18.75208
G1 X176.746 Y132.194 E18.81825
G1 X177.482 Y132.843 E18.88988
G1 X177.718 Y133.082 E18.91439
G1 X178.217 Y133.644 E18.96925
G1 X178.687 Y134.308 E19.02863
G1 X178.863 Y134.59 E19.05289
G1 X179.227 Y135.249 E19.10784
G1 X179.541 Y136.006 E19.16766
G1 X179.651 Y136.321 E19.19201
G1 X179.861 Y137.043 E19.24689
G1 X180.003 Y137.869 E19.30806
G1 X180.04 Y138.2 E19.33237
G1 X180.084 Y138.987 E19.38991
G1 X180.084 Y140.062 E19.46837
G1 X180.029 Y140.941 E19.53265
G1 X179.984 Y141.301 E19.55913
G1 X179.851 Y142.041 E19.61401
G1 X179.588 Y142.909 E19.68021
G1 X179.462 Y143.245 E19.7064
G1 X179.161 Y143.935 E19.76135
G1 X178.656 Y144.786 E19.83358
G1 X178.45 Y145.084 E19.86002
G1 X177.99 Y145.68 E19.91497
G1 X177.31 Y146.368 E19.98557
G1 X177.038 Y146.608 E20.01205
G1 X176.448 Y147.075 E20.06697
G1 X175.66 Y147.56 E20.13451
G1 X175.342 Y147.728 E20.16076
G1 X174.659 Y148.043 E20.21566
G1 X173.961 Y148.266 E20.26914
G1 X173.925 Y148.494 E20.28599
G1 X173.727 Y149.221 E20.34099
G1 X173.453 Y149.922 E20.39592
G1 X173.39 Y150.043 E20.40588
G1 X173.678 Y150.737 E20.46072
G1 X173.891 Y151.459 E20.51566
G1 X173.96 Y151.833 E20.54342
G1 X174.347 Y151.95 E20.57293
G1 X174.683 Y152.076 E20.59913
G1 X175.373 Y152.377 E20.65407
G1 X176.232 Y152.887 E20.72699
G1 X176.532 Y153.095 E20.75363
G1 X177.127 Y153.556 E20.80857
G1 X177.809 Y154.231 E20.87861
G1 X178.048 Y154.502 E20.90498
G1 X178.515 Y155.092 E20.9599
G1 X179.007 Y155.894 E21.02858
G1 X179.174 Y156.212 E21.05479
G1 X179.488 Y156.896 E21.10973
G1 X179.779 Y157.806 E21.17946
G1 X179.866 Y158.158 E21.20593
G1 X180.008 Y158.897 E21.26085
G1 X180.06 Y159.423 E21.29943
G1 X180.071 Y159.602 E21.31252
G1 X180.084 Y160.037 E21.34429
G1 X180.084 Y161.112 E21.42275
G1 X180.041 Y161.892 E21.47977
G1 X180.004 Y162.226 E21.5043
G1 X179.881 Y162.968 E21.55919
G1 X179.649 Y163.788 E21.62139
G1 X179.539 Y164.102 E21.64568
G1 X179.252 Y164.798 E21.70063
G1 X178.865 Y165.507 E21.75958
G1 X178.688 Y165.791 E21.78401
G1 X178.257 Y166.408 E21.83894
G1 X177.696 Y167.042 E21.90073
G1 X177.462 Y167.277 E21.92494
G1 X176.745 Y167.906 E21.99456
G1 X176.027 Y168.455 E22.06053
G1 X175.724 Y168.675 E22.08786
G1 X174.98 Y169.184 E22.15365
G1 X174.689 Y169.372 E22.17894
G1 X173.921 Y169.844 E22.24474
G1 X173.604 Y170.028 E22.27149
G1 X172.81 Y170.461 E22.3375
G1 X172.492 Y170.624 E22.36358
G1 X171.678 Y171.016 E22.42953
G1 X171.341 Y171.168 E22.45651
G1 X170.508 Y171.517 E22.52243
G1 X170.168 Y171.649 E22.54905
G1 X169.317 Y171.955 E22.61506
G1 X168.978 Y172.068 E22.64114
G1 X168.115 Y172.33 E22.70697
G1 X167.766 Y172.426 E22.73339
G1 X166.889 Y172.644 E22.79935
G1 X166.53 Y172.723 E22.82618
G1 X165.644 Y172.895 E22.89206
G1 X165.291 Y172.954 E22.91818
G1 X164.398 Y173.081 E22.98401
G1 X164.044 Y173.123 E23.01003
G1 X163.144 Y173.205 E23.076
G1 X162.392 Y173.233 E23.13092
G1 X161.641 Y173.182 E23.18586
G1 X160.9 Y173.051 E23.24079
G1 X160.177 Y172.842 E23.29572
G1 X159.48 Y172.558 E23.35065
G1 X158.817 Y172.201 E23.40562
G1 X158.196 Y171.776 E23.46054
G1 X157.624 Y171.288 E23.51542
G1 X157.106 Y170.741 E23.57041
G1 X156.65 Y170.143 E23.6253
G1 X156.259 Y169.5 E23.68022
G1 X155.939 Y168.819 E23.73514
G1 X155.891 Y168.68 E23.74588
G1 X155.747 Y168.825 E23.76079
G1 X155.025 Y169.398 E23.82807
G1 X154.732 Y169.601 E23.85409
G1 X154.092 Y169.996 E23.90898
G1 X153.19 Y170.409 E23.98139
G1 X152.852 Y170.536 E24.00775
G1 X152.134 Y170.763 E24.06271
G1 X151.239 Y170.934 E24.12922
G1 X150.879 Y170.979 E24.1557
G1 X150 Y171.034 E24.21998
G1 X142.912 Y171.034 E24.73733
G1 X142.603 Y171.375 E24.77092
G1 X142.042 Y171.876 E24.82581
G1 X141.431 Y172.315 E24.88073
G1 X140.776 Y172.687 E24.93571
G1 X140.086 Y172.987 E24.99063
G1 X139.368 Y173.212 E25.04555
G1 X138.63 Y173.36 E25.10048
G1 X137.61 Y173.434 E25.17513
G1 X137.263 Y173.43 E25.20046
G1 X136.575 Y173.407 E25.2507
G1 X136.134 Y173.379 E25.28296
G1 X135.468 Y173.315 E25.33179
G1 X135.003 Y173.254 E25.36602
G1 X134.306 Y173.14 E25.41757
G1 X133.821 Y173.043 E25.45367
G1 X133.152 Y172.885 E25.50385
G1 X132.726 Y172.771 E25.53603
G1 X132.069 Y172.572 E25.58614
G1 X131.62 Y172.419 E25.62076
G1 X130.974 Y172.175 E25.67116
G1 X130.56 Y172.004 E25.70386
G1 X129.938 Y171.723 E25.75367
G1 X129.504 Y171.509 E25.78899
G1 X128.893 Y171.181 E25.83961
G1 X128.505 Y170.956 E25.87235
G1 X127.924 Y170.595 E25.92227
G1 X127.535 Y170.335 E25.95642
G1 X126.98 Y169.937 E26.00627
G1 X126.606 Y169.65 E26.04068
G1 X126.069 Y169.208 E26.09145
G1 X125.724 Y168.904 E26.12501
