;FLAVOR:Marlin
;TIME:3476
;Filament used: 4.38003m
;Layer height: 0.3
;MINX:117.277
;MINY:114.3
;MINZ:0.3
;MAXX:182.722
;MAXY:165.383
;MAXZ:18.6
;Generated with Cura_SteamEngine 4.10.0
M140 S90
M105
M190 S90
M104 S230
M105
M109 S230
M82 ;absolute extrusion mode
G28 ; home all axes
 M117 Purge extruder
 G92 E0 ; reset extruder
 G1 Z1.0 F3000 ; move z up little to prevent scratching of surface
 G1 X2 Y20 Z0.3 F5000.0 ; move to start-line position
 G1 X2 Y200.0 Z0.3 F1500.0 E15 ; draw 1st line
 G1 X2 Y200.0 Z0.4 F5000.0 ; move to side a little
 G1 X2 Y20 Z0.4 F1500.0 E30 ; draw 2nd line
 G92 E0 ; reset extruder
 G1 Z1.0 F3000 ; move z up little to prevent scratching of surface
G92 E0
G92 E0
G1 F2100 E-2
;LAYER_COUNT:62
;LAYER:0
M107
G0 F6000 X121.319 Y118.616 Z0.3
;TYPE:SKIRT
G1 F2100 E0
G1 F1200 X121.469 Y118.466 E0.01548
G1 X121.878 Y118.086 E0.05623
G1 X122.104 Y117.89 E0.07807
G1 X122.312 Y117.706 E0.09834
G1 X122.772 Y117.329 E0.14175
G1 X123.053 Y117.116 E0.16748
G1 X123.521 Y116.787 E0.20924
G1 X123.827 Y116.589 E0.23584
G1 X124.377 Y116.257 E0.28273
G1 X125.011 Y115.911 E0.33545
G1 X125.197 Y115.812 E0.35083
G1 X125.505 Y115.664 E0.37577
G1 X125.92 Y115.479 E0.40893
G1 X126.116 Y115.397 E0.42444
G1 X126.432 Y115.272 E0.44925
G1 X126.813 Y115.132 E0.47887
G1 X127.131 Y115.023 E0.50341
G1 X127.335 Y114.958 E0.51904
G1 X127.629 Y114.871 E0.54142
G1 X127.836 Y114.814 E0.55709
G1 X128.122 Y114.741 E0.57863
G1 X128.331 Y114.692 E0.5943
G1 X128.579 Y114.639 E0.61281
G1 X129.129 Y114.529 E0.65375
G1 X129.605 Y114.449 E0.68898
G1 X129.819 Y114.42 E0.70474
G1 X130.107 Y114.386 E0.72591
G1 X130.415 Y114.356 E0.7485
G1 X130.848 Y114.324 E0.78019
G1 X131.149 Y114.311 E0.80218
G1 X131.659 Y114.3 E0.83941
G1 X168.428 Y114.301 E3.52316
G1 X168.735 Y114.307 E3.54557
G1 X169.036 Y114.319 E3.56755
G1 X169.503 Y114.349 E3.60171
G1 X169.939 Y114.39 E3.63367
G1 X170.204 Y114.422 E3.65316
G1 X170.42 Y114.452 E3.66907
G1 X170.78 Y114.511 E3.6957
G1 X171.079 Y114.568 E3.71792
G1 X171.435 Y114.64 E3.74443
G1 X171.71 Y114.701 E3.76499
G1 X171.922 Y114.752 E3.7809
G1 X172.165 Y114.814 E3.79921
G1 X172.372 Y114.871 E3.81488
G1 X172.664 Y114.958 E3.83712
G1 X172.865 Y115.022 E3.85251
G1 X173.179 Y115.129 E3.87673
G1 X173.561 Y115.269 E3.90642
G1 X173.875 Y115.392 E3.93104
G1 X174.074 Y115.475 E3.94677
G1 X174.332 Y115.589 E3.96736
G1 X174.745 Y115.783 E4.00067
G1 X175.019 Y115.92 E4.02303
G1 X175.609 Y116.248 E4.0723
G1 X175.798 Y116.364 E4.08848
G1 X176.071 Y116.526 E4.11165
G1 X176.546 Y116.832 E4.1529
G1 X176.839 Y117.036 E4.17895
G1 X177.353 Y117.427 E4.22609
G1 X177.622 Y117.65 E4.2516
G1 X178.105 Y118.07 E4.29831
G1 X178.564 Y118.499 E4.34417
G1 X178.808 Y118.748 E4.36962
G1 X178.951 Y118.898 E4.38474
G1 X179.253 Y119.234 E4.41772
G1 X179.513 Y119.545 E4.4473
G1 X179.734 Y119.82 E4.47305
G1 X179.985 Y120.15 E4.50332
G1 X180.207 Y120.459 E4.53109
G1 X180.497 Y120.892 E4.56913
G1 X180.69 Y121.203 E4.59584
G1 X180.927 Y121.612 E4.63034
G1 X181.095 Y121.924 E4.65621
G1 X181.304 Y122.331 E4.6896
G1 X181.568 Y122.902 E4.73552
G1 X181.739 Y123.318 E4.76835
G1 X181.832 Y123.552 E4.78673
G1 X182.032 Y124.12 E4.83068
G1 X182.131 Y124.44 E4.85513
G1 X182.263 Y124.905 E4.89041
G1 X182.349 Y125.251 E4.91643
G1 X182.419 Y125.562 E4.9397
G1 X182.5 Y125.971 E4.97013
G1 X182.549 Y126.276 E4.99268
G1 X182.59 Y126.552 E5.01305
G1 X182.625 Y126.817 E5.03256
G1 X182.65 Y127.038 E5.04879
G1 X182.683 Y127.408 E5.0759
G1 X182.697 Y127.625 E5.09177
G1 X182.71 Y127.91 E5.1126
G1 X182.719 Y128.239 E5.13662
G1 X182.722 Y128.446 E5.15173
G1 X182.722 Y130.44 E5.29727
G1 X182.717 Y130.849 E5.32713
G1 X182.707 Y131.17 E5.35057
G1 X182.688 Y131.522 E5.3763
G1 X182.653 Y131.949 E5.40757
G1 X182.599 Y132.399 E5.44065
G1 X182.534 Y132.833 E5.47268
G1 X182.448 Y133.304 E5.50763
G1 X182.417 Y133.454 E5.51881
G1 X182.268 Y134.052 E5.56379
G1 X182.094 Y134.676 E5.61107
G1 X182.021 Y134.911 E5.62903
G1 X181.86 Y135.377 E5.66502
G1 X181.769 Y135.615 E5.68361
G1 X181.621 Y135.976 E5.71209
G1 X181.409 Y136.456 E5.75039
G1 X181.19 Y136.909 E5.78712
G1 X181.035 Y137.2 E5.81118
G1 X180.859 Y137.514 E5.83746
G1 X180.696 Y137.791 E5.86091
G1 X180.585 Y137.971 E5.87635
G1 X180.434 Y138.206 E5.89674
G1 X180.253 Y138.477 E5.92052
G1 X180.01 Y138.82 E5.95121
G1 X179.786 Y139.114 E5.97818
G1 X179.551 Y139.411 E6.00583
G1 X179.217 Y139.805 E6.04353
G1 X178.906 Y140.148 E6.07732
G1 X178.589 Y140.478 E6.11072
G1 X178.313 Y140.745 E6.13875
G1 X178.162 Y140.886 E6.15383
G1 X177.897 Y141.122 E6.17973
G1 X177.616 Y141.358 E6.20651
G1 X177.616 Y148.25 E6.70956
G1 X177.576 Y149.034 E6.76685
G1 X177.457 Y149.809 E6.82408
G1 X177.259 Y150.568 E6.88134
G1 X176.985 Y151.303 E6.93859
G1 X176.637 Y152.007 E6.99591
G1 X176.22 Y152.671 E7.05314
G1 X175.737 Y153.29 E7.11045
G1 X175.194 Y153.856 E7.1677
G1 X174.596 Y154.364 E7.22497
G1 X173.95 Y154.809 E7.28222
G1 X173.261 Y155.185 E7.33951
G1 X172.538 Y155.49 E7.39679
G1 X171.788 Y155.719 E7.45402
G1 X171.018 Y155.871 E7.51131
G1 X170.362 Y155.918 E7.55931
G1 X170.109 Y156.215 E7.58779
G1 X169.504 Y156.89 E7.65395
G1 X169.215 Y157.196 E7.68467
G1 X168.911 Y157.5 E7.71605
G1 X168.624 Y157.792 E7.74594
G1 X168.324 Y158.082 E7.77639
G1 X167.655 Y158.693 E7.84252
G1 X167.392 Y158.922 E7.86798
G1 X166.695 Y159.503 E7.93421
G1 X166.409 Y159.73 E7.96086
G1 X165.687 Y160.276 E8.02693
G1 X165.384 Y160.493 E8.05413
G1 X164.634 Y161.005 E8.12041
G1 X164.312 Y161.214 E8.14843
G1 X163.539 Y161.687 E8.21458
G1 X163.232 Y161.865 E8.24048
G1 X162.436 Y162.303 E8.30679
G1 X162.11 Y162.473 E8.33363
G1 X161.297 Y162.871 E8.3997
G1 X160.947 Y163.031 E8.42779
G1 X160.115 Y163.388 E8.49387
G1 X159.802 Y163.514 E8.5185
G1 X158.953 Y163.835 E8.58474
G1 X158.571 Y163.969 E8.61429
G1 X157.706 Y164.245 E8.68056
G1 X157.382 Y164.34 E8.70521
G1 X156.509 Y164.577 E8.77123
G1 X156.139 Y164.668 E8.79905
G1 X155.253 Y164.862 E8.86525
G1 X154.895 Y164.931 E8.89186
G1 X154 Y165.083 E8.95812
G1 X153.628 Y165.137 E8.98555
G1 X152.728 Y165.245 E9.05172
G1 X152.363 Y165.28 E9.07848
G1 X151.458 Y165.345 E9.14471
G1 X151.076 Y165.363 E9.17262
G1 X150.17 Y165.383 E9.23876
G1 X149.83 Y165.383 E9.26358
G1 X148.923 Y165.363 E9.3298
G1 X148.532 Y165.345 E9.35837
G1 X147.629 Y165.279 E9.42445
G1 X147.273 Y165.244 E9.45056
G1 X146.373 Y165.136 E9.51672
G1 X146.001 Y165.082 E9.54416
G1 X145.106 Y164.93 E9.61042
G1 X144.756 Y164.863 E9.63643
G1 X143.87 Y164.67 E9.70261
G1 X143.494 Y164.578 E9.73087
G1 X142.62 Y164.341 E9.79696
G1 X142.292 Y164.244 E9.82193
G1 X141.428 Y163.968 E9.88813
G1 X141.055 Y163.838 E9.91696
G1 X140.206 Y163.518 E9.98319
G1 X139.878 Y163.386 E10.00899
G1 X139.044 Y163.027 E10.07527
G1 X138.699 Y162.868 E10.10299
G1 X137.887 Y162.47 E10.169
G1 X137.57 Y162.306 E10.19505
G1 X136.774 Y161.869 E10.26133
G1 X136.451 Y161.681 E10.28861
G1 X135.679 Y161.207 E10.35473
G1 X135.37 Y161.007 E10.38159
G1 X134.622 Y160.497 E10.44767
G1 X134.313 Y160.275 E10.47544
G1 X133.589 Y159.727 E10.54172
G1 X133.31 Y159.505 E10.56774
G1 X132.612 Y158.924 E10.63403
G1 X132.35 Y158.695 E10.65943
G1 X131.68 Y158.084 E10.72561
G1 X131.385 Y157.801 E10.75545
G1 X130.749 Y157.156 E10.82156
G1 X130.507 Y156.899 E10.84733
G1 X129.9 Y156.224 E10.91359
G1 X129.647 Y155.928 E10.94201
G1 X129.3 Y155.91 E10.96737
G1 X128.525 Y155.791 E11.0246
G1 X127.766 Y155.593 E11.08185
G1 X127.031 Y155.319 E11.13911
G1 X126.327 Y154.971 E11.19643
G1 X125.663 Y154.554 E11.25366
G1 X125.044 Y154.071 E11.31096
G1 X124.478 Y153.528 E11.36821
G1 X123.97 Y152.93 E11.42548
G1 X123.525 Y152.284 E11.48274
G1 X123.149 Y151.595 E11.54003
G1 X122.844 Y150.872 E11.5973
G1 X122.615 Y150.122 E11.65454
G1 X122.463 Y149.352 E11.71183
G1 X122.384 Y148.251 E11.7924
G1 X122.383 Y141.357 E12.29558
G1 X122.086 Y141.107 E12.32392
G1 X121.876 Y140.92 E12.34444
G1 X121.723 Y140.779 E12.35963
G1 X121.516 Y140.581 E12.38054
G1 X121.374 Y140.44 E12.39514
G1 X121.166 Y140.226 E12.41693
G1 X120.918 Y139.957 E12.44363
G1 X120.743 Y139.761 E12.46281
G1 X120.413 Y139.366 E12.50038
G1 X120.081 Y138.939 E12.53986
G1 X119.846 Y138.623 E12.5686
G1 X119.752 Y138.489 E12.58055
G1 X119.589 Y138.247 E12.60184
G1 X119.472 Y138.066 E12.61757
G1 X119.311 Y137.805 E12.63996
G1 X119.141 Y137.514 E12.66456
G1 X118.965 Y137.2 E12.69083
G1 X118.724 Y136.733 E12.72919
G1 X118.596 Y136.463 E12.751
G1 X118.482 Y136.21 E12.77125
G1 X118.302 Y135.792 E12.80447
G1 X118.075 Y135.2 E12.85075
G1 X117.995 Y134.962 E12.86907
G1 X117.882 Y134.599 E12.89682
G1 X117.783 Y134.237 E12.92421
G1 X117.724 Y134.019 E12.9407
G1 X117.577 Y133.416 E12.986
G1 X117.517 Y133.118 E13.00819
G1 X117.45 Y132.732 E13.03678
G1 X117.408 Y132.45 E13.05759
G1 X117.37 Y132.154 E13.07938
G1 X117.347 Y131.944 E13.09479
G1 X117.312 Y131.523 E13.12563
G1 X117.293 Y131.173 E13.15121
G1 X117.282 Y130.831 E13.17619
G1 X117.278 Y130.352 E13.21115
G1 X117.277 Y128.455 E13.34961
G1 X117.286 Y128.02 E13.38137
G1 X117.303 Y127.625 E13.41023
G1 X117.317 Y127.408 E13.4261
G1 X117.348 Y127.058 E13.45174
G1 X117.372 Y126.841 E13.46768
G1 X117.413 Y126.558 E13.48855
G1 X117.439 Y126.355 E13.50349
G1 X117.496 Y126.006 E13.5293
G1 X117.553 Y125.698 E13.55216
G1 X117.679 Y125.136 E13.5942
G1 X117.78 Y124.753 E13.62311
G1 X117.871 Y124.434 E13.64732
G1 X117.97 Y124.115 E13.6717
G1 X118.151 Y123.597 E13.71175
G1 X118.306 Y123.2 E13.74286
G1 X118.471 Y122.81 E13.77377
G1 X118.618 Y122.487 E13.79967
G1 X118.874 Y121.975 E13.84145
G1 X119.101 Y121.561 E13.87591
G1 X119.301 Y121.218 E13.9049
G1 X119.493 Y120.907 E13.93157
G1 X119.801 Y120.446 E13.97204
G1 X120.024 Y120.137 E13.99985
G1 X120.262 Y119.825 E14.02849
G1 X120.481 Y119.552 E14.05404
G1 X120.768 Y119.21 E14.08663
G1 X121.013 Y118.937 E14.1134
G1 X121.319 Y118.616 E14.14577
G0 F6000 X121.755 Y119.052
G1 F1200 X121.905 Y118.902 E14.16125
G1 X122.281 Y118.552 E14.19875
G1 X122.483 Y118.377 E14.21826
G1 X122.72 Y118.167 E14.24137
G1 X123.144 Y117.82 E14.28136
G1 X123.425 Y117.607 E14.30709
G1 X123.856 Y117.304 E14.34555
G1 X124.162 Y117.106 E14.37215
G1 X124.701 Y116.781 E14.41809
G1 X125.29 Y116.46 E14.46705
G1 X125.477 Y116.361 E14.4825
G1 X125.76 Y116.224 E14.50544
G1 X126.158 Y116.047 E14.53724
G1 X126.354 Y115.965 E14.55274
G1 X126.645 Y115.851 E14.57556
G1 X127.026 Y115.711 E14.60518
G1 X127.318 Y115.61 E14.62774
G1 X127.522 Y115.545 E14.64336
G1 X127.792 Y115.465 E14.66392
G1 X127.999 Y115.408 E14.67959
G1 X128.263 Y115.341 E14.69947
G1 X128.7 Y115.243 E14.73216
G1 X129.25 Y115.133 E14.7731
G1 X129.688 Y115.059 E14.80552
G1 X129.902 Y115.03 E14.82128
G1 X130.166 Y114.999 E14.84068
G1 X130.474 Y114.969 E14.86327
G1 X130.887 Y114.939 E14.89349
G1 X131.165 Y114.926 E14.91381
G1 X131.478 Y114.918 E14.93666
G1 X131.659 Y114.916 E14.94987
G1 X168.428 Y114.917 E17.63362
G1 X168.71 Y114.923 E17.6542
G1 X169.011 Y114.935 E17.67619
G1 X169.459 Y114.963 E17.70896
G1 X169.875 Y115.003 E17.73946
G1 X170.336 Y115.062 E17.77338
G1 X170.666 Y115.116 E17.79779
G1 X170.957 Y115.172 E17.81942
G1 X171.313 Y115.244 E17.84593
G1 X171.566 Y115.299 E17.86483
G1 X172.002 Y115.408 E17.89763
G1 X172.209 Y115.465 E17.9133
G1 X172.477 Y115.545 E17.93371
G1 X172.678 Y115.609 E17.94911
G1 X172.967 Y115.708 E17.97141
G1 X173.349 Y115.848 E18.0011
G1 X173.638 Y115.961 E18.02375
G1 X173.837 Y116.044 E18.03949
G1 X174.074 Y116.148 E18.05838
G1 X174.469 Y116.334 E18.09025
G1 X174.743 Y116.471 E18.11261
G1 X175.286 Y116.773 E18.15796
G1 X175.457 Y116.878 E18.1726
G1 X175.757 Y117.056 E18.19807
G1 X176.194 Y117.337 E18.23599
G1 X176.487 Y117.541 E18.26205
G1 X176.96 Y117.901 E18.30543
G1 X177.229 Y118.124 E18.33094
G1 X177.484 Y118.346 E18.35561
G1 X177.703 Y118.537 E18.37682
G1 X178.126 Y118.932 E18.41907
G1 X178.362 Y119.173 E18.44369
G1 X178.505 Y119.323 E18.45881
G1 X178.783 Y119.632 E18.48915
G1 X179.033 Y119.93 E18.51754
G1 X179.254 Y120.205 E18.54329
G1 X179.485 Y120.51 E18.57122
G1 X179.707 Y120.819 E18.59899
G1 X179.973 Y121.217 E18.63393
G1 X180.166 Y121.528 E18.66064
G1 X180.384 Y121.904 E18.69237
G1 X180.622 Y122.349 E18.7292
G1 X180.756 Y122.611 E18.75068
G1 X180.998 Y123.137 E18.79294
G1 X181.166 Y123.546 E18.82521
G1 X181.259 Y123.78 E18.84359
G1 X181.444 Y124.302 E18.88402
G1 X181.543 Y124.622 E18.90846
G1 X181.669 Y125.068 E18.94229
G1 X181.748 Y125.386 E18.96621
G1 X181.818 Y125.697 E18.98948
G1 X181.892 Y126.074 E19.01752
G1 X181.94 Y126.366 E19.03912
G1 X181.981 Y126.642 E19.05948
G1 X182.038 Y127.108 E19.09375
G1 X182.068 Y127.448 E19.11866
G1 X182.082 Y127.665 E19.13453
G1 X182.094 Y127.927 E19.15368
G1 X182.106 Y128.446 E19.19157
G1 X182.106 Y130.433 E19.3366
G1 X182.101 Y130.842 E19.36645
G1 X182.092 Y131.137 E19.388
G1 X182.073 Y131.489 E19.41372
G1 X182.04 Y131.882 E19.44251
G1 X181.99 Y132.313 E19.47418
G1 X181.927 Y132.727 E19.50475
G1 X181.844 Y133.18 E19.53836
G1 X181.813 Y133.33 E19.54954
G1 X181.677 Y133.88 E19.59089
G1 X181.506 Y134.494 E19.63741
G1 X181.433 Y134.729 E19.65538
G1 X181.285 Y135.157 E19.68843
G1 X181.194 Y135.395 E19.70703
G1 X181.057 Y135.727 E19.73324
G1 X180.845 Y136.207 E19.77154
G1 X180.644 Y136.624 E19.80533
G1 X180.497 Y136.899 E19.82809
G1 X180.321 Y137.213 E19.85436
G1 X180.172 Y137.467 E19.87586
G1 X180.061 Y137.647 E19.89129
G1 X179.922 Y137.864 E19.9101
G1 X179.741 Y138.135 E19.93389
G1 X179.517 Y138.45 E19.9621
G1 X179.303 Y138.732 E19.98794
G1 X179.068 Y139.029 E20.01558
G1 X178.761 Y139.391 E20.05023
G1 X178.45 Y139.734 E20.08402
G1 X178.158 Y140.038 E20.11479
G1 X177.893 Y140.295 E20.14173
G1 X177.742 Y140.436 E20.15681
G1 X177.498 Y140.653 E20.18064
G1 X177.176 Y140.923 E20.21132
G1 X177 Y141.064 E20.22778
G1 X177 Y148.25 E20.75228
G1 X176.96 Y149.001 E20.80717
G1 X176.841 Y149.744 E20.86209
G1 X176.643 Y150.471 E20.91709
G1 X176.369 Y151.172 E20.97202
G1 X176.023 Y151.84 E21.02693
G1 X175.608 Y152.467 E21.08181
G1 X175.128 Y153.047 E21.13676
G1 X174.59 Y153.573 E21.19168
G1 X173.999 Y154.039 E21.24662
G1 X173.362 Y154.439 E21.30152
G1 X172.686 Y154.77 E21.35645
G1 X171.978 Y155.027 E21.41143
G1 X171.248 Y155.208 E21.46633
G1 X170.502 Y155.31 E21.52128
G1 X170.048 Y155.329 E21.55445
G1 X169.867 Y155.551 E21.57536
G1 X169.65 Y155.804 E21.59968
G1 X169.045 Y156.479 E21.66584
G1 X168.779 Y156.76 E21.69409
G1 X168.475 Y157.064 E21.72547
G1 X168.184 Y157.36 E21.75576
G1 X167.908 Y157.627 E21.78379
G1 X167.239 Y158.238 E21.84992
G1 X166.998 Y158.448 E21.87325
G1 X166.301 Y159.029 E21.93948
G1 X166.038 Y159.238 E21.964
G1 X165.316 Y159.784 E22.03007
G1 X165.037 Y159.985 E22.05517
G1 X164.287 Y160.497 E22.12145
G1 X163.99 Y160.689 E22.14727
G1 X163.217 Y161.162 E22.21341
G1 X162.935 Y161.325 E22.23719
G1 X162.139 Y161.763 E22.3035
G1 X161.839 Y161.92 E22.32822
G1 X161.026 Y162.318 E22.39428
G1 X160.704 Y162.465 E22.42012
G1 X159.872 Y162.822 E22.4862
G1 X159.584 Y162.938 E22.50886
G1 X158.735 Y163.259 E22.57511
G1 X158.383 Y163.382 E22.60233
G1 X157.518 Y163.658 E22.6686
G1 X157.221 Y163.746 E22.69121
G1 X156.348 Y163.983 E22.75724
G1 X156.007 Y164.066 E22.78285
G1 X155.121 Y164.26 E22.84905
G1 X154.792 Y164.324 E22.87352
G1 X153.897 Y164.476 E22.93978
G1 X153.555 Y164.526 E22.96501
G1 X152.655 Y164.634 E23.03117
G1 X152.318 Y164.666 E23.05587
G1 X151.413 Y164.731 E23.1221
G1 X151.062 Y164.747 E23.14775
G1 X150.156 Y164.767 E23.21389
G1 X149.844 Y164.767 E23.23666
G1 X148.937 Y164.747 E23.30288
G1 X148.577 Y164.73 E23.32919
G1 X147.674 Y164.664 E23.39527
G1 X147.346 Y164.633 E23.41932
G1 X146.446 Y164.525 E23.48548
G1 X146.104 Y164.475 E23.51071
G1 X145.209 Y164.323 E23.57697
G1 X144.887 Y164.261 E23.6009
G1 X144.001 Y164.068 E23.66709
G1 X143.655 Y163.983 E23.69309
G1 X142.781 Y163.746 E23.75919
G1 X142.479 Y163.657 E23.78217
G1 X141.615 Y163.381 E23.84837
G1 X141.273 Y163.262 E23.8748
G1 X140.424 Y162.942 E23.94103
G1 X140.121 Y162.82 E23.96487
G1 X139.287 Y162.461 E24.03114
G1 X138.97 Y162.315 E24.05661
G1 X138.158 Y161.917 E24.12262
G1 X137.867 Y161.766 E24.14655
G1 X137.071 Y161.329 E24.21283
G1 X136.773 Y161.156 E24.23798
G1 X136.001 Y160.682 E24.3041
G1 X135.717 Y160.498 E24.3288
G1 X134.969 Y159.988 E24.39488
