;FLAVOR:Marlin
;TIME:5132
;Filament used: 4.58675m
;Layer height: 0.4
;Generated with Cura_SteamEngine 3.6.0
M104 S215
M105
M109 S215
M82 ;absolute extrusion mode
G21 ;metric values
G90 ;absolute positioning
M82 ;set extruder to absolute mode
M107 ;start with the fan off
G28 X0 Y0 ;move X/Y to min endstops
G28 Z0 ;move Z to min endstops
G1 Z15.0 F100.0 ;move the platform down 15mm
G92 E0 ;zero the extruded length
G1 F200 E3 ;extrude 3mm of feed stock
G92 E0 ;zero the extruded length again
G1 F100.0
M117 Printing...
G5
G92 E0
;LAYER_COUNT:50
;LAYER:0
M107
M204 S3000
M205 X10 Y10
G0 F6000 X41.665 Y51.662 Z0.4
M204 S1000
M205 X8 Y8
;TYPE:SKIRT
G1 F1200 X42.283 Y51.23 E0.10533
G1 X42.942 Y50.866 E0.2105
G1 X43.637 Y50.574 E0.31581
G1 X44.358 Y50.358 E0.42095
G1 X45.099 Y50.218 E0.52629
G1 X46.077 Y50.156 E0.66318
G1 X47.716 Y50.165 E0.89214
G1 X48.468 Y50.209 E0.99737
G1 X49.387 Y50.374 E1.1278
G1 X50.04 Y50.536 E1.22179
G1 X50.76 Y50.756 E1.32696
G1 X51.453 Y51.051 E1.43217
G1 X52.127 Y51.427 E1.53998
G1 X52.639 Y51.751 E1.62462
G1 X53.253 Y52.187 E1.72982
G1 X53.818 Y52.686 E1.83512
G1 X54.326 Y53.242 E1.94032
G1 X54.575 Y53.563 E1.99708
G1 X55.136 Y54.331 E2.12993
G1 X55.548 Y54.962 E2.23521
G1 X55.929 Y55.721 E2.35384
G1 X59.241 Y63.446 E3.52796
G1 X59.395 Y63.839 E3.58693
G1 X62.02 Y71.129 E4.6693
G1 X62.149 Y71.523 E4.72721
G1 X64.338 Y78.935 E5.80682
G1 X64.444 Y79.336 E5.86476
G1 X66.204 Y86.893 E6.94867
G1 X66.282 Y87.272 E7.00272
G1 X67.49 Y94.135 E7.97617
G1 X67.551 Y94.563 E8.03656
G1 X68.522 Y103.089 E9.23528
G1 X68.556 Y103.484 E9.29066
G1 X68.953 Y110.386 E10.25642
G1 X68.965 Y110.818 E10.31679
G1 X68.936 Y119.374 E11.512
G1 X68.923 Y119.774 E11.56791
G1 X68.505 Y126.758 E12.54527
G1 X68.466 Y127.188 E12.60558
G1 X67.44 Y135.652 E13.7966
G1 X67.381 Y136.046 E13.85225
G1 X66.151 Y142.932 E14.8294
G1 X66.068 Y143.331 E14.88633
G1 X64.263 Y150.9 E15.97331
G1 X64.147 Y151.328 E16.03525
G1 X61.643 Y159.52 E17.23188
G1 X61.516 Y159.898 E17.28759
G1 X59.122 Y166.402 E18.25574
G1 X58.971 Y166.778 E18.31234
G1 X55.851 Y173.961 E19.40632
G1 X55.515 Y174.635 E19.51153
G1 X55.188 Y175.156 E19.59745
G1 X54.855 Y175.64 E19.67952
G1 X54.396 Y176.238 E19.78483
G1 X53.876 Y176.783 E19.89005
G1 X53.387 Y177.203 E19.9801
G1 X52.896 Y177.588 E20.06726
G1 X52.279 Y178.021 E20.17256
G1 X51.437 Y178.472 E20.30599
G1 X51.127 Y178.612 E20.35351
G1 X50.425 Y178.885 E20.45872
G1 X49.698 Y179.082 E20.56394
G1 X49.323 Y179.152 E20.61723
G1 X48.52 Y179.28 E20.73082
G1 X47.77 Y179.359 E20.83617
G1 X47.376 Y179.369 E20.89123
G1 X45.999 Y179.364 E21.08359
G1 X45.247 Y179.321 E21.18881
G1 X44.504 Y179.199 E21.29399
G1 X43.777 Y178.999 E21.39932
G1 X43.076 Y178.723 E21.50456
G1 X42.409 Y178.374 E21.60972
G1 X41.781 Y177.956 E21.7151
G1 X41.202 Y177.475 E21.82025
G1 X40.677 Y176.934 E21.92556
G1 X40.212 Y176.341 E22.03083
G1 X39.813 Y175.702 E22.13606
G1 X39.484 Y175.025 E22.24121
G1 X39.228 Y174.316 E22.34651
G1 X39.049 Y173.584 E22.45178
G1 X38.999 Y173.212 E22.50421
G1 X38.478 Y169.851 E22.97933
G1 X37.422 Y164.633 E23.72302
G1 X36.807 Y162.14 E24.08171
G1 X35.321 Y157.055 E24.82176
G1 X33.563 Y152.103 E25.55582
G1 X31.53 Y147.262 E26.28928
G1 X29.227 Y142.546 E27.02243
G1 X26.653 Y137.953 E27.75792
G1 X23.808 Y133.486 E28.49774
G1 X22.35 Y131.4 E28.85326
G1 X19.258 Y127.318 E29.56861
G1 X18.754 Y126.555 E29.69635
G1 X18.419 Y125.969 E29.79064
G1 X18.08 Y125.296 E29.8959
G1 X17.815 Y124.591 E30.00111
G1 X17.599 Y123.724 E30.12593
G1 X17.477 Y123.058 E30.22051
G1 X17.381 Y122.311 E30.32572
G1 X17.361 Y121.78 E30.39995
G1 X17.36 Y107.736 E32.36179
G1 X17.43 Y106.74 E32.50127
G1 X17.493 Y106.295 E32.56405
G1 X17.638 Y105.555 E32.66939
G1 X17.885 Y104.771 E32.78422
G1 X18.077 Y104.265 E32.85982
G1 X18.381 Y103.576 E32.96502
G1 X18.757 Y102.923 E33.07028
G1 X19.048 Y102.507 E33.1412
G1 X22.696 Y97.674 E33.98707
G1 X25.608 Y93.31 E34.71995
G1 X28.273 Y88.784 E35.45366
G1 X30.686 Y84.099 E36.18982
G1 X32.842 Y79.256 E36.93036
G1 X33.795 Y76.849 E37.292
G1 X34.67 Y74.433 E37.65095
G1 X36.261 Y69.396 E38.38885
G1 X37.574 Y64.233 E39.13304
G1 X38.095 Y61.759 E39.48622
G1 X39.033 Y56.095 E40.28821
G1 X39.196 Y55.36 E40.39338
G1 X39.435 Y54.645 E40.49869
G1 X39.749 Y53.96 E40.60396
G1 X40.134 Y53.313 E40.70913
G1 X40.585 Y52.709 E40.81443
G1 X41.097 Y52.157 E40.9196
G1 X41.665 Y51.662 E41.02485
M204 S3000
M205 X10 Y10
G0 F6000 X42.425 Y52.144
M204 S1000
M205 X8 Y8
G1 F1200 X43.025 Y51.769 E41.12369
G1 X43.664 Y51.464 E41.2226
G1 X44.332 Y51.233 E41.32134
G1 X45.023 Y51.079 E41.42023
G1 X46.072 Y50.996 E41.56723
G1 X47.711 Y51.005 E41.79619
G1 X48.417 Y51.049 E41.895
G1 X49.184 Y51.189 E42.00392
G1 X49.837 Y51.351 E42.0979
G1 X50.513 Y51.56 E42.19674
G1 X51.161 Y51.844 E42.29558
G1 X51.677 Y52.137 E42.37847
G1 X52.189 Y52.461 E42.46311
G1 X52.765 Y52.873 E42.56203
G1 X53.29 Y53.346 E42.66075
G1 X53.897 Y54.058 E42.79145
G1 X54.458 Y54.826 E42.92431
G1 X54.842 Y55.42 E43.02311
G1 X55.157 Y56.052 E43.12176
G1 X58.469 Y63.777 E44.29588
G1 X58.605 Y64.123 E44.34781
G1 X61.23 Y71.413 E45.43018
G1 X61.344 Y71.761 E45.48134
G1 X63.533 Y79.173 E46.56095
G1 X63.626 Y79.526 E46.61194
G1 X65.386 Y87.083 E47.69585
G1 X65.454 Y87.418 E47.7436
G1 X66.662 Y94.281 E48.71705
G1 X66.717 Y94.658 E48.77027
G1 X67.688 Y103.184 E49.96899
G1 X67.718 Y103.533 E50.01792
G1 X68.115 Y110.435 E50.98367
G1 X68.125 Y110.815 E51.03678
G1 X68.096 Y119.371 E52.23199
G1 X68.085 Y119.724 E52.28133
G1 X67.667 Y126.708 E53.25869
G1 X67.633 Y127.087 E53.31184
G1 X66.607 Y135.551 E54.50285
G1 X66.554 Y135.899 E54.55203
G1 X65.324 Y142.785 E55.52918
G1 X65.251 Y143.136 E55.57926
G1 X63.446 Y150.705 E56.66624
G1 X63.344 Y151.083 E56.72093
G1 X60.84 Y159.275 E57.91756
G1 X60.728 Y159.607 E57.96651
G1 X58.334 Y166.111 E58.93466
G1 X58.201 Y166.443 E58.98462
G1 X55.081 Y173.626 E60.0786
G1 X54.763 Y174.258 E60.17743
G1 X54.496 Y174.68 E60.24719
G1 X54.163 Y175.164 E60.32926
G1 X53.73 Y175.723 E60.42803
G1 X53.236 Y176.23 E60.52692
G1 X52.869 Y176.542 E60.59421
G1 X52.378 Y176.927 E60.68137
G1 X51.797 Y177.332 E60.7803
G1 X51.092 Y177.706 E60.89178
G1 X50.782 Y177.846 E60.9393
G1 X50.121 Y178.1 E61.03822
G1 X49.19 Y178.323 E61.17195
G1 X48.387 Y178.451 E61.28554
G1 X47.379 Y178.529 E61.42677
G1 X46.002 Y178.524 E61.61913
G1 X45.296 Y178.481 E61.71794
G1 X44.599 Y178.36 E61.81676
G1 X43.921 Y178.16 E61.91551
G1 X43.269 Y177.885 E62.01435
G1 X42.652 Y177.538 E62.11324
G1 X42.079 Y177.124 E62.21199
G1 X41.556 Y176.648 E62.31078
G1 X41.09 Y176.115 E62.40968
G1 X40.687 Y175.534 E62.50845
G1 X40.352 Y174.911 E62.60727
G1 X40.09 Y174.254 E62.70607
G1 X39.903 Y173.572 E62.80486
G1 X39.795 Y172.873 E62.90366
G1 X39.795 Y172.865 E62.90478
G1 X39.305 Y169.704 E63.35162
G1 X38.239 Y164.435 E64.10258
G1 X37.622 Y161.934 E64.46242
G1 X36.118 Y156.787 E65.21149
G1 X34.352 Y151.814 E65.94868
G1 X32.292 Y146.908 E66.69198
G1 X29.968 Y142.149 E67.43181
G1 X27.383 Y137.535 E68.17061
G1 X24.498 Y133.008 E68.9205
G1 X23.027 Y130.902 E69.27935
G1 X19.928 Y126.811 E69.99629
G1 X19.483 Y126.138 E70.109
G1 X19.148 Y125.552 E70.20329
G1 X18.833 Y124.919 E70.30206
G1 X18.59 Y124.254 E70.40096
G1 X18.425 Y123.573 E70.49885
G1 X18.303 Y122.907 E70.59343
G1 X18.216 Y122.205 E70.69224
G1 X18.201 Y121.779 E70.75179
G1 X18.2 Y107.735 E72.71363
G1 X18.262 Y106.858 E72.83645
G1 X18.325 Y106.413 E72.89923
G1 X18.463 Y105.719 E72.99808
G1 X18.67 Y105.069 E73.09337
G1 X18.862 Y104.563 E73.16897
G1 X19.15 Y103.917 E73.26777
G1 X19.509 Y103.307 E73.36665
G1 X19.718 Y103.013 E73.41704
G1 X23.383 Y98.157 E74.2669
G1 X26.327 Y93.746 E75.00772
G1 X29.008 Y89.193 E75.74582
G1 X31.436 Y84.478 E76.48667
G1 X33.625 Y79.562 E77.2384
G1 X34.58 Y77.15 E77.60079
G1 X35.464 Y74.707 E77.96371
G1 X37.068 Y69.628 E78.70775
G1 X38.393 Y64.421 E79.45831
G1 X38.922 Y61.905 E79.81746
G1 X39.862 Y56.233 E80.62061
G1 X40.017 Y55.543 E80.71939
G1 X40.249 Y54.874 E80.81831
G1 X40.555 Y54.236 E80.91715
G1 X40.93 Y53.637 E81.01587
G1 X41.371 Y53.084 E81.11468
G1 X41.872 Y52.584 E81.21356
G1 X42.425 Y52.144 E81.31228
M204 S3000
M205 X10 Y10
G0 F6000 X42.64 Y53.033
M204 S1000
M205 X8 Y8
G1 F1200 X43.177 Y52.652 E81.40425
G1 X43.756 Y52.34 E81.49613
G1 X44.369 Y52.099 E81.58814
G1 X45.006 Y51.935 E81.68003
G1 X45.659 Y51.849 E81.77204
G1 X46.068 Y51.836 E81.8292
G1 X47.707 Y51.845 E82.05816
G1 X48.363 Y51.889 E82.15
G1 X48.982 Y52.004 E82.23795
G1 X49.635 Y52.166 E82.33194
G1 X50.263 Y52.363 E82.42388
G1 X50.863 Y52.635 E82.5159
G1 X51.228 Y52.847 E82.57487
G1 X51.74 Y53.171 E82.65951
G1 X52.274 Y53.556 E82.75147
G1 X52.757 Y54.003 E82.8434
G1 X53.219 Y54.554 E82.94385
G1 X53.78 Y55.322 E83.07671
G1 X54.135 Y55.876 E83.16862
G1 X54.384 Y56.383 E83.24753
G1 X57.696 Y64.108 E84.42165
G1 X57.814 Y64.408 E84.46669
G1 X60.439 Y71.698 E85.54905
G1 X60.538 Y71.999 E85.59332
G1 X62.727 Y79.411 E86.67293
G1 X62.808 Y79.717 E86.71715
G1 X64.568 Y87.274 E87.80105
G1 X64.627 Y87.563 E87.84226
G1 X65.835 Y94.426 E88.81571
G1 X65.882 Y94.753 E88.86186
G1 X66.853 Y103.279 E90.06057
G1 X66.879 Y103.581 E90.10292
G1 X67.276 Y110.483 E91.06867
G1 X67.285 Y110.812 E91.11464
G1 X67.256 Y119.368 E92.30986
G1 X67.246 Y119.674 E92.35263
G1 X66.828 Y126.658 E93.32999
G1 X66.799 Y126.986 E93.37599
G1 X65.773 Y135.45 E94.567
G1 X65.728 Y135.751 E94.60951
G1 X64.498 Y142.637 E95.58666
G1 X64.434 Y142.941 E95.63006
G1 X62.629 Y150.51 E96.71704
G1 X62.54 Y150.837 E96.76438
G1 X60.036 Y159.029 E97.96101
G1 X59.939 Y159.317 E98.00346
G1 X57.545 Y165.821 E98.97162
G1 X57.43 Y166.108 E99.01481
G1 X54.31 Y173.291 E100.10879
G1 X54.012 Y173.878 E100.20075
G1 X53.804 Y174.204 E100.25477
G1 X53.471 Y174.688 E100.33684
G1 X53.066 Y175.207 E100.4288
G1 X52.35 Y175.881 E100.56616
G1 X51.859 Y176.266 E100.65332
G1 X51.318 Y176.64 E100.7452
G1 X50.746 Y176.941 E100.83549
G1 X50.436 Y177.081 E100.883
G1 X49.821 Y177.315 E100.97492
G1 X49.058 Y177.493 E101.08437
G1 X48.255 Y177.621 E101.19796
G1 X47.382 Y177.689 E101.32028
G1 X46.005 Y177.684 E101.51264
G1 X45.349 Y177.642 E101.60447
G1 X44.702 Y177.52 E101.69644
G1 X44.074 Y177.321 E101.78847
G1 X43.476 Y177.047 E101.88035
G1 X42.915 Y176.703 E101.97228
G1 X42.4 Y176.293 E102.06424
G1 X41.938 Y175.824 E102.1562
G1 X41.537 Y175.302 E102.24815
G1 X41.202 Y174.736 E102.34003
G1 X40.937 Y174.133 E102.43204
G1 X40.748 Y173.503 E102.52392
G1 X40.637 Y172.854 E102.6159
G1 X40.634 Y172.798 E102.62373
G1 X40.13 Y169.54 E103.08426
G1 X39.061 Y164.259 E103.83694
G1 X38.433 Y161.712 E104.2034
G1 X36.923 Y156.547 E104.95511
G1 X35.13 Y151.495 E105.70396
G1 X33.058 Y146.561 E106.45152
G1 X30.717 Y141.767 E107.19678
G1 X28.095 Y137.089 E107.94591
G1 X25.205 Y132.552 E108.69736
G1 X23.708 Y130.409 E109.06252
G1 X20.598 Y126.304 E109.78195
G1 X20.213 Y125.721 E109.87955
G1 X19.878 Y125.135 E109.97384
G1 X19.586 Y124.545 E110.0658
G1 X19.369 Y123.924 E110.15769
G1 X19.252 Y123.422 E110.2297
G1 X19.13 Y122.756 E110.32428
G1 X19.041 Y121.779 E110.46132
G1 X19.04 Y107.735 E112.42317
G1 X19.094 Y106.975 E112.5296
G1 X19.157 Y106.53 E112.59238
G1 X19.288 Y105.885 E112.68432
G1 X19.456 Y105.367 E112.7604
G1 X19.648 Y104.861 E112.836
G1 X19.918 Y104.261 E112.92791
G1 X20.389 Y103.519 E113.05068
G1 X24.065 Y98.648 E113.90314
G1 X27.038 Y94.194 E114.65121
G1 X29.743 Y89.6 E115.39594
G1 X32.2 Y84.829 E116.1456
G1 X34.392 Y79.905 E116.89852
G1 X35.369 Y77.439 E117.26906
G1 X36.259 Y74.98 E117.63437
G1 X37.876 Y69.86 E118.38441
G1 X39.212 Y64.609 E119.14131
G1 X39.749 Y62.055 E119.50588
G1 X40.691 Y56.37 E120.31087
G1 X40.838 Y55.728 E120.40287
G1 X41.061 Y55.109 E120.49478
G1 X41.358 Y54.522 E120.58668
G1 X41.724 Y53.975 E120.67862
G1 X42.154 Y53.476 E120.77063
G1 X42.64 Y53.033 E120.8625
M204 S3000
M205 X10 Y10
G1 F300 Z0.475
;MESH:Object 1
G0 F6000 X39.068 Y119.142 Z0.475
M204 S1000
M205 X8 Y8
;TYPE:WALL-INNER
G1 F300 Z0.4
G1 F1200 X36.653 Y119.142 E121.19985
G1 X36.653 Y110.378 E122.42412
G1 X39.068 Y110.378 E122.76148
G1 X39.068 Y105.525 E123.4394
G1 X39.827 Y105.525 E123.54543
G1 X39.827 Y110.378 E124.15799
G1 X39.827 Y119.142 E125.38225
G1 X39.827 Y123.995 E126.06018
G1 X39.068 Y123.995 E126.16621
G1 X39.068 Y119.142 E126.77876
M204 S3000
M205 X10 Y10
G0 F6000 X40.227 Y124.835
M204 S1000
M205 X8 Y8
G1 F1200 X38.228 Y124.835 E127.05801
G1 X38.228 Y119.982 E127.73594
G1 X35.813 Y119.982 E128.0733
G1 X33.557 Y119.982 E128.38844
G1 X33.465 Y119.552 E128.44987
G1 X33.557 Y119.552
G1 X35.813 Y119.552 E128.61119
G1 X35.813 Y109.835 E129.96859
G1 X33.56 Y109.835 E130.28331
G1 X33.501 Y109.835 E130.29156
G1 X33.56 Y109.538 E130.31546
G1 X35.813 Y109.538 E130.42674
G1 X38.228 Y109.538 E130.7641
G1 X38.228 Y104.685 E131.44203
G1 X40.227 Y104.685 E131.72127
G1 X40.227 Y100.855 E132.2563
G1 X40.609 Y100.787 E132.3105
G1 X40.667 Y100.75 E132.32011
G1 X40.667 Y100.787
G1 X40.667 Y100.855
G1 X40.667 Y104.685 E132.60036
G1 X40.667 Y124.835 E135.41516
G1 X40.667 Y129.359 E136.04713
G1 X40.667 Y129.593 E136.07982
G1 X40.227 Y129.359 E136.11632
G1 X40.227 Y124.835 E136.44735
M204 S3000
M205 X10 Y10
G0 F6000 X39.387 Y125.675
M204 S1000
M205 X8 Y8
G1 F1200 X37.388 Y125.675 E136.72659
G1 X37.388 Y120.822 E137.40452
G1 X32.879 Y120.822 E138.03439
G1 X32.638 Y119.705 E138.19402
G1 X32.435 Y119.332 E138.25334
G1 X32.098 Y118.712 E138.35192
G1 X32.803 Y118.712 E138.40808
G1 X32.804 Y118.712 E138.40822
G1 X34.973 Y118.712 E138.71121
G1 X34.973 Y110.675 E139.83392
G1 X32.809 Y110.675 E140.13621
G1 X32.309 Y110.675 E140.20606
G1 X32.171 Y110.675 E140.22534
G1 X32.309 Y110.479 E140.23791
G1 X32.516 Y110.024 E140.28521
G1 X32.678 Y109.67 E140.33959
G1 X32.869 Y108.698 E140.47797
G1 X37.388 Y108.698 E141.10924
G1 X37.388 Y103.845 E141.78717
G1 X39.387 Y103.845 E142.06641
G1 X39.387 Y100.152 E142.5823
G1 X40.3 Y99.989 E142.71185
G1 X40.876 Y99.626 E142.80696
G1 X41.329 Y99.34 E142.8818
G1 X41.507 Y99.513 E142.91647
G1 X41.507 Y100.049 E142.96826
G1 X41.507 Y130.222 E147.18321
G1 X41.176 Y130.407 E147.23618
G1 X40.823 Y130.72 E147.30208
G1 X40.642 Y130.531 E147.33864
G1 X39.387 Y129.864 E147.53717
G1 X39.387 Y125.675 E148.12234
M204 S3000
M205 X10 Y10
G0 F6000 X38.547 Y126.515
M204 S1000
M205 X8 Y8
G1 F1200 X36.548 Y126.515 E148.40159
G1 X36.548 Y121.662 E149.07952
G1 X32.04 Y121.662 E149.70925
G1 X32.025 Y121.662 E149.71135
G1 X32.04 Y120.918 E149.78634
G1 X31.842 Y120 E149.91753
G1 X31.366 Y119.125 E150.05668
G1 X30.898 Y118.657 E150.14913
G1 X30.584 Y118.343 E150.21116
G1 X29.715 Y117.872 E150.34924
G1 X30.584 Y117.872 E150.38016
G1 X31.029 Y117.872 E150.42973
G1 X34.133 Y117.872 E150.86333
G1 X34.133 Y111.515 E151.75136
G1 X31.262 Y111.515 E152.15241
G1 X30.288 Y111.515 E152.28847
G1 X29.959 Y111.515 E152.33443
G1 X30.288 Y111.385 E152.34058
G1 X31.034 Y110.758 E152.42267
G1 X31.157 Y110.655 E152.44508
G1 X31.577 Y110.059 E152.54693
G1 X31.873 Y109.411 E152.64645
G1 X32.042 Y108.554 E152.76847
G1 X32.021 Y107.858 E152.86574
G1 X32.042 Y107.858
G1 X36.548 Y107.858 E153.49519
G1 X36.548 Y103.005 E154.17312
G1 X38.547 Y103.005 E154.45237
G1 X38.547 Y99.356 E154.96211
G1 X39.066 Y99.356 E155.03461
G1 X39.991 Y99.191 E155.16586
G1 X41.061 Y98.516 E155.34259
G1 X41.311 Y98.149 E155.40462
G1 X41.365 Y98.202
G1 X42.347 Y99.158 E155.59607
G1 X42.347 Y130.715 E160.00435
G1 X41.665 Y131.096 E160.11348
G1 X40.777 Y131.884 E160.27932
G1 X40.129 Y131.21 E160.40993
G1 X38.818 Y130.513 E160.61734
G1 X38.547 Y130.454 E160.65609
G1 X38.547 Y126.515 E161.20633
M204 S3000
M205 X10 Y10
G0 F6000 X35.736 Y122.474
G0 X30.1 Y118.992
G0 X29.412 Y118.619
G0 X26.685 Y118.166
M204 S1000
M205 X8 Y8
G1 F1200 X26.548 Y118.23 E161.22746
G1 X26.548 Y117.872 E161.25249
G1 X27.318 Y117.872 E161.33644
G1 X26.685 Y118.166 E161.35304
M204 S3000
M205 X10 Y10
G0 F6000 X33.321 Y117.06
G0 X33.321 Y112.327
G0 X26.861 Y111.508
M204 S1000
M205 X8 Y8
G1 F1200 X26.882 Y111.515 E161.35613
G1 X26.861 Y111.515 E161.35614
G1 X26.548 Y111.515 E161.39975
G1 X26.548 Y111.288 E161.41758
G1 X26.654 Y111.362
G1 X26.861 Y111.508 E161.41954
M204 S3000
M205 X10 Y10
G0 F6000 X29.436 Y109.957
G0 X34.896 Y106.206
G0 X40.24 Y96.805
