;FLAVOR:Marlin
;TIME:2401
;Filament used: 1.94826m
;Layer height: 0.3
;MINX:-92.887
;MINY:-32.006
;MINZ:0.3
;MAXX:92.892
;MAXY:32.018
;MAXZ:4.3
;POSTPROCESSED
;Generated with Cura_SteamEngine 4.10.0
M140 S60
M105
M190 S60
M104 S205
M105
M109 S205
M82 ;absolute extrusion mode
G21        ;metric values
G90        ;absolute positioning
M107       ;start with the fan off
G28   ;move to endstops
;Z-Offset Reset und dann Z +0,1 für PLA
;MacroZOffset0
;MacroZOffsetPlus0100
G92 E0                  ;zero the extruded length
G1 F200 E3              ;extrude 3mm of feed stock
G92 E0                  ;zero the extruded length again
G1 F150.0
;Put printing message on LCD screen
M117 Printing...
G92 E0
G92 E0
G1 F2400 E-6
;LAYER_COUNT:11
;LAYER:0
M106 S191.3
M204 S2000
G1 F600 Z1.3
G0 F4500 X-.658 Y9.927 Z1.3
M204 S1500
;TYPE:SKIRT
G1 F600 Z0.3
G1 F2400 E0
G1 F300 X-3.375 Y9.583 E0.27327
G1 X-6.054 Y9.321 E0.54185
G1 X-8.747 Y9.135 E0.8112
G1 X-11.475 Y9.024 E1.08363
G1 X-14.208 Y8.989 E1.35635
G1 X-16.872 Y9.032 E1.6222
G1 X-19.6 Y9.152 E1.89467
G1 X-22.288 Y9.346 E2.16357
G1 X-25.007 Y9.62 E2.43625
G1 X-27.681 Y9.967 E2.7053
G1 X-30.355 Y10.391 E2.97545
G1 X-33.032 Y10.893 E3.24721
G1 X-35.638 Y11.459 E3.5133
G1 X-38.413 Y12.145 E3.79853
G1 X-40.841 Y12.785 E4.04907
G1 X-43.269 Y13.433 E4.29982
G1 X-45.608 Y14.062 E4.5415
G1 X-48.949 Y14.973 E4.88703
G1 X-52.185 Y15.871 E5.22212
G1 X-55.464 Y16.795 E5.56205
G1 X-58.298 Y17.607 E5.8562
G1 X-60.87 Y18.357 E6.12353
G1 X-62.732 Y18.91 E6.31734
G1 X-64.499 Y19.441 E6.50144
G1 X-66.113 Y19.93 E6.66971
G1 X-68.055 Y20.531 E6.87255
G1 X-68.96 Y20.814 E6.96717
G1 X-69.355 Y20.928 E7.00819
G1 X-70.554 Y21.239 E7.13179
G1 X-73.516 Y21.95 E7.43573
G1 X-74.535 Y22.179 E7.53994
G1 X-74.712 Y22.215 E7.55797
G1 X-75.412 Y22.341 E7.62893
G1 X-75.65 Y22.376 E7.65294
G1 X-76.252 Y22.449 E7.71345
G1 X-76.877 Y22.508 E7.77609
G1 X-77.114 Y22.523 E7.79978
G1 X-77.745 Y22.545 E7.86278
G1 X-78.349 Y22.549 E7.92305
G1 X-78.584 Y22.543 E7.94651
G1 X-79.335 Y22.501 E8.02156
G1 X-80.007 Y22.437 E8.08891
G1 X-80.834 Y22.317 E8.1723
G1 X-81.46 Y22.2 E8.23584
G1 X-82.283 Y22.002 E8.3203
G1 X-82.858 Y21.839 E8.37994
G1 X-83.577 Y21.596 E8.45567
G1 X-84.172 Y21.368 E8.51924
G1 X-85.014 Y20.993 E8.61122
G1 X-85.501 Y20.749 E8.66557
G1 X-86.27 Y20.313 E8.75377
G1 X-86.875 Y19.937 E8.82485
G1 X-87.292 Y19.642 E8.87582
G1 X-87.838 Y19.228 E8.94419
G1 X-88.301 Y18.839 E9.00453
G1 X-88.427 Y18.725 E9.02148
G1 X-88.917 Y18.266 E9.08847
G1 X-89.318 Y17.854 E9.14584
G1 X-89.483 Y17.67 E9.1705
G1 X-89.9 Y17.188 E9.23409
G1 X-90.29 Y16.687 E9.29745
G1 X-90.378 Y16.565 E9.31245
G1 X-90.75 Y16.032 E9.37731
G1 X-91.149 Y15.375 E9.45401
G1 X-91.472 Y14.783 E9.5213
G1 X-91.818 Y14.039 E9.60317
G1 X-92.045 Y13.493 E9.66217
G1 X-92.321 Y12.671 E9.74869
G1 X-92.355 Y12.558 E9.76046
G1 X-92.492 Y12.073 E9.81075
G1 X-92.572 Y11.736 E9.84531
G1 X-92.694 Y11.105 E9.90944
G1 X-92.798 Y10.437 E9.9769
G1 X-92.849 Y9.871 E10.0336
G1 X-92.857 Y9.76 E10.04471
G1 X-92.887 Y9.219 E10.09877
G1 X-92.88 Y8.42 E10.1785
G1 X-92.875 Y8.297 E10.19078
G1 X-92.845 Y7.758 E10.24464
G1 X-92.761 Y7.033 E10.31747
G1 X-92.746 Y6.931 E10.32776
G1 X-92.645 Y6.32 E10.38955
G1 X-92.477 Y5.576 E10.46566
G1 X-92.293 Y4.911 E10.5345
G1 X-92.108 Y4.351 E10.59335
G1 X-92.031 Y4.145 E10.61529
G1 X-91.788 Y3.533 E10.681
G1 X-91.546 Y2.998 E10.73959
G1 X-91.244 Y2.408 E10.80572
G1 X-91.108 Y2.163 E10.83368
G1 X-90.622 Y1.358 E10.92751
G1 X-90.336 Y0.929 E10.97895
G1 X-89.76 Y0.158 E11.07498
G1 X-89.414 Y-.265 E11.12951
G1 X-88.87 Y-.864 E11.21025
G1 X-88.393 Y-1.347 E11.27798
G1 X-87.821 Y-1.869 E11.35525
G1 X-87.276 Y-2.328 E11.42635
G1 X-86.686 Y-2.775 E11.50021
G1 X-86.255 Y-3.081 E11.55295
G1 X-86.069 Y-3.205 E11.57525
G1 X-85.516 Y-3.551 E11.64034
G1 X-85.014 Y-3.845 E11.69839
G1 X-84.801 Y-3.961 E11.72259
G1 X-84.198 Y-4.267 E11.79006
G1 X-83.658 Y-4.522 E11.84965
G1 X-83.454 Y-4.61 E11.87182
G1 X-82.901 Y-4.833 E11.93131
G1 X-82.769 Y-4.884 E11.94543
G1 X-82.289 Y-5.059 E11.99641
G1 X-82.069 Y-5.132 E12.01954
G1 X-81.469 Y-5.314 E12.0821
G1 X-81.343 Y-5.35 E12.09518
G1 X-80.381 Y-5.608 E12.19456
G1 X-77.243 Y-6.361 E12.51656
G1 X-76.577 Y-6.511 E12.58468
G1 X-76.019 Y-6.604 E12.64112
G1 X-75.602 Y-6.652 E12.68301
G1 X-70.078 Y-7.232 E13.23722
G1 X-69.17 Y-7.315 E13.3282
G1 X-69.031 Y-7.325 E13.34211
G1 X-68.311 Y-7.367 E13.41407
G1 X-67.838 Y-7.391 E13.46133
G1 X-66.252 Y-7.485 E13.61986
G1 X-65.069 Y-7.563 E13.73815
G1 X-63.919 Y-7.644 E13.85319
G1 X-62.335 Y-7.763 E14.01168
G1 X-60.869 Y-7.885 E14.15847
G1 X-58.703 Y-8.077 E14.37544
G1 X-57.638 Y-8.178 E14.48218
G1 X-56.925 Y-8.232 E14.55353
G1 X-55.305 Y-8.332 E14.71548
G1 X-54.026 Y-8.421 E14.84341
G1 X-52.998 Y-8.499 E14.94628
G1 X-52.17 Y-8.564 E15.02915
G1 X-51.208 Y-8.647 E15.1255
G1 X-49.482 Y-8.806 E15.29845
G1 X-48.156 Y-8.936 E15.43139
G1 X-47.034 Y-9.053 E15.54395
G1 X-45.511 Y-9.221 E15.69684
G1 X-44.031 Y-9.393 E15.84551
G1 X-42.285 Y-9.607 E16.02103
G1 X-40.632 Y-9.822 E16.18735
G1 X-39.121 Y-10.027 E16.3395
G1 X-37.203 Y-10.3 E16.53281
G1 X-36.035 Y-10.474 E16.65064
G1 X-34.806 Y-10.66 E16.77467
G1 X-33.384 Y-10.883 E16.91829
G1 X-32.066 Y-11.097 E17.05152
G1 X-30.784 Y-11.311 E17.18121
G1 X-28.865 Y-11.639 E17.37546
G1 X-27.68 Y-11.849 E17.49555
G1 X-26.07 Y-12.141 E17.65881
G1 X-24.14 Y-12.503 E17.85475
G1 X-22.163 Y-12.886 E18.05568
G1 X-20.178 Y-13.284 E18.25769
G1 X-18.891 Y-13.548 E18.38878
G1 X-17.045 Y-13.937 E18.57702
G1 X-15.73 Y-14.222 E18.71128
G1 X-14.176 Y-14.565 E18.87007
G1 X-13.002 Y-14.828 E18.99011
G1 X-11.195 Y-15.244 E19.17513
G1 X-9.723 Y-15.591 E19.32603
G1 X-8.604 Y-15.86 E19.44087
G1 X-7.442 Y-16.143 E19.5602
G1 X-6.208 Y-16.448 E19.68704
G1 X-5.122 Y-16.722 E19.79879
G1 X-3.314 Y-17.186 E19.98504
G1 X-1.927 Y-17.551 E20.12815
G1 X-.719 Y-17.873 E20.25289
G1 X0.277 Y-18.142 E20.35584
G1 X1.54 Y-18.49 E20.48656
G1 X2.598 Y-18.788 E20.59623
G1 X4.064 Y-19.205 E20.74831
G1 X5.871 Y-19.732 E20.93613
G1 X7.138 Y-20.108 E21.068
G1 X8.197 Y-20.43 E21.17844
G1 X9.966 Y-20.976 E21.36317
G1 X10.943 Y-21.284 E21.46538
G1 X12.051 Y-21.638 E21.58145
G1 X12.796 Y-21.88 E21.65961
G1 X14.145 Y-22.325 E21.80134
G1 X15.597 Y-22.815 E21.95425
G1 X16.691 Y-23.191 E22.06968
G1 X17.834 Y-23.591 E22.19051
G1 X19.277 Y-24.106 E22.34339
G1 X19.422 Y-24.172 E22.35929
G1 X20.451 Y-24.536 E22.4682
G1 X21.452 Y-24.91 E22.57482
G1 X22.456 Y-25.291 E22.68197
G1 X23.041 Y-25.516 E22.74451
G1 X24.005 Y-25.893 E22.84779
G1 X25.433 Y-26.464 E23.00125
G1 X26.779 Y-27.023 E23.14667
G1 X27.73 Y-27.425 E23.24969
G1 X30.23 Y-28.531 E23.52247
G1 X32.722 Y-29.719 E23.79793
G1 X34.031 Y-30.379 E23.9442
G1 X35.35 Y-31.058 E24.09223
G1 X35.613 Y-31.186 E24.12141
G1 X36.553 Y-31.62 E24.22472
G1 X37.095 Y-31.826 E24.28258
G1 X37.66 Y-31.956 E24.34043
G1 X38.237 Y-32.006 E24.39822
G1 X38.815 Y-31.977 E24.45596
G1 X39.384 Y-31.868 E24.51377
G1 X39.933 Y-31.682 E24.57161
G1 X40.451 Y-31.423 E24.62939
G1 X40.928 Y-31.094 E24.68721
G1 X41.355 Y-30.703 E24.74498
G1 X41.843 Y-30.085 E24.82355
G1 X42.075 Y-29.725 E24.86629
G1 X43.58 Y-27.449 E25.13855
G1 X45.143 Y-25.227 E25.40962
G1 X46.735 Y-23.091 E25.67543
G1 X48.441 Y-20.935 E25.94976
G1 X50.183 Y-18.856 E26.2204
G1 X51.968 Y-16.844 E26.48878
G1 X53.828 Y-14.864 E26.75984
G1 X55.734 Y-12.947 E27.02958
G1 X57.713 Y-11.066 E27.30201
G1 X59.715 Y-9.267 E27.57057
G1 X61.784 Y-7.511 E27.84135
G1 X63.898 Y-5.817 E28.11165
G1 X66.071 Y-4.176 E28.38336
G1 X68.278 Y-2.606 E28.65361
G1 X70.512 Y-1.107 E28.92205
G1 X72.814 Y0.342 E29.19346
G1 X75.146 Y1.721 E29.46378
G1 X77.509 Y3.03 E29.73333
G1 X79.921 Y4.277 E30.00426
G1 X82.369 Y5.456 E30.27537
G1 X84.83 Y6.557 E30.54439
G1 X88.648 Y8.109 E30.95562
G1 X89.138 Y8.297 E31.00799
G1 X89.924 Y8.657 E31.09425
G1 X90.429 Y8.941 E31.15206
G1 X91.004 Y9.396 E31.22522
G1 X91.147 Y9.531 E31.24485
G1 X91.662 Y10.117 E31.32269
G1 X91.845 Y10.369 E31.35376
G1 X92.171 Y10.894 E31.41543
G1 X92.279 Y11.101 E31.43872
G1 X92.507 Y11.623 E31.49556
G1 X92.719 Y12.287 E31.56511
G1 X92.839 Y12.859 E31.62343
G1 X92.847 Y12.913 E31.62887
G1 X92.892 Y13.491 E31.68672
G1 X92.857 Y14.069 E31.7445
G1 X92.743 Y14.637 E31.80231
G1 X92.507 Y15.321 E31.8745
G1 X92.21 Y16.017 E31.95001
G1 X91.998 Y16.432 E31.99651
G1 X91.239 Y17.82 E32.15436
G1 X90.913 Y18.397 E32.22049
G1 X90.709 Y18.722 E32.25877
G1 X90.013 Y19.726 E32.38067
G1 X89.441 Y20.516 E32.47799
G1 X89.078 Y21.004 E32.53868
G1 X88.836 Y21.3 E32.57683
G1 X88.037 Y22.19 E32.69617
G1 X87.337 Y22.941 E32.79861
G1 X86.888 Y23.409 E32.86332
G1 X86.62 Y23.664 E32.90023
G1 X85.861 Y24.326 E33.00072
G1 X84.922 Y25.117 E33.12323
G1 X84.4 Y25.544 E33.19052
G1 X84.113 Y25.759 E33.2263
G1 X83.381 Y26.26 E33.31481
G1 X82.246 Y27.008 E33.45044
G1 X81.643 Y27.394 E33.52188
G1 X81.354 Y27.563 E33.55529
G1 X80.731 Y27.895 E33.62573
G1 X79.347 Y28.602 E33.7808
G1 X78.693 Y28.926 E33.85362
G1 X78.218 Y29.135 E33.90541
G1 X77.904 Y29.26 E33.93913
G1 X76.228 Y29.905 E34.11832
G1 X75.549 Y30.156 E34.19055
G1 X75.007 Y30.33 E34.24735
G1 X74.891 Y30.364 E34.25941
G1 X72.954 Y30.897 E34.45987
G1 X72.37 Y31.048 E34.52006
G1 X72.124 Y31.104 E34.54523
G1 X71.003 Y31.322 E34.65918
G1 X69.492 Y31.588 E34.81226
G1 X68.896 Y31.683 E34.87248
G1 X68.657 Y31.714 E34.89653
G1 X67.632 Y31.817 E34.99932
G1 X66.047 Y31.948 E35.15801
G1 X65.311 Y31.999 E35.23163
G1 X65.07 Y32.009 E35.2557
G1 X64.229 Y32.018 E35.33962
G1 X62.435 Y32.011 E35.51862
G1 X61.695 Y31.999 E35.59247
G1 X61.455 Y31.989 E35.61644
G1 X60.718 Y31.934 E35.69018
G1 X58.772 Y31.764 E35.88509
G1 X57.955 Y31.68 E35.96704
G1 X57.26 Y31.575 E36.03718
G1 X55.156 Y31.22 E36.25008
G1 X54.356 Y31.073 E36.33124
G1 X53.674 Y30.916 E36.40107
G1 X51.54 Y30.38 E36.62062
G1 X50.729 Y30.163 E36.70439
G1 X50.388 Y30.06 E36.73993
G1 X47.931 Y29.24 E36.99838
G1 X47.257 Y29.003 E37.06967
G1 X46.624 Y28.752 E37.13762
G1 X44.528 Y27.869 E37.36456
G1 X43.75 Y27.526 E37.4494
G1 X43.426 Y27.37 E37.48528
G1 X41.14 Y26.199 E37.74156
G1 X40.477 Y25.845 E37.81656
G1 X39.931 Y25.527 E37.8796
G1 X37.965 Y24.32 E38.10979
G1 X37.194 Y23.833 E38.20078
G1 X34.902 Y22.427 E38.46908
G1 X32.511 Y21.053 E38.74424
G1 X30.158 Y19.786 E39.0109
G1 X27.702 Y18.555 E39.28502
G1 X25.286 Y17.427 E39.55107
G1 X22.768 Y16.338 E39.82481
G1 X20.298 Y15.35 E40.09025
G1 X17.713 Y14.4 E40.36505
G1 X15.15 Y13.54 E40.6348
G1 X12.556 Y12.751 E40.90534
G1 X9.96 Y12.041 E41.17388
G1 X7.283 Y11.39 E41.44878
G1 X4.686 Y10.834 E41.71378
G1 X1.979 Y10.336 E41.98842
G1 X-.658 Y9.927 E42.25468
M204 S2000
G0 F4500 X-.578 Y9.13
M204 S1500
G1 F300 X-3.267 Y8.79 E42.52513
G1 X-5.997 Y8.523 E42.79883
G1 X-8.729 Y8.335 E43.07207
G1 X-11.432 Y8.225 E43.342
G1 X-14.176 Y8.19 E43.61582
G1 X-16.919 Y8.233 E43.88956
G1 X-19.658 Y8.354 E44.16312
G1 X-22.353 Y8.548 E44.43272
G1 X-25.086 Y8.824 E44.70681
G1 X-27.801 Y9.176 E44.97998
G1 X-30.49 Y9.603 E45.25165
G1 X-33.165 Y10.104 E45.52321
G1 X-35.83 Y10.683 E45.79533
G1 X-38.615 Y11.371 E46.08157
G1 X-41.045 Y12.011 E46.3323
G1 X-43.484 Y12.662 E46.58419
G1 X-45.804 Y13.286 E46.8239
G1 X-49.159 Y14.201 E47.17089
G1 X-52.402 Y15.101 E47.50671
G1 X-55.699 Y16.029 E47.84847
G1 X-58.502 Y16.833 E48.13943
G1 X-61.08 Y17.586 E48.40742
G1 X-62.974 Y18.148 E48.60454
G1 X-64.729 Y18.675 E48.78738
G1 X-66.345 Y19.165 E48.95588
G1 X-68.291 Y19.767 E49.15913
G1 X-69.185 Y20.046 E49.25258
G1 X-69.556 Y20.154 E49.29113
G1 X-70.741 Y20.461 E49.41328
G1 X-73.692 Y21.169 E49.71608
G1 X-74.711 Y21.398 E49.8203
G1 X-74.854 Y21.427 E49.83485
G1 X-75.554 Y21.553 E49.90582
G1 X-75.747 Y21.582 E49.9253
G1 X-76.448 Y21.666 E49.99574
G1 X-76.95 Y21.712 E50.04604
G1 X-77.142 Y21.724 E50.06524
G1 X-77.773 Y21.746 E50.12824
G1 X-78.351 Y21.749 E50.18591
G1 X-78.541 Y21.744 E50.20488
G1 X-79.171 Y21.71 E50.26783
G1 X-79.691 Y21.668 E50.31988
G1 X-79.893 Y21.645 E50.34017
G1 X-80.698 Y21.528 E50.42134
G1 X-81.274 Y21.422 E50.47978
G1 X-81.982 Y21.253 E50.55241
G1 X-82.602 Y21.081 E50.61661
G1 X-83.321 Y20.838 E50.69233
G1 X-83.846 Y20.637 E50.74843
G1 X-84.688 Y20.262 E50.8404
G1 X-85.107 Y20.053 E50.88712
G1 X-85.876 Y19.617 E50.97532
G1 X-86.416 Y19.281 E51.03878
G1 X-86.808 Y19.004 E51.08668
G1 X-87.354 Y18.59 E51.15505
G1 X-87.778 Y18.234 E51.21029
G1 X-87.88 Y18.141 E51.22406
G1 X-88.37 Y17.682 E51.29106
G1 X-88.726 Y17.315 E51.34207
G1 X-88.878 Y17.147 E51.36468
G1 X-89.295 Y16.665 E51.42828
G1 X-89.65 Y16.206 E51.48617
G1 X-89.722 Y16.107 E51.49839
G1 X-90.094 Y15.574 E51.56324
G1 X-90.458 Y14.972 E51.63344
G1 X-90.769 Y14.401 E51.69832
G1 X-91.085 Y13.718 E51.77341
G1 X-91.305 Y13.188 E51.83066
G1 X-91.558 Y12.432 E51.91021
G1 X-91.722 Y11.855 E51.97006
G1 X-91.787 Y11.583 E51.99797
G1 X-91.887 Y11.071 E52.05002
G1 X-91.979 Y10.521 E52.10566
G1 X-92.052 Y9.806 E52.17738
G1 X-92.088 Y9.174 E52.24054
G1 X-92.08 Y8.441 E52.31368
G1 X-92.046 Y7.802 E52.37753
G1 X-91.969 Y7.144 E52.44364
G1 X-91.855 Y6.45 E52.51381
G1 X-91.7 Y5.77 E52.5834
G1 X-91.522 Y5.126 E52.65007
G1 X-91.357 Y4.628 E52.70242
G1 X-91.287 Y4.44 E52.72244
G1 X-91.044 Y3.828 E52.78814
G1 X-90.829 Y3.352 E52.84026
G1 X-90.533 Y2.775 E52.90496
G1 X-90.423 Y2.577 E52.92756
G1 X-89.89 Y1.697 E53.03022
G1 X-89.695 Y1.408 E53.06501
G1 X-89.119 Y0.637 E53.16104
G1 X-88.822 Y0.273 E53.20791
G1 X-88.278 Y-.326 E53.28865
G1 X-87.854 Y-.756 E53.34891
G1 X-87.282 Y-1.278 E53.42617
G1 X-86.793 Y-1.69 E53.48998
G1 X-86.203 Y-2.137 E53.56383
G1 X-85.644 Y-2.526 E53.63179
G1 X-84.999 Y-2.928 E53.70762
G1 X-84.439 Y-3.248 E53.77198
G1 X-83.734 Y-3.604 E53.85078
G1 X-83.155 Y-3.868 E53.91428
G1 X-82.602 Y-4.091 E53.97378
G1 X-82.495 Y-4.132 E53.98521
G1 X-82.015 Y-4.307 E54.03619
G1 X-81.837 Y-4.367 E54.05493
G1 X-81.237 Y-4.549 E54.11749
G1 X-80.284 Y-4.807 E54.21601
G1 X-77.114 Y-5.57 E54.54134
G1 X-76.401 Y-5.731 E54.61428
G1 X-75.818 Y-5.823 E54.67317
G1 X-75.518 Y-5.856 E54.70328
G1 X-70.006 Y-6.435 E55.2563
G1 X-69.098 Y-6.518 E55.34728
G1 X-68.27 Y-6.568 E55.43005
G1 X-67.775 Y-6.593 E55.4795
G1 X-66.227 Y-6.685 E55.63423
G1 X-65.01 Y-6.765 E55.75593
G1 X-63.863 Y-6.845 E55.87065
G1 X-62.273 Y-6.965 E56.02976
G1 X-60.82 Y-7.086 E56.17524
G1 X-58.647 Y-7.279 E56.39292
G1 X-57.577 Y-7.38 E56.50016
G1 X-56.876 Y-7.434 E56.57031
G1 X-55.232 Y-7.535 E56.73466
G1 X-53.97 Y-7.623 E56.86089
G1 X-52.934 Y-7.701 E56.96455
G1 X-52.106 Y-7.767 E57.04743
G1 X-51.138 Y-7.851 E57.14438
G1 X-49.392 Y-8.011 E57.31933
G1 X-48.092 Y-8.139 E57.44967
G1 X-46.947 Y-8.258 E57.56453
G1 X-45.402 Y-8.427 E57.71961
G1 X-43.934 Y-8.599 E57.86709
G1 X-42.188 Y-8.814 E58.04263
G1 X-40.502 Y-9.032 E58.21226
G1 X-39.013 Y-9.235 E58.3622
G1 X-37.112 Y-9.505 E58.55379
G1 X-35.916 Y-9.683 E58.67444
G1 X-34.687 Y-9.869 E58.79847
G1 X-33.239 Y-10.096 E58.94471
G1 X-31.934 Y-10.308 E59.07663
G1 X-30.652 Y-10.521 E59.20631
G1 X-28.729 Y-10.851 E59.40099
G1 X-27.52 Y-11.064 E59.52348
G1 X-25.947 Y-11.35 E59.68301
G1 X-23.992 Y-11.717 E59.88149
G1 X-22.005 Y-12.102 E60.08344
G1 X-20.02 Y-12.5 E60.28544
G1 X-18.708 Y-12.769 E60.41908
G1 X-16.876 Y-13.155 E60.60589
G1 X-15.56 Y-13.44 E60.74025
G1 X-14.004 Y-13.784 E60.89925
G1 X-12.803 Y-14.053 E61.02206
G1 X-11.032 Y-14.461 E61.2034
G1 X-9.52 Y-14.817 E61.35839
G1 X-8.417 Y-15.081 E61.47156
G1 X-7.253 Y-15.365 E61.59111
G1 X-6.031 Y-15.668 E61.71673
G1 X-4.926 Y-15.947 E61.83045
G1 X-3.089 Y-16.418 E62.01968
G1 X-1.723 Y-16.777 E62.16061
G1 X-.51 Y-17.101 E62.28588
G1 X0.486 Y-17.37 E62.38882
G1 X1.756 Y-17.72 E62.52027
G1 X2.826 Y-18.021 E62.63118
G1 X4.283 Y-18.435 E62.78231
G1 X6.099 Y-18.965 E62.97107
G1 X7.366 Y-19.342 E63.10297
G1 X8.452 Y-19.671 E63.2162
G1 X10.203 Y-20.212 E63.39906
G1 X11.186 Y-20.522 E63.50191
G1 X12.313 Y-20.882 E63.61996
G1 X13.062 Y-21.125 E63.69853
G1 X14.396 Y-21.565 E63.83869
G1 X15.874 Y-22.064 E63.99434
G1 X16.933 Y-22.428 E64.10608
G1 X18.119 Y-22.843 E64.23146
G1 X19.545 Y-23.352 E64.38253
G1 X19.689 Y-23.417 E64.3983
G1 X20.672 Y-23.765 E64.50235
G1 X21.751 Y-24.168 E64.61728
G1 X22.758 Y-24.55 E64.72474
G1 X23.328 Y-24.769 E64.78567
G1 X24.302 Y-25.15 E64.89003
G1 X25.751 Y-25.73 E65.04576
