; generated by PrusaSlicer 2.6.1+win64 on 2023-10-31 at 08:28:18 UTC


;
;
; 

; external perimeters extrusion width = 0.40mm
; perimeters extrusion width = 0.40mm
; infill extrusion width = 0.40mm
; solid infill extrusion width = 0.40mm
; top infill extrusion width = 0.40mm
; support material extrusion width = 0.30mm
; first layer extrusion width = 0.30mm

;TYPE:Custom
G90 ; use absolute coordinates
M83 ; extruder relative mode
M140 S50 ; set bed temp
M190 S50 ; wait for bed temp
M104 S210 ; set extruder temp
M109 S210 ; wait for extruder temp
G28                                        ; move X/Y/Z to min endstops
G1 Z0.28                                   ; lift nozzle a bit 
G92 E0 
G1 Y3 F2400                                    ; zero the extruded length 
G1 X180  E40 F500                       ; Extrude 25mm of filament in a 5cm line. 
G92 E0                                     ; zero the extruded length again 
G1 E-0.2 F3000                                ; Retract a little 
G1 X181 F4000                              ; Quickly wipe away from the filament line
M117
G21 ; set units to millimeters
G90 ; use absolute coordinates
M82 ; use absolute distances for extrusion
G92 E0
; Filament gcode
M107
;LAYER_CHANGE
;Z:0.1
;HEIGHT:0.1
; BEFORE_LAYER_CHANGE 0 @ 0.1mm
G1 E-2.5 F4800
G92 E0
G1 Z.1 F18000
; AFTER_LAYER_CHANGE 0 @ 0.1mm
M204 S20000
G1 X115.24 Y79.478
G1 E2.5 F4800
M204 S5000
;TYPE:Support material
;WIDTH:0.3
G1 F1200
G1 X116.552 Y79.544 E2.51521
G1 X117.424 Y79.632 E2.52536
G1 X118.723 Y79.829 E2.54057
G1 X119.581 Y80.005 E2.55071
G1 X120.853 Y80.332 E2.56592
G1 X121.69 Y80.592 E2.57607
G1 X122.515 Y80.886 E2.58621
G1 X123.729 Y81.389 E2.60143
G1 X124.52 Y81.764 E2.61157
G1 X125.296 Y82.171 E2.62172
G1 X126.427 Y82.839 E2.63693
G1 X127.158 Y83.322 E2.64708
G1 X128.216 Y84.101 E2.66229
G1 X128.895 Y84.655 E2.67244
G1 X129.551 Y85.236 E2.68259
G1 X130.489 Y86.155 E2.6978
G1 X131.371 Y87.13 E2.71303
G1 X131.925 Y87.808 E2.72317
G1 X132.451 Y88.508 E2.73331
G1 X133.187 Y89.597 E2.74853
G1 X133.855 Y90.728 E2.76374
G1 X134.262 Y91.504 E2.77389
G1 X134.814 Y92.696 E2.7891
G1 X135.141 Y93.509 E2.79925
G1 X135.435 Y94.334 E2.80939
G1 X135.696 Y95.17 E2.81953
G1 X136.023 Y96.443 E2.83475
G1 X136.198 Y97.301 E2.84489
G1 X136.396 Y98.6 E2.86011
G1 X136.484 Y99.471 E2.87025
G1 X136.537 Y100.345 E2.88039
G1 X136.551 Y101.659 E2.89561
G1 X136.516 Y102.535 E2.90576
G1 X136.397 Y103.843 E2.92097
G1 X136.199 Y105.142 E2.93619
G1 X136.024 Y106 E2.94633
G1 X135.697 Y107.273 E2.96155
G1 X135.437 Y108.109 E2.97169
G1 X135.143 Y108.935 E2.98184
G1 X134.64 Y110.148 E2.99705
G1 X134.065 Y111.33 E3.01227
G1 X133.643 Y112.097 E3.02241
G1 X133.19 Y112.847 E3.03256
G1 X132.454 Y113.935 E3.04777
G1 X131.928 Y114.636 E3.05792
G1 X131.374 Y115.315 E3.06807
G1 X130.493 Y116.289 E3.08328
G1 X129.874 Y116.909 E3.09343
G1 X128.899 Y117.79 E3.10865
G1 X128.221 Y118.344 E3.11879
G1 X127.521 Y118.87 E3.12893
G1 X126.432 Y119.606 E3.14415
G1 X125.301 Y120.275 E3.15937
G1 X124.525 Y120.682 E3.16952
G1 X123.333 Y121.233 E3.18473
G1 X122.52 Y121.56 E3.19488
G1 X121.695 Y121.855 E3.20503
G1 X120.859 Y122.115 E3.21517
G1 X119.586 Y122.443 E3.23039
G1 X118.728 Y122.618 E3.24053
G1 X117.429 Y122.816 E3.25575
G1 X116.558 Y122.904 E3.26589
G1 X115.246 Y122.97 E3.2811
G1 X114.369 Y122.97 E3.29126
G1 X113.057 Y122.904 E3.30647
G1 X112.186 Y122.817 E3.31661
G1 X111.319 Y122.694 E3.32675
G1 X110.457 Y122.536 E3.3369
G1 X109.602 Y122.343 E3.34705
G1 X108.337 Y121.991 E3.36226
G1 X107.506 Y121.713 E3.37241
G1 X106.282 Y121.235 E3.38763
G1 X105.483 Y120.876 E3.39777
G1 X104.313 Y120.277 E3.41299
G1 X103.182 Y119.609 E3.4282
G1 X102.451 Y119.126 E3.43835
G1 X101.393 Y118.348 E3.45356
G1 X100.714 Y117.794 E3.46371
G1 X100.059 Y117.213 E3.47385
G1 X99.12 Y116.293 E3.48907
G1 X98.526 Y115.65 E3.49921
G1 X97.685 Y114.64 E3.51443
G1 X96.906 Y113.582 E3.52964
G1 X96.423 Y112.852 E3.53978
G1 X95.97 Y112.102 E3.54993
G1 X95.347 Y110.945 E3.56515
G1 X94.796 Y109.752 E3.58037
G1 X94.469 Y108.94 E3.59051
G1 X94.174 Y108.114 E3.60067
G1 X93.914 Y107.278 E3.61081
G1 X93.586 Y106.006 E3.62602
G1 X93.411 Y105.148 E3.63616
G1 X93.27 Y104.283 E3.64631
G1 X93.125 Y102.977 E3.66153
G1 X93.059 Y101.665 E3.67674
G1 X93.059 Y100.789 E3.68688
G1 X93.125 Y99.477 E3.70209
G1 X93.212 Y98.605 E3.71224
G1 X93.41 Y97.306 E3.72746
G1 X93.585 Y96.448 E3.7376
G1 X93.912 Y95.176 E3.75281
G1 X94.173 Y94.339 E3.76296
G1 X94.467 Y93.514 E3.7731
G1 X94.969 Y92.3 E3.78831
G1 X95.345 Y91.509 E3.79845
G1 X95.967 Y90.351 E3.81367
G1 X96.42 Y89.602 E3.82381
G1 X97.155 Y88.513 E3.83902
G1 X97.681 Y87.813 E3.84916
G1 X98.235 Y87.134 E3.85931
G1 X98.816 Y86.478 E3.86946
G1 X99.736 Y85.54 E3.88468
G1 X100.71 Y84.658 E3.8999
G1 X101.389 Y84.104 E3.91005
G1 X102.089 Y83.578 E3.92019
G1 X103.177 Y82.842 E3.9354
G1 X103.927 Y82.389 E3.94555
G1 X104.694 Y81.966 E3.95569
G1 X105.478 Y81.575 E3.96584
G1 X106.681 Y81.048 E3.98105
G1 X107.5 Y80.737 E3.9912
G1 X108.751 Y80.333 E4.00642
G1 X110.023 Y80.006 E4.02163
G1 X110.881 Y79.83 E4.03177
G1 X111.746 Y79.69 E4.04192
G1 X113.052 Y79.544 E4.05714
G1 X113.926 Y79.491 E4.06728
G1 X115.198 Y79.478 E4.08201
M204 S20000
;WIPE_START
G1 F14400
G1 X113.926 Y79.491 E3.67919
G1 X113.052 Y79.544 E3.40191
G1 X111.746 Y79.69 E2.98577
G1 X110.881 Y79.83 E2.70829
G1 X110.023 Y80.006 E2.43093
G1 X108.751 Y80.333 E2.01503
G1 X107.5 Y80.737 E1.59873
G1 X107.451 Y80.756 E1.58201
;WIPE_END
G92 E0
G1 X136.159 Y104.631 F18000
G1 E2.5 F4800
M204 S5000
G1 F1200
G1 X136.159 Y98.737 E2.56825
G1 X136.026 Y97.773 E2.57952
G1 X135.85 Y96.83 E2.59063
G1 X135.85 Y105.619 E2.69241
G1 X135.54 Y106.902 E2.7077
G1 X135.54 Y95.546 E2.83921
G1 X135.231 Y94.518 E2.85164
G1 X135.231 Y107.931 E3.00697
G1 X134.921 Y108.81 E3.01776
G1 X134.921 Y93.639 E3.19345
G1 X134.612 Y92.864 E3.20311
G1 X134.612 Y109.584 E3.39673
G1 X134.302 Y110.282 E3.40557
G1 X134.302 Y92.167 E3.61535
G1 X133.993 Y91.528 E3.62357
G1 X133.993 Y110.921 E3.84815
G1 X133.683 Y111.51 E3.85586
G1 X133.683 Y90.938 E4.09409
G1 X133.374 Y90.389 E4.10139
G1 X133.374 Y112.059 E4.35234
G1 X133.065 Y112.572 E4.35928
G1 X133.065 Y89.876 E4.62211
G1 X132.755 Y89.391 E4.62878
G1 X132.755 Y113.057 E4.90284
G1 X132.446 Y113.513 E4.90922
G1 X132.446 Y88.935 E5.19384
G1 X132.136 Y88.503 E5.2
G1 X132.136 Y113.945 E5.49463
G1 X131.827 Y114.356 E5.50058
G1 X131.827 Y88.092 E5.80473
G1 X131.517 Y87.7 E5.81052
G1 X131.517 Y114.749 E6.12376
G1 X131.208 Y115.123 E6.12938
G1 X131.208 Y87.326 E6.45128
G1 X130.898 Y86.968 E6.45676
G1 X130.898 Y115.481 E6.78695
G1 X130.589 Y115.822 E6.79228
G1 X130.589 Y86.626 E7.13038
G1 X130.279 Y86.299 E7.1356
G1 X130.279 Y116.15 E7.48128
G1 X129.97 Y116.464 E7.48638
G1 X129.97 Y85.985 E7.83934
G1 X129.66 Y85.683 E7.84435
G1 X129.66 Y116.766 E8.2043
G1 X129.351 Y117.056 E8.20921
G1 X129.351 Y85.393 E8.57588
G1 X129.041 Y85.113 E8.58072
G1 X129.041 Y117.335 E8.95386
G1 X128.732 Y117.603 E8.9586
G1 X128.732 Y84.845 E9.33795
G1 X128.422 Y84.587 E9.34262
G1 X128.422 Y117.861 E9.72794
G1 X128.113 Y118.11 E9.73254
G1 X128.113 Y84.339 E10.12362
G1 X127.803 Y84.1 E10.12815
G1 X127.803 Y118.349 E10.52477
G1 X127.494 Y118.579 E10.52923
G1 X127.494 Y83.869 E10.93118
G1 X127.184 Y83.647 E10.9356
G1 X127.184 Y118.801 E11.3427
G1 X126.875 Y119.015 E11.34705
G1 X126.875 Y83.433 E11.7591
G1 X126.565 Y83.227 E11.76341
G1 X126.565 Y119.221 E12.18023
G1 X126.256 Y119.42 E12.18449
G1 X126.256 Y83.028 E12.60592
G1 X125.946 Y82.837 E12.61014
G1 X125.946 Y119.612 E13.03601
G1 X125.637 Y119.795 E13.04017
G1 X125.637 Y82.653 E13.47029
G1 X125.327 Y82.477 E13.47442
G1 X125.327 Y119.972 E13.90862
G1 X125.018 Y120.142 E13.9127
G1 X125.018 Y82.306 E14.35085
G1 X124.708 Y82.142 E14.35491
G1 X124.708 Y120.306 E14.79686
G1 X124.399 Y120.465 E14.80088
G1 X124.399 Y81.984 E15.2465
G1 X124.089 Y81.833 E15.25049
G1 X124.089 Y120.615 E15.6996
G1 X123.78 Y120.76 E15.70355
G1 X123.78 Y81.689 E16.15601
G1 X123.47 Y81.549 E16.15995
G1 X123.47 Y120.899 E16.61564
G1 X123.161 Y121.033 E16.61954
G1 X123.161 Y81.415 E17.07833
G1 X122.851 Y81.287 E17.08221
G1 X122.851 Y121.161 E17.54396
G1 X122.542 Y121.283 E17.54781
G1 X122.542 Y81.166 E18.01238
G1 X122.232 Y81.049 E18.01622
G1 X122.232 Y121.399 E18.48349
G1 X121.923 Y121.511 E18.4873
G1 X121.923 Y80.938 E18.95715
G1 X121.613 Y80.831 E18.96095
G1 X121.613 Y121.617 E19.43327
G1 X121.304 Y121.717 E19.43703
G1 X121.304 Y80.731 E19.91166
G1 X120.994 Y80.636 E19.91541
G1 X120.994 Y121.813 E20.39225
G1 X120.685 Y121.903 E20.39598
G1 X120.685 Y80.545 E20.87492
G1 X120.376 Y80.459 E20.87863
G1 X120.375 Y121.99 E21.35957
G1 X120.066 Y122.069 E21.36326
G1 X120.066 Y80.379 E21.84604
G1 X119.757 Y80.304 E21.84972
G1 X119.757 Y122.145 E22.33425
G1 X119.447 Y122.216 E22.33793
G1 X119.447 Y80.232 E22.82412
G1 X119.138 Y80.166 E22.82778
G1 X119.138 Y122.283 E23.31551
G1 X118.828 Y122.343 E23.31917
G1 X118.828 Y80.105 E23.8083
G1 X118.519 Y80.049 E23.81194
G1 X118.519 Y122.4 E24.30238
G1 X118.209 Y122.452 E24.30602
G1 X118.209 Y79.996 E24.79767
G1 X117.9 Y79.949 E24.80129
G1 X117.9 Y122.5 E25.29405
G1 X117.59 Y122.542 E25.29767
G1 X117.59 Y79.907 E25.7914
G1 X117.281 Y79.868 E25.79501
G1 X117.281 Y122.58 E26.28963
G1 X116.971 Y122.615 E26.29324
G1 X116.971 Y79.834 E26.78866
G1 X116.662 Y79.806 E26.79225
G1 X116.662 Y122.643 E27.28832
G1 X116.352 Y122.667 E27.29192
G1 X116.352 Y79.781 E27.78855
G1 X116.043 Y79.761 E27.79214
G1 X116.043 Y122.688 E28.28925
G1 X115.733 Y122.703 E28.29284
G1 X115.733 Y79.745 E28.79031
G1 X115.424 Y79.734 E28.79389
G1 X115.424 Y122.714 E29.29161
G1 X115.114 Y122.721 E29.2952
G1 X115.114 Y79.728 E29.79307
G1 X114.805 Y79.724 E29.79665
G1 X114.805 Y122.724 E30.2946
G1 X114.495 Y122.721 E30.29819
G1 X114.495 Y79.728 E30.79606
G1 X114.186 Y79.734 E30.79964
G1 X114.186 Y122.714 E31.29736
G1 X113.876 Y122.703 E31.30095
G1 X113.876 Y79.745 E31.79842
G1 X113.567 Y79.761 E31.802
G1 X113.567 Y122.688 E32.29911
G1 X113.257 Y122.667 E32.30271
G1 X113.257 Y79.781 E32.79934
G1 X112.948 Y79.806 E32.80293
G1 X112.948 Y122.643 E33.299
G1 X112.638 Y122.615 E33.3026
G1 X112.638 Y79.834 E33.79802
G1 X112.329 Y79.868 E33.80162
G1 X112.329 Y122.58 E34.29624
G1 X112.019 Y122.542 E34.29986
G1 X112.019 Y79.907 E34.79359
G1 X111.71 Y79.949 E34.7972
G1 X111.71 Y122.499 E35.28994
G1 X111.4 Y122.452 E35.29357
G1 X111.4 Y79.996 E35.78522
G1 X111.091 Y80.049 E35.78885
G1 X111.091 Y122.4 E36.27929
G1 X110.781 Y122.343 E36.28294
G1 X110.781 Y80.105 E36.77207
G1 X110.472 Y80.166 E36.77572
G1 X110.472 Y122.283 E37.26345
G1 X110.162 Y122.216 E37.26712
G1 X110.162 Y80.232 E37.75331
G1 X109.853 Y80.304 E37.75698
G1 X109.853 Y122.145 E38.24151
G1 X109.543 Y122.069 E38.24521
G1 X109.543 Y80.379 E38.72799
G1 X109.234 Y80.459 E38.73169
G1 X109.234 Y121.99 E39.21263
G1 X108.924 Y121.903 E39.21636
G1 X108.924 Y80.545 E39.6953
G1 X108.615 Y80.636 E39.69903
G1 X108.615 Y121.813 E40.17587
G1 X108.305 Y121.717 E40.17963
G1 X108.305 Y80.731 E40.65426
G1 X107.996 Y80.831 E40.65802
G1 X107.996 Y121.617 E41.13034
G1 X107.686 Y121.511 E41.13413
G1 X107.686 Y80.938 E41.60398
G1 X107.377 Y81.049 E41.60778
G1 X107.377 Y121.399 E42.07505
G1 X107.068 Y121.283 E42.07887
G1 X107.068 Y81.166 E42.54344
G1 X106.758 Y81.287 E42.54729
G1 X106.758 Y121.161 E43.00904
G1 X106.449 Y121.033 E43.01291
G1 X106.449 Y81.415 E43.4717
G1 X106.139 Y81.549 E43.47561
G1 X106.139 Y120.899 E43.9313
G1 X105.83 Y120.76 E43.93522
G1 X105.83 Y81.688 E44.38769
G1 X105.52 Y81.833 E44.39165
G1 X105.52 Y120.615 E44.84076
G1 X105.211 Y120.465 E44.84474
G1 X105.211 Y81.984 E45.29036
G1 X104.901 Y82.142 E45.29439
G1 X104.901 Y120.306 E45.73634
G1 X104.592 Y120.142 E45.74039
G1 X104.592 Y82.306 E46.17854
G1 X104.282 Y82.477 E46.18264
G1 X104.282 Y119.972 E46.61684
G1 X103.973 Y119.795 E46.62096
G1 X103.973 Y82.653 E47.05108
G1 X103.663 Y82.837 E47.05525
G1 X103.663 Y119.612 E47.48112
G1 X103.354 Y119.42 E47.48533
G1 X103.354 Y83.028 E47.90676
G1 X103.044 Y83.227 E47.91103
G1 X103.044 Y119.221 E48.32785
G1 X102.735 Y119.015 E48.33215
G1 X102.735 Y83.433 E48.7442
G1 X102.425 Y83.647 E48.74856
G1 X102.425 Y118.801 E49.15566
G1 X102.116 Y118.579 E49.16007
G1 X102.116 Y83.869 E49.56202
G1 X101.806 Y84.1 E49.5665
G1 X101.806 Y118.349 E49.96312
G1 X101.497 Y118.11 E49.96764
G1 X101.497 Y84.339 E50.35872
G1 X101.187 Y84.587 E50.36332
G1 X101.187 Y117.861 E50.74864
G1 X100.878 Y117.604 E50.75329
G1 X100.878 Y84.845 E51.13265
G1 X100.568 Y85.114 E51.1374
G1 X100.568 Y117.335 E51.51053
G1 X100.259 Y117.056 E51.51535
G1 X100.259 Y85.393 E51.88202
G1 X99.949 Y85.683 E51.88694
G1 X99.949 Y116.766 E52.24689
G1 X99.64 Y116.464 E52.25189
G1 X99.64 Y85.985 E52.60485
G1 X99.33 Y86.299 E52.60996
G1 X99.33 Y116.15 E52.95564
G1 X99.021 Y115.822 E52.96086
G1 X99.021 Y86.626 E53.29896
G1 X98.711 Y86.968 E53.30431
G1 X98.711 Y115.481 E53.6345
G1 X98.402 Y115.123 E53.63998
G1 X98.402 Y87.326 E53.96188
G1 X98.092 Y87.7 E53.96751
G1 X98.092 Y114.749 E54.28075
G1 X97.783 Y114.356 E54.28654
G1 X97.783 Y88.092 E54.59069
G1 X97.473 Y88.503 E54.59665
G1 X97.473 Y113.945 E54.89128
G1 X97.164 Y113.513 E54.89743
G1 X97.164 Y88.936 E55.18204
G1 X96.854 Y89.391 E55.18842
G1 X96.854 Y113.057 E55.46248
G1 X96.545 Y112.572 E55.46914
G1 X96.545 Y89.876 E55.73197
G1 X96.235 Y90.39 E55.73892
G1 X96.235 Y112.059 E55.98985
G1 X95.926 Y111.51 E55.99715
G1 X95.926 Y90.938 E56.23538
G1 X95.616 Y91.528 E56.2431
G1 X95.616 Y110.921 E56.46768
G1 X95.307 Y110.282 E56.4759
G1 X95.307 Y92.167 E56.68568
G1 X94.997 Y92.864 E56.69451
G1 X94.997 Y109.584 E56.88813
G1 X94.688 Y108.81 E56.89778
G1 X94.688 Y93.638 E57.07348
G1 X94.379 Y94.518 E57.08428
G1 X94.379 Y107.931 E57.23961
G1 X94.069 Y106.902 E57.25206
G1 X94.069 Y95.547 E57.38355
G1 X93.76 Y96.83 E57.39883
G1 X93.76 Y105.619 E57.50061
G1 X93.584 Y104.676 E57.51172
G1 X93.45 Y103.711 E57.523
G1 X93.45 Y97.818 E57.59124
M204 S20000
M106 S127.5
;LAYER_CHANGE
;Z:0.4
;HEIGHT:0.3
; BEFORE_LAYER_CHANGE 1 @ 0.4mm
;WIPE_START
G1 F14400
G1 X93.45 Y103.711 E55.72512
G1 X93.584 Y104.676 E55.4166
G1 X93.76 Y105.619 E55.11283
G1 X93.76 Y105.551 E55.09124
;WIPE_END
G92 E0
G1 Z.4 F18000
; AFTER_LAYER_CHANGE 1 @ 0.4mm
G1 X105.399 Y117.895
G1 E2.5 F4800
G1 F3464
G1 X123.954 Y117.895 E3.04529
G1 X124.968 Y117.297 E3.07989
G1 X125.921 Y116.654 E3.11368
G1 X126.832 Y115.955 E3.14743
G1 X127.789 Y115.117 E3.18481
G1 X101.82 Y115.117 E3.94798
G1 X101.09 Y114.398 E3.97809
G1 X100.57 Y113.834 E4.00063
G1 X99.835 Y112.953 E4.03435
G1 X99.374 Y112.338 E4.05694
G1 X130.236 Y112.338 E4.9639
G1 X130.877 Y111.388 E4.99758
G1 X131.274 Y110.732 E5.02011
G1 X131.896 Y109.56 E5.0591
G1 X97.713 Y109.56 E6.06366
G1 X97.463 Y109.029 E6.08091
G1 X97.163 Y108.324 E6.10343
G1 X96.891 Y107.608 E6.12594
G1 X96.619 Y106.781 E6.15152
G1 X132.991 Y106.781 E7.22041
G1 X133.174 Y106.145 E7.23986
G1 X133.357 Y105.403 E7.26232
G1 X133.51 Y104.653 E7.28481
G1 X133.617 Y104.003 E7.30417
G1 X95.993 Y104.003 E8.40985
G1 X95.849 Y102.754 E8.4468
G1 X95.803 Y101.989 E8.46932
G1 X95.788 Y101.224 E8.49181
G1 X133.822 Y101.224 E9.60954
G1 X133.806 Y100.459 E9.63203
G1 X133.76 Y99.694 E9.65455
G1 X133.617 Y98.446 E9.69147
G1 X95.993 Y98.446 E10.79715
G1 X96.099 Y97.796 E10.8165
G1 X96.253 Y97.045 E10.83903
G1 X96.436 Y96.303 E10.86149
G1 X96.619 Y95.667 E10.88094
G1 X132.991 Y95.667 E11.94983
G1 X132.718 Y94.841 E11.9754
G1 X132.447 Y94.125 E11.9979
G1 X132.146 Y93.42 E12.02043
G1 X131.896 Y92.889 E12.03768
G1 X97.713 Y92.889 E13.04224
G1 X98.147 Y92.05 E13.07
G1 X98.53 Y91.387 E13.0925
G1 X98.94 Y90.739 E13.11503
G1 X99.374 Y90.11 E13.13749
G1 X130.236 Y90.11 E14.04445
G1 X129.774 Y89.496 E14.06703
G1 X129.039 Y88.614 E14.10077
G1 X128.519 Y88.05 E14.12331
G1 X127.789 Y87.332 E14.1534
G1 X101.82 Y87.332 E14.91657
G1 X102.777 Y86.494 E14.95395
G1 X103.688 Y85.795 E14.9877
G1 X104.641 Y85.151 E15.0215
G1 X105.656 Y84.553 E15.05612
G1 X124.21 Y84.553 E15.60138
;WIPE_START
G1 F14400
G1 X116.315 Y84.553 E13.10138
;WIPE_END
G92 E0
G1 X115.191 Y81.978 F18000
G1 E2.5 F4800
G1 F3464
G1 X115.965 Y82.009 E2.52276
G1 X116.742 Y82.072 E2.54567
