;FLAVOR:Marlin
;TIME:2187
;Filament used: 1.22419m
;Layer height: 0.2
;MINX:93.037
;MINY:126.669
;MINZ:0.2
;MAXX:206.954
;MAXY:173.322
;MAXZ:4.2
;Generated with Cura_SteamEngine 4.10.0
M140 S35
M105
M190 S35
M104 S225
M105
M109 S225
M82 ;absolute extrusion mode
G28 ; home all axes
 M117 Purge extruder
 G92 E0 ; reset extruder
 G1 Z1.0 F3000 ; move z up little to prevent scratching of surface
 G1 X2 Y20 Z0.3 F5000.0 ; move to start-line position
 G1 X2 Y200.0 Z0.3 F1500.0 E15 ; draw 1st line
 G1 X2 Y200.0 Z0.4 F5000.0 ; move to side a little
 G1 X2 Y20 Z0.4 F1500.0 E30 ; draw 2nd line
 G92 E0 ; reset extruder
 G1 Z1.0 F3000 ; move z up little to prevent scratching of surface
G92 E0
G92 E0
G1 F2400 E-1.7
;LAYER_COUNT:21
;LAYER:0
M107
G0 F6000 X100.319 Y135.154 Z0.2
;TYPE:SKIRT
G1 F2400 E0
G1 F300 X100.649 Y134.913 E0.01549
G1 X100.962 Y134.693 E0.03
G1 X101.775 Y134.171 E0.06663
G1 X102.719 Y133.674 E0.10708
G1 X103.493 Y133.311 E0.1395
G1 X103.844 Y133.153 E0.15409
G1 X104.226 Y132.989 E0.16986
G1 X105.129 Y132.645 E0.2065
G1 X106.058 Y132.377 E0.24316
G1 X106.797 Y132.221 E0.27179
G1 X108.314 Y131.952 E0.33021
G1 X110.834 Y131.471 E0.42749
G1 X113.283 Y130.93 E0.52258
G1 X114.694 Y130.588 E0.57763
G1 X114.935 Y130.531 E0.58702
G1 X115.397 Y130.431 E0.60494
G1 X115.67 Y130.378 E0.61549
G1 X115.981 Y130.322 E0.62747
G1 X116.372 Y130.257 E0.6425
G1 X116.716 Y130.205 E0.65569
G1 X118.549 Y129.956 E0.72583
G1 X118.721 Y129.928 E0.73244
G1 X119.71 Y129.8 E0.77025
G1 X122.154 Y129.411 E0.86408
G1 X124.634 Y128.945 E0.95976
G1 X127.048 Y128.42 E1.05343
G1 X129.483 Y127.818 E1.14854
G1 X130.952 Y127.411 E1.20634
G1 X131.596 Y127.243 E1.23157
G1 X132.565 Y127.037 E1.26914
G1 X133.168 Y126.935 E1.29232
G1 X133.477 Y126.887 E1.30418
G1 X134.126 Y126.795 E1.32903
G1 X135.412 Y126.684 E1.37798
G1 X135.743 Y126.674 E1.39053
G1 X136.096 Y126.669 E1.40392
G1 X136.491 Y126.669 E1.4189
G1 X137.3 Y126.679 E1.44957
G1 X138.265 Y126.733 E1.48622
G1 X139.338 Y126.887 E1.52732
G1 X140.37 Y127.085 E1.56716
G1 X140.76 Y127.167 E1.58227
G1 X141.912 Y127.43 E1.62708
G1 X143.948 Y127.924 E1.70652
G1 X146.379 Y128.442 E1.80076
G1 X148.863 Y128.897 E1.89651
G1 X151.315 Y129.276 E1.99059
G1 X153.804 Y129.588 E2.0857
G1 X156.253 Y129.826 E2.179
G1 X158.766 Y129.997 E2.2745
G1 X161.246 Y130.097 E2.36861
G1 X164.369 Y130.126 E2.48703
G1 X172.809 Y130.125 E2.80704
G1 X174.399 Y130.131 E2.86733
G1 X175.12 Y130.125 E2.89467
G1 X180.783 Y130.125 E3.10939
G1 X183.381 Y130.088 E3.20791
G1 X186.484 Y129.959 E3.32567
G1 X186.824 Y129.95 E3.33856
G1 X187.064 Y129.947 E3.34766
G1 X187.395 Y129.947 E3.36021
G1 X187.648 Y129.951 E3.36981
G1 X188.011 Y129.963 E3.38358
G1 X188.468 Y129.987 E3.40093
G1 X188.571 Y129.994 E3.40484
G1 X188.993 Y130.03 E3.4209
G1 X189.596 Y130.093 E3.44389
G1 X190.278 Y130.185 E3.46998
G1 X190.661 Y130.248 E3.4847
G1 X191.477 Y130.412 E3.51626
G1 X192.055 Y130.55 E3.53879
G1 X192.786 Y130.75 E3.56753
G1 X193.457 Y130.957 E3.59415
G1 X194.169 Y131.202 E3.6227
G1 X194.303 Y131.253 E3.62814
G1 X194.811 Y131.46 E3.64894
G1 X195.245 Y131.649 E3.66689
G1 X195.613 Y131.816 E3.68221
G1 X196.134 Y132.074 E3.70425
G1 X196.4 Y132.214 E3.71565
G1 X196.743 Y132.402 E3.73048
G1 X196.929 Y132.508 E3.7386
G1 X197.38 Y132.779 E3.75855
G1 X197.972 Y133.155 E3.78514
G1 X198.09 Y133.233 E3.7905
G1 X198.618 Y133.604 E3.81497
G1 X199.11 Y133.973 E3.83829
G1 X199.224 Y134.062 E3.84378
G1 X199.694 Y134.45 E3.86688
G1 X200.051 Y134.76 E3.88481
G1 X200.378 Y135.055 E3.90151
G1 X200.457 Y135.129 E3.90561
G1 X201.043 Y135.718 E3.93712
G1 X201.68 Y136.406 E3.97267
G1 X202.3 Y137.133 E4.0089
G1 X202.489 Y137.374 E4.02051
G1 X202.883 Y137.907 E4.04564
G1 X203.234 Y138.411 E4.06893
G1 X203.65 Y139.053 E4.09793
G1 X203.907 Y139.479 E4.1168
G1 X204.139 Y139.88 E4.13436
G1 X204.287 Y140.153 E4.14614
G1 X204.422 Y140.409 E4.15711
G1 X204.576 Y140.711 E4.16997
G1 X204.682 Y140.927 E4.17909
G1 X204.821 Y141.219 E4.19135
G1 X204.911 Y141.416 E4.19956
G1 X205.043 Y141.716 E4.21199
G1 X205.217 Y142.127 E4.22891
G1 X205.429 Y142.666 E4.25087
G1 X205.526 Y142.931 E4.26157
G1 X205.747 Y143.596 E4.28814
G1 X206.05 Y144.608 E4.3282
G1 X206.287 Y145.535 E4.36448
G1 X206.442 Y146.266 E4.39281
G1 X206.531 Y146.734 E4.41087
G1 X206.622 Y147.27 E4.43149
G1 X206.684 Y147.68 E4.44721
G1 X206.751 Y148.182 E4.46641
G1 X206.791 Y148.517 E4.47921
G1 X206.826 Y148.853 E4.49202
G1 X206.859 Y149.221 E4.50602
G1 X206.884 Y149.567 E4.51918
G1 X206.904 Y149.924 E4.53274
G1 X206.945 Y150.91 E4.57015
G1 X206.954 Y151.504 E4.59268
G1 X206.947 Y152.256 E4.62119
G1 X206.938 Y152.619 E4.63496
G1 X206.914 Y153.213 E4.6575
G1 X206.893 Y153.586 E4.67167
G1 X206.863 Y153.988 E4.68695
G1 X206.813 Y154.579 E4.70944
G1 X206.762 Y155.065 E4.72797
G1 X206.705 Y155.514 E4.74513
G1 X206.655 Y155.866 E4.75861
G1 X206.551 Y156.524 E4.78387
G1 X206.475 Y156.95 E4.80028
G1 X206.454 Y157.057 E4.80441
G1 X206.346 Y157.554 E4.8237
G1 X206.053 Y158.759 E4.87072
G1 X205.842 Y159.489 E4.89953
G1 X205.672 Y160.013 E4.92042
G1 X205.493 Y160.524 E4.94095
G1 X205.283 Y161.077 E4.96338
G1 X205.242 Y161.18 E4.96758
G1 X205.086 Y161.551 E4.98284
G1 X204.936 Y161.893 E4.997
G1 X204.807 Y162.178 E5.00886
G1 X204.718 Y162.367 E5.01678
G1 X204.575 Y162.659 E5.02911
G1 X204.481 Y162.845 E5.03701
G1 X204.337 Y163.121 E5.04881
G1 X204.186 Y163.401 E5.06088
G1 X203.814 Y164.042 E5.08898
G1 X203.505 Y164.537 E5.1111
G1 X203.074 Y165.179 E5.14042
G1 X202.69 Y165.712 E5.16533
G1 X202.288 Y166.239 E5.19046
G1 X202.147 Y166.413 E5.19895
G1 X201.752 Y166.874 E5.22197
G1 X201.481 Y167.175 E5.23733
G1 X201.269 Y167.405 E5.24919
G1 X201.155 Y167.525 E5.25547
G1 X200.789 Y167.893 E5.27515
G1 X200.572 Y168.102 E5.28657
G1 X200.224 Y168.424 E5.30455
G1 X200.037 Y168.59 E5.31403
G1 X199.704 Y168.874 E5.33062
G1 X199.388 Y169.134 E5.34614
G1 X199.075 Y169.383 E5.3613
G1 X198.972 Y169.462 E5.36622
G1 X198.52 Y169.792 E5.38744
G1 X198.259 Y169.973 E5.39949
G1 X197.942 Y170.185 E5.41395
G1 X197.73 Y170.322 E5.42352
G1 X197.261 Y170.61 E5.44439
G1 X196.898 Y170.821 E5.46031
G1 X196.554 Y171.014 E5.47526
G1 X195.992 Y171.304 E5.49924
G1 X195.698 Y171.446 E5.51162
G1 X195.383 Y171.593 E5.5248
G1 X195.195 Y171.677 E5.53261
G1 X194.718 Y171.877 E5.55222
G1 X194.343 Y172.025 E5.56751
G1 X193.918 Y172.184 E5.58471
G1 X193.704 Y172.259 E5.59331
G1 X192.893 Y172.51 E5.6255
G1 X192.265 Y172.68 E5.65017
G1 X191.494 Y172.861 E5.6802
G1 X190.796 Y173 E5.70718
G1 X190.041 Y173.125 E5.7362
G1 X189.692 Y173.171 E5.74954
G1 X188.965 Y173.244 E5.77725
G1 X188.411 Y173.282 E5.7983
G1 X188.03 Y173.302 E5.81277
G1 X187.723 Y173.313 E5.82442
G1 X187.162 Y173.319 E5.84569
G1 X186.753 Y173.314 E5.8612
G1 X186.418 Y173.305 E5.87391
G1 X185.408 Y173.263 E5.91223
G1 X184.238 Y173.199 E5.95666
G1 X181.732 Y173.135 E6.05171
G1 X179.959 Y173.132 E6.11894
G1 X178.906 Y173.141 E6.15887
G1 X178.379 Y173.14 E6.17885
G1 X176.459 Y173.113 E6.25166
G1 X173.845 Y173.113 E6.35077
G1 X172.627 Y173.139 E6.39696
G1 X172.35 Y173.141 E6.40747
G1 X164.593 Y173.14 E6.70158
G1 X163.949 Y173.131 E6.72601
G1 X162.984 Y173.077 E6.76265
G1 X161.911 Y172.923 E6.80375
G1 X160.039 Y172.564 E6.87603
G1 X157.574 Y172.127 E6.97095
G1 X155.056 Y171.753 E7.06747
G1 X152.602 Y171.459 E7.16118
G1 X150.1 Y171.232 E7.25644
G1 X147.624 Y171.078 E7.3505
G1 X145.129 Y170.992 E7.44516
G1 X142.613 Y170.977 E7.54056
G1 X140.123 Y171.033 E7.635
G1 X137.644 Y171.159 E7.72911
G1 X135.133 Y171.357 E7.82462
G1 X132.637 Y171.626 E7.9198
G1 X130.202 Y171.959 E8.01299
G1 X127.735 Y172.367 E8.1078
G1 X126.043 Y172.703 E8.17321
G1 X124.571 Y172.972 E8.22995
G1 X124.167 Y173.039 E8.24547
G1 X123.708 Y173.106 E8.26306
G1 X123.197 Y173.17 E8.28259
G1 X122.871 Y173.205 E8.29502
G1 X122.495 Y173.239 E8.30933
G1 X122.101 Y173.267 E8.32431
G1 X121.658 Y173.292 E8.34114
G1 X121.232 Y173.31 E8.3573
G1 X120.942 Y173.316 E8.3683
G1 X120.335 Y173.322 E8.39132
G1 X119.879 Y173.318 E8.40861
G1 X119.6 Y173.309 E8.41919
G1 X118.911 Y173.278 E8.44534
G1 X118.526 Y173.255 E8.45997
G1 X118.334 Y173.24 E8.46727
G1 X117.946 Y173.203 E8.48205
G1 X117.302 Y173.131 E8.50662
G1 X116.934 Y173.084 E8.52068
G1 X116.58 Y173.033 E8.53424
G1 X116.164 Y172.966 E8.55022
G1 X115.512 Y172.835 E8.57544
G1 X114.631 Y172.632 E8.60972
G1 X114.233 Y172.533 E8.62527
G1 X114.106 Y172.499 E8.63025
G1 X113.566 Y172.34 E8.6516
G1 X113.213 Y172.227 E8.66565
G1 X112.74 Y172.064 E8.68462
G1 X112.346 Y171.919 E8.70054
G1 X111.759 Y171.685 E8.7245
G1 X111.362 Y171.514 E8.74089
G1 X110.818 Y171.263 E8.7636
G1 X110.532 Y171.122 E8.7757
G1 X110.247 Y170.976 E8.78784
G1 X109.515 Y170.589 E8.81923
G1 X107.95 Y169.733 E8.88687
G1 X105.694 Y168.584 E8.98286
G1 X104.372 Y167.948 E9.03849
G1 X103.456 Y167.515 E9.0769
G1 X102.814 Y167.187 E9.10424
G1 X101.941 Y166.707 E9.14201
G1 X101.568 Y166.493 E9.15832
G1 X101.244 Y166.299 E9.17264
G1 X100.436 Y165.769 E9.20928
G1 X99.606 Y165.114 E9.24937
G1 X98.942 Y164.54 E9.28265
G1 X98.642 Y164.272 E9.2979
G1 X98.37 Y164.02 E9.31196
G1 X97.689 Y163.334 E9.34861
G1 X96.995 Y162.501 E9.38972
G1 X96.469 Y161.806 E9.42277
G1 X96.226 Y161.473 E9.4384
G1 X96.006 Y161.16 E9.4529
G1 X95.484 Y160.347 E9.48954
G1 X94.987 Y159.403 E9.52999
G1 X94.624 Y158.629 E9.5624
G1 X94.461 Y158.264 E9.57756
G1 X94.295 Y157.876 E9.59356
G1 X93.951 Y156.973 E9.6302
G1 X93.684 Y156.044 E9.66685
G1 X93.534 Y155.332 E9.69444
G1 X93.38 Y154.468 E9.72772
G1 X93.285 Y153.875 E9.75049
G1 X93.165 Y153.047 E9.78221
G1 X93.052 Y151.729 E9.83237
G1 X93.042 Y151.385 E9.84542
G1 X93.037 Y151.046 E9.85827
G1 X93.038 Y149.945 E9.90002
G1 X93.048 Y149.247 E9.92649
G1 X93.078 Y148.57 E9.95218
G1 X93.114 Y148.107 E9.96979
G1 X93.144 Y147.79 E9.98186
G1 X93.174 Y147.51 E9.99254
G1 X93.255 Y146.829 E10.01854
G1 X93.409 Y145.875 E10.05518
G1 X93.675 Y144.822 E10.09636
G1 X93.915 Y144.03 E10.12774
G1 X94.035 Y143.656 E10.14264
G1 X94.168 Y143.265 E10.1583
G1 X94.517 Y142.363 E10.19497
G1 X94.995 Y141.392 E10.236
G1 X95.419 Y140.622 E10.26933
G1 X95.626 Y140.26 E10.28514
G1 X95.821 Y139.934 E10.29955
G1 X96.351 Y139.126 E10.33619
G1 X97.008 Y138.293 E10.37641
G1 X97.581 Y137.63 E10.40964
G1 X97.832 Y137.349 E10.42393
G1 X98.081 Y137.079 E10.43785
G1 X98.765 Y136.396 E10.4745
G1 X99.621 Y135.682 E10.51677
G1 X100.319 Y135.154 E10.54995
G0 F6000 X100.608 Y135.537
G1 F300 X100.925 Y135.306 E10.56482
G1 X101.238 Y135.086 E10.57933
G1 X102.034 Y134.575 E10.6152
G1 X102.922 Y134.109 E10.65322
G1 X103.696 Y133.746 E10.68564
G1 X104.034 Y133.594 E10.69969
G1 X104.416 Y133.43 E10.71545
G1 X105.3 Y133.094 E10.75131
G1 X106.21 Y132.834 E10.78719
G1 X106.88 Y132.694 E10.81315
G1 X108.349 Y132.434 E10.86971
G1 X110.919 Y131.942 E10.96893
G1 X113.45 Y131.384 E11.0672
G1 X114.804 Y131.055 E11.12003
G1 X115.045 Y130.998 E11.12942
G1 X115.488 Y130.902 E11.14661
G1 X115.761 Y130.849 E11.15715
G1 X116.059 Y130.796 E11.16863
G1 X116.45 Y130.731 E11.18366
G1 X116.781 Y130.681 E11.19635
G1 X118.682 Y130.423 E11.26909
G1 X118.782 Y130.404 E11.27295
G1 X119.779 Y130.275 E11.31107
G1 X122.25 Y129.882 E11.40594
G1 X124.717 Y129.418 E11.50112
G1 X127.161 Y128.886 E11.59595
G1 X129.627 Y128.277 E11.69227
G1 X131.274 Y127.822 E11.75705
G1 X131.716 Y127.708 E11.77436
G1 X132.645 Y127.51 E11.81038
G1 X133.248 Y127.408 E11.83357
G1 X133.544 Y127.362 E11.84492
G1 X134.193 Y127.27 E11.86978
G1 X135.427 Y127.164 E11.91674
G1 X135.758 Y127.154 E11.92929
G1 X136.096 Y127.149 E11.94211
G1 X136.491 Y127.149 E11.95709
G1 X137.293 Y127.159 E11.9875
G1 X138.238 Y127.212 E12.02339
G1 X139.247 Y127.359 E12.06205
G1 X140.279 Y127.557 E12.10189
G1 X140.654 Y127.635 E12.11642
G1 X141.643 Y127.86 E12.15487
G1 X143.835 Y128.391 E12.24039
G1 X146.294 Y128.915 E12.33572
G1 X148.742 Y129.364 E12.43009
G1 X151.255 Y129.752 E12.5265
G1 X153.732 Y130.063 E12.62116
G1 X156.246 Y130.306 E12.71693
G1 X158.75 Y130.478 E12.81209
G1 X161.221 Y130.576 E12.90586
G1 X164.364 Y130.606 E13.02503
G1 X172.807 Y130.605 E13.34516
G1 X174.401 Y130.611 E13.4056
G1 X175.124 Y130.605 E13.43302
G1 X180.79 Y130.605 E13.64785
G1 X183.408 Y130.568 E13.74713
G1 X186.504 Y130.439 E13.86462
G1 X186.83 Y130.43 E13.87699
G1 X187.07 Y130.427 E13.88609
G1 X187.387 Y130.427 E13.89811
G1 X187.64 Y130.431 E13.9077
G1 X187.988 Y130.442 E13.9209
G1 X188.435 Y130.466 E13.93787
G1 X188.538 Y130.473 E13.94179
G1 X188.943 Y130.508 E13.9572
G1 X189.546 Y130.571 E13.98019
G1 X190.2 Y130.659 E14.00521
G1 X190.583 Y130.722 E14.01993
G1 X191.366 Y130.879 E14.05021
G1 X191.944 Y131.017 E14.07274
G1 X192.645 Y131.209 E14.1003
G1 X193.316 Y131.416 E14.12692
G1 X193.998 Y131.651 E14.15428
G1 X194.132 Y131.702 E14.15971
G1 X194.62 Y131.9 E14.17968
G1 X195.054 Y132.089 E14.19763
G1 X195.41 Y132.251 E14.21246
G1 X195.91 Y132.499 E14.23362
G1 X196.176 Y132.639 E14.24502
G1 X196.505 Y132.819 E14.25924
G1 X196.691 Y132.925 E14.26735
G1 X197.124 Y133.185 E14.28651
G1 X197.509 Y133.428 E14.30377
G1 X197.825 Y133.634 E14.31807
G1 X198.332 Y133.989 E14.34154
G1 X198.605 Y134.192 E14.35444
G1 X198.928 Y134.441 E14.3699
G1 X199.379 Y134.812 E14.39204
G1 X199.736 Y135.122 E14.40997
G1 X200.05 Y135.405 E14.426
G1 X200.129 Y135.479 E14.4301
G1 X200.69 Y136.044 E14.46029
G1 X201.327 Y136.732 E14.49584
G1 X201.922 Y137.429 E14.53059
G1 X202.111 Y137.67 E14.5422
G1 X202.489 Y138.181 E14.5663
G1 X202.84 Y138.685 E14.58959
G1 X203.239 Y139.3 E14.61739
G1 X203.496 Y139.726 E14.63625
G1 X203.721 Y140.115 E14.65329
G1 X203.863 Y140.377 E14.66459
G1 X203.998 Y140.633 E14.67556
G1 X204.146 Y140.923 E14.68791
G1 X204.252 Y141.139 E14.69703
G1 X204.384 Y141.419 E14.70877
G1 X204.474 Y141.616 E14.71698
G1 X204.601 Y141.904 E14.72892
G1 X204.775 Y142.315 E14.74584
G1 X204.979 Y142.831 E14.76688
G1 X205.076 Y143.096 E14.77758
G1 X205.287 Y143.734 E14.80306
G1 X205.59 Y144.746 E14.84311
G1 X205.817 Y145.635 E14.8779
G1 X205.972 Y146.366 E14.90623
G1 X206.058 Y146.814 E14.92353
G1 X206.149 Y147.35 E14.94414
G1 X206.209 Y147.743 E14.95922
G1 X206.276 Y148.245 E14.97842
G1 X206.314 Y148.567 E14.99072
G1 X206.349 Y148.903 E15.00352
G1 X206.38 Y149.256 E15.01696
G1 X206.405 Y149.602 E15.03011
G1 X206.424 Y149.944 E15.0431
G1 X206.465 Y150.93 E15.08052
G1 X206.475 Y151.499 E15.1021
G1 X206.468 Y152.251 E15.13061
G1 X206.459 Y152.599 E15.14381
G1 X206.435 Y153.193 E15.16635
G1 X206.415 Y153.551 E15.17995
G1 X206.385 Y153.947 E15.19501
G1 X206.335 Y154.538 E15.21749
G1 X206.286 Y155.005 E15.2353
G1 X206.229 Y155.454 E15.25246
G1 X206.181 Y155.792 E15.2654
G1 X206.077 Y156.45 E15.29066
G1 X206.004 Y156.858 E15.30638
G1 X205.983 Y156.965 E15.31051
G1 X205.879 Y157.441 E15.32899
G1 X205.588 Y158.639 E15.37573
G1 X205.385 Y159.341 E15.40344
G1 X205.215 Y159.865 E15.42433
G1 X205.044 Y160.355 E15.44401
G1 X204.837 Y160.899 E15.46607
G1 X204.796 Y161.002 E15.47028
G1 X204.647 Y161.359 E15.48495
G1 X204.497 Y161.701 E15.49911
G1 X204.373 Y161.974 E15.51047
G1 X204.284 Y162.163 E15.5184
G1 X204.147 Y162.443 E15.53022
G1 X204.053 Y162.629 E15.53812
G1 X203.915 Y162.893 E15.54941
G1 X203.764 Y163.173 E15.56147
G1 X203.407 Y163.788 E15.58844
G1 X203.098 Y164.283 E15.61056
G1 X202.684 Y164.899 E15.6387
G1 X202.3 Y165.432 E15.66361
G1 X201.915 Y165.936 E15.68766
G1 X201.774 Y166.11 E15.69615
G1 X201.396 Y166.553 E15.71823
G1 X201.125 Y166.854 E15.73359
G1 X200.807 Y167.194 E15.75124
G1 X200.457 Y167.547 E15.77009
G1 X200.24 Y167.756 E15.78151
G1 X199.905 Y168.065 E15.79879
G1 X199.718 Y168.231 E15.80827
G1 X199.399 Y168.504 E15.82419
G1 X199.083 Y168.764 E15.83971
G1 X198.783 Y169.002 E15.85423
G1 X198.68 Y169.081 E15.85915
G1 X198.246 Y169.397 E15.87951
G1 X197.985 Y169.578 E15.89155
G1 X197.682 Y169.782 E15.9054
G1 X197.47 Y169.919 E15.91497
G1 X197.019 Y170.195 E15.93502
G1 X196.656 Y170.406 E15.95094
G1 X196.322 Y170.593 E15.96545
G1 X195.783 Y170.872 E15.98847
G1 X195.489 Y171.014 E16.00085
G1 X195.187 Y171.155 E16.01348
G1 X194.999 Y171.239 E16.02129
G1 X194.542 Y171.431 E16.04009
G1 X194.167 Y171.579 E16.05537
G1 X193.759 Y171.731 E16.07188
G1 X193.545 Y171.806 E16.08048
G1 X192.768 Y172.047 E16.11132
