;FLAVOR:Marlin
;TIME:4484
;Filament used: 3.34309m
;Layer height: 0.2
;MINX:120.009
;MINY:122.982
;MINZ:0.2
;MAXX:184.306
;MAXY:245.812
;MAXZ:4.4
;POSTPROCESSED
;Generated with Cura_SteamEngine 4.10.0
M104 S215
M105
M109 S215
M82 ;absolute extrusion mode
G28 ; home all axes
 M117 Purge extruder
 G92 E0 ; reset extruder
 G1 Z1.0 F3000 ; move z up little to prevent scratching of surface
 G1 X2 Y20 Z0.3 F5000.0 ; move to start-line position
 G1 X2 Y200.0 Z0.3 F1500.0 E15 ; draw 1st line
 G1 X2 Y200.0 Z0.4 F5000.0 ; move to side a little
 G1 X2 Y20 Z0.4 F1500.0 E30 ; draw 2nd line
 G92 E0 ; reset extruder
 G1 Z1.0 F3000 ; move z up little to prevent scratching of surface
G92 E0
G92 E0
G1 F1500 E-2
;LAYER_COUNT:23
;LAYER:0
M107
;MESH:Achtung_giftig_trooperNametagV01.stl
G0 F6000 X179.82 Y189.46 Z0.2
;TYPE:WALL-INNER
G1 F1500 E0
G1 F1200 X180.791 Y188.585 E0.03424
G1 X181.561 Y187.527 E0.06851
G1 X182.093 Y186.33 E0.10282
G1 X182.365 Y185.05 E0.13709
G1 X182.365 Y183.743 E0.17133
G1 X182.094 Y182.462 E0.20562
G1 X181.56 Y181.267 E0.2399
G1 X180.792 Y180.211 E0.2741
G1 X179.82 Y179.333 E0.30841
G1 X178.687 Y178.679 E0.34268
G1 X177.442 Y178.274 E0.37697
G1 X176.141 Y178.137 E0.41123
G1 X174.841 Y178.274 E0.44547
G1 X173.689 Y178.65 E0.47721
G1 X173.606 Y178.673 E0.47947
G1 X172.462 Y179.333 E0.51406
G1 X171.491 Y180.209 E0.54831
G1 X170.721 Y181.266 E0.58257
G1 X170.189 Y182.463 E0.61688
G1 X169.918 Y183.743 E0.65115
G1 X169.918 Y185.05 E0.68538
G1 X170.167 Y186.223 E0.71679
G1 X170.181 Y186.315 E0.71922
G1 X170.722 Y187.527 E0.75399
G1 X171.49 Y188.584 E0.78821
G1 X172.462 Y189.46 E0.82248
G1 X173.596 Y190.115 E0.85678
G1 X174.841 Y190.519 E0.89107
G1 X176.141 Y190.656 E0.92531
G1 X177.442 Y190.519 E0.95957
G1 X178.594 Y190.144 E0.9913
G1 X178.678 Y190.121 E0.99358
G1 X179.82 Y189.46 E1.02814
G0 F6000 X179.628 Y189.196
;TYPE:WALL-OUTER
G1 F1200 X180.548 Y188.366 E1.0606
G1 X181.278 Y187.364 E1.09307
G1 X181.782 Y186.229 E1.1256
G1 X182.04 Y185.016 E1.15808
G1 X182.04 Y183.777 E1.19053
G1 X181.783 Y182.563 E1.22303
G1 X181.277 Y181.431 E1.25551
G1 X180.549 Y180.429 E1.28795
G1 X179.628 Y179.597 E1.32046
G1 X178.554 Y178.978 E1.35293
G1 X177.374 Y178.594 E1.38543
G1 X176.141 Y178.464 E1.41791
G1 X174.909 Y178.594 E1.45035
G1 X173.79 Y178.959 E1.48118
G1 X173.732 Y178.975 E1.48276
G1 X172.654 Y179.597 E1.51536
G1 X171.734 Y180.428 E1.54783
G1 X171.004 Y181.43 E1.5803
G1 X170.5 Y182.564 E1.6128
G1 X170.243 Y183.777 E1.64528
G1 X170.243 Y185.016 E1.67773
G1 X170.489 Y186.176 E1.70879
G1 X170.496 Y186.224 E1.71006
G1 X171.005 Y187.363 E1.74274
G1 X171.733 Y188.365 E1.77518
G1 X172.654 Y189.196 E1.80767
G1 X173.729 Y189.816 E1.84017
G1 X174.909 Y190.199 E1.87267
G1 X176.141 Y190.329 E1.90512
G1 X177.374 Y190.199 E1.93759
G1 X178.493 Y189.835 E1.96841
G1 X178.551 Y189.819 E1.96999
G1 X179.628 Y189.196 E2.00258
G0 F6000 X179.854 Y189.507
G1 F1500 E0.00258
G0 F6000 X179.116 Y188.493
G0 X180.107 Y177.26
G0 X179.502 Y178.285
;TYPE:WALL-INNER
G1 F1500 E2.00258
G1 F1200 X179.879 Y178.508 E2.01405
G1 X180.24 Y178.753 E2.02548
G1 X180.589 Y179.025 E2.03707
G1 X180.918 Y179.314 E2.04854
G1 X181.221 Y179.617 E2.05976
G1 X181.524 Y179.963 E2.07181
G1 X181.784 Y180.297 E2.08289
G1 X182.044 Y180.683 E2.09508
G1 X182.261 Y181.051 E2.10627
G1 X182.45 Y181.421 E2.11715
G1 X182.636 Y181.855 E2.12952
G1 X182.776 Y182.249 E2.14047
G1 X182.902 Y182.682 E2.15228
G1 X182.991 Y183.084 E2.16307
G1 X183.061 Y183.531 E2.17492
G1 X183.103 Y183.975 E2.1866
G1 X183.116 Y184.403 E2.19782
G1 X183.101 Y184.856 E2.20969
G1 X183.061 Y185.267 E2.2205
G1 X182.988 Y185.725 E2.23265
G1 X182.897 Y186.135 E2.24365
G1 X182.776 Y186.548 E2.25492
G1 X182.621 Y186.977 E2.26687
G1 X182.446 Y187.382 E2.27843
G1 X182.251 Y187.762 E2.28961
G1 X182.026 Y188.14 E2.30114
G1 X181.777 Y188.506 E2.31273
G1 X181.5 Y188.86 E2.3245
G1 X181.231 Y189.167 E2.3352
G1 X180.919 Y189.478 E2.34673
G1 X180.583 Y189.775 E2.35848
G1 X180.247 Y190.035 E2.36961
G1 X179.879 Y190.285 E2.38126
G1 X179.496 Y190.512 E2.39292
G1 X179.118 Y190.705 E2.40404
G1 X178.713 Y190.88 E2.41559
G1 X178.295 Y191.031 E2.42723
G1 X177.872 Y191.154 E2.43877
G1 X177.458 Y191.246 E2.44988
G1 X177.015 Y191.316 E2.46163
G1 X176.578 Y191.357 E2.47312
G1 X176.141 Y191.372 E2.48458
G1 X175.704 Y191.357 E2.49603
G1 X175.267 Y191.316 E2.50753
G1 X174.825 Y191.246 E2.51925
G1 X174.41 Y191.154 E2.53038
G1 X173.988 Y191.031 E2.54189
G1 X173.572 Y190.881 E2.55348
G1 X173.175 Y190.709 E2.56481
G1 X172.781 Y190.508 E2.57639
G1 X172.397 Y190.281 E2.58808
G1 X172.036 Y190.035 E2.59952
G1 X171.7 Y189.775 E2.61065
G1 X171.362 Y189.477 E2.62245
G1 X171.045 Y189.159 E2.63421
G1 X170.765 Y188.839 E2.64535
G1 X170.292 Y188.231 E2.66553
G1 X169.583 Y188.475 E2.68516
G1 X169.583 Y239.718 E4.02734
G1 X169.345 Y240.838 E4.05733
G1 X168.88 Y241.881 E4.08724
G1 X168.207 Y242.808 E4.11724
G1 X167.356 Y243.575 E4.14725
G1 X166.366 Y244.146 E4.17719
G1 X165.279 Y244.5 E4.20713
G1 X164.115 Y244.622 E4.23778
G1 X126.667 Y244.622 E5.21864
G1 X125.504 Y244.5 E5.24926
G1 X124.417 Y244.146 E5.27921
G1 X123.426 Y243.575 E5.30916
G1 X122.575 Y242.808 E5.33917
G1 X121.902 Y241.881 E5.36918
G1 X121.438 Y240.84 E5.39903
G1 X121.199 Y239.716 E5.42913
G1 X121.199 Y129.078 E8.327
G1 X121.438 Y127.954 E8.35709
G1 X121.902 Y126.912 E8.38697
G1 X122.575 Y125.986 E8.41695
G1 X123.43 Y125.216 E8.44709
G1 X124.414 Y124.648 E8.47685
G1 X125.503 Y124.294 E8.50684
G1 X126.667 Y124.172 E8.5375
G1 X164.115 Y124.172 E9.51835
G1 X165.28 Y124.294 E9.54903
G1 X166.367 Y124.647 E9.57896
G1 X167.354 Y125.218 E9.60883
G1 X168.207 Y125.986 E9.63889
G1 X168.88 Y126.913 E9.6689
G1 X169.345 Y127.956 E9.69881
G1 X169.583 Y129.076 E9.7288
G1 X169.583 Y180.319 E11.07097
G1 X170.292 Y180.563 E11.09061
G1 X170.785 Y179.93 E11.11163
G1 X171.06 Y179.619 E11.1225
G1 X171.371 Y179.307 E11.13404
G1 X171.683 Y179.033 E11.14492
G1 X172.043 Y178.753 E11.15686
G1 X172.397 Y178.512 E11.16808
G1 X172.792 Y178.278 E11.1801
G1 X173.167 Y178.088 E11.19112
G1 X173.575 Y177.911 E11.20276
G1 X173.983 Y177.764 E11.21412
G1 X174.416 Y177.638 E11.22593
G1 X174.821 Y177.549 E11.2368
G1 X175.267 Y177.478 E11.24862
G1 X175.704 Y177.437 E11.26012
G1 X176.141 Y177.422 E11.27157
G1 X176.578 Y177.437 E11.28303
G1 X177.015 Y177.478 E11.29452
G1 X177.462 Y177.549 E11.30638
G1 X177.862 Y177.637 E11.31711
G1 X178.306 Y177.767 E11.32922
G1 X178.71 Y177.912 E11.34047
G1 X179.106 Y178.084 E11.35177
G1 X179.502 Y178.285 E11.36341
G0 F6000 X179.657 Y177.999
;TYPE:WALL-OUTER
G1 F1200 X180.058 Y178.236 E11.37561
G1 X180.427 Y178.487 E11.3873
G1 X180.799 Y178.776 E11.39963
G1 X181.143 Y179.079 E11.41164
G1 X181.459 Y179.395 E11.42335
G1 X181.769 Y179.749 E11.43567
G1 X182.054 Y180.115 E11.44782
G1 X182.314 Y180.501 E11.46001
G1 X182.541 Y180.886 E11.47172
G1 X182.749 Y181.293 E11.48369
G1 X182.935 Y181.727 E11.49606
G1 X183.085 Y182.147 E11.50774
G1 X183.216 Y182.6 E11.52009
G1 X183.312 Y183.034 E11.53173
G1 X183.385 Y183.5 E11.54409
G1 X183.427 Y183.944 E11.55577
G1 X183.441 Y184.403 E11.56779
G1 X183.426 Y184.868 E11.57998
G1 X183.382 Y185.318 E11.59182
G1 X183.308 Y185.783 E11.60416
G1 X183.211 Y186.218 E11.61583
G1 X183.082 Y186.658 E11.62784
G1 X182.926 Y187.09 E11.63987
G1 X182.74 Y187.52 E11.65214
G1 X182.536 Y187.919 E11.66388
G1 X182.295 Y188.323 E11.6762
G1 X182.044 Y188.692 E11.68789
G1 X181.754 Y189.063 E11.70022
G1 X181.468 Y189.389 E11.71158
G1 X181.134 Y189.722 E11.72393
G1 X180.792 Y190.024 E11.73588
G1 X180.43 Y190.304 E11.74787
G1 X180.058 Y190.557 E11.75966
G1 X179.657 Y190.794 E11.77186
G1 X179.256 Y190.999 E11.78365
G1 X178.823 Y191.186 E11.79601
G1 X178.398 Y191.339 E11.80784
G1 X177.955 Y191.468 E11.81992
G1 X177.516 Y191.566 E11.8317
G1 X177.05 Y191.64 E11.84406
G1 X176.602 Y191.682 E11.85585
G1 X176.141 Y191.697 E11.86793
G1 X175.68 Y191.682 E11.88001
G1 X175.232 Y191.64 E11.8918
G1 X174.767 Y191.566 E11.90413
G1 X174.327 Y191.468 E11.91593
G1 X173.885 Y191.339 E11.92799
G1 X173.459 Y191.186 E11.93985
G1 X173.027 Y190.999 E11.95218
G1 X172.625 Y190.794 E11.964
G1 X172.225 Y190.557 E11.97618
G1 X171.853 Y190.304 E11.98796
G1 X171.491 Y190.024 E11.99995
G1 X171.147 Y189.721 E12.01195
G1 X170.808 Y189.381 E12.02453
G1 X170.509 Y189.04 E12.03641
G1 X170.178 Y188.614 E12.05054
G1 X169.908 Y188.707 E12.05802
G1 X169.908 Y239.752 E13.39501
G1 X169.656 Y240.939 E13.42679
G1 X169.163 Y242.045 E13.45851
G1 X168.45 Y243.026 E13.49027
G1 X167.547 Y243.84 E13.52212
G1 X166.5 Y244.444 E13.55377
G1 X165.348 Y244.819 E13.58551
G1 X164.13 Y244.947 E13.61758
G1 X126.652 Y244.947 E14.59922
G1 X125.435 Y244.819 E14.63127
G1 X124.283 Y244.444 E14.66301
G1 X123.235 Y243.84 E14.69469
G1 X122.332 Y243.026 E14.72653
G1 X121.619 Y242.045 E14.7583
G1 X121.127 Y240.94 E14.78998
G1 X120.874 Y239.751 E14.82182
G1 X120.874 Y129.043 E17.72152
G1 X121.127 Y127.854 E17.75336
G1 X121.619 Y126.749 E17.78504
G1 X122.332 Y125.767 E17.81683
G1 X123.235 Y124.954 E17.84865
G1 X124.283 Y124.349 E17.88035
G1 X125.435 Y123.975 E17.91207
G1 X126.652 Y123.847 E17.94412
G1 X164.13 Y123.847 E18.92576
G1 X165.348 Y123.975 E18.95784
G1 X166.5 Y124.349 E18.98956
G1 X167.547 Y124.954 E19.02124
G1 X168.45 Y125.767 E19.05306
G1 X169.163 Y126.749 E19.08485
G1 X169.656 Y127.855 E19.11656
G1 X169.908 Y129.042 E19.14835
G1 X169.908 Y180.087 E20.48533
G1 X170.178 Y180.18 E20.49281
G1 X170.528 Y179.73 E20.50775
G1 X170.816 Y179.404 E20.51914
G1 X171.149 Y179.07 E20.53149
G1 X171.484 Y178.776 E20.54317
G1 X171.856 Y178.487 E20.55551
G1 X172.225 Y178.236 E20.5672
G1 X172.63 Y177.996 E20.57953
G1 X173.028 Y177.794 E20.59122
G1 X173.456 Y177.608 E20.60344
G1 X173.88 Y177.456 E20.61524
G1 X174.33 Y177.324 E20.62752
G1 X174.767 Y177.228 E20.63924
G1 X175.232 Y177.154 E20.65157
G1 X175.68 Y177.112 E20.66336
G1 X176.141 Y177.097 E20.67544
G1 X176.602 Y177.112 E20.68752
G1 X177.05 Y177.154 E20.69931
G1 X177.516 Y177.228 E20.71166
G1 X177.952 Y177.324 E20.72336
G1 X178.398 Y177.455 E20.73553
G1 X178.834 Y177.611 E20.74766
G1 X179.247 Y177.791 E20.75946
G1 X179.657 Y177.999 E20.7715
G0 F6000 X179.472 Y178.336
G0 X179.334 Y178.581
;TYPE:SKIN
G1 F1200 X179.697 Y178.796 E20.78317
G1 X180.039 Y179.027 E20.79458
G1 X180.378 Y179.292 E20.80647
G1 X180.677 Y179.555 E20.81748
G1 X180.98 Y179.858 E20.82933
G1 X181.268 Y180.187 E20.84142
G1 X181.502 Y180.487 E20.85194
G1 X181.751 Y180.856 E20.86425
G1 X181.958 Y181.206 E20.87549
G1 X182.142 Y181.566 E20.88667
G1 X182.319 Y181.979 E20.89909
G1 X182.453 Y182.354 E20.9101
G1 X182.57 Y182.756 E20.92167
G1 X182.655 Y183.137 E20.93247
G1 X182.725 Y183.584 E20.94498
G1 X182.763 Y183.985 E20.95611
G1 X182.776 Y184.392 E20.96737
G1 X182.761 Y184.843 E20.97985
G1 X182.725 Y185.213 E20.99012
G1 X182.656 Y185.651 E21.00238
G1 X182.566 Y186.058 E21.01391
G1 X182.456 Y186.433 E21.02471
G1 X182.305 Y186.852 E21.03703
G1 X182.143 Y187.227 E21.04832
G1 X181.953 Y187.598 E21.05984
G1 X181.74 Y187.957 E21.07138
G1 X181.509 Y188.296 E21.08273
G1 X181.234 Y188.648 E21.09508
G1 X180.983 Y188.934 E21.1056
G1 X180.687 Y189.229 E21.11715
G1 X180.366 Y189.513 E21.129
G1 X180.048 Y189.759 E21.14012
G1 X179.706 Y189.992 E21.15156
G1 X179.335 Y190.212 E21.16348
G1 X178.967 Y190.399 E21.17489
G1 X178.59 Y190.563 E21.18626
G1 X178.182 Y190.711 E21.19826
G1 X177.795 Y190.823 E21.2094
G1 X177.395 Y190.912 E21.22073
G1 X176.962 Y190.98 E21.23285
G1 X176.566 Y191.017 E21.24384
G1 X176.141 Y191.032 E21.2556
G1 X175.716 Y191.017 E21.26736
G1 X175.32 Y190.98 E21.27835
G1 X174.888 Y190.912 E21.29044
G1 X174.487 Y190.823 E21.3018
G1 X174.101 Y190.711 E21.31291
G1 X173.703 Y190.567 E21.32461
G1 X173.319 Y190.4 E21.33619
G1 X172.944 Y190.209 E21.34783
G1 X172.577 Y189.992 E21.35961
G1 X172.218 Y189.747 E21.37163
G1 X171.925 Y189.52 E21.38188
G1 X171.595 Y189.229 E21.39404
G1 X171.293 Y188.926 E21.40587
G1 X171.021 Y188.615 E21.41729
G1 X170.411 Y187.831 E21.44476
G1 X169.243 Y188.232 E21.4789
G1 X169.243 Y239.686 E22.90147
G1 X169.021 Y240.728 E22.93093
G1 X168.585 Y241.707 E22.96056
G1 X167.949 Y242.582 E22.99047
G1 X167.157 Y243.297 E23.01997
G1 X166.223 Y243.836 E23.04978
G1 X165.209 Y244.166 E23.07926
G1 X164.1 Y244.282 E23.11009
G1 X126.682 Y244.282 E24.1446
G1 X125.574 Y244.166 E24.1754
G1 X124.557 Y243.835 E24.20497
G1 X123.626 Y243.298 E24.23469
G1 X122.833 Y242.583 E24.26421
G1 X122.197 Y241.707 E24.29414
G1 X121.762 Y240.73 E24.32371
G1 X121.539 Y239.684 E24.35327
G1 X121.539 Y129.11 E27.41037
G1 X121.762 Y128.064 E27.43994
G1 X122.199 Y127.083 E27.46963
G1 X122.83 Y126.214 E27.49932
G1 X123.629 Y125.494 E27.52906
G1 X124.557 Y124.958 E27.55869
G1 X125.573 Y124.628 E27.58822
G1 X126.682 Y124.512 E27.61905
G1 X164.1 Y124.512 E28.65356
G1 X165.21 Y124.628 E28.68442
G1 X166.226 Y124.958 E28.71395
G1 X167.154 Y125.495 E28.7436
G1 X167.949 Y126.212 E28.77319
G1 X168.585 Y127.087 E28.8031
G1 X169.021 Y128.066 E28.83273
G1 X169.243 Y129.108 E28.86219
G1 X169.243 Y180.562 E30.28476
G1 X170.411 Y180.963 E30.3189
G1 X171.047 Y180.147 E30.34751
G1 X171.308 Y179.852 E30.3584
G1 X171.604 Y179.555 E30.36999
G1 X171.899 Y179.295 E30.38086
G1 X172.234 Y179.034 E30.3926
G1 X172.57 Y178.805 E30.40384
G1 X172.965 Y178.571 E30.41654
G1 X173.303 Y178.4 E30.42701
G1 X173.709 Y178.224 E30.43924
G1 X174.098 Y178.084 E30.45067
G1 X174.495 Y177.968 E30.46211
G1 X174.878 Y177.884 E30.47295
G1 X175.321 Y177.814 E30.48535
G1 X175.716 Y177.777 E30.49632
G1 X176.141 Y177.762 E30.50807
G1 X176.566 Y177.777 E30.51983
G1 X176.962 Y177.814 E30.53083
G1 X177.402 Y177.884 E30.54315
G1 X177.783 Y177.967 E30.55393
G1 X178.191 Y178.087 E30.56568
G1 X178.579 Y178.226 E30.57708
G1 X178.961 Y178.392 E30.5886
G1 X179.334 Y178.581 E30.60016
G0 F6000 X178.827 Y178.366
G1 F1200 X177.514 Y177.94 E30.63832
G1 X176.141 Y177.795 E30.67649
G1 X174.769 Y177.94 E30.71463
G1 X173.605 Y178.32 E30.74849
G1 X173.474 Y178.357 E30.75225
G1 X172.261 Y179.057 E30.79097
G1 X171.237 Y179.98 E30.82909
G1 X170.425 Y181.095 E30.86722
G1 X169.864 Y182.358 E30.90543
G1 X169.578 Y183.708 E30.94358
G1 X169.578 Y185.085 E30.98165
G1 X169.831 Y186.274 E31.01526
G1 X169.852 Y186.412 E31.01912
G1 X170.426 Y187.698 E31.05806
G1 X171.236 Y188.813 E31.09616
G1 X172.261 Y189.736 E31.13429
G1 X173.456 Y190.428 E31.17247
G1 X174.77 Y190.853 E31.21065
G1 X176.141 Y190.998 E31.24877
G1 X177.514 Y190.853 E31.28694
G1 X178.691 Y190.47 E31.32116
G1 X178.81 Y190.438 E31.32457
G1 X180.022 Y189.736 E31.36329
G1 X181.045 Y188.814 E31.40137
G1 X181.857 Y187.698 E31.43953
G1 X182.418 Y186.435 E31.47773
G1 X182.705 Y185.085 E31.51589
G1 X182.705 Y183.708 E31.55396
G1 X182.419 Y182.357 E31.59214
G1 X181.856 Y181.096 E31.63032
G1 X181.046 Y179.982 E31.6684
G1 X180.022 Y179.057 E31.70655
G1 X178.827 Y178.366 E31.74472
G1 F1500 E29.74472
G0 F6000 X179.445 Y176.935
G0 X170.772 Y128.951
G0 X170.484 Y127.587
G0 X169.972 Y126.441
G0 X169.207 Y125.338
G0 X167.712 Y126.424
G1 F1500 E31.74472
G1 F1200 X166.965 Y125.749 E31.77255
G1 X166.649 Y125.566 E31.78265
G1 X168.26 Y127.177 E31.84564
G0 F6000 X166.649 Y125.566
G1 F1200 X166.096 Y125.245 E31.86332
G1 X165.708 Y125.12 E31.87459
G1 X168.693 Y128.105 E31.9913
G1 X168.719 Y128.165 E31.99311
G1 X168.845 Y128.752 E32.00971
G1 X165.018 Y124.925 E32.15934
G1 X164.465 Y124.867 E32.17471
G1 X168.927 Y129.329 E32.34917
G1 X168.927 Y129.824 E32.36286
G1 X163.929 Y124.826 E32.55828
G1 X163.435 Y124.826 E32.57194
G1 X168.927 Y130.319 E32.78669
G1 X168.927 Y130.814 E32.80038
G1 X162.94 Y124.826 E33.03448
G1 X162.445 Y124.826 E33.04817
G1 X168.927 Y131.309 E33.30163
G1 X168.927 Y131.804 E33.31532
G1 X161.95 Y124.826 E33.58813
G1 X161.455 Y124.826 E33.60182
G1 X168.927 Y132.299 E33.89399
G1 X168.927 Y132.794 E33.90768
G1 X160.96 Y124.826 E34.2192
G1 X160.465 Y124.826 E34.23289
G1 X168.927 Y133.289 E34.56377
G1 X168.927 Y133.784 E34.57745
G1 X159.97 Y124.826 E34.92768
G1 X159.475 Y124.826 E34.94137
G1 X168.927 Y134.279 E35.31096
G1 X168.927 Y134.774 E35.32464
G1 X158.98 Y124.826 E35.71358
G1 X158.485 Y124.826 E35.72727
G1 X168.927 Y135.269 E36.13557
G1 X168.927 Y135.764 E36.14925
