; HEADER_BLOCK_START
; generated by OrcaSlicer 1.8.0-beta1 on 2024-10-23 at 00:20:03
; total layer number: 90
; HEADER_BLOCK_END


;
;
; external perimeters extrusion width = 0.40mm
; perimeters extrusion width = 0.45mm
; infill extrusion width = 0.45mm
; solid infill extrusion width = 0.45mm
; top infill extrusion width = 0.38mm
; first layer extrusion width = 0.42mm

; EXECUTABLE_BLOCK_START
EXCLUDE_OBJECT_DEFINE NAME=elegoo_neptune_3_pro_belt_tension_stopper_X-axis_V4.STL_id_0_copy_0 CENTER=112.5,112.5 POLYGON=[[100.25,97.15],[100.256,97.0805],[100.274,97.0132],[100.304,96.95],[100.344,96.8929],[100.393,96.8436],[100.45,96.8036],[100.513,96.7741],[100.581,96.7561],[100.65,96.75],[124.35,96.75],[124.419,96.7561],[124.487,96.7741],[124.55,96.8036],[124.607,96.8436],[124.656,96.8929],[124.696,96.95],[124.726,97.0132],[124.744,97.0805],[124.75,97.15],[124.75,127.85],[124.744,127.919],[124.726,127.987],[124.696,128.05],[124.656,128.107],[124.607,128.156],[124.55,128.196],[124.487,128.226],[124.419,128.244],[124.35,128.25],[100.65,128.25],[100.581,128.244],[100.513,128.226],[100.45,128.196],[100.393,128.156],[100.344,128.107],[100.304,128.05],[100.274,127.987],[100.256,127.919],[100.25,127.85],[100.25,97.15]]
M73 P0 R20
;TYPE:Custom
M413 S0 ; disable Power Loss Recovery
G90 ; use absolute coordinates
M83 ; extruder relative mode
M104 S120 ; set temporary nozzle temp to prevent oozing during homing and auto bed leveling
M140 S60 ; set final bed temp
G4 S10 ; allow partial nozzle warmup
G28 ; home all axis
;G29 ; run abl mesh
M420 S1 ; load mesh
G1 Z50 F240
G1 X2 Y10 F3000
M104 S210 ; set final nozzle temp
M190 S60 ; wait for bed temp to stabilize
M109 S210 ; wait for nozzle temp to stabilize
M73 P1 R20
G1 Z0.28 F240
G92 E0
G1 Y140 E10 F1500 ; prime the nozzle
M73 P2 R20
G1 X2.3 F5000
G92 E0
G1 Y10 E10 F1200 ; prime the nozzle
G92 E0
G90
G21
M83 ; use relative distances for extrusion
; filament start gcode
M106 S0
;LAYER_CHANGE
;Z:0.2
;HEIGHT:0.2
;BEFORE_LAYER_CHANGE
G92 E0
;0.2


G1 E-2.5 F1500
;AFTER_LAYER_CHANGE
;0.2
;_SET_FAN_SPEED_CHANGING_LAYER
SET_VELOCITY_LIMIT ACCEL=700 ACCEL_TO_DECEL=350
G1 Z.4 F18000
G1 X99.216 Y96.103
G1 Z.4
M73 P3 R20
G1 Z.2
G1 E2.5 F1500
;TYPE:Skirt
;WIDTH:0.42
G1 F3000
G1 X99.868 Y95.556 E.02617
G1 X100.65 Y95.373 E.02467
G1 X124.47 Y95.378 E.73192
G1 X125.069 Y95.526 E.01895
G1 X125.63 Y95.919 E.02106
G1 X125.974 Y96.431 E.01895
G1 X126.127 Y97.15 E.02258
G1 X126.127 Y127.85 E.94333
G1 X126.056 Y128.343 E.01531
G1 X125.784 Y128.897 E.01895
G1 X125.132 Y129.444 E.02617
G1 X124.35 Y129.627 E.02467
G1 X100.65 Y129.627 E.72824
G1 X100.157 Y129.556 E.01531
G1 X99.603 Y129.284 E.01895
G1 X99.056 Y128.632 E.02617
G1 X98.873 Y127.85 E.02468
G1 X98.873 Y97.15 E.94333
G1 X98.944 Y96.657 E.01531
G1 X99.198 Y96.139 E.01772
; printing object elegoo_neptune_3_pro_belt_tension_stopper_X-axis_V4.STL id:0 copy 0
;WIPE_START
G1 X99.868 Y95.556 E-2.22121
G1 X99.977 Y95.53 E-.27879
;WIPE_END
EXCLUDE_OBJECT_START NAME=elegoo_neptune_3_pro_belt_tension_stopper_X-axis_V4.STL_id_0_copy_0
G1 Z.6 F18000
G1 X123.641 Y114.151 Z.6
G1 Z.2
G1 E2.5 F1500
;TYPE:Inner wall
;WIDTH:0.532884
G1 F3000
G1 X123.629 Y116.037 E.07527
G1 X123.648 Y116.292 E.01023
;WIDTH:0.494911
G1 X123.667 Y116.548 E.00944
;WIDTH:0.456938
G1 X123.686 Y117.222 E.02275
;WIDTH:0.419999
G1 X123.686 Y127.186 E.30617
G1 X101.314 Y127.186 E.68742
G1 X101.314 Y117.222 E.30617
;WIDTH:0.457606
G1 X101.333 Y116.833 E.01316
;WIDTH:0.495213
G1 X101.352 Y116.444 E.01435
;WIDTH:0.532872
G1 X101.371 Y116.055 E.01555
G1 X101.359 Y114.143 E.07632
;WIDTH:0.509625
G1 X101.359 Y114.151 E.0003
;WIDTH:0.532872
G1 X101.482 Y114.87 E.02912
G1 X101.641 Y115.528 E.02702
G1 X101.872 Y115.955 E.01938
;WIDTH:0.542245
G1 X101.871 Y116.228 E.01111
G1 X101.921 Y116.325 E.00442
;WIDTH:0.499592
G1 X101.971 Y116.421 E.00405
;WIDTH:0.456938
G1 X102.266 Y117.085 E.02451
;WIDTH:0.419999
G1 X102.557 Y117.693 E.02071
G1 X102.721 Y117.931 E.00888
G1 X102.858 Y118.051 E.0056
G1 X102.907 Y118.254 E.0064
G1 X103.032 Y118.514 E.00888
G1 X103.443 Y119.112 E.02231
G1 X104.008 Y119.805 E.02747
G1 X104.241 Y119.939 E.00824
G1 X104.286 Y120.071 E.00429
G1 X104.489 Y120.351 E.01063
G1 X105.016 Y120.851 E.02231
G1 X105.669 Y121.386 E.02595
G1 X105.968 Y121.491 E.00973
G1 X106.038 Y121.611 E.00427
G1 X106.296 Y121.845 E.01072
G1 X106.916 Y122.225 E.02231
G1 X107.684 Y122.619 E.02655
G1 X107.965 Y122.66 E.00872
G1 X108.118 Y122.791 E.00619
G1 X108.375 Y122.931 E.00898
G1 X109.06 Y123.173 E.02231
G1 X109.909 Y123.4 E.02701
G1 X110.189 Y123.373 E.00864
G1 X110.322 Y123.462 E.00491
G1 X110.634 Y123.561 E.01006
G1 X111.354 Y123.655 E.02231
G1 X112.241 Y123.7 E.02731
G1 X112.502 Y123.616 E.0084
G1 X112.64 Y123.673 E.00458
G1 X112.974 Y123.707 E.01034
G1 X113.698 Y123.65 E.02231
G1 X114.566 Y123.511 E.02701
G1 X114.811 Y123.373 E.00864
G1 X114.968 Y123.4 E.00491
G1 X115.294 Y123.363 E.01006
G1 X115.99 Y123.157 E.02231
G1 X116.795 Y122.851 E.02646
G1 X117.011 Y122.672 E.00861
G1 X117.216 Y122.643 E.00636
G1 X117.492 Y122.545 E.00898
G1 X118.13 Y122.198 E.02231
G1 X118.841 Y121.743 E.02595
G1 X119.032 Y121.491 E.00973
G1 X119.168 Y121.461 E.00427
G1 X119.471 Y121.288 E.01072
G1 X120.023 Y120.816 E.02231
G1 X120.651 Y120.183 E.02739
G1 X120.759 Y119.936 E.00828
G1 X120.885 Y119.879 E.00424
G1 X121.146 Y119.647 E.01075
G1 X121.588 Y119.07 E.02231
G1 X121.968 Y118.514 E.02071
G1 X122.093 Y118.254 E.00888
G1 X122.128 Y118.083 E.00534
G1 X122.279 Y117.931 E.00659
G1 X122.443 Y117.693 E.00888
G1 X122.755 Y117.037 E.02231
;WIDTH:0.460747
G1 X122.88 Y116.768 E.01012
;WIDTH:0.501495
G1 X123.004 Y116.498 E.0111
;WIDTH:0.542243
G1 X123.129 Y116.228 E.01209
G1 X123.127 Y115.953 E.01119
;WIDTH:0.532884
G1 X123.36 Y115.525 E.01943
G1 X123.53 Y114.816 E.02912
G1 X123.634 Y114.191 E.02531
;WIPE_START
G1 X123.631 Y115.191 E-2.5
;WIPE_END
G1 Z.6 F18000
G1 X123.641 Y110.849 Z.6
G1 Z.2
G1 E2.5 F1500
;WIDTH:0.532338
G1 F3000
M73 P3 R19
G1 X123.518 Y110.13 E.02909
G1 X123.36 Y109.475 E.02688
G1 X123.128 Y109.048 E.01934
G1 X123.14 Y108.962 E.00349
G1 X123.098 Y108.837 E.00524
;WIDTH:0.494892
G1 X123.055 Y108.713 E.00484
;WIDTH:0.457446
G1 X123.013 Y108.588 E.00444
;WIDTH:0.419999
G1 X122.734 Y107.915 E.0224
G1 X122.443 Y107.307 E.02071
G1 X122.279 Y107.069 E.00888
G1 X122.142 Y106.949 E.0056
G1 X122.093 Y106.746 E.0064
G1 X121.968 Y106.486 E.00888
G1 X121.557 Y105.888 E.02231
G1 X120.994 Y105.197 E.02737
G1 X120.761 Y105.064 E.00824
G1 X120.716 Y104.932 E.00429
G1 X120.513 Y104.651 E.01065
G1 X119.984 Y104.149 E.0224
G1 X119.331 Y103.614 E.02595
G1 X119.032 Y103.509 E.00973
G1 X118.962 Y103.389 E.00427
G1 X118.704 Y103.155 E.01072
G1 X118.084 Y102.775 E.02231
G1 X117.319 Y102.382 E.02645
G1 X117.038 Y102.341 E.00872
G1 X116.885 Y102.21 E.00619
G1 X116.628 Y102.07 E.009
G1 X115.94 Y101.827 E.0224
G1 X115.091 Y101.6 E.02701
G1 X114.811 Y101.627 E.00864
G1 X114.679 Y101.538 E.0049
G1 X114.366 Y101.439 E.01007
G1 X113.646 Y101.345 E.02231
G1 X112.759 Y101.301 E.02731
G1 X112.498 Y101.384 E.0084
G1 X112.361 Y101.327 E.00458
G1 X112.026 Y101.293 E.01034
G1 X111.302 Y101.35 E.02231
G1 X110.434 Y101.489 E.02701
G1 X110.189 Y101.627 E.00864
G1 X110.032 Y101.6 E.0049
G1 X109.706 Y101.637 E.01007
G1 X109.01 Y101.843 E.02231
G1 X108.205 Y102.149 E.02647
G1 X107.989 Y102.328 E.00861
G1 X107.784 Y102.357 E.00636
G1 X107.508 Y102.455 E.00899
G1 X106.87 Y102.802 E.02231
G1 X106.159 Y103.257 E.02595
G1 X105.968 Y103.509 E.00973
G1 X105.832 Y103.539 E.00427
G1 X105.529 Y103.712 E.01072
G1 X104.977 Y104.184 E.02231
G1 X104.349 Y104.817 E.02739
G1 X104.241 Y105.064 E.00828
G1 X104.115 Y105.121 E.00424
G1 X103.854 Y105.353 E.01075
G1 X103.412 Y105.93 E.02231
G1 X103.032 Y106.486 E.02071
G1 X102.907 Y106.746 E.00888
G1 X102.872 Y106.917 E.00534
G1 X102.721 Y107.069 E.00659
G1 X102.557 Y107.307 E.00888
G1 X102.245 Y107.963 E.02231
;WIDTH:0.457606
G1 X102.117 Y108.29 E.01188
;WIDTH:0.495212
G1 X101.989 Y108.618 E.01296
;WIDTH:0.532884
G1 X101.86 Y108.945 E.01404
G1 X101.873 Y109.047 E.00409
G1 X101.64 Y109.475 E.01943
G1 X101.47 Y110.184 E.02912
G1 X101.359 Y110.849 E.02691
G1 X101.371 Y108.963 E.07527
G1 X101.352 Y108.793 E.00684
;WIDTH:0.495256
G1 X101.333 Y108.623 E.00632
;WIDTH:0.457628
G1 X101.314 Y108.452 E.00579
;WIDTH:0.419999
G1 X101.314 Y97.814 E.32688
G1 X123.686 Y97.819 E.68742
G1 X123.686 Y108.455 E.32682
;WIDTH:0.457426
G1 X123.667 Y108.619 E.00558
;WIDTH:0.494852
G1 X123.648 Y108.784 E.00609
;WIDTH:0.532338
G1 X123.63 Y108.948 E.00659
G1 X123.64 Y110.809 E.07422
;WIPE_START
G1 X123.518 Y110.13 E-1.7248
G1 X123.445 Y109.828 E-.7752
;WIPE_END
G1 Z.6 F18000
G1 X100.937 Y127.563 Z.6
G1 Z.2
G1 E2.5 F1500
;WIDTH:0.419999
G1 F3000
G1 X100.937 Y97.437 E.92568
G1 X124.063 Y97.442 E.71059
G1 X124.063 Y127.563 E.92553
G1 X100.977 Y127.563 E.70936
G1 X100.56 Y127.828 F18000
;TYPE:Outer wall
G1 F3000
G1 X100.56 Y97.215 E.94063
G1 X100.586 Y97.116 E.00315
M73 P4 R19
G1 X100.672 Y97.06 E.00317
G1 X124.29 Y97.065 E.72572
G1 X124.408 Y97.1 E.00378
G1 X124.44 Y97.215 E.00365
G1 X124.44 Y127.785 E.93933
G1 X124.414 Y127.884 E.00315
G1 X124.328 Y127.94 E.00317
G1 X100.715 Y127.94 E.72554
G1 X100.616 Y127.914 E.00315
G1 X100.582 Y127.861 E.00194
;WIPE_START
G1 X100.581 Y126.861 E-2.5
;WIPE_END
G1 Z.6 F18000
G1 X123.071 Y111.389 Z.6
G1 Z.2
G1 E2.5 F1500
;TYPE:Inner wall
G1 F3000
G1 X123.152 Y111.426 E.00273
G1 X123.245 Y111.547 E.00469
G1 X123.318 Y111.811 E.00841
G1 X123.337 Y112.484 E.02071
G1 X123.318 Y113.192 E.02176
G1 X123.245 Y113.455 E.00839
G1 X123.152 Y113.577 E.00469
G1 X123.073 Y113.613 E.00269
G1 X123.143 Y113.665 E.00269
G1 X123.234 Y113.973 E.00987
G1 X123.103 Y114.738 E.02385
G1 X122.938 Y115.424 E.02167
G1 X122.841 Y115.63 E.007
G1 X122.746 Y115.729 E.00423
G1 X122.58 Y115.775 E.00531
G1 X122.687 Y115.91 E.00531
G1 X122.698 Y116.152 E.00745
G1 X122.406 Y116.893 E.02446
G1 X122.103 Y117.53 E.02167
G1 X121.926 Y117.742 E.00847
G1 X121.666 Y117.792 E.00815
G1 X121.753 Y118.042 E.00815
G1 X121.657 Y118.301 E.00847
G1 X121.276 Y118.857 E.02071
G1 X120.847 Y119.416 E.02167
G1 X120.69 Y119.556 E.00645
G1 X120.572 Y119.61 E.00398
G1 X120.367 Y119.584 E.00635
G1 X120.415 Y119.785 E.00635
G1 X120.335 Y119.977 E.0064
G1 X119.763 Y120.543 E.02472
G1 X119.227 Y121.001 E.02167
G1 X119.045 Y121.105 E.00643
G1 X118.919 Y121.133 E.00397
G1 X118.722 Y121.065 E.00638
G1 X118.727 Y121.272 E.00638
G1 X118.559 Y121.487 E.00837
G1 X117.932 Y121.877 E.0227
G1 X117.312 Y122.214 E.02167
G1 X117.042 Y122.282 E.00857
G1 X116.805 Y122.17 E.00804
G1 X116.73 Y122.42 E.00804
G1 X116.499 Y122.576 E.00857
G1 X115.864 Y122.802 E.02071
G1 X115.187 Y123.002 E.02167
G1 X114.992 Y123.024 E.00604
G1 X114.871 Y123.003 E.00377
G1 X114.699 Y122.847 E.00712
G1 X114.606 Y123.059 E.00712
G1 X114.339 Y123.183 E.00903
G1 X113.648 Y123.276 E.02142
G1 X112.945 Y123.331 E.02167
G1 X112.744 Y123.31 E.0062
G1 X112.632 Y123.264 E.00372
G1 X112.502 Y123.094 E.0066
G1 X112.371 Y123.264 E.0066
G1 X112.101 Y123.333 E.00855
G1 X111.383 Y123.279 E.02213
G1 X110.684 Y123.187 E.02167
G1 X110.496 Y123.128 E.00604
G1 X110.394 Y123.059 E.00377
G1 X110.301 Y122.847 E.00712
G1 X110.129 Y123.003 E.00712
G1 X109.934 Y123.024 E.00601
G1 X109.166 Y122.811 E.02449
G1 X108.501 Y122.576 E.02167
G1 X108.269 Y122.419 E.00862
G1 X108.198 Y122.166 E.00806
G1 X107.963 Y122.283 E.00806
G1 X107.69 Y122.215 E.00863
G1 X107.095 Y121.893 E.02079
G1 X106.494 Y121.524 E.02167
G1 X106.339 Y121.383 E.00643
G1 X106.273 Y121.272 E.00397
G1 X106.278 Y121.065 E.00638
G1 X106.081 Y121.133 E.00638
G1 X105.857 Y121.06 E.00724
G1 X105.26 Y120.564 E.02385
G1 X104.749 Y120.078 E.02167
G1 X104.627 Y119.91 E.00638
G1 X104.587 Y119.793 E.0038
G1 X104.626 Y119.592 E.00629
G1 X104.422 Y119.61 E.00629
G1 X104.246 Y119.513 E.00617
G1 X103.742 Y118.882 E.0248
G1 X103.343 Y118.301 E.02167
G1 X103.246 Y118.038 E.00862
G1 X103.351 Y117.782 E.00848
G1 X103.078 Y117.745 E.00848
G1 X102.897 Y117.53 E.00862
G1 X102.606 Y116.922 E.02071
G1 X102.337 Y116.27 E.02167
G1 X102.294 Y116.047 E.00698
G1 X102.311 Y115.917 E.00405
G1 X102.412 Y115.779 E.00524
G1 X102.25 Y115.728 E.00524
G1 X102.159 Y115.632 E.00405
G1 X102.062 Y115.426 E.00699
G1 X101.903 Y114.768 E.02079
G1 X101.775 Y114.075 E.02167
G1 X101.792 Y113.802 E.00841
G1 X101.857 Y113.664 E.00469
G1 X101.929 Y113.611 E.00273
G1 X101.848 Y113.574 E.00273
G1 X101.755 Y113.453 E.00469
G1 X101.682 Y113.189 E.00841
G1 X101.663 Y112.516 E.02071
G1 X101.682 Y111.808 E.02176
G1 X101.755 Y111.545 E.00839
G1 X101.848 Y111.423 E.00469
G1 X101.927 Y111.387 E.00269
G1 X101.857 Y111.335 E.00269
G1 X101.774 Y111.125 E.00694
G1 X101.775 Y110.925 E.00614
G1 X101.897 Y110.262 E.02071
G1 X102.062 Y109.576 E.02167
G1 X102.159 Y109.37 E.007
G1 X102.254 Y109.271 E.00423
G1 X102.42 Y109.225 E.00531
G1 X102.313 Y109.09 E.00531
G1 X102.294 Y108.945 E.00448
G1 X102.337 Y108.73 E.00675
G1 X102.594 Y108.107 E.02071
G1 X102.897 Y107.47 E.02167
G1 X103.074 Y107.258 E.00847
G1 X103.334 Y107.208 E.00815
G1 X103.247 Y106.958 E.00815
G1 X103.343 Y106.699 E.00847
G1 X103.724 Y106.143 E.02071
G1 X104.153 Y105.584 E.02167
G1 X104.31 Y105.444 E.00645
G1 X104.428 Y105.39 E.00398
G1 X104.633 Y105.416 E.00635
G1 X104.585 Y105.215 E.00635
G1 X104.665 Y105.023 E.0064
G1 X105.237 Y104.457 E.02472
G1 X105.773 Y103.999 E.02167
G1 X105.955 Y103.895 E.00643
G1 X106.081 Y103.867 E.00397
G1 X106.278 Y103.935 E.00638
G1 X106.273 Y103.728 E.00638
G1 X106.441 Y103.513 E.00837
G1 X107.068 Y103.123 E.0227
G1 X107.688 Y102.786 E.02167
G1 X107.958 Y102.718 E.00857
G1 X108.195 Y102.83 E.00803
G1 X108.27 Y102.58 E.00803
G1 X108.399 Y102.473 E.00517
G1 X109.136 Y102.198 E.02416
G1 X109.813 Y101.998 E.02167
G1 X110.008 Y101.976 E.00604
G1 X110.129 Y101.997 E.00377
G1 X110.301 Y102.153 E.00712
G1 X110.394 Y101.941 E.00712
G1 X110.661 Y101.817 E.00903
G1 X111.352 Y101.724 E.02142
G1 X112.055 Y101.669 E.02167
G1 X112.256 Y101.69 E.00621
G1 X112.368 Y101.736 E.00372
G1 X112.498 Y101.906 E.00659
G1 X112.629 Y101.736 E.00659
G1 X112.899 Y101.667 E.00855
G1 X113.617 Y101.721 E.02213
G1 X114.316 Y101.813 E.02167
G1 X114.504 Y101.873 E.00604
G1 X114.606 Y101.941 E.00377
G1 X114.699 Y102.153 E.00712
G1 X114.871 Y101.997 E.00712
G1 X115.066 Y101.976 E.00601
G1 X115.834 Y102.189 E.02449
G1 X116.501 Y102.425 E.02176
G1 X116.734 Y102.582 E.00863
G1 X116.805 Y102.835 E.00806
G1 X117.04 Y102.718 E.00806
G1 X117.312 Y102.786 E.00863
G1 X117.905 Y103.107 E.02071
G1 X118.506 Y103.476 E.02167
G1 X118.661 Y103.617 E.00643
G1 X118.727 Y103.728 E.00397
G1 X118.722 Y103.935 E.00638
G1 X118.919 Y103.867 E.00638
G1 X119.143 Y103.94 E.00724
G1 X119.74 Y104.436 E.02385
G1 X120.253 Y104.924 E.02176
G1 X120.375 Y105.092 E.00639
G1 X120.415 Y105.209 E.0038
G1 X120.376 Y105.41 E.00628
G1 X120.58 Y105.393 E.00628
G1 X120.756 Y105.49 E.00617
G1 X121.258 Y106.118 E.0247
G1 X121.657 Y106.699 E.02167
G1 X121.754 Y106.962 E.00862
G1 X121.649 Y107.218 E.00848
G1 X121.922 Y107.255 E.00848
G1 X122.103 Y107.47 E.00862
G1 X122.394 Y108.078 E.02071
G1 X122.664 Y108.732 E.02176
G1 X122.707 Y108.956 E.00699
G1 X122.689 Y109.092 E.00422
G1 X122.582 Y109.226 E.00526
G1 X122.747 Y109.272 E.00526
G1 X122.842 Y109.371 E.00422
G1 X122.938 Y109.576 E.00698
G1 X123.097 Y110.232 E.02071
G1 X123.225 Y110.925 E.02167
G1 X123.208 Y111.198 E.00841
G1 X123.143 Y111.336 E.00469
G1 X123.103 Y111.365 E.00151
G1 X122.411 Y111.458 F18000
;TYPE:Outer wall
G1 F3000
G1 X122.495 Y111.587 E.00473
G1 X122.886 Y111.693 E.01245
G1 X122.941 Y111.821 E.0043
G1 X122.96 Y112.495 E.02071
G1 X122.941 Y113.182 E.02112
G1 X122.886 Y113.31 E.00429
G1 X122.647 Y113.369 E.00757
G1 X122.462 Y113.438 E.00606
G1 X122.412 Y113.582 E.00468
G1 X122.514 Y113.724 E.00534
G1 X122.827 Y113.87 E.01063
G1 X122.854 Y114.007 E.00429
G1 X122.732 Y114.67 E.02071
G1 X122.572 Y115.335 E.02103
G1 X122.508 Y115.437 E.0037
G1 X122.362 Y115.477 E.00466
G1 X122.087 Y115.471 E.00845
G1 X121.978 Y115.579 E.00473
G1 X122.002 Y115.731 E.00473
G1 X122.323 Y116.007 E.01299
G1 X122.315 Y116.127 E.0037
G1 X122.058 Y116.75 E.02071
