; HEADER_BLOCK_START
; generated by OrcaSlicer 1.8.0-beta1 on 2024-10-23 at 09:17:22
; total layer number: 90
; HEADER_BLOCK_END


;
;
; external perimeters extrusion width = 0.40mm
; perimeters extrusion width = 0.45mm
; infill extrusion width = 0.45mm
; solid infill extrusion width = 0.45mm
; top infill extrusion width = 0.38mm
; first layer extrusion width = 0.42mm

; EXECUTABLE_BLOCK_START
EXCLUDE_OBJECT_DEFINE NAME=elegoo_neptune_3_pro_belt_tension_stopper_Y-axis_V3.STL_id_0_copy_0 CENTER=112.5,112.5 POLYGON=[[100.25,98.65],[100.256,98.5805],[100.274,98.5132],[100.304,98.45],[100.344,98.3929],[100.393,98.3436],[100.45,98.3036],[100.513,98.2741],[100.581,98.2561],[100.65,98.25],[124.35,98.25],[124.419,98.2561],[124.487,98.2741],[124.55,98.3036],[124.607,98.3436],[124.656,98.3929],[124.696,98.45],[124.726,98.5132],[124.744,98.5805],[124.75,98.65],[124.75,126.35],[124.744,126.419],[124.726,126.487],[124.696,126.55],[124.656,126.607],[124.607,126.656],[124.55,126.696],[124.487,126.726],[124.419,126.744],[124.35,126.75],[100.65,126.75],[100.581,126.744],[100.513,126.726],[100.45,126.696],[100.393,126.656],[100.344,126.607],[100.304,126.55],[100.274,126.487],[100.256,126.419],[100.25,126.35],[100.25,98.65]]
M73 P0 R20
;TYPE:Custom
M413 S0 ; disable Power Loss Recovery
G90 ; use absolute coordinates
M83 ; extruder relative mode
M104 S120 ; set temporary nozzle temp to prevent oozing during homing and auto bed leveling
M140 S60 ; set final bed temp
G4 S10 ; allow partial nozzle warmup
G28 ; home all axis
;G29 ; run abl mesh
M420 S1 ; load mesh
G1 Z50 F240
G1 X2 Y10 F3000
M104 S210 ; set final nozzle temp
M190 S60 ; wait for bed temp to stabilize
M109 S210 ; wait for nozzle temp to stabilize
M73 P1 R19
G1 Z0.28 F240
G92 E0
G1 Y140 E10 F1500 ; prime the nozzle
M73 P2 R19
G1 X2.3 F5000
G92 E0
G1 Y10 E10 F1200 ; prime the nozzle
G92 E0
G90
G21
M83 ; use relative distances for extrusion
; filament start gcode
M106 S0
;LAYER_CHANGE
;Z:0.2
;HEIGHT:0.2
;BEFORE_LAYER_CHANGE
G92 E0
;0.2


G1 E-2.5 F1500
;AFTER_LAYER_CHANGE
;0.2
;_SET_FAN_SPEED_CHANGING_LAYER
SET_VELOCITY_LIMIT ACCEL=700 ACCEL_TO_DECEL=350
M73 P3 R19
G1 Z.4 F18000
G1 X99.216 Y97.603
G1 Z.4
G1 Z.2
G1 E2.5 F1500
;TYPE:Skirt
;WIDTH:0.42
G1 F3000
G1 X99.868 Y97.056 E.02617
G1 X100.65 Y96.873 E.02467
G1 X124.47 Y96.878 E.73192
G1 X125.069 Y97.026 E.01895
G1 X125.63 Y97.419 E.02106
G1 X125.974 Y97.931 E.01895
G1 X126.127 Y98.65 E.02258
G1 X126.127 Y126.35 E.85114
G1 X126.056 Y126.843 E.01531
G1 X125.784 Y127.397 E.01895
G1 X125.132 Y127.944 E.02617
G1 X124.35 Y128.127 E.02467
G1 X100.65 Y128.127 E.72823
G1 X100.157 Y128.056 E.01531
G1 X99.603 Y127.784 E.01895
G1 X99.056 Y127.132 E.02617
G1 X98.873 Y126.35 E.02468
G1 X98.873 Y98.65 E.85114
G1 X98.944 Y98.157 E.01531
G1 X99.198 Y97.639 E.01772
; printing object elegoo_neptune_3_pro_belt_tension_stopper_Y-axis_V3.STL id:0 copy 0
;WIPE_START
G1 X99.868 Y97.056 E-2.22123
G1 X99.977 Y97.03 E-.27877
;WIPE_END
EXCLUDE_OBJECT_START NAME=elegoo_neptune_3_pro_belt_tension_stopper_Y-axis_V3.STL_id_0_copy_0
G1 Z.6 F18000
G1 X110.199 Y123.325 Z.6
G1 Z.2
G1 E2.5 F1500
;TYPE:Inner wall
;WIDTH:0.419999
G1 F3000
G1 X110.248 Y123.419 E.00323
G1 X110.634 Y123.561 E.01265
G1 X111.354 Y123.655 E.02231
G1 X112.101 Y123.71 E.02302
G1 X112.451 Y123.643 E.01094
G1 X112.502 Y123.584 E.00239
G1 X112.553 Y123.643 E.00239
G1 X112.709 Y123.69 E.00501
G1 X112.974 Y123.707 E.00818
G1 X113.698 Y123.65 E.02231
G1 X114.366 Y123.561 E.02071
G1 X114.752 Y123.419 E.01265
G1 X114.801 Y123.325 E.00323
G1 X114.883 Y123.391 E.00323
G1 X115.042 Y123.402 E.0049
G1 X115.294 Y123.363 E.00782
G1 X115.99 Y123.157 E.02231
G1 X116.826 Y122.831 E.02756
G1 X117.021 Y122.653 E.0081
G1 X117.153 Y122.652 E.00406
G1 X117.492 Y122.545 E.01092
G1 X118.13 Y122.198 E.02231
G1 X118.854 Y121.73 E.02652
G1 X119.036 Y121.496 E.0091
G1 X119.216 Y121.443 E.00577
G1 X119.526 Y121.241 E.01137
G1 X120.023 Y120.816 E.02008
G1 X120.651 Y120.183 E.02739
G1 X120.759 Y119.936 E.00828
G1 X120.885 Y119.879 E.00424
G1 X121.146 Y119.647 E.01075
G1 X121.588 Y119.07 E.02231
G1 X121.968 Y118.514 E.02071
G1 X122.093 Y118.254 E.00888
G1 X122.128 Y118.083 E.00534
G1 X122.279 Y117.931 E.00659
G1 X122.443 Y117.693 E.00888
G1 X122.755 Y117.037 E.02231
;WIDTH:0.460747
G1 X122.88 Y116.768 E.01012
;WIDTH:0.501495
G1 X123.004 Y116.498 E.0111
;WIDTH:0.542243
G1 X123.129 Y116.228 E.01209
G1 X123.127 Y115.953 E.01119
;WIDTH:0.532884
G1 X123.36 Y115.525 E.01943
G1 X123.53 Y114.816 E.02912
G1 X123.641 Y114.151 E.02691
G1 X123.629 Y116.037 E.07527
G1 X123.648 Y116.292 E.01023
;WIDTH:0.494911
G1 X123.667 Y116.548 E.00944
;WIDTH:0.456938
G1 X123.686 Y117.222 E.02275
;WIDTH:0.419999
G1 X123.686 Y125.686 E.26008
G1 X101.314 Y125.686 E.68742
G1 X101.314 Y117.222 E.26008
;WIDTH:0.457606
G1 X101.333 Y116.833 E.01316
;WIDTH:0.495213
G1 X101.352 Y116.444 E.01435
;WIDTH:0.532872
G1 X101.371 Y116.055 E.01555
G1 X101.359 Y114.143 E.07632
;WIDTH:0.509625
G1 X101.359 Y114.151 E.0003
;WIDTH:0.532872
G1 X101.482 Y114.87 E.02912
G1 X101.641 Y115.528 E.02702
G1 X101.872 Y115.955 E.01938
;WIDTH:0.542245
G1 X101.871 Y116.228 E.01111
G1 X101.921 Y116.325 E.00442
;WIDTH:0.499592
G1 X101.971 Y116.421 E.00405
;WIDTH:0.456938
G1 X102.266 Y117.085 E.02451
;WIDTH:0.419999
G1 X102.557 Y117.693 E.02071
G1 X102.721 Y117.931 E.00888
G1 X102.858 Y118.051 E.0056
G1 X102.907 Y118.254 E.0064
G1 X103.032 Y118.514 E.00888
G1 X103.443 Y119.112 E.02231
G1 X104.008 Y119.805 E.02747
G1 X104.241 Y119.939 E.00824
G1 X104.286 Y120.071 E.00429
G1 X104.489 Y120.351 E.01063
G1 X105.016 Y120.851 E.02231
G1 X105.685 Y121.396 E.02652
G1 X105.964 Y121.496 E.0091
G1 X106.07 Y121.651 E.00577
G1 X106.296 Y121.845 E.00916
G1 X106.916 Y122.225 E.02231
G1 X107.719 Y122.629 E.02764
G1 X107.981 Y122.654 E.00807
G1 X108.068 Y122.751 E.004
G1 X108.375 Y122.931 E.01093
G1 X109.06 Y123.173 E.02231
G1 X109.706 Y123.363 E.02071
G1 X110.117 Y123.391 E.01265
G1 X110.168 Y123.35 E.00201
;WIPE_START
G1 X110.248 Y123.419 E-.26292
G1 X110.634 Y123.561 E-1.0289
G1 X111.113 Y123.624 E-1.20818
;WIPE_END
G1 Z.6 F18000
G1 X117.022 Y102.347 Z.6
G1 Z.2
G1 E2.5 F1500
G1 F3000
G1 X116.935 Y102.251 E.00399
G1 X116.628 Y102.07 E.01095
G1 X115.94 Y101.827 E.0224
G1 X115.294 Y101.637 E.02071
G1 X114.883 Y101.609 E.01265
G1 X114.801 Y101.675 E.00322
G1 X114.753 Y101.582 E.00322
G1 X114.366 Y101.439 E.01265
G1 X113.646 Y101.345 E.02231
G1 X112.899 Y101.29 E.02302
G1 X112.549 Y101.357 E.01095
G1 X112.498 Y101.416 E.00238
G1 X112.448 Y101.357 E.00238
G1 X112.292 Y101.31 E.00501
G1 X112.026 Y101.293 E.00818
G1 X111.302 Y101.35 E.02231
G1 X110.634 Y101.439 E.02071
G1 X110.247 Y101.581 E.01265
G1 X110.199 Y101.675 E.00323
G1 X110.117 Y101.609 E.00323
G1 X109.958 Y101.598 E.0049
G1 X109.706 Y101.637 E.00783
G1 X109.01 Y101.843 E.02231
G1 X108.174 Y102.169 E.02757
G1 X107.979 Y102.347 E.0081
G1 X107.847 Y102.348 E.00406
G1 X107.508 Y102.455 E.01092
G1 X106.87 Y102.802 E.02231
G1 X106.145 Y103.27 E.02652
G1 X105.964 Y103.504 E.0091
G1 X105.784 Y103.557 E.00577
G1 X105.473 Y103.76 E.01139
G1 X104.977 Y104.184 E.02007
G1 X104.349 Y104.817 E.02739
G1 X104.241 Y105.064 E.00828
G1 X104.115 Y105.121 E.00424
G1 X103.854 Y105.353 E.01075
G1 X103.412 Y105.93 E.02231
G1 X103.032 Y106.486 E.02071
G1 X102.907 Y106.746 E.00888
G1 X102.872 Y106.917 E.00534
G1 X102.721 Y107.069 E.00659
G1 X102.557 Y107.307 E.00888
G1 X102.245 Y107.963 E.02231
;WIDTH:0.457606
G1 X102.117 Y108.29 E.01188
;WIDTH:0.495212
G1 X101.989 Y108.618 E.01296
;WIDTH:0.532884
G1 X101.86 Y108.945 E.01404
G1 X101.873 Y109.047 E.00409
G1 X101.64 Y109.475 E.01943
G1 X101.47 Y110.184 E.02912
G1 X101.359 Y110.849 E.02691
G1 X101.371 Y108.963 E.07527
G1 X101.352 Y108.793 E.00684
;WIDTH:0.495256
G1 X101.333 Y108.623 E.00632
;WIDTH:0.457628
G1 X101.314 Y108.452 E.00579
;WIDTH:0.419999
G1 X101.314 Y99.314 E.28079
G1 X123.686 Y99.319 E.68742
G1 X123.686 Y108.455 E.28073
;WIDTH:0.457426
G1 X123.667 Y108.619 E.00558
;WIDTH:0.494852
G1 X123.648 Y108.784 E.00609
;WIDTH:0.532338
G1 X123.63 Y108.948 E.00659
G1 X123.641 Y110.849 E.07581
G1 X123.518 Y110.13 E.02909
G1 X123.36 Y109.475 E.02688
G1 X123.128 Y109.048 E.01934
G1 X123.14 Y108.962 E.00349
G1 X123.098 Y108.837 E.00524
;WIDTH:0.494892
G1 X123.055 Y108.713 E.00484
;WIDTH:0.457446
G1 X123.013 Y108.588 E.00444
;WIDTH:0.419999
G1 X122.734 Y107.915 E.0224
G1 X122.443 Y107.307 E.02071
G1 X122.279 Y107.069 E.00888
G1 X122.142 Y106.949 E.0056
G1 X122.093 Y106.746 E.0064
G1 X121.968 Y106.486 E.00888
G1 X121.557 Y105.888 E.02231
G1 X120.994 Y105.197 E.02737
G1 X120.761 Y105.064 E.00824
G1 X120.716 Y104.932 E.00429
G1 X120.513 Y104.651 E.01065
G1 X119.984 Y104.149 E.0224
G1 X119.315 Y103.604 E.02652
G1 X119.036 Y103.504 E.0091
G1 X118.93 Y103.349 E.00577
G1 X118.704 Y103.155 E.00917
G1 X118.084 Y102.775 E.02231
G1 X117.284 Y102.372 E.02754
G1 X117.062 Y102.351 E.00684
;WIPE_START
G1 X116.935 Y102.251 E-.40446
G1 X116.628 Y102.07 E-.89116
G1 X116.174 Y101.909 E-1.20438
;WIPE_END
G1 Z.6 F18000
G1 X124.063 Y126.063 Z.6
G1 Z.2
G1 E2.5 F1500
G1 F3000
G1 X100.937 Y126.063 E.71059
G1 X100.937 Y98.937 E.8335
G1 X124.063 Y98.942 E.71059
G1 X124.063 Y126.023 E.83212
M73 P4 R19
G1 X124.44 Y126.285 F18000
;TYPE:Outer wall
G1 F3000
G1 X124.414 Y126.384 E.00315
G1 X124.328 Y126.44 E.00317
G1 X100.715 Y126.44 E.72554
G1 X100.616 Y126.414 E.00315
G1 X100.56 Y126.328 E.00317
G1 X100.56 Y98.715 E.84845
G1 X100.586 Y98.616 E.00315
G1 X100.672 Y98.56 E.00317
G1 X124.29 Y98.565 E.72572
G1 X124.408 Y98.6 E.00378
G1 X124.44 Y98.715 E.00365
G1 X124.44 Y126.245 E.84592
;WIPE_START
G1 X124.414 Y126.384 E-.35431
G1 X124.328 Y126.44 E-.25787
G1 X123.573 Y126.44 E-1.88781
;WIPE_END
G1 Z.6 F18000
G1 X116.813 Y102.817 Z.6
G1 Z.2
G1 E2.5 F1500
;TYPE:Inner wall
G1 F3000
G1 X116.982 Y102.722 E.00596
G1 X117.187 Y102.737 E.00632
G1 X117.905 Y103.107 E.02481
G1 X118.506 Y103.476 E.02167
G1 X118.706 Y103.685 E.00889
G1 X118.711 Y103.951 E.00815
G1 X118.965 Y103.874 E.00815
G1 X119.227 Y103.999 E.00889
G1 X119.74 Y104.436 E.02071
G1 X120.253 Y104.924 E.02176
G1 X120.375 Y105.092 E.00639
G1 X120.415 Y105.209 E.0038
G1 X120.376 Y105.41 E.00628
G1 X120.58 Y105.393 E.00628
G1 X120.756 Y105.49 E.00617
G1 X121.258 Y106.118 E.0247
G1 X121.657 Y106.699 E.02167
G1 X121.754 Y106.962 E.00862
G1 X121.649 Y107.218 E.00848
G1 X121.922 Y107.255 E.00848
G1 X122.103 Y107.47 E.00862
G1 X122.394 Y108.078 E.02071
G1 X122.664 Y108.732 E.02176
G1 X122.707 Y108.956 E.00699
G1 X122.689 Y109.092 E.00422
G1 X122.582 Y109.226 E.00526
G1 X122.747 Y109.272 E.00526
G1 X122.842 Y109.371 E.00422
G1 X122.938 Y109.576 E.00698
G1 X123.097 Y110.232 E.02071
G1 X123.225 Y110.925 E.02167
G1 X123.208 Y111.198 E.00841
G1 X123.143 Y111.336 E.00469
G1 X123.071 Y111.389 E.00273
G1 X123.152 Y111.426 E.00273
G1 X123.245 Y111.547 E.00469
G1 X123.318 Y111.811 E.00841
G1 X123.337 Y112.484 E.02071
G1 X123.318 Y113.192 E.02176
G1 X123.245 Y113.455 E.00839
G1 X123.152 Y113.577 E.00469
G1 X123.073 Y113.613 E.00269
G1 X123.143 Y113.665 E.00269
G1 X123.234 Y113.973 E.00987
G1 X123.103 Y114.738 E.02385
G1 X122.938 Y115.424 E.02167
G1 X122.841 Y115.63 E.007
G1 X122.746 Y115.729 E.00423
G1 X122.58 Y115.775 E.00531
G1 X122.687 Y115.91 E.00531
G1 X122.698 Y116.152 E.00745
G1 X122.406 Y116.893 E.02446
G1 X122.103 Y117.53 E.02167
G1 X121.926 Y117.742 E.00847
G1 X121.666 Y117.792 E.00815
G1 X121.753 Y118.042 E.00815
G1 X121.657 Y118.301 E.00847
G1 X121.276 Y118.857 E.02071
G1 X120.847 Y119.416 E.02167
G1 X120.69 Y119.556 E.00645
G1 X120.572 Y119.61 E.00398
G1 X120.367 Y119.584 E.00635
G1 X120.415 Y119.785 E.00635
G1 X120.335 Y119.977 E.0064
G1 X119.763 Y120.543 E.02472
G1 X119.282 Y120.954 E.01944
G1 X119.074 Y121.094 E.00771
G1 X118.966 Y121.126 E.00346
G1 X118.711 Y121.049 E.00816
G1 X118.706 Y121.315 E.00816
G1 X118.506 Y121.524 E.00889
G1 X117.932 Y121.877 E.02071
G1 X117.312 Y122.214 E.02167
G1 X117.109 Y122.278 E.00655
G1 X116.985 Y122.279 E.0038
G1 X116.813 Y122.186 E.00602
G1 X116.766 Y122.376 E.00602
G1 X116.619 Y122.516 E.00621
G1 X115.864 Y122.802 E.02482
G1 X115.187 Y123.002 E.02167
G1 X114.941 Y123.018 E.00759
G1 X114.694 Y122.821 E.00971
G1 X114.548 Y123.102 E.00971
G1 X114.316 Y123.187 E.00759
G1 X113.648 Y123.276 E.02071
G1 X112.945 Y123.331 E.02167
G1 X112.692 Y123.292 E.00786
G1 X112.501 Y123.072 E.00895
G1 X112.311 Y123.293 E.00895
G1 X112.058 Y123.331 E.00787
G1 X111.383 Y123.279 E.0208
G1 X110.684 Y123.187 E.02167
G1 X110.452 Y123.102 E.00759
G1 X110.306 Y122.821 E.00971
G1 X110.059 Y123.018 E.00971
G1 X109.813 Y123.002 E.00759
G1 X109.166 Y122.811 E.02071
G1 X108.501 Y122.576 E.02167
G1 X108.317 Y122.467 E.00656
G1 X108.232 Y122.374 E.00388
G1 X108.19 Y122.185 E.00597
G1 X108.021 Y122.28 E.00597
G1 X107.815 Y122.264 E.00632
G1 X107.095 Y121.893 E.0249
G1 X106.494 Y121.524 E.02167
G1 X106.294 Y121.315 E.00889
G1 X106.289 Y121.049 E.00816
G1 X106.034 Y121.126 E.00816
G1 X105.773 Y121.001 E.00889
G1 X105.26 Y120.564 E.02071
G1 X104.749 Y120.078 E.02167
G1 X104.627 Y119.91 E.00638
G1 X104.587 Y119.793 E.0038
G1 X104.626 Y119.592 E.00629
G1 X104.422 Y119.61 E.00629
G1 X104.246 Y119.513 E.00617
G1 X103.742 Y118.882 E.0248
G1 X103.343 Y118.301 E.02167
G1 X103.246 Y118.038 E.00862
G1 X103.351 Y117.782 E.00848
G1 X103.078 Y117.745 E.00848
G1 X102.897 Y117.53 E.00862
G1 X102.606 Y116.922 E.02071
G1 X102.337 Y116.27 E.02167
G1 X102.294 Y116.047 E.00698
G1 X102.311 Y115.917 E.00405
G1 X102.412 Y115.779 E.00524
G1 X102.25 Y115.728 E.00524
G1 X102.159 Y115.632 E.00405
G1 X102.062 Y115.426 E.00699
G1 X101.903 Y114.768 E.02079
G1 X101.775 Y114.075 E.02167
G1 X101.792 Y113.802 E.00841
G1 X101.857 Y113.664 E.00469
G1 X101.929 Y113.611 E.00273
G1 X101.848 Y113.574 E.00273
G1 X101.755 Y113.453 E.00469
G1 X101.682 Y113.189 E.00841
G1 X101.663 Y112.516 E.02071
G1 X101.682 Y111.808 E.02176
G1 X101.755 Y111.545 E.00839
G1 X101.848 Y111.423 E.00469
G1 X101.927 Y111.387 E.00269
G1 X101.857 Y111.335 E.00269
G1 X101.774 Y111.125 E.00694
G1 X101.775 Y110.925 E.00614
G1 X101.897 Y110.262 E.02071
G1 X102.062 Y109.576 E.02167
G1 X102.159 Y109.37 E.007
G1 X102.254 Y109.271 E.00423
G1 X102.42 Y109.225 E.00531
G1 X102.313 Y109.09 E.00531
G1 X102.294 Y108.945 E.00448
G1 X102.337 Y108.73 E.00675
G1 X102.594 Y108.107 E.02071
G1 X102.897 Y107.47 E.02167
G1 X103.074 Y107.258 E.00847
G1 X103.334 Y107.208 E.00815
G1 X103.247 Y106.958 E.00815
G1 X103.343 Y106.699 E.00847
G1 X103.724 Y106.143 E.02071
G1 X104.153 Y105.584 E.02167
G1 X104.31 Y105.444 E.00645
G1 X104.428 Y105.39 E.00398
G1 X104.633 Y105.416 E.00635
G1 X104.585 Y105.215 E.00635
G1 X104.665 Y105.023 E.0064
G1 X105.237 Y104.457 E.02472
G1 X105.718 Y104.047 E.01942
G1 X105.926 Y103.906 E.00773
G1 X106.034 Y103.874 E.00346
G1 X106.289 Y103.951 E.00816
G1 X106.294 Y103.685 E.00816
G1 X106.494 Y103.476 E.00889
G1 X107.068 Y103.123 E.02071
G1 X107.688 Y102.786 E.02167
G1 X107.891 Y102.722 E.00655
G1 X108.015 Y102.721 E.0038
G1 X108.187 Y102.814 E.00602
G1 X108.234 Y102.624 E.00602
G1 X108.381 Y102.484 E.00622
G1 X109.136 Y102.198 E.02482
G1 X109.813 Y101.998 E.02167
G1 X110.059 Y101.982 E.00759
G1 X110.306 Y102.179 E.00971
G1 X110.452 Y101.898 E.00971
G1 X110.684 Y101.813 E.00759
G1 X111.352 Y101.724 E.02071
G1 X112.055 Y101.669 E.02167
G1 X112.308 Y101.708 E.00787
G1 X112.499 Y101.928 E.00895
G1 X112.689 Y101.707 E.00895
G1 X112.942 Y101.669 E.00788
G1 X113.617 Y101.721 E.0208
G1 X114.316 Y101.813 E.02167
G1 X114.548 Y101.898 E.00759
G1 X114.694 Y102.179 E.00971
G1 X114.941 Y101.982 E.00971
G1 X115.187 Y101.998 E.00759
G1 X115.834 Y102.189 E.02071
G1 X116.501 Y102.425 E.02176
G1 X116.686 Y102.534 E.00657
G1 X116.77 Y102.627 E.00388
G1 X116.804 Y102.778 E.00473
G1 X116.555 Y103.393 F18000
;TYPE:Outer wall
G1 F3000
G1 X116.714 Y103.389 E.00487
G1 X117.023 Y103.097 E.01308
G1 X117.133 Y103.118 E.00344
G1 X117.725 Y103.439 E.02071
G1 X118.309 Y103.797 E.02103
G1 X118.375 Y103.867 E.00296
G1 X118.379 Y104.041 E.00535
G1 X118.288 Y104.301 E.00845
G1 X118.358 Y104.438 E.00473
G1 X118.509 Y104.462 E.00473
G1 X118.895 Y104.245 E.0136
G1 X119.495 Y104.723 E.02359
