;FLAVOR:Marlin
;TIME:1512
;Filament used: 6.25866m
;Layer height: 0.4
;MINX:92.316
;MINY:115.949
;MINZ:0.4
;MAXX:207.685
;MAXY:184.059
;MAXZ:10
;Generated with Cura_SteamEngine 5.4.0
M140 S40
M105
M190 S40
M104 S210
M105
M109 S210
M82 ;absolute extrusion mode
G28 ; home all axes
 M117 Purge extruder
 G92 E0 ; reset extruder
 G1 Z1.0 F3000 ; move z up little to prevent scratching of surface
 G1 X2 Y20 Z0.3 F5000.0 ; move to start-line position
 G1 X2 Y200.0 Z0.3 F1500.0 E15 ; draw 1st line
 G1 X2 Y200.0 Z0.4 F5000.0 ; move to side a little
 G1 X2 Y20 Z0.4 F1500.0 E30 ; draw 2nd line
 G92 E0 ; reset extruder
 G1 Z1.0 F3000 ; move z up little to prevent scratching of surface
G92 E0
G92 E0
G1 F1500 E-2
;LAYER_COUNT:25
;LAYER:0
M107
G0 F6000 X96.139 Y118.462 Z0.4
;TYPE:SKIRT
G1 F1500 E0
G1 F1200 X96.858 Y117.901 E0.12739
G1 X97.624 Y117.405 E0.25487
G1 X98.429 Y116.978 E0.38217
G1 X99.269 Y116.623 E0.50956
G1 X100.137 Y116.343 E0.63696
G1 X101.026 Y116.141 E0.76431
G1 X101.93 Y116.017 E0.89178
G1 X102.677 Y115.974 E0.9963
G1 X103.837 Y115.95 E1.15838
G1 X179.054 Y115.949 E11.66564
G1 X180.462 Y115.972 E11.86235
G1 X181.117 Y115.998 E11.95392
G1 X182.233 Y116.08 E12.11024
G1 X182.839 Y116.141 E12.19532
G1 X184.032 Y116.305 E12.36354
G1 X184.953 Y116.465 E12.49412
G1 X185.719 Y116.623 E12.60338
G1 X186.649 Y116.845 E12.73694
G1 X187.408 Y117.052 E12.84684
G1 X188.006 Y117.23 E12.934
G1 X189.133 Y117.61 E13.10014
G1 X189.768 Y117.845 E13.19473
G1 X190.754 Y118.248 E13.34353
G1 X191.272 Y118.479 E13.42276
G1 X192.282 Y118.963 E13.57921
G1 X192.652 Y119.15 E13.63712
G1 X193.174 Y119.431 E13.71993
G1 X193.88 Y119.833 E13.83343
G1 X194.398 Y120.144 E13.91783
G1 X195.674 Y120.981 E14.131
G1 X196.174 Y121.339 E14.2169
G1 X196.766 Y121.782 E14.32019
G1 X197.267 Y122.175 E14.40914
G1 X198.169 Y122.936 E14.574
G1 X198.592 Y123.317 E14.65352
G1 X199.657 Y124.341 E14.85991
G1 X200.089 Y124.793 E14.94725
G1 X200.661 Y125.42 E15.06581
G1 X201.027 Y125.843 E15.14395
G1 X201.711 Y126.679 E15.29484
G1 X202.123 Y127.218 E15.38961
G1 X202.787 Y128.147 E15.54913
G1 X203.128 Y128.65 E15.63402
G1 X203.328 Y128.963 E15.6859
G1 X203.941 Y129.972 E15.85083
G1 X204.243 Y130.512 E15.93726
G1 X204.599 Y131.181 E16.04312
G1 X204.893 Y131.768 E16.13483
G1 X205.496 Y133.105 E16.33971
G1 X205.717 Y133.64 E16.42057
G1 X206.028 Y134.459 E16.54295
G1 X206.217 Y135.004 E16.62353
G1 X206.654 Y136.405 E16.82854
G1 X206.816 Y137.014 E16.91657
G1 X207.017 Y137.847 E17.03628
G1 X207.141 Y138.416 E17.11763
G1 X207.393 Y139.85 E17.32102
G1 X207.477 Y140.463 E17.40745
G1 X207.579 Y141.368 E17.53467
G1 X207.651 Y142.207 E17.6523
G1 X207.685 Y143.118 E17.77965
G1 X207.638 Y144.029 E17.90708
G1 X207.571 Y144.577 E17.9842
G1 X207.388 Y145.803 E18.15736
G1 X207.26 Y146.588 E18.26847
G1 X206.851 Y149.657 E18.70098
G1 X206.718 Y150.798 E18.86145
G1 X206.573 Y151.698 E18.98879
G1 X206.27 Y152.834 E19.15303
G1 X206.024 Y153.555 E19.25945
G1 X205.728 Y154.329 E19.37521
G1 X205.421 Y155.072 E19.48751
G1 X205.159 Y155.664 E19.57795
G1 X204.686 Y156.645 E19.73008
G1 X204.393 Y157.212 E19.81924
G1 X203.827 Y158.217 E19.98036
G1 X203.534 Y158.702 E20.05952
G1 X202.953 Y159.606 E20.20963
G1 X202.585 Y160.14 E20.30022
G1 X201.683 Y161.356 E20.51172
G1 X201.272 Y161.863 E20.60289
G1 X200.727 Y162.503 E20.72032
G1 X200.346 Y162.926 E20.79985
G1 X199.322 Y163.991 E21.00623
G1 X198.872 Y164.422 E21.09328
G1 X198.254 Y164.986 E21.21015
G1 X197.786 Y165.393 E21.29679
G1 X196.903 Y166.108 E21.45551
G1 X196.387 Y166.502 E21.5462
G1 X195.068 Y167.431 E21.77157
G1 X175.183 Y180.556 E25.09989
G1 X174.294 Y181.126 E25.24741
G1 X173.342 Y181.688 E25.40184
G1 X172.963 Y181.897 E25.4623
G1 X172.153 Y182.321 E25.59001
G1 X171.611 Y182.585 E25.67423
G1 X170.525 Y183.071 E25.84044
G1 X170.039 Y183.273 E25.91396
G1 X169.182 Y183.585 E26.04136
G1 X168.301 Y183.822 E26.16881
G1 X167.403 Y183.98 E26.29618
G1 X166.495 Y184.059 E26.4235
G1 X165.583 Y184.059 E26.5509
G1 X164.674 Y183.978 E26.67838
G1 X163.777 Y183.818 E26.80566
G1 X163.242 Y183.683 E26.88274
G1 X160.924 Y183.034 E27.219
G1 X158.418 Y182.404 E27.57996
G1 X155.926 Y181.853 E27.93648
G1 X153.45 Y181.378 E28.28867
G1 X150.988 Y180.978 E28.6371
G1 X149.976 Y180.845 E28.77969
G1 X148.604 Y180.65 E28.97327
G1 X147.707 Y180.482 E29.10075
G1 X146.829 Y180.236 E29.22813
G1 X145.976 Y179.914 E29.35549
G1 X145.154 Y179.519 E29.48289
G1 X144.37 Y179.054 E29.61022
G1 X143.629 Y178.521 E29.73773
G1 X142.797 Y177.79 E29.89244
G1 X142.306 Y177.31 E29.98836
G1 X141.884 Y176.873 E30.07322
G1 X141.449 Y176.395 E30.16351
G1 X141.082 Y175.968 E30.24216
G1 X140.445 Y175.187 E30.38295
G1 X140.047 Y174.667 E30.47442
G1 X139.498 Y173.9 E30.60619
G1 X139.161 Y173.399 E30.69053
G1 X137.357 Y170.541 E31.16266
G1 X135.937 Y168.433 E31.51771
G1 X134.46 Y166.369 E31.87225
G1 X132.946 Y164.376 E32.22188
G1 X131.339 Y162.378 E32.58006
G1 X129.719 Y160.476 E32.92907
G1 X127.998 Y158.57 E33.2878
G1 X126.243 Y156.734 E33.6426
G1 X124.449 Y154.959 E33.99515
G1 X122.626 Y153.253 E34.34392
G1 X120.693 Y151.548 E34.70398
G1 X118.747 Y149.925 E35.05796
G1 X116.752 Y148.354 E35.41268
G1 X114.747 Y146.865 E35.76155
G1 X112.664 Y145.409 E36.11657
G1 X110.501 Y143.986 E36.47825
G1 X108.374 Y142.67 E36.82765
G1 X106.203 Y141.412 E37.17816
G1 X103.963 Y140.197 E37.53414
G1 X101.688 Y139.044 E37.89042
G1 X98.36 Y137.472 E38.40457
G1 X97.553 Y137.047 E38.53198
G1 X96.786 Y136.552 E38.6595
G1 X96.066 Y135.993 E38.78684
G1 X95.398 Y135.372 E38.91424
G1 X94.787 Y134.696 E39.04153
G1 X94.237 Y133.968 E39.16899
G1 X93.753 Y133.195 E39.29639
G1 X93.338 Y132.383 E39.42378
G1 X92.915 Y131.317 E39.58399
G1 X92.624 Y130.321 E39.72894
G1 X92.445 Y129.426 E39.85644
G1 X92.346 Y128.52 E39.98375
G1 X92.325 Y128.004 E40.05589
G1 X92.316 Y127.105 E40.18148
G1 X92.327 Y126.383 E40.28235
G1 X92.381 Y125.472 E40.40984
G1 X92.514 Y124.57 E40.5372
G1 X92.726 Y123.683 E40.6646
G1 X93.015 Y122.818 E40.792
G1 X93.379 Y121.982 E40.91937
G1 X93.814 Y121.181 E41.0467
G1 X94.318 Y120.42 E41.17421
G1 X94.886 Y119.707 E41.30155
G1 X95.473 Y119.084 E41.42112
G1 X96.139 Y118.462 E41.54842
G1 F1500 E39.54842
;MESH:TabletKeyboard_Holder_v01.stl
G0 F6000 X102.198 Y128.411
G0 X144.735 Y158.3
G0 X146.593 Y158.474
;TYPE:WALL-INNER
G1 F1500 E41.54842
G1 F1200 X146.565 Y159.348 E41.67058
G1 X146.594 Y160.241 E41.79539
G1 X146.676 Y161.103 E41.91635
G1 X146.816 Y162 E42.04317
G1 X147.008 Y162.852 E42.16517
G1 X147.26 Y163.725 E42.2921
G1 X147.417 Y164.219 E42.36451
G1 X147.899 Y165.333 E42.53407
G1 X148.302 Y166.125 E42.65821
G1 X148.784 Y166.944 E42.79096
G1 X149.254 Y167.629 E42.907
G1 X149.848 Y168.387 E43.04153
G1 X156.132 Y151.131 E45.60693
G1 X156.346 Y150.763 E45.66639
G1 X156.585 Y150.549 E45.71121
G1 X156.921 Y150.39 E45.76313
G1 X157.162 Y150.345 E45.79738
G1 X157.512 Y150.357 E45.8463
G1 X172.293 Y155.736 E48.04357
G1 X172.591 Y155.972 E48.09667
G1 X172.826 Y156.279 E48.15068
G1 X172.927 Y156.674 E48.20764
G1 X172.922 Y156.944 E48.24536
G1 X172.858 Y157.219 E48.2848
G1 X167.623 Y171.605 E50.42334
G1 X168.227 Y171.247 E50.52142
G1 X188.466 Y157.893 E53.90863
G1 X189.325 Y157.311 E54.05358
G1 X190.159 Y156.664 E54.20103
G1 X190.915 Y155.997 E54.34186
G1 X191.67 Y155.243 E54.49092
G1 X192.339 Y154.484 E54.63225
G1 X192.962 Y153.678 E54.77456
G1 X193.552 Y152.814 E54.92071
G1 X194.068 Y151.938 E55.06273
G1 X194.655 Y150.786 E55.24334
G1 X182.948 Y153.705 E56.92879
G1 X182.844 Y153.743 E56.94426
G1 X182.196 Y153.931 E57.03852
G1 X181.545 Y154.074 E57.13162
G1 X181.316 Y154.11 E57.16401
G1 X180.703 Y154.266 E57.25237
G1 X180.423 Y154.262 E57.29148
G1 X180.248 Y154.231 E57.31631
G1 X179.64 Y154.247 E57.40127
G1 X178.981 Y154.226 E57.49338
G1 X178.416 Y154.172 E57.57266
G1 X177.768 Y154.072 E57.66426
G1 X177.076 Y153.916 E57.76335
G1 X176.467 Y153.738 E57.85198
G1 X175.865 Y153.519 E57.94147
G1 X175.332 Y153.288 E58.02262
G1 X174.707 Y152.971 E58.12051
G1 X174.145 Y152.635 E58.21198
G1 X173.627 Y152.283 E58.29947
G1 X173.163 Y151.924 E58.38142
G1 X172.682 Y151.501 E58.4709
G1 X172.166 Y150.987 E58.57264
G1 X171.788 Y150.557 E58.65262
G1 X171.397 Y150.056 E58.74139
G1 X171.031 Y149.524 E58.8316
G1 X170.655 Y148.888 E58.93481
G1 X170.374 Y148.33 E59.02208
G1 X170.146 Y147.804 E59.10217
G1 X169.904 Y147.133 E59.20181
G1 X169.728 Y146.517 E59.2913
G1 X169.587 Y145.869 E59.38394
G1 X169.489 Y145.246 E59.47204
G1 X169.437 Y144.674 E59.55228
G1 X169.415 Y143.957 E59.65248
G1 X169.438 Y143.323 E59.74111
G1 X169.489 Y142.754 E59.82091
G1 X169.596 Y142.075 E59.91693
G1 X169.73 Y141.47 E60.00349
G1 X169.929 Y140.79 E60.10247
G1 X170.15 Y140.182 E60.19284
G1 X170.374 Y139.665 E60.27155
G1 X170.692 Y139.041 E60.36938
G1 X171.032 Y138.471 E60.4621
G1 X171.395 Y137.943 E60.5516
G1 X171.753 Y137.48 E60.63336
G1 X172.218 Y136.953 E60.73154
G1 X172.669 Y136.507 E60.82014
G1 X173.146 Y136.088 E60.90883
G1 X173.656 Y135.694 E60.99886
G1 X174.2 Y135.326 E61.09061
G1 X174.746 Y135.007 E61.17894
G1 X175.323 Y134.712 E61.26947
G1 X175.909 Y134.46 E61.35858
G1 X176.533 Y134.238 E61.4511
G1 X177.051 Y134.087 E61.52647
G1 X177.758 Y133.927 E61.62773
G1 X178.41 Y133.825 E61.71992
G1 X179.035 Y133.77 E61.80756
G1 X179.697 Y133.749 E61.90009
G1 X180.292 Y133.769 E61.98325
G1 X180.944 Y133.827 E62.07469
G1 X181.549 Y133.923 E62.16026
G1 X182.18 Y134.059 E62.25043
G1 X182.833 Y134.248 E62.34539
G1 X183.378 Y134.444 E62.4263
G1 X184.03 Y134.725 E62.52548
G1 X184.601 Y135.014 E62.61488
G1 X185.112 Y135.316 E62.69779
G1 X185.648 Y135.674 E62.78784
G1 X186.202 Y136.102 E62.88563
G1 X186.634 Y136.481 E62.96591
G1 X187.135 Y136.98 E63.06469
G1 X187.592 Y137.5 E63.16139
G1 X187.976 Y138 E63.24946
G1 X188.301 Y138.475 E63.32986
G1 X188.677 Y139.113 E63.43331
G1 X188.915 Y139.582 E63.50678
G1 X189.179 Y140.187 E63.59899
G1 X189.41 Y140.817 E63.69272
G1 X189.599 Y141.476 E63.78849
G1 X189.73 Y142.064 E63.87265
G1 X189.839 Y142.744 E63.96885
G1 X189.893 Y143.321 E64.0498
G1 X189.912 Y143.928 E64.13464
G1 X196.028 Y142.403 E65.01516
G1 X195.985 Y141.948 E65.079
G1 X195.821 Y140.915 E65.22511
G1 X195.593 Y139.892 E65.37152
G1 X195.302 Y138.899 E65.51607
G1 X195.086 Y138.295 E65.60568
G1 X195.102 Y138.274 E65.60937
G1 X194.556 Y137.013 E65.80132
G1 X194.083 Y136.082 E65.9472
G1 X193.564 Y135.205 E66.08955
G1 X192.969 Y134.325 E66.23795
G1 X192.334 Y133.508 E66.38249
G1 X191.662 Y132.746 E66.52442
G1 X190.916 Y132 E66.6718
G1 X190.15 Y131.325 E66.81442
G1 X189.316 Y130.679 E66.96178
G1 X188.497 Y130.122 E67.10014
G1 X187.596 Y129.587 E67.24652
G1 X186.666 Y129.114 E67.39227
G1 X185.745 Y128.715 E67.53248
G1 X184.754 Y128.356 E67.67972
G1 X183.758 Y128.067 E67.8246
G1 X182.532 Y127.792 E68.00011
G1 X182.348 Y127.776 E68.02592
G1 X181.739 Y127.68 E68.11204
G1 X180.518 Y127.562 E68.2834
G1 X180.267 Y127.568 E68.31847
G1 X179.665 Y127.549 E68.40261
G1 X104.514 Y127.548 E78.90064
G1 X149.768 Y148.356 E85.85854
G1 X150.045 Y148.647 E85.91466
G1 X150.159 Y148.836 E85.94549
G1 X150.26 Y149.141 E85.99037
G1 X150.264 Y149.66 E86.06288
G1 X150.083 Y150.039 E86.12155
G1 X149.684 Y150.495 E86.20619
G1 X149.686 Y150.525 E86.21039
G1 X149.343 Y150.945 E86.28614
G1 X148.783 Y151.756 E86.42381
G1 X148.301 Y152.572 E86.5562
G1 X147.916 Y153.329 E86.67484
G1 X147.419 Y154.471 E86.84882
G1 X147.441 Y154.499 E86.8538
G1 X147.25 Y155.009 E86.92987
G1 X147.008 Y155.844 E87.05132
G1 X146.817 Y156.697 E87.17343
G1 X146.676 Y157.589 E87.29958
G1 X146.593 Y158.474 E87.42375
G0 F6000 X145.882 Y157.489
;TYPE:WALL-OUTER
G1 F1200 X145.794 Y158.424 E87.55494
G1 X145.765 Y159.348 E87.68408
G1 X145.795 Y160.292 E87.81601
G1 X145.882 Y161.203 E87.94385
G1 X146.03 Y162.15 E88.07775
G1 X146.232 Y163.051 E88.20674
G1 X146.494 Y163.957 E88.33848
G1 X146.666 Y164.499 E88.41792
G1 X147.175 Y165.673 E88.59667
G1 X147.6 Y166.51 E88.7278
G1 X148.108 Y167.374 E88.86781
G1 X148.598 Y168.089 E88.98889
G1 X149.206 Y168.869 E89.12705
G1 X149.796 Y169.539 E89.25176
G1 X150.151 Y169.895 E89.32199
G1 X156.903 Y151.353 E92.07855
G1 X157.099 Y151.175 E92.11554
G1 X157.345 Y151.15 E92.15008
G1 X171.916 Y156.453 E94.31615
G1 X172.074 Y156.604 E94.34668
G1 X172.125 Y156.75 E94.36829
G1 X172.119 Y156.901 E94.3894
G1 X166.199 Y173.179 E96.80902
G1 X167.007 Y172.83 E96.93197
G1 X167.834 Y172.409 E97.06161
G1 X168.667 Y171.915 E97.19689
G1 X188.915 Y158.555 E100.58562
G1 X189.795 Y157.959 E100.73409
G1 X190.669 Y157.281 E100.88861
G1 X191.463 Y156.581 E101.03647
G1 X192.254 Y155.791 E101.19264
G1 X192.956 Y154.994 E101.341
G1 X193.61 Y154.149 E101.49027
G1 X194.228 Y153.243 E101.64347
G1 X194.77 Y152.324 E101.79251
G1 X195.277 Y151.328 E101.94863
G1 X195.7 Y150.352 E102.09723
G1 X195.957 Y149.637 E102.20336
G1 X182.712 Y152.939 E104.11022
G1 X182.571 Y152.99 E104.13117
G1 X182.022 Y153.15 E104.21105
G1 X181.419 Y153.284 E104.29734
G1 X181.154 Y153.326 E104.33482
G1 X180.573 Y153.467 E104.41834
G1 X180.337 Y153.427 E104.45177
G1 X179.662 Y153.447 E104.54611
G1 X179.057 Y153.43 E104.63066
G1 X178.468 Y153.373 E104.71332
G1 X177.903 Y153.283 E104.79324
G1 X177.298 Y153.147 E104.87986
G1 X176.738 Y152.985 E104.9613
G1 X176.183 Y152.785 E105.04371
G1 X175.65 Y152.554 E105.12486
G1 X175.115 Y152.282 E105.2087
G1 X174.593 Y151.972 E105.29351
G1 X174.117 Y151.65 E105.37378
G1 X173.632 Y151.274 E105.45951
G1 X173.195 Y150.886 E105.54115
G1 X172.767 Y150.459 E105.6256
G1 X172.373 Y150.01 E105.70905
G1 X172.029 Y149.566 E105.78751
G1 X171.678 Y149.051 E105.87457
G1 X171.381 Y148.549 E105.95605
G1 X171.108 Y148.012 E106.0402
G1 X170.871 Y147.463 E106.12373
G1 X170.672 Y146.91 E106.20583
G1 X170.515 Y146.369 E106.28452
G1 X170.381 Y145.765 E106.37095
G1 X170.286 Y145.174 E106.45457
G1 X170.234 Y144.602 E106.5348
G1 X170.215 Y143.984 E106.62117
G1 X170.235 Y143.395 E106.7035
G1 X170.29 Y142.798 E106.78725
G1 X170.384 Y142.215 E106.86974
G1 X170.511 Y141.644 E106.95146
G1 X170.681 Y141.062 E107.03615
G1 X170.884 Y140.5 E107.11963
G1 X171.108 Y139.983 E107.19833
G1 X171.381 Y139.448 E107.28224
G1 X171.692 Y138.923 E107.36748
G1 X172.028 Y138.433 E107.45047
G1 X172.402 Y137.95 E107.53581
G1 X172.782 Y137.52 E107.61597
G1 X173.199 Y137.106 E107.69806
G1 X173.617 Y136.736 E107.77604
G1 X174.107 Y136.355 E107.86274
G1 X174.583 Y136.03 E107.94326
G1 X175.113 Y135.718 E108.02917
G1 X175.619 Y135.457 E108.1087
G1 X176.179 Y135.213 E108.19403
G1 X176.757 Y135.006 E108.2798
G1 X177.299 Y134.849 E108.35862
G1 X177.896 Y134.715 E108.4441
G1 X178.482 Y134.622 E108.52698
G1 X179.064 Y134.57 E108.60861
G1 X179.669 Y134.549 E108.69317
G1 X180.276 Y134.57 E108.77801
G1 X180.853 Y134.623 E108.85896
G1 X181.438 Y134.717 E108.94172
G1 X182.029 Y134.847 E109.02626
G1 X182.597 Y135.013 E109.10892
G1 X183.128 Y135.206 E109.18785
G1 X183.69 Y135.449 E109.27338
G1 X184.225 Y135.72 E109.35715
G1 X184.704 Y136.004 E109.43494
G1 X185.198 Y136.336 E109.51809
G1 X185.702 Y136.727 E109.6072
G1 X186.124 Y137.1 E109.68587
G1 X186.557 Y137.533 E109.77141
G1 X186.952 Y137.981 E109.85485
G1 X187.315 Y138.452 E109.93792
G1 X187.651 Y138.945 E110.02126
G1 X187.963 Y139.475 E110.10717
G1 X188.211 Y139.966 E110.18401
G1 X188.454 Y140.528 E110.26955
G1 X188.653 Y141.077 E110.35112
G1 X188.818 Y141.651 E110.43455
G1 X188.95 Y142.239 E110.51873
G1 X189.042 Y142.818 E110.60063
G1 X189.096 Y143.395 E110.68159
G1 X189.113 Y144.01 E110.76753
G1 X189.096 Y144.602 E110.85026
G1 X189.062 Y144.964 E110.90105
G1 X196.889 Y143.013 E112.02788
G1 X196.779 Y141.847 E112.19149
G1 X196.607 Y140.765 E112.34453
G1 X196.368 Y139.692 E112.49809
G1 X196.063 Y138.651 E112.64963
G1 X195.854 Y138.069 E112.73601
G1 X195.874 Y138.042 E112.74071
G1 X195.28 Y136.673 E112.94917
G1 X194.785 Y135.697 E113.10204
G1 X194.24 Y134.777 E113.25142
G1 X193.617 Y133.855 E113.40686
G1 X192.95 Y132.998 E113.55856
G1 X192.246 Y132.198 E113.70743
G1 X191.464 Y131.416 E113.86192
G1 X190.66 Y130.708 E114.01157
G1 X189.786 Y130.031 E114.166
G1 X188.927 Y129.447 E114.3111
G1 X187.982 Y128.886 E114.46462
G1 X187.006 Y128.39 E114.61756
G1 X186.041 Y127.971 E114.76452
G1 X185.002 Y127.595 E114.91887
