;FLAVOR:Marlin
;TIME:7522
;Filament used: 6.07101m
;Layer height: 0.2
;MINX:98.549
;MINY:108.549
;MINZ:0.3
;MAXX:201.453
;MAXY:191.451
;MAXZ:30.9
;Generated with Cura_SteamEngine 4.10.0
M140 S90
M105
M190 S90
M104 S240
M105
M109 S240
M82 ;absolute extrusion mode
G28 ; home all axes
 M117 Purge extruder
 G92 E0 ; reset extruder
 G1 Z1.0 F3000 ; move z up little to prevent scratching of surface
 G1 X2 Y20 Z0.3 F5000.0 ; move to start-line position
 G1 X2 Y200.0 Z0.3 F1500.0 E15 ; draw 1st line
 G1 X2 Y200.0 Z0.4 F5000.0 ; move to side a little
 G1 X2 Y20 Z0.4 F1500.0 E30 ; draw 2nd line
 G92 E0 ; reset extruder
 G1 Z1.0 F3000 ; move z up little to prevent scratching of surface
G92 E0
G92 E0
G1 F2100 E-2
;LAYER_COUNT:154
;LAYER:0
M107
G0 F6000 X107.089 Y112.531 Z0.3
;TYPE:SKIRT
G1 F2100 E0
G1 F600 X107.378 Y112.274 E0.02016
G1 X108.317 Y111.523 E0.08285
G1 X108.434 Y111.439 E0.09036
G1 X109.075 Y111.01 E0.13057
G1 X109.331 Y110.851 E0.14628
G1 X110.1 Y110.414 E0.1924
G1 X110.356 Y110.281 E0.20744
G1 X110.796 Y110.064 E0.23301
G1 X110.871 Y110.029 E0.23733
G1 X111.352 Y109.817 E0.26473
G1 X111.563 Y109.73 E0.27663
G1 X112.203 Y109.489 E0.31229
G1 X112.47 Y109.397 E0.32701
G1 X113.171 Y109.18 E0.36527
G1 X113.433 Y109.108 E0.37943
G1 X113.936 Y108.981 E0.40648
G1 X114.121 Y108.939 E0.41637
G1 X114.886 Y108.793 E0.45697
G1 X115.3 Y108.728 E0.47882
G1 X115.903 Y108.649 E0.51053
G1 X116.019 Y108.637 E0.51661
G1 X116.502 Y108.598 E0.54187
G1 X117.008 Y108.57 E0.56829
G1 X117.251 Y108.561 E0.58097
G1 X117.57 Y108.554 E0.59761
G1 X118.104 Y108.549 E0.62545
G1 X184.265 Y108.549 E4.07477
G1 X185.372 Y108.564 E4.13249
G1 X185.852 Y108.581 E4.15753
G1 X186.46 Y108.624 E4.1893
G1 X186.684 Y108.646 E4.20104
G1 X187.067 Y108.69 E4.22114
G1 X187.226 Y108.711 E4.2295
G1 X187.878 Y108.817 E4.26394
G1 X188.271 Y108.892 E4.2848
G1 X189.31 Y109.14 E4.34049
G1 X189.819 Y109.287 E4.36811
G1 X190.814 Y109.624 E4.42288
G1 X191.106 Y109.738 E4.43922
G1 X192.031 Y110.147 E4.49195
G1 X192.564 Y110.411 E4.52296
G1 X193.516 Y110.94 E4.57974
G1 X193.768 Y111.096 E4.59519
G1 X194.07 Y111.289 E4.61388
G1 X194.701 Y111.73 E4.65401
G1 X195.001 Y111.955 E4.67356
G1 X195.805 Y112.617 E4.72786
G1 X196.202 Y112.975 E4.75573
G1 X196.937 Y113.7 E4.80956
G1 X197.178 Y113.96 E4.82804
G1 X197.667 Y114.522 E4.86688
G1 X197.859 Y114.758 E4.88274
G1 X198.262 Y115.284 E4.91729
G1 X198.327 Y115.374 E4.92307
G1 X198.71 Y115.939 E4.95866
G1 X199.026 Y116.436 E4.98937
G1 X199.553 Y117.356 E5.04464
G1 X199.704 Y117.65 E5.06187
G1 X200.146 Y118.618 E5.11735
G1 X200.347 Y119.118 E5.14545
G1 X200.715 Y120.18 E5.20404
G1 X200.828 Y120.566 E5.22501
G1 X201.063 Y121.517 E5.27609
G1 X201.157 Y121.981 E5.30077
G1 X201.32 Y123.028 E5.35601
G1 X201.36 Y123.397 E5.37536
G1 X201.413 Y124.067 E5.4104
G1 X201.427 Y124.348 E5.42507
G1 X201.438 Y124.664 E5.44155
G1 X201.45 Y125.201 E5.46956
G1 X201.453 Y125.473 E5.48374
G1 X201.45 Y128.014 E5.61621
G1 X201.45 Y138.5 E6.16291
G1 X201.453 Y139.635 E6.22208
G1 X201.45 Y142.718 E6.38281
G1 X201.45 Y149.475 E6.73509
G1 X201.452 Y150.502 E6.78863
G1 X201.446 Y150.909 E6.80985
G1 X201.422 Y151.628 E6.84736
G1 X201.399 Y152.067 E6.87028
G1 X201.357 Y152.654 E6.90096
G1 X201.277 Y153.415 E6.94085
G1 X201.202 Y153.956 E6.96933
G1 X201.112 Y154.506 E6.99839
G1 X201.033 Y154.903 E7.01949
G1 X200.879 Y155.612 E7.05731
G1 X200.691 Y156.356 E7.09732
G1 X200.654 Y156.483 E7.10422
G1 X199.956 Y159.003 E7.24055
G1 X199.361 Y161.413 E7.36996
G1 X198.822 Y163.892 E7.50223
G1 X198.364 Y166.329 E7.63151
G1 X197.969 Y168.819 E7.76295
G1 X197.647 Y171.303 E7.89353
G1 X197.398 Y173.761 E8.02234
G1 X197.21 Y176.34 E8.15715
G1 X197.146 Y177.614 E8.22366
G1 X197.092 Y178.843 E8.28779
G1 X197.01 Y179.8 E8.33787
G1 X196.872 Y180.634 E8.38194
G1 X196.644 Y181.567 E8.43201
G1 X196.34 Y182.479 E8.48213
G1 X195.961 Y183.361 E8.53218
G1 X195.744 Y183.791 E8.55729
G1 X195.586 Y184.088 E8.57483
G1 X195.1 Y184.916 E8.62489
G1 X194.547 Y185.702 E8.67499
G1 X194.046 Y186.309 E8.71602
G1 X193.864 Y186.515 E8.73035
G1 X192.957 Y187.432 E8.7976
G1 X192.758 Y187.612 E8.81159
G1 X191.802 Y188.389 E8.87581
G1 X191.586 Y188.546 E8.88974
G1 X190.81 Y189.063 E8.93835
G1 X190.628 Y189.174 E8.94946
G1 X190.268 Y189.386 E8.97125
G1 X189.292 Y189.885 E9.02839
G1 X188.813 Y190.102 E9.05581
G1 X187.677 Y190.545 E9.11938
G1 X187.248 Y190.687 E9.14294
G1 X186.361 Y190.942 E9.19106
G1 X186.054 Y191.017 E9.20753
G1 X184.894 Y191.239 E9.26911
G1 X184.293 Y191.322 E9.30074
G1 X183.336 Y191.413 E9.35086
G1 X182.865 Y191.436 E9.37544
G1 X182.419 Y191.448 E9.3987
G1 X182.047 Y191.451 E9.4181
G1 X115.437 Y191.45 E12.89083
G1 X114.999 Y191.444 E12.91366
G1 X114.607 Y191.432 E12.93411
G1 X113.957 Y191.401 E12.96804
G1 X112.886 Y191.3 E13.02412
G1 X112.435 Y191.236 E13.04787
G1 X111.638 Y191.094 E13.09008
G1 X111.456 Y191.055 E13.09978
G1 X110.868 Y190.913 E13.13132
G1 X110.653 Y190.855 E13.14293
G1 X110.01 Y190.661 E13.17794
G1 X109.599 Y190.524 E13.20053
G1 X108.593 Y190.135 E13.25676
G1 X108.128 Y189.93 E13.28326
G1 X107.181 Y189.46 E13.33837
G1 X106.864 Y189.284 E13.35728
G1 X106.015 Y188.764 E13.40918
G1 X105.613 Y188.493 E13.43446
G1 X104.939 Y188.001 E13.47796
G1 X104.753 Y187.855 E13.49029
G1 X104.284 Y187.468 E13.52199
G1 X104.173 Y187.371 E13.52968
G1 X103.676 Y186.909 E13.56506
G1 X103.257 Y186.497 E13.59569
G1 X102.483 Y185.657 E13.65524
G1 X102.283 Y185.417 E13.67153
G1 X101.689 Y184.64 E13.72252
G1 X101.35 Y184.155 E13.75337
G1 X100.703 Y183.115 E13.81723
G1 X100.563 Y182.861 E13.83235
G1 X100.172 Y182.083 E13.87774
G1 X99.93 Y181.553 E13.90812
G1 X99.529 Y180.554 E13.96424
G1 X99.435 Y180.284 E13.97915
G1 X99.314 Y179.919 E13.99919
G1 X99.253 Y179.723 E14.0099
G1 X99.077 Y179.093 E14.044
G1 X98.97 Y178.645 E14.06801
G1 X98.905 Y178.348 E14.08386
G1 X98.79 Y177.748 E14.11571
G1 X98.77 Y177.626 E14.12216
G1 X98.712 Y177.232 E14.14292
G1 X98.673 Y176.929 E14.15885
G1 X98.608 Y176.278 E14.19296
G1 X98.597 Y176.124 E14.20101
G1 X98.574 Y175.685 E14.22393
G1 X98.558 Y175.203 E14.24907
G1 X98.552 Y174.922 E14.26372
G1 X98.549 Y174.48 E14.28677
G1 X98.549 Y149.514 E15.58838
G1 X98.556 Y149.118 E15.60902
G1 X98.585 Y148.271 E15.65321
G1 X98.609 Y147.825 E15.67649
G1 X98.641 Y147.387 E15.69939
G1 X98.677 Y146.99 E15.72017
G1 X98.707 Y146.712 E15.73475
G1 X98.758 Y146.302 E15.75629
G1 X98.817 Y145.893 E15.77784
G1 X98.899 Y145.4 E15.80389
G1 X98.996 Y144.929 E15.82896
G1 X99.123 Y144.369 E15.8589
G1 X99.208 Y144.02 E15.87763
G1 X99.315 Y143.608 E15.89982
G1 X99.388 Y143.34 E15.9143
G1 X99.874 Y141.64 E16.00648
G1 X100.498 Y139.199 E16.13784
G1 X101.048 Y136.745 E16.26895
G1 X101.519 Y134.339 E16.39677
G1 X101.933 Y131.85 E16.52831
G1 X102.277 Y129.34 E16.6604
G1 X102.545 Y126.886 E16.7891
G1 X102.748 Y124.348 E16.92184
G1 X102.864 Y122.187 E17.03467
G1 X102.906 Y121.182 E17.08711
G1 X102.986 Y120.225 E17.13718
G1 X103.146 Y119.277 E17.1873
G1 X103.384 Y118.347 E17.23735
G1 X103.655 Y117.55 E17.28124
G1 X103.731 Y117.351 E17.29234
G1 X104.111 Y116.468 E17.34246
G1 X104.563 Y115.621 E17.39251
G1 X105.083 Y114.815 E17.44252
G1 X105.21 Y114.635 E17.454
G1 X106.01 Y113.625 E17.52118
G1 X106.129 Y113.491 E17.53052
G1 X107.089 Y112.531 E17.6013
G0 F6000 X107.382 Y112.859
G1 F600 X107.671 Y112.602 E17.62146
G1 X108.573 Y111.88 E17.6817
G1 X108.69 Y111.796 E17.68921
G1 X109.308 Y111.384 E17.72793
G1 X109.564 Y111.225 E17.74364
G1 X110.303 Y110.804 E17.78799
G1 X110.559 Y110.671 E17.80303
G1 X110.982 Y110.462 E17.82762
G1 X111.057 Y110.427 E17.83194
G1 X111.52 Y110.224 E17.8583
G1 X111.731 Y110.137 E17.8702
G1 X112.346 Y109.905 E17.90446
G1 X112.613 Y109.813 E17.91919
G1 X113.288 Y109.604 E17.95603
G1 X113.55 Y109.532 E17.97019
G1 X114.034 Y109.41 E17.99622
G1 X114.219 Y109.368 E18.00611
G1 X114.954 Y109.227 E18.04512
G1 X115.368 Y109.162 E18.06697
G1 X115.948 Y109.087 E18.09746
G1 X116.064 Y109.075 E18.10354
G1 X116.529 Y109.037 E18.12787
G1 X116.758 Y109.023 E18.13983
G1 X117.024 Y109.01 E18.15371
G1 X117.267 Y109.001 E18.16639
G1 X117.574 Y108.993 E18.1824
G1 X118 Y108.989 E18.20461
G1 X184.265 Y108.989 E21.65935
G1 X185.365 Y109.004 E21.71671
G1 X185.699 Y109.014 E21.73413
G1 X185.832 Y109.02 E21.74107
G1 X186.417 Y109.062 E21.77165
G1 X186.641 Y109.084 E21.78338
G1 X187.009 Y109.127 E21.8027
G1 X187.168 Y109.148 E21.81106
G1 X187.796 Y109.249 E21.84422
G1 X188.189 Y109.324 E21.86508
G1 X189.188 Y109.563 E21.91863
G1 X189.697 Y109.71 E21.94626
G1 X190.654 Y110.034 E21.99893
G1 X190.946 Y110.148 E22.01527
G1 X191.836 Y110.541 E22.066
G1 X192.369 Y110.805 E22.09701
G1 X193.285 Y111.314 E22.15164
G1 X193.537 Y111.47 E22.16709
G1 X193.83 Y111.658 E22.18524
G1 X194.437 Y112.082 E22.22384
G1 X194.737 Y112.307 E22.24339
G1 X195.511 Y112.944 E22.29566
G1 X195.908 Y113.302 E22.32353
G1 X196.615 Y113.999 E22.37529
G1 X196.856 Y114.259 E22.39377
G1 X197.325 Y114.8 E22.4311
G1 X197.517 Y115.036 E22.44696
G1 X197.906 Y115.542 E22.48023
G1 X197.971 Y115.632 E22.48602
G1 X198.339 Y116.175 E22.52022
G1 X198.655 Y116.672 E22.55092
G1 X199.162 Y117.557 E22.6041
G1 X199.313 Y117.851 E22.62133
G1 X199.738 Y118.782 E22.67469
G1 X199.939 Y119.282 E22.70278
G1 X200.293 Y120.303 E22.75912
G1 X200.406 Y120.689 E22.78009
G1 X200.632 Y121.604 E22.82923
G1 X200.726 Y122.068 E22.85391
G1 X200.882 Y123.076 E22.90709
G1 X200.922 Y123.445 E22.92644
G1 X200.973 Y124.089 E22.96012
G1 X200.987 Y124.37 E22.97479
G1 X200.998 Y124.674 E22.99065
G1 X201.01 Y125.211 E23.01865
G1 X201.013 Y125.472 E23.03226
G1 X201.01 Y128.013 E23.16473
G1 X201.01 Y138.5 E23.71148
G1 X201.013 Y139.635 E23.77065
G1 X201.01 Y142.718 E23.93138
G1 X201.01 Y149.475 E24.28366
G1 X201.012 Y150.503 E24.33726
G1 X201.006 Y150.894 E24.35764
G1 X200.982 Y151.613 E24.39515
G1 X200.96 Y152.035 E24.41718
G1 X200.918 Y152.622 E24.44786
G1 X200.841 Y153.354 E24.48623
G1 X200.766 Y153.895 E24.51471
G1 X200.694 Y154.345 E24.53847
G1 X200.603 Y154.81 E24.56317
G1 X200.449 Y155.519 E24.601
G1 X200.269 Y156.235 E24.63949
G1 X200.214 Y156.426 E24.64985
G1 X199.532 Y158.888 E24.78304
G1 X198.931 Y161.321 E24.9137
G1 X198.394 Y163.79 E25.04543
G1 X197.925 Y166.285 E25.17779
G1 X197.537 Y168.731 E25.3069
G1 X197.211 Y171.238 E25.43871
G1 X196.957 Y173.75 E25.57034
G1 X196.773 Y176.288 E25.70301
G1 X196.703 Y177.667 E25.77499
G1 X196.652 Y178.823 E25.83532
G1 X196.571 Y179.762 E25.88446
G1 X196.44 Y180.548 E25.926
G1 X196.217 Y181.463 E25.9751
G1 X195.916 Y182.356 E26.02423
G1 X195.356 Y183.584 E26.09459
G1 X195.198 Y183.881 E26.11213
G1 X194.72 Y184.693 E26.16126
G1 X194.176 Y185.462 E26.21037
G1 X193.716 Y186.017 E26.24795
G1 X193.534 Y186.223 E26.26228
G1 X192.662 Y187.106 E26.32698
G1 X192.463 Y187.286 E26.34097
G1 X191.543 Y188.033 E26.40275
G1 X191.327 Y188.19 E26.41668
G1 X190.581 Y188.688 E26.46344
G1 X190.399 Y188.799 E26.47455
G1 X190.049 Y189.004 E26.4957
G1 X189.11 Y189.484 E26.55068
G1 X188.631 Y189.701 E26.5781
G1 X187.539 Y190.128 E26.63923
G1 X187.11 Y190.27 E26.66278
G1 X186.256 Y190.515 E26.7091
G1 X185.949 Y190.59 E26.72558
G1 X184.834 Y190.803 E26.78476
G1 X184.233 Y190.886 E26.81639
G1 X183.312 Y190.974 E26.86463
G1 X182.85 Y190.997 E26.88874
G1 X182.416 Y191.008 E26.91138
G1 X182.044 Y191.011 E26.93077
G1 X115.443 Y191.01 E30.40303
G1 X115.005 Y191.004 E30.42587
G1 X114.628 Y190.992 E30.44554
G1 X113.978 Y190.961 E30.47946
G1 X112.947 Y190.864 E30.53345
G1 X112.496 Y190.8 E30.5572
G1 X111.73 Y190.664 E30.59776
G1 X111.548 Y190.625 E30.60746
G1 X110.983 Y190.488 E30.63777
G1 X110.768 Y190.43 E30.64938
G1 X110.149 Y190.243 E30.6831
G1 X109.738 Y190.106 E30.70568
G1 X108.77 Y189.733 E30.75977
G1 X108.305 Y189.528 E30.78626
G1 X107.395 Y189.076 E30.83923
G1 X107.078 Y188.9 E30.85814
G1 X106.261 Y188.399 E30.9081
G1 X105.859 Y188.128 E30.93338
G1 X105.21 Y187.655 E30.97525
G1 X105.024 Y187.509 E30.98758
G1 X104.574 Y187.136 E31.01805
G1 X104.463 Y187.039 E31.02573
G1 X103.985 Y186.596 E31.05971
G1 X103.566 Y186.184 E31.09035
G1 X102.821 Y185.375 E31.14768
G1 X102.621 Y185.135 E31.16397
G1 X102.05 Y184.388 E31.21299
G1 X101.711 Y183.903 E31.24384
G1 X101.088 Y182.902 E31.30531
G1 X100.948 Y182.648 E31.32043
G1 X100.572 Y181.9 E31.36408
G1 X100.33 Y181.37 E31.39445
G1 X99.944 Y180.41 E31.4484
G1 X99.85 Y180.14 E31.4633
G1 X99.734 Y179.789 E31.48258
G1 X99.673 Y179.593 E31.49328
G1 X99.503 Y178.986 E31.52614
G1 X99.474 Y178.87 E31.53238
G1 X99.4 Y178.551 E31.54945
G1 X99.335 Y178.254 E31.5653
G1 X99.224 Y177.677 E31.59593
G1 X99.204 Y177.555 E31.60238
G1 X99.149 Y177.176 E31.62234
G1 X99.11 Y176.873 E31.63827
G1 X99.047 Y176.247 E31.67107
G1 X99.036 Y176.093 E31.67912
G1 X99.014 Y175.67 E31.70121
G1 X98.998 Y175.188 E31.72635
G1 X98.992 Y174.918 E31.74043
G1 X98.989 Y174.48 E31.76326
G1 X98.989 Y149.514 E33.06487
G1 X98.996 Y149.133 E33.08474
G1 X99.025 Y148.286 E33.12892
G1 X99.048 Y147.857 E33.15132
G1 X99.08 Y147.419 E33.17422
G1 X99.114 Y147.037 E33.19421
G1 X99.144 Y146.759 E33.20879
G1 X99.194 Y146.365 E33.2295
G1 X99.253 Y145.956 E33.25104
G1 X99.332 Y145.479 E33.27625
G1 X99.425 Y145.026 E33.30036
G1 X99.552 Y144.466 E33.3303
G1 X99.633 Y144.131 E33.34826
G1 X99.74 Y143.719 E33.37046
G1 X99.811 Y143.46 E33.38446
G1 X100.298 Y141.754 E33.47695
G1 X100.933 Y139.273 E33.61047
G1 X101.467 Y136.888 E33.73789
G1 X101.956 Y134.389 E33.87065
G1 X102.369 Y131.909 E34.00172
G1 X102.711 Y129.414 E34.13302
G1 X102.985 Y126.897 E34.26502
G1 X103.184 Y124.423 E34.39442
G1 X103.306 Y122.142 E34.51351
G1 X103.346 Y121.2 E34.56266
G1 X103.425 Y120.262 E34.61174
G1 X103.584 Y119.333 E34.66088
G1 X103.821 Y118.421 E34.71
G1 X104.066 Y117.707 E34.74936
G1 X104.142 Y117.508 E34.76046
G1 X104.516 Y116.643 E34.8096
G1 X104.961 Y115.812 E34.85874
G1 X105.442 Y115.069 E34.90489
G1 X105.569 Y114.889 E34.91637
G1 X106.339 Y113.917 E34.98102
G1 X106.458 Y113.783 E34.99036
G1 X107.382 Y112.859 E35.05849
G0 F6000 X107.674 Y113.188
G1 F600 X107.963 Y112.931 E35.07865
G1 X108.83 Y112.238 E35.13652
G1 X108.947 Y112.154 E35.14403
G1 X109.54 Y111.757 E35.18123
G1 X109.796 Y111.598 E35.19695
G1 X110.505 Y111.194 E35.23949
G1 X110.761 Y111.061 E35.25453
G1 X111.243 Y110.826 E35.28249
G1 X111.688 Y110.631 E35.30782
G1 X111.899 Y110.544 E35.31972
G1 X112.489 Y110.321 E35.3526
G1 X112.756 Y110.229 E35.36732
G1 X113.404 Y110.028 E35.40269
G1 X113.666 Y109.956 E35.41686
G1 X114.131 Y109.84 E35.44185
G1 X114.316 Y109.798 E35.45174
G1 X115.023 Y109.662 E35.48927
G1 X115.437 Y109.597 E35.51112
G1 X115.993 Y109.525 E35.54035
G1 X116.109 Y109.513 E35.54643
G1 X116.556 Y109.476 E35.56981
G1 X117.04 Y109.449 E35.59509
G1 X117.283 Y109.44 E35.60776
G1 X117.578 Y109.433 E35.62315
G1 X118.004 Y109.429 E35.64536
G1 X184.265 Y109.429 E39.09989
G1 X185.359 Y109.444 E39.15693
G1 X185.812 Y109.46 E39.18057
G1 X186.374 Y109.5 E39.20994
G1 X186.598 Y109.522 E39.22168
G1 X186.952 Y109.563 E39.24025
G1 X187.111 Y109.584 E39.24862
G1 X187.713 Y109.681 E39.28041
G1 X188.106 Y109.756 E39.30127
G1 X189.066 Y109.986 E39.35273
G1 X189.575 Y110.133 E39.38035
G1 X190.494 Y110.444 E39.43093
G1 X190.786 Y110.558 E39.44728
G1 X191.64 Y110.936 E39.49597
G1 X192.173 Y111.2 E39.52698
G1 X193.053 Y111.688 E39.57944
G1 X193.305 Y111.844 E39.59489
G1 X193.59 Y112.027 E39.61255
G1 X194.173 Y112.434 E39.64962
G1 X194.473 Y112.659 E39.66917
G1 X195.216 Y113.27 E39.71932
G1 X195.613 Y113.628 E39.74719
G1 X196.292 Y114.298 E39.79692
G1 X196.533 Y114.558 E39.8154
G1 X196.984 Y115.078 E39.85129
G1 X197.176 Y115.314 E39.86715
G1 X197.549 Y115.8 E39.89909
G1 X197.614 Y115.89 E39.90488
G1 X197.968 Y116.411 E39.93772
G1 X198.284 Y116.908 E39.96842
G1 X198.77 Y117.758 E40.01947
G1 X198.921 Y118.052 E40.0367
G1 X199.33 Y118.946 E40.08796
G1 X199.531 Y119.446 E40.11605
G1 X199.871 Y120.427 E40.17018
G1 X199.984 Y120.813 E40.19115
G1 X200.201 Y121.691 E40.2383
G1 X200.295 Y122.155 E40.26299
G1 X200.445 Y123.123 E40.31406
G1 X200.485 Y123.492 E40.33341
G1 X200.534 Y124.111 E40.36578
G1 X200.548 Y124.392 E40.38045
G1 X200.558 Y124.684 E40.39568
G1 X200.57 Y125.221 E40.42368
G1 X200.573 Y125.472 E40.43677
G1 X200.57 Y128.013 E40.56925
