;FLAVOR:Marlin
;TIME:3115
;Filament used: 9.05012m
;Layer height: 0.5
;MINX:84.338
;MINY:114.662
;MINZ:0.5
;MAXX:215.663
;MAXY:185.338
;MAXZ:23
;Generated with Cura_SteamEngine 4.10.0
M104 S225
M105
M109 S225
M82 ;absolute extrusion mode
G28 ; home all axes
 M117 Purge extruder
 G92 E0 ; reset extruder
 G1 Z1.0 F3000 ; move z up little to prevent scratching of surface
 G1 X2 Y20 Z0.3 F5000.0 ; move to start-line position
 G1 X2 Y200.0 Z0.3 F1500.0 E15 ; draw 1st line
 G1 X2 Y200.0 Z0.4 F5000.0 ; move to side a little
 G1 X2 Y20 Z0.4 F1500.0 E30 ; draw 2nd line
 G92 E0 ; reset extruder
 G1 Z1.0 F3000 ; move z up little to prevent scratching of surface
G92 E0
G92 E0
G1 F1500 E-2
;LAYER_COUNT:46
;LAYER:0
M107
G0 F6000 X105.353 Y124.81 Z0.5
;TYPE:SKIRT
G1 F1500 E0
G1 F1200 X105.507 Y124.684 E0.02895
G1 X109.432 Y121.527 E0.76192
G1 X110.574 Y120.634 E0.97287
G1 X115.21 Y117.095 E1.82156
G1 X115.738 Y116.704 E1.91716
G1 X116.492 Y116.196 E2.04946
G1 X117.288 Y115.755 E2.18187
G1 X118.119 Y115.386 E2.31418
G1 X118.651 Y115.194 E2.39648
G1 X119.526 Y114.945 E2.52886
G1 X120.419 Y114.773 E2.66119
G1 X121.324 Y114.68 E2.79357
G1 X122.234 Y114.668 E2.926
G1 X123.141 Y114.735 E3.05834
G1 X124.039 Y114.881 E3.19073
G1 X124.663 Y115.032 E3.28415
G1 X125.75 Y115.331 E3.4482
G1 X126.305 Y115.491 E3.53225
G1 X128.775 Y116.131 E3.90353
G1 X131.265 Y116.702 E4.27527
G1 X133.709 Y117.187 E4.63783
G1 X136.231 Y117.616 E5.01009
G1 X138.7 Y117.964 E5.37291
G1 X141.255 Y118.251 E5.74704
G1 X143.788 Y118.463 E6.11691
G1 X146.307 Y118.602 E6.48402
G1 X148.837 Y118.671 E6.8523
G1 X151.391 Y118.667 E7.22394
G1 X153.888 Y118.593 E7.58745
G1 X156.464 Y118.444 E7.96291
G1 X158.964 Y118.228 E8.32805
G1 X161.476 Y117.939 E8.69599
G1 X164.004 Y117.576 E9.06762
G1 X166.505 Y117.144 E9.43694
G1 X168.985 Y116.644 E9.80507
G1 X171.431 Y116.078 E10.1704
G1 X173.957 Y115.417 E10.55035
G1 X175.314 Y115.04 E10.75529
G1 X176.201 Y114.835 E10.88776
G1 X177.101 Y114.709 E11.02
G1 X178.01 Y114.662 E11.15245
G1 X178.919 Y114.696 E11.28481
G1 X179.822 Y114.809 E11.41723
G1 X180.711 Y115.001 E11.54958
G1 X181.58 Y115.27 E11.68195
G1 X182.422 Y115.614 E11.8143
G1 X183.23 Y116.032 E11.94668
G1 X184.233 Y116.686 E12.12091
G1 X184.993 Y117.249 E12.25854
G1 X189.526 Y120.711 E13.08852
G1 X190.674 Y121.611 E13.30078
G1 X194.491 Y124.681 E14.01357
G1 X194.649 Y124.811 E14.04334
G1 X196.175 Y126.089 E14.33298
G1 X196.334 Y126.225 E14.36342
G1 X199.763 Y129.218 E15.02573
G1 X200.228 Y129.635 E15.11661
G1 X200.457 Y129.846 E15.16192
G1 X201.156 Y130.514 E15.30261
G1 X204.068 Y133.37 E15.89613
G1 X204.581 Y133.888 E16.00222
G1 X204.789 Y134.104 E16.04585
G1 X205.578 Y134.953 E16.2145
G1 X206.386 Y135.852 E16.39039
G1 X206.901 Y136.44 E16.50413
G1 X207.071 Y136.64 E16.54233
G1 X207.453 Y137.099 E16.62922
G1 X208.223 Y138.049 E16.80716
G1 X208.571 Y138.49 E16.88891
G1 X208.771 Y138.752 E16.93687
G1 X209.379 Y139.575 E17.08576
G1 X209.904 Y140.31 E17.2172
G1 X210.365 Y140.975 E17.33494
G1 X210.539 Y141.236 E17.38059
G1 X210.764 Y141.586 E17.44113
G1 X211.016 Y141.992 E17.51067
G1 X211.512 Y142.814 E17.65037
G1 X211.85 Y143.391 E17.74767
G1 X212.142 Y143.925 E17.83623
G1 X212.582 Y144.789 E17.97732
G1 X212.911 Y145.464 E18.08659
G1 X213.202 Y146.084 E18.18625
G1 X213.401 Y146.535 E18.25798
G1 X213.46 Y146.678 E18.28049
G1 X213.593 Y147.017 E18.33348
G1 X213.8 Y147.575 E18.42008
G1 X214.025 Y148.206 E18.51757
G1 X214.226 Y148.79 E18.60744
G1 X214.494 Y149.704 E18.74604
G1 X214.782 Y150.884 E18.92278
G1 X214.86 Y151.228 E18.97411
G1 X215.002 Y151.91 E19.07548
G1 X215.177 Y153.084 E19.2482
G1 X215.277 Y154.194 E19.41037
G1 X215.431 Y155.953 E19.66731
G1 X215.561 Y157.264 E19.85901
G1 X215.604 Y157.771 E19.93305
G1 X215.638 Y158.414 E20.02675
G1 X215.661 Y159.442 E20.17637
G1 X215.663 Y159.779 E20.22541
G1 X215.66 Y160.076 E20.26863
G1 X215.651 Y160.428 E20.31987
G1 X215.597 Y161.651 E20.498
G1 X215.575 Y162.012 E20.55063
G1 X215.524 Y162.655 E20.64449
G1 X215.48 Y163.105 E20.71028
G1 X215.444 Y163.41 E20.75497
G1 X215.384 Y163.859 E20.82089
G1 X215.293 Y164.484 E20.91279
G1 X215.205 Y165.048 E20.99585
G1 X215.083 Y165.694 E21.09152
G1 X214.844 Y166.771 E21.25205
G1 X214.758 Y167.135 E21.30647
G1 X214.545 Y167.965 E21.43116
G1 X214.293 Y168.798 E21.5578
G1 X214.012 Y169.598 E21.68118
G1 X213.768 Y170.257 E21.78344
G1 X213.524 Y170.892 E21.88243
G1 X213.196 Y171.655 E22.00328
G1 X213.02 Y172.01 E22.06093
G1 X212.733 Y172.564 E22.15172
G1 X212.372 Y173.24 E22.26324
G1 X212.012 Y173.895 E22.372
G1 X211.385 Y174.897 E22.54399
G1 X211.229 Y175.117 E22.58324
G1 X211.051 Y175.36 E22.62707
G1 X210.321 Y176.326 E22.80326
G1 X209.911 Y176.853 E22.90042
G1 X209.321 Y177.546 E23.03285
G1 X208.898 Y177.976 E23.12062
G1 X208.202 Y178.642 E23.2608
G1 X207.559 Y179.236 E23.38818
G1 X207.039 Y179.702 E23.48978
G1 X206.391 Y180.237 E23.61206
G1 X206.1 Y180.453 E23.66479
G1 X205.724 Y180.722 E23.73207
G1 X205.487 Y180.886 E23.77401
G1 X205.079 Y181.161 E23.8456
G1 X204.556 Y181.491 E23.93559
G1 X203.843 Y181.912 E24.05608
G1 X203.555 Y182.077 E24.10437
G1 X203.232 Y182.254 E24.15797
G1 X202.683 Y182.533 E24.24758
G1 X201.943 Y182.883 E24.3667
G1 X201.627 Y183.026 E24.41717
G1 X201.197 Y183.212 E24.48534
G1 X200.668 Y183.424 E24.56827
G1 X199.933 Y183.695 E24.68226
G1 X199.609 Y183.808 E24.73219
G1 X199.078 Y183.984 E24.81359
G1 X198.782 Y184.078 E24.85878
G1 X198.477 Y184.167 E24.90502
G1 X197.954 Y184.31 E24.98391
G1 X197.684 Y184.379 E25.02446
G1 X196.928 Y184.564 E25.13772
G1 X196.621 Y184.635 E25.18357
G1 X196.447 Y184.672 E25.20945
G1 X196.195 Y184.722 E25.24684
G1 X195.725 Y184.809 E25.31639
G1 X195.268 Y184.888 E25.38388
G1 X194.607 Y184.994 E25.48129
G1 X194.311 Y185.037 E25.52481
G1 X193.821 Y185.099 E25.59668
G1 X193.48 Y185.136 E25.64659
G1 X192.925 Y185.19 E25.72774
G1 X192.52 Y185.224 E25.78688
G1 X192.188 Y185.246 E25.83529
G1 X190.872 Y185.314 E26.02704
G1 X190.512 Y185.327 E26.07946
G1 X189.858 Y185.338 E26.17464
G1 X189.26 Y185.33 E26.26167
G1 X188.528 Y185.3 E26.36827
G1 X188.205 Y185.282 E26.41534
G1 X187.666 Y185.243 E26.49398
G1 X187.396 Y185.22 E26.53341
G1 X187.045 Y185.185 E26.58474
G1 X184.485 Y184.966 E26.95861
G1 X181.949 Y184.821 E27.32824
G1 X179.398 Y184.748 E27.69959
G1 X176.874 Y184.746 E28.06687
G1 X174.341 Y184.817 E28.4356
G1 X171.783 Y184.96 E28.8084
G1 X169.312 Y185.168 E29.16924
G1 X168.701 Y185.228 E29.25857
G1 X168.435 Y185.25 E29.29741
G1 X167.919 Y185.287 E29.37269
G1 X167.615 Y185.305 E29.417
G1 X167.046 Y185.329 E29.49987
G1 X166.442 Y185.337 E29.58777
G1 X165.427 Y185.319 E29.73549
G1 X165.047 Y185.306 E29.79082
G1 X164.631 Y185.287 E29.85141
G1 X164.277 Y185.265 E29.90302
G1 X163.041 Y185.166 E30.08345
G1 X162.697 Y185.133 E30.13374
G1 X160.953 Y184.933 E30.38918
G1 X160.091 Y184.823 E30.51563
G1 X157.531 Y184.57 E30.88996
G1 X155.037 Y184.395 E31.25376
G1 X152.48 Y184.287 E31.62617
G1 X149.954 Y184.252 E31.99377
G1 X147.431 Y184.289 E32.36094
G1 X144.873 Y184.398 E32.7335
G1 X142.338 Y184.579 E33.10331
G1 X139.801 Y184.831 E33.4743
G1 X138.247 Y185.023 E33.70214
G1 X137.907 Y185.068 E33.75205
G1 X137.611 Y185.102 E33.7954
G1 X136.823 Y185.182 E33.91066
G1 X136.322 Y185.225 E33.98383
G1 X135.961 Y185.25 E34.03648
G1 X134.678 Y185.315 E34.22342
G1 X134.329 Y185.327 E34.27423
G1 X133.678 Y185.338 E34.36897
G1 X133.079 Y185.33 E34.45614
G1 X132.348 Y185.3 E34.5626
G1 X132.026 Y185.282 E34.60953
G1 X131.486 Y185.243 E34.68831
G1 X131.215 Y185.22 E34.72789
G1 X130.864 Y185.185 E34.77922
G1 X128.304 Y184.966 E35.15309
G1 X125.768 Y184.821 E35.52272
G1 X123.217 Y184.748 E35.89407
G1 X120.693 Y184.746 E36.26135
G1 X118.16 Y184.817 E36.63008
G1 X115.633 Y184.958 E36.99836
G1 X113.041 Y185.176 E37.37686
G1 X112.522 Y185.227 E37.45275
G1 X112.25 Y185.25 E37.49247
G1 X111.728 Y185.287 E37.56862
G1 X111.445 Y185.303 E37.60986
G1 X110.869 Y185.328 E37.69376
G1 X110.262 Y185.337 E37.78209
G1 X109.237 Y185.32 E37.93126
G1 X108.842 Y185.306 E37.98878
G1 X108.451 Y185.288 E38.04573
G1 X108.098 Y185.266 E38.0972
G1 X106.866 Y185.167 E38.27705
G1 X106.534 Y185.135 E38.32558
G1 X105.852 Y185.058 E38.42545
G1 X105.537 Y185.017 E38.47168
G1 X105.294 Y184.982 E38.5074
G1 X105.01 Y184.937 E38.54924
G1 X104.307 Y184.815 E38.65307
G1 X103.622 Y184.685 E38.75452
G1 X103.146 Y184.583 E38.82536
G1 X102.925 Y184.531 E38.8584
G1 X102.368 Y184.393 E38.9419
G1 X102.098 Y184.323 E38.98248
G1 X101.382 Y184.125 E39.09058
G1 X100.852 Y183.963 E39.17123
G1 X100.288 Y183.774 E39.25778
G1 X100.046 Y183.689 E39.2951
G1 X99.484 Y183.485 E39.3821
G1 X98.898 Y183.252 E39.47387
G1 X98.176 Y182.939 E39.58838
G1 X97.892 Y182.811 E39.6337
G1 X97.494 Y182.624 E39.69769
G1 X96.939 Y182.342 E39.78828
G1 X96.268 Y181.976 E39.8995
G1 X95.968 Y181.806 E39.94968
G1 X95.605 Y181.592 E40.01099
G1 X95.11 Y181.281 E40.09606
G1 X94.48 Y180.86 E40.20632
G1 X94.204 Y180.669 E40.25516
G1 X93.834 Y180.404 E40.32138
G1 X93.17 Y179.886 E40.44393
G1 X92.868 Y179.624 E40.5021
G1 X92.366 Y179.17 E40.60059
G1 X91.661 Y178.516 E40.74052
G1 X91.185 Y178.063 E40.83614
G1 X90.554 Y177.408 E40.96848
G1 X90.179 Y176.957 E41.05383
G1 X89.58 Y176.194 E41.19499
G1 X89.191 Y175.682 E41.28855
G1 X88.72 Y175.042 E41.40418
G1 X88.069 Y174.04 E41.57806
G1 X87.918 Y173.775 E41.62244
G1 X87.688 Y173.355 E41.69212
G1 X87.275 Y172.576 E41.82042
G1 X86.933 Y171.912 E41.9291
G1 X86.58 Y171.154 E42.05078
G1 X86.426 Y170.772 E42.11071
G1 X86.227 Y170.25 E42.192
G1 X85.977 Y169.571 E42.29729
G1 X85.713 Y168.819 E42.41326
G1 X85.464 Y168 E42.53782
G1 X85.228 Y167.083 E42.6756
G1 X85.105 Y166.567 E42.75279
G1 X84.978 Y166.007 E42.83635
G1 X84.856 Y165.378 E42.92958
G1 X84.682 Y164.307 E43.08747
G1 X84.635 Y163.983 E43.13511
G1 X84.531 Y163.184 E43.25236
G1 X84.498 Y162.906 E43.29309
G1 X84.457 Y162.468 E43.35711
G1 X84.42 Y161.953 E43.43224
G1 X84.391 Y161.472 E43.50236
G1 X84.369 Y161.044 E43.56472
G1 X84.356 Y160.671 E43.61903
G1 X84.338 Y159.495 E43.79017
G1 X84.339 Y159.14 E43.84183
G1 X84.347 Y158.719 E43.9031
G1 X84.378 Y158.09 E43.99474
G1 X84.465 Y157.003 E44.15342
G1 X84.561 Y156.016 E44.29772
G1 X84.693 Y154.513 E44.51727
G1 X84.818 Y153.124 E44.7202
G1 X84.992 Y151.949 E44.89304
G1 X85.19 Y150.998 E45.03439
G1 X85.286 Y150.578 E45.09708
G1 X85.437 Y149.951 E45.19093
G1 X85.69 Y149.073 E45.32389
G1 X86.105 Y147.844 E45.51265
G1 X86.213 Y147.546 E45.55877
G1 X86.474 Y146.851 E45.6668
G1 X86.699 Y146.301 E45.75327
G1 X86.861 Y145.941 E45.81071
G1 X87.094 Y145.451 E45.88966
G1 X87.478 Y144.663 E46.01722
G1 X87.76 Y144.104 E46.10832
G1 X88.062 Y143.549 E46.20026
G1 X88.622 Y142.591 E46.36174
G1 X88.905 Y142.123 E46.44132
G1 X89.374 Y141.373 E46.57004
G1 X89.523 Y141.14 E46.61028
G1 X89.659 Y140.935 E46.64608
G1 X89.938 Y140.531 E46.71752
G1 X90.682 Y139.486 E46.90418
G1 X90.996 Y139.057 E46.98154
G1 X91.202 Y138.785 E47.03119
G1 X91.969 Y137.809 E47.21182
G1 X92.558 Y137.086 E47.34752
G1 X93.152 Y136.376 E47.48222
G1 X93.319 Y136.18 E47.51969
G1 X93.614 Y135.847 E47.58443
G1 X94.628 Y134.725 E47.80449
G1 X94.996 Y134.326 E47.88347
G1 X95.246 Y134.064 E47.93617
G1 X96.001 Y133.303 E48.09215
G1 X99.006 Y130.355 E48.70471
G1 X99.472 Y129.911 E48.79837
G1 X99.694 Y129.705 E48.84244
G1 X100.236 Y129.218 E48.94846
G1 X103.666 Y126.225 E49.61088
G1 X103.828 Y126.086 E49.64194
G1 X105.353 Y124.81 E49.93128
G1 F1500 E47.93128
;MESH:3-shaped_box.stl
G0 F6000 X121.91 Y124.174
G0 X127.893 Y128.733
G0 X133.034 Y132.869
G0 X137.641 Y136.885
G0 X141.62 Y140.79
G0 X143.357 Y142.716
G0 X144.901 Y144.616
G0 X146.243 Y146.504
G0 X147.374 Y148.373
G0 X148.281 Y150.231
G0 X148.948 Y152.083
G0 X149.36 Y153.933
G0 X149.797 Y158.739
G0 X149.802 Y160.249
G0 X151.011 Y165.578
G0 X151.698 Y167.452
G0 X152.671 Y169.276
G0 X153.966 Y170.989
G0 X155.617 Y172.516
G0 X156.598 Y173.198
G0 X157.688 Y173.818
G0 X158.879 Y174.358
G0 X160.161 Y174.806
G0 X160.969 Y175.014
G0 X163.01 Y175.426
G0 X163.428 Y173.047
;TYPE:WALL-INNER
G1 F1500 E49.93128
G1 F1200 X162.108 Y172.816 E50.12627
G1 X160.873 Y172.495 E50.31195
G1 X159.766 Y172.109 E50.48255
G1 X158.784 Y171.664 E50.63943
G1 X157.883 Y171.152 E50.79023
G1 X157.137 Y170.632 E50.92255
G1 X155.762 Y169.361 E51.19501
G1 X154.714 Y167.976 E51.44774
G1 X153.907 Y166.461 E51.69752
G1 X153.326 Y164.877 E51.94303
G1 X152.933 Y163.255 E52.18588
G1 X152.709 Y161.687 E52.41636
G1 X152.611 Y160.16 E52.63902
G1 X152.617 Y158.867 E52.82717
G1 X152.91 Y155.922 E53.25782
G1 X153.035 Y154.281 E53.4973
G1 X153.373 Y152.766 E53.72317
G1 X153.947 Y151.17 E53.96997
G1 X154.746 Y149.533 E54.23504
G1 X155.771 Y147.839 E54.52315
G1 X157.04 Y146.054 E54.84184
G1 X158.466 Y144.301 E55.17066
G1 X160.125 Y142.459 E55.53138
G1 X164.004 Y138.654 E56.32205
G1 X168.516 Y134.72 E57.19312
G1 X173.6 Y130.631 E58.1425
G1 X178.09 Y127.202 E58.96459
G1 X182.567 Y130.62 E59.78421
G1 X187.664 Y134.72 E60.73606
G1 X192.176 Y138.654 E61.60713
G1 X196.063 Y142.467 E62.39945
G1 X197.708 Y144.294 E62.75718
G1 X199.157 Y146.078 E63.09162
G1 X200.404 Y147.83 E63.40454
G1 X201.438 Y149.536 E63.69482
G1 X202.231 Y151.166 E63.95859
G1 X202.807 Y152.766 E64.20604
G1 X203.145 Y154.281 E64.43191
G1 X203.271 Y155.922 E64.6714
G1 X203.563 Y158.883 E65.10435
G1 X203.568 Y160.177 E65.29265
G1 X203.471 Y161.686 E65.51268
G1 X203.247 Y163.255 E65.7433
G1 X202.853 Y164.884 E65.98718
G1 X202.276 Y166.455 E66.23071
G1 X201.464 Y167.981 E66.48225
G1 X200.425 Y169.355 E66.73291
G1 X199.029 Y170.642 E67.0092
G1 X198.291 Y171.156 E67.14007
G1 X197.384 Y171.67 E67.29177
G1 X196.4 Y172.114 E67.44885
G1 X195.288 Y172.502 E67.62023
G1 X194.091 Y172.811 E67.80012
G1 X192.72 Y173.051 E68.00265
G1 X191.256 Y173.197 E68.21674
G1 X189.64 Y173.248 E68.45201
G1 X188.621 Y173.189 E68.60053
G1 X187.624 Y173.019 E68.7477
G1 X186.688 Y172.76 E68.88902
G1 X185.791 Y172.418 E69.02871
G1 X184.038 Y171.486 E69.31761
G1 X182.532 Y170.386 E69.58898
G1 X181.289 Y169.212 E69.83778
G1 X180.401 Y168.143 E70.04
G1 X179.932 Y167.371 E70.17144
G1 X179.401 Y165.559 E70.4462
G1 X176.779 Y165.559 E70.82773
G1 X176.248 Y167.371 E71.10249
G1 X175.781 Y168.139 E71.23328
G1 X174.883 Y169.219 E71.43767
G1 X173.651 Y170.382 E71.6842
G1 X172.142 Y171.487 E71.95635
G1 X170.389 Y172.418 E72.24518
G1 X169.482 Y172.763 E72.38639
G1 X168.543 Y173.023 E72.52816
G1 X167.562 Y173.189 E72.67294
G1 X166.541 Y173.248 E72.82176
G1 X164.925 Y173.197 E73.05702
G1 X163.428 Y173.047 E73.27595
G0 F6000 X163.345 Y173.743
G1 F1200 X161.948 Y173.498 E73.48233
G1 X160.672 Y173.167 E73.67415
G1 X159.504 Y172.759 E73.85418
G1 X158.474 Y172.293 E74.01869
G1 X157.509 Y171.744 E74.18024
G1 X156.696 Y171.178 E74.32439
G1 X155.242 Y169.834 E74.61251
G1 X154.157 Y168.398 E74.8744
G1 X154.121 Y168.351 E74.88302
G1 X153.267 Y166.75 E75.14706
G1 X152.655 Y165.081 E75.40573
G1 X152.244 Y163.384 E75.6598
G1 X152.011 Y161.754 E75.8994
G1 X151.911 Y160.188 E76.12774
G1 X151.917 Y158.825 E76.32608
G1 X152.213 Y155.861 E76.75952
G1 X152.341 Y154.18 E77.00484
G1 X152.701 Y152.566 E77.24547
G1 X153.3 Y150.901 E77.50295
G1 X154.133 Y149.193 E77.77947
G1 X155.187 Y147.452 E78.07561
G1 X156.478 Y145.636 E78.39983
G1 X157.935 Y143.844 E78.73591
G1 X159.617 Y141.977 E79.10157
G1 X163.531 Y138.137 E79.89944
G1 X168.056 Y134.192 E80.77299
G1 X173.175 Y130.075 E81.72889
G1 X178.09 Y126.322 E82.62875
G1 X183.006 Y130.075 E83.52872
G1 X188.124 Y134.192 E84.4845
G1 X192.649 Y138.137 E85.35805
G1 X196.563 Y141.977 E86.15592
G1 X198.239 Y143.838 E86.52035
G1 X199.699 Y145.637 E86.85749
G1 X199.717 Y145.658 E86.86152
G1 X200.994 Y147.452 E87.18195
G1 X202.048 Y149.192 E87.47797
G1 X202.066 Y149.23 E87.48409
G1 X202.88 Y150.901 E87.75456
G1 X203.479 Y152.566 E88.01204
G1 X203.489 Y152.613 E88.01903
G1 X203.827 Y154.128 E88.2449
G1 X203.839 Y154.18 E88.25267
G1 X203.968 Y155.861 E88.49799
G1 X204.263 Y158.843 E88.93403
G1 X204.268 Y160.205 E89.13222
G1 X204.169 Y161.753 E89.35794
G1 X203.936 Y163.384 E89.59768
G1 X203.524 Y165.088 E89.85278
G1 X202.916 Y166.744 E90.10948
G1 X202.057 Y168.356 E90.37527
G1 X200.942 Y169.831 E90.64432
