;FLAVOR:Marlin
;TIME:7622
;Filament used: 11.5141m
;Layer height: 0.25
;Generated with Cura_SteamEngine 3.6.0
M104 S220
M105
M109 S220
M82 ;absolute extrusion mode
G21 ;metric values
G90 ;absolute positioning
M82 ;set extruder to absolute mode
M107 ;start with the fan off
G28 X0 Y0 ;move X/Y to min endstops
G28 Z0 ;move Z to min endstops
G1 Z15.0 F120 ;move the platform down 15mm
G92 E0 ;zero the extruded length
G1 F200 E3 ;extrude 3mm of feed stock
G92 E0 ;zero the extruded length again
G1 F120
M117 Printing...
G5
G92 E0
G1 F2400 E-6
;LAYER_COUNT:254
;LAYER:0
M106 S255
M204 S3000
M205 X10 Y10
G0 F2400 X46.018 Y142.416 Z0.3
M204 S1800
M205 X8 Y8
;TYPE:SUPPORT
G1 F2400 E0
G1 F1200 X59.411 Y155.81 E1.2436
G1 X59.226 Y155.995 E1.26078
G1 X59.226 Y157.039 E1.32932
G1 X66.497 Y164.31 E2.00444
G1 X67.541 Y164.31 E2.07298
G1 X67.726 Y164.125 E2.09016
G1 X81.119 Y177.518 E3.33371
G1 X70.605 Y188.032 E4.30995
G1 X70.505 Y188.032 E4.31651
G1 X35.503 Y153.031 E7.56643
G1 X35.503 Y152.931 E7.573
G1 X46.018 Y142.416 E8.54933
M204 S3000
M205 X10 Y10
G0 F2400 X48 Y144.71
M204 S1800
M205 X8 Y8
G1 F1200 X48 Y165.216 E9.89566
M204 S3000
M205 X10 Y10
G0 F2400 X48.672 Y165.888
M204 S1800
M205 X8 Y8
G1 F1200 X60.776 Y158.9 E10.81328
M204 S3000
M205 X10 Y10
G0 F2400 X50.51 Y167.726
M204 S1800
M205 X8 Y8
G1 F1200 X75.924 Y182.399 E12.73999
M204 S3000
M205 X10 Y10
G0 F2400 X72 Y186.326
M204 S1800
M205 X8 Y8
G1 F1200 X72 Y168.71 E13.89658
M204 S3000
M205 X10 Y10
G0 F2400 X79.242 Y175.951
M204 S1800
M205 X8 Y8
G1 F1200 X66.241 Y183.457 E14.88221
M204 S3000
M205 X10 Y10
G1 F2400 E8.88221
;MESH:Kamerahalter_V3.stl
G0 F2400 X66.017 Y163.384
G0 X67.019 Y162.38
G0 X146.201 Y72.244
M204 S1800
M205 X8 Y8
;TYPE:WALL-INNER
G1 F2400 E14.88221
G1 F1200 X146.201 Y23.064 E18.11115
G1 X173.401 Y23.064 E19.89698
G1 X173.401 Y66.406 E22.74262
G1 X155.221 Y66.407 E23.93624
G1 X154.605 Y66.465 E23.97686
G1 X153.951 Y66.642 E24.02134
G1 X153.337 Y66.931 E24.0659
G1 X152.78 Y67.323 E24.11062
G1 X152.308 Y67.797 E24.15453
G1 X151.923 Y68.348 E24.19867
G1 X151.628 Y68.981 E24.24452
G1 X151.453 Y69.635 E24.28897
G1 X151.401 Y70.246 E24.32923
G1 X151.401 Y77.226 E24.7875
G1 X67.019 Y161.608 E32.62245
G1 X61.928 Y156.517 E33.09515
G1 X146.201 Y72.244 E40.91998
M204 S3000
M205 X10 Y10
G0 F2400 X145.641 Y72.012
M204 S1800
M205 X8 Y8
G1 F1200 X145.641 Y22.504 E44.17045
G1 X173.961 Y22.504 E46.02981
G1 X173.961 Y66.966 E48.94899
G1 X155.247 Y66.967 E50.17767
G1 X154.705 Y67.018 E50.21341
G1 X154.145 Y67.17 E50.25151
G1 X153.619 Y67.417 E50.28966
G1 X153.142 Y67.753 E50.32797
G1 X152.739 Y68.158 E50.36548
G1 X152.41 Y68.629 E50.4032
G1 X152.156 Y69.173 E50.44262
G1 X152.007 Y69.732 E50.4806
G1 X151.961 Y70.27 E50.51605
G1 X151.961 Y77.458 E50.98798
G1 X67.019 Y162.4 E58.87493
G1 X61.136 Y156.517 E59.42117
G1 X145.641 Y72.012 E67.26753
M204 S3000
M205 X10 Y10
G0 F2400 X145.181 Y71.821
M204 S1800
M205 X8 Y8
;TYPE:WALL-OUTER
G1 F1200 X145.181 Y22.044 E70.53567
G1 X174.421 Y22.044 E72.45543
G1 X174.421 Y67.426 E75.43501
G1 X155.268 Y67.427 E76.69251
G1 X154.787 Y67.472 E76.72423
G1 X154.304 Y67.603 E76.75709
G1 X153.851 Y67.816 E76.78995
G1 X153.44 Y68.106 E76.82298
G1 X153.093 Y68.454 E76.85524
G1 X152.81 Y68.86 E76.88774
G1 X152.59 Y69.331 E76.92187
G1 X152.462 Y69.811 E76.95448
G1 X152.421 Y70.29 E76.98605
G1 X152.421 Y77.648 E77.46914
G1 X67.019 Y163.05 E85.39879
G1 X60.486 Y156.517 E86.00539
G1 X145.181 Y71.821 E93.86944
M204 S3000
M205 X10 Y10
G0 F2400 X145.181 Y71.521
G0 X145.741 Y71.521
G0 X146.751 Y72.472
M204 S1800
M205 X8 Y8
;TYPE:SKIN
G1 F1200 X146.751 Y23.614 E97.07724
G1 X172.851 Y23.614 E98.79085
G1 X172.851 Y65.856 E101.56427
G1 X155.195 Y65.857 E102.72348
G1 X154.507 Y65.921 E102.76885
G1 X153.76 Y66.124 E102.81967
G1 X153.06 Y66.454 E102.87048
G1 X152.424 Y66.901 E102.92152
G1 X151.884 Y67.443 E102.97175
G1 X151.445 Y68.073 E103.02217
G1 X151.109 Y68.792 E103.07427
G1 X150.909 Y69.54 E103.12511
G1 X150.851 Y70.223 E103.17011
G1 X150.851 Y76.998 E103.61493
G1 X67.019 Y160.83 E111.39881
G1 X62.706 Y156.517 E111.79927
G1 X146.751 Y72.472 E119.60293
M204 S3000
M205 X10 Y10
G0 F2400 X172.589 Y24.493
M204 S1800
M205 X8 Y8
G1 F1200 X171.97 Y23.874 E119.6604
M204 S3000
M205 X10 Y10
G0 F2400 X171.178 Y23.874
M204 S1800
M205 X8 Y8
G1 F1200 X172.589 Y25.285 E119.79142
M204 S3000
M205 X10 Y10
G0 F2400 X172.589 Y26.077
M204 S1800
M205 X8 Y8
G1 F1200 X170.386 Y23.874 E119.99597
M204 S3000
M205 X10 Y10
G0 F2400 X169.594 Y23.874
M204 S1800
M205 X8 Y8
G1 F1200 X172.589 Y26.869 E120.27405
M204 S3000
M205 X10 Y10
G0 F2400 X172.589 Y27.661
M204 S1800
M205 X8 Y8
G1 F1200 X168.802 Y23.874 E120.62568
M204 S3000
M205 X10 Y10
G0 F2400 X168.01 Y23.874
M204 S1800
M205 X8 Y8
G1 F1200 X172.589 Y28.453 E121.05084
M204 S3000
M205 X10 Y10
G0 F2400 X172.589 Y29.245
M204 S1800
M205 X8 Y8
G1 F1200 X167.218 Y23.874 E121.54955
M204 S3000
M205 X10 Y10
G0 F2400 X166.426 Y23.874
M204 S1800
M205 X8 Y8
G1 F1200 X172.589 Y30.037 E122.12179
M204 S3000
M205 X10 Y10
G0 F2400 X172.589 Y30.829
M204 S1800
M205 X8 Y8
G1 F1200 X165.634 Y23.874 E122.76757
M204 S3000
M205 X10 Y10
G0 F2400 X164.842 Y23.874
M204 S1800
M205 X8 Y8
G1 F1200 X172.589 Y31.621 E123.48688
M204 S3000
M205 X10 Y10
G0 F2400 X172.589 Y32.413
M204 S1800
M205 X8 Y8
G1 F1200 X164.05 Y23.874 E124.27974
M204 S3000
M205 X10 Y10
G0 F2400 X163.258 Y23.874
M204 S1800
M205 X8 Y8
G1 F1200 X172.589 Y33.205 E125.14613
M204 S3000
M205 X10 Y10
G0 F2400 X172.589 Y33.996
M204 S1800
M205 X8 Y8
G1 F1200 X162.466 Y23.874 E126.08601
M204 S3000
M205 X10 Y10
G0 F2400 X161.675 Y23.874
M204 S1800
M205 X8 Y8
G1 F1200 X172.589 Y34.788 E127.09939
M204 S3000
M205 X10 Y10
G0 F2400 X172.589 Y35.58
M204 S1800
M205 X8 Y8
G1 F1200 X160.883 Y23.874 E128.1863
M204 S3000
M205 X10 Y10
G0 F2400 X160.091 Y23.874
M204 S1800
M205 X8 Y8
G1 F1200 X172.589 Y36.372 E129.34675
M204 S3000
M205 X10 Y10
G0 F2400 X172.589 Y37.164
M204 S1800
M205 X8 Y8
G1 F1200 X159.299 Y23.874 E130.58074
M204 S3000
M205 X10 Y10
G0 F2400 X158.507 Y23.874
M204 S1800
M205 X8 Y8
G1 F1200 X172.589 Y37.956 E131.88826
M204 S3000
M205 X10 Y10
G0 F2400 X172.589 Y38.748
M204 S1800
M205 X8 Y8
G1 F1200 X157.715 Y23.874 E133.26933
M204 S3000
M205 X10 Y10
G0 F2400 X156.923 Y23.874
M204 S1800
M205 X8 Y8
G1 F1200 X172.589 Y39.54 E134.72393
M204 S3000
M205 X10 Y10
G0 F2400 X172.589 Y40.332
M204 S1800
M205 X8 Y8
G1 F1200 X156.131 Y23.874 E136.25207
M204 S3000
M205 X10 Y10
G0 F2400 X155.339 Y23.874
M204 S1800
M205 X8 Y8
G1 F1200 X172.589 Y41.124 E137.85375
M204 S3000
M205 X10 Y10
G0 F2400 X172.589 Y41.916
M204 S1800
M205 X8 Y8
G1 F1200 X154.547 Y23.874 E139.52896
M204 S3000
M205 X10 Y10
G0 F2400 X153.755 Y23.874
M204 S1800
M205 X8 Y8
G1 F1200 X172.589 Y42.708 E141.27772
M204 S3000
M205 X10 Y10
G0 F2400 X172.589 Y43.5
M204 S1800
M205 X8 Y8
G1 F1200 X152.963 Y23.874 E143.10001
M204 S3000
M205 X10 Y10
G0 F2400 X152.171 Y23.874
M204 S1800
M205 X8 Y8
G1 F1200 X172.589 Y44.292 E144.99584
M204 S3000
M205 X10 Y10
G0 F2400 X172.589 Y45.084
M204 S1800
M205 X8 Y8
G1 F1200 X151.379 Y23.874 E146.96521
M204 S3000
M205 X10 Y10
G0 F2400 X150.587 Y23.874
M204 S1800
M205 X8 Y8
G1 F1200 X172.589 Y45.876 E149.00811
M204 S3000
M205 X10 Y10
G0 F2400 X172.589 Y46.668
M204 S1800
M205 X8 Y8
G1 F1200 X149.795 Y23.874 E151.12456
M204 S3000
M205 X10 Y10
G0 F2400 X149.003 Y23.874
M204 S1800
M205 X8 Y8
G1 F1200 X172.589 Y47.46 E153.31454
M204 S3000
M205 X10 Y10
G0 F2400 X172.589 Y48.252
M204 S1800
M205 X8 Y8
G1 F1200 X148.211 Y23.874 E155.57806
M204 S3000
M205 X10 Y10
G0 F2400 X147.419 Y23.874
M204 S1800
M205 X8 Y8
G1 F1200 X172.589 Y49.044 E157.91512
M204 S3000
M205 X10 Y10
G0 F2400 X172.589 Y49.836
M204 S1800
M205 X8 Y8
G1 F1200 X147.01 Y24.256 E160.2902
M204 S3000
M205 X10 Y10
G0 F2400 X147.01 Y25.048
M204 S1800
M205 X8 Y8
G1 F1200 X172.589 Y50.628 E162.66528
M204 S3000
M205 X10 Y10
G0 F2400 X172.589 Y51.42
M204 S1800
M205 X8 Y8
G1 F1200 X147.01 Y25.84 E165.04036
M204 S3000
M205 X10 Y10
G0 F2400 X147.01 Y26.632
M204 S1800
M205 X8 Y8
G1 F1200 X172.589 Y52.212 E167.41544
M204 S3000
M205 X10 Y10
G0 F2400 X172.589 Y53.004
M204 S1800
M205 X8 Y8
G1 F1200 X147.01 Y27.424 E169.79051
M204 S3000
M205 X10 Y10
G0 F2400 X147.01 Y28.216
M204 S1800
M205 X8 Y8
G1 F1200 X172.589 Y53.795 E172.16555
M204 S3000
M205 X10 Y10
G0 F2400 X172.589 Y54.587
M204 S1800
M205 X8 Y8
G1 F1200 X147.01 Y29.008 E174.54058
M204 S3000
M205 X10 Y10
G0 F2400 X147.01 Y29.8
M204 S1800
M205 X8 Y8
G1 F1200 X172.589 Y55.379 E176.91562
M204 S3000
M205 X10 Y10
G0 F2400 X172.589 Y56.171
M204 S1800
M205 X8 Y8
G1 F1200 X147.01 Y30.592 E179.29065
M204 S3000
M205 X10 Y10
G0 F2400 X147.01 Y31.384
M204 S1800
M205 X8 Y8
G1 F1200 X172.589 Y56.963 E181.66568
M204 S3000
M205 X10 Y10
G0 F2400 X172.589 Y57.755
M204 S1800
M205 X8 Y8
G1 F1200 X147.01 Y32.176 E184.04072
M204 S3000
M205 X10 Y10
G0 F2400 X147.01 Y32.968
M204 S1800
M205 X8 Y8
G1 F1200 X172.589 Y58.547 E186.41575
M204 S3000
M205 X10 Y10
G0 F2400 X172.589 Y59.339
M204 S1800
M205 X8 Y8
G1 F1200 X147.01 Y33.76 E188.79078
M204 S3000
M205 X10 Y10
G0 F2400 X147.01 Y34.552
M204 S1800
M205 X8 Y8
G1 F1200 X172.589 Y60.131 E191.16582
M204 S3000
M205 X10 Y10
G0 F2400 X172.589 Y60.923
M204 S1800
M205 X8 Y8
G1 F1200 X147.01 Y35.344 E193.54085
M204 S3000
M205 X10 Y10
G0 F2400 X147.01 Y36.135
M204 S1800
M205 X8 Y8
G1 F1200 X172.589 Y61.715 E195.91593
M204 S3000
M205 X10 Y10
G0 F2400 X172.589 Y62.507
M204 S1800
M205 X8 Y8
G1 F1200 X147.01 Y36.927 E198.29101
M204 S3000
M205 X10 Y10
G0 F2400 X147.01 Y37.719
M204 S1800
M205 X8 Y8
G1 F1200 X172.589 Y63.299 E200.66609
M204 S3000
M205 X10 Y10
G0 F2400 X172.589 Y64.091
M204 S1800
M205 X8 Y8
G1 F1200 X147.01 Y38.511 E203.04117
M204 S3000
M205 X10 Y10
G0 F2400 X147.01 Y39.303
M204 S1800
M205 X8 Y8
G1 F1200 X172.589 Y64.883 E205.41625
M204 S3000
M205 X10 Y10
G0 F2400 X172.51 Y65.596
M204 S1800
M205 X8 Y8
G1 F1200 X147.01 Y40.095 E207.78399
M204 S3000
M205 X10 Y10
G0 F2400 X147.01 Y40.887
M204 S1800
M205 X8 Y8
G1 F1200 X171.718 Y65.596 E210.0782
M204 S3000
M205 X10 Y10
G0 F2400 X170.926 Y65.596
M204 S1800
M205 X8 Y8
G1 F1200 X147.01 Y41.679 E212.29887
M204 S3000
M205 X10 Y10
G0 F2400 X147.01 Y42.471
M204 S1800
M205 X8 Y8
G1 F1200 X170.134 Y65.596 E214.446
M204 S3000
M205 X10 Y10
G0 F2400 X169.342 Y65.596
M204 S1800
M205 X8 Y8
G1 F1200 X147.01 Y43.263 E216.51959
M204 S3000
M205 X10 Y10
G0 F2400 X147.01 Y44.055
M204 S1800
M205 X8 Y8
G1 F1200 X168.55 Y65.596 E218.51965
M204 S3000
M205 X10 Y10
G0 F2400 X167.758 Y65.596
M204 S1800
M205 X8 Y8
G1 F1200 X147.01 Y44.847 E220.44616
M204 S3000
M205 X10 Y10
G0 F2400 X147.01 Y45.639
M204 S1800
M205 X8 Y8
G1 F1200 X166.967 Y65.596 E222.29919
M204 S3000
M205 X10 Y10
G0 F2400 X166.175 Y65.596
M204 S1800
M205 X8 Y8
G1 F1200 X147.01 Y46.431 E224.07868
M204 S3000
M205 X10 Y10
G0 F2400 X147.01 Y47.223
M204 S1800
M205 X8 Y8
G1 F1200 X165.383 Y65.596 E225.78463
M204 S3000
M205 X10 Y10
G0 F2400 X164.591 Y65.596
M204 S1800
M205 X8 Y8
G1 F1200 X147.01 Y48.015 E227.41704
M204 S3000
M205 X10 Y10
G0 F2400 X147.01 Y48.807
M204 S1800
M205 X8 Y8
G1 F1200 X163.799 Y65.596 E228.97591
M204 S3000
M205 X10 Y10
G0 F2400 X163.007 Y65.596
M204 S1800
M205 X8 Y8
G1 F1200 X147.01 Y49.599 E230.46125
M204 S3000
M205 X10 Y10
G0 F2400 X147.01 Y50.391
M204 S1800
M205 X8 Y8
G1 F1200 X162.215 Y65.596 E231.87305
M204 S3000
M205 X10 Y10
G0 F2400 X161.423 Y65.596
M204 S1800
M205 X8 Y8
G1 F1200 X147.01 Y51.183 E233.21131
M204 S3000
M205 X10 Y10
G0 F2400 X147.01 Y51.975
M204 S1800
M205 X8 Y8
G1 F1200 X160.631 Y65.596 E234.47603
M204 S3000
M205 X10 Y10
G0 F2400 X159.839 Y65.596
M204 S1800
M205 X8 Y8
G1 F1200 X147.01 Y52.767 E235.66721
M204 S3000
M205 X10 Y10
G0 F2400 X147.01 Y53.559
M204 S1800
M205 X8 Y8
G1 F1200 X159.047 Y65.596 E236.78486
M204 S3000
M205 X10 Y10
G0 F2400 X158.255 Y65.596
M204 S1800
M205 X8 Y8
G1 F1200 X147.01 Y54.351 E237.82897
M204 S3000
M205 X10 Y10
G0 F2400 X147.01 Y55.143
M204 S1800
M205 X8 Y8
G1 F1200 X157.463 Y65.596 E238.79954
M204 S3000
M205 X10 Y10
G0 F2400 X156.671 Y65.596
M204 S1800
M205 X8 Y8
G1 F1200 X147.01 Y55.934 E239.69662
M204 S3000
M205 X10 Y10
G0 F2400 X147.01 Y56.726
M204 S1800
M205 X8 Y8
G1 F1200 X155.879 Y65.596 E240.52016
M204 S3000
M205 X10 Y10
G0 F2400 X155.096 Y65.604
M204 S1800
M205 X8 Y8
G1 F1200 X147.01 Y57.518 E241.27095
M204 S3000
M205 X10 Y10
G0 F2400 X147.01 Y58.31
M204 S1800
M205 X8 Y8
G1 F1200 X154.383 Y65.683 E241.95554
M204 S3000
M205 X10 Y10
G0 F2400 X153.761 Y65.853
M204 S1800
M205 X8 Y8
G1 F1200 X147.01 Y59.102 E242.58238
M204 S3000
M205 X10 Y10
G0 F2400 X147.01 Y59.894
M204 S1800
M205 X8 Y8
G1 F1200 X153.21 Y66.094 E243.15805
M204 S3000
M205 X10 Y10
G0 F2400 X152.706 Y66.383
M204 S1800
M205 X8 Y8
G1 F1200 X147.01 Y60.686 E243.68698
M204 S3000
M205 X10 Y10
G0 F2400 X147.01 Y61.478
M204 S1800
M205 X8 Y8
G1 F1200 X152.244 Y66.712 E244.17296
M204 S3000
M205 X10 Y10
G0 F2400 X151.849 Y67.109
M204 S1800
M205 X8 Y8
G1 F1200 X147.01 Y62.27 E244.62226
M204 S3000
M205 X10 Y10
G0 F2400 X147.01 Y63.062
M204 S1800
M205 X8 Y8
G1 F1200 X151.494 Y67.547 E245.03865
M204 S3000
M205 X10 Y10
G0 F2400 X151.18 Y68.025
M204 S1800
M205 X8 Y8
G1 F1200 X147.01 Y63.854 E245.42589
M204 S3000
M205 X10 Y10
G0 F2400 X147.01 Y64.646
M204 S1800
M205 X8 Y8
G1 F1200 X150.928 Y68.564 E245.78968
M204 S3000
M205 X10 Y10
G0 F2400 X150.738 Y69.167
M204 S1800
M205 X8 Y8
G1 F1200 X147.01 Y65.438 E246.13587
M204 S3000
M205 X10 Y10
G0 F2400 X147.01 Y66.23
M204 S1800
M205 X8 Y8
G1 F1200 X150.622 Y69.842 E246.47125
M204 S3000
M205 X10 Y10
G0 F2400 X150.59 Y70.602
M204 S1800
M205 X8 Y8
G1 F1200 X147.01 Y67.022 E246.80366
M204 S3000
M205 X10 Y10
G0 F2400 X147.01 Y67.814
M204 S1800
M205 X8 Y8
G1 F1200 X150.59 Y71.394 E247.13606
M204 S3000
M205 X10 Y10
G0 F2400 X150.59 Y72.186
M204 S1800
M205 X8 Y8
G1 F1200 X147.01 Y68.606 E247.46847
M204 S3000
M205 X10 Y10
G0 F2400 X147.01 Y69.398
M204 S1800
M205 X8 Y8
G1 F1200 X150.59 Y72.978 E247.80088
M204 S3000
M205 X10 Y10
G0 F2400 X150.59 Y73.77
M204 S1800
M205 X8 Y8
G1 F1200 X147.01 Y70.19 E248.13328
M204 S3000
M205 X10 Y10
G0 F2400 X147.01 Y70.982
M204 S1800
M205 X8 Y8
G1 F1200 X150.59 Y74.562 E248.46569
M204 S3000
M205 X10 Y10
G0 F2400 X150.59 Y75.354
M204 S1800
M205 X8 Y8
G1 F1200 X147.01 Y71.774 E248.7981
M204 S3000
M205 X10 Y10
G0 F2400 X147.01 Y72.566
M204 S1800
M205 X8 Y8
G1 F1200 X150.59 Y76.146 E249.1305
M204 S3000
M205 X10 Y10
G0 F2400 X150.566 Y76.914
M204 S1800
M205 X8 Y8
G1 F1200 X146.621 Y72.969 E249.4968
M204 S3000
M205 X10 Y10
G0 F2400 X146.225 Y73.365
M204 S1800
M205 X8 Y8
G1 F1200 X150.17 Y77.31 E249.8631
M204 S3000
M205 X10 Y10
G0 F2400 X149.774 Y77.706
M204 S1800
M205 X8 Y8
G1 F1200 X145.829 Y73.761 E250.22939
M204 S3000
M205 X10 Y10
G0 F2400 X145.433 Y74.157
M204 S1800
M205 X8 Y8
G1 F1200 X149.378 Y78.102 E250.59569
M204 S3000
M205 X10 Y10
G0 F2400 X148.982 Y78.498
M204 S1800
M205 X8 Y8
G1 F1200 X145.037 Y74.553 E250.96199
M204 S3000
M205 X10 Y10
G0 F2400 X144.641 Y74.949
M204 S1800
M205 X8 Y8
G1 F1200 X148.586 Y78.894 E251.32828
M204 S3000
M205 X10 Y10
G0 F2400 X148.19 Y79.29
M204 S1800
M205 X8 Y8
G1 F1200 X144.245 Y75.345 E251.69458
M204 S3000
M205 X10 Y10
G0 F2400 X143.849 Y75.741
M204 S1800
M205 X8 Y8
G1 F1200 X147.794 Y79.685 E252.06083
M204 S3000
M205 X10 Y10
G0 F2400 X147.398 Y80.081
M204 S1800
M205 X8 Y8
G1 F1200 X143.453 Y76.137 E252.42708
M204 S3000
M205 X10 Y10
G0 F2400 X143.057 Y76.532
M204 S1800
M205 X8 Y8
G1 F1200 X147.002 Y80.477 E252.79338
M204 S3000
M205 X10 Y10
G0 F2400 X146.606 Y80.873
M204 S1800
M205 X8 Y8
G1 F1200 X142.661 Y76.928 E253.15967
M204 S3000
M205 X10 Y10
G0 F2400 X142.265 Y77.324
M204 S1800
M205 X8 Y8
G1 F1200 X146.21 Y81.269 E253.52597
M204 S3000
M205 X10 Y10
G0 F2400 X145.814 Y81.665
M204 S1800
M205 X8 Y8
G1 F1200 X141.869 Y77.72 E253.89227
M204 S3000
M205 X10 Y10
G0 F2400 X141.473 Y78.116
M204 S1800
M205 X8 Y8
G1 F1200 X145.418 Y82.061 E254.25856
M204 S3000
M205 X10 Y10
G0 F2400 X145.022 Y82.457
M204 S1800
M205 X8 Y8
G1 F1200 X141.077 Y78.512 E254.62486
M204 S3000
M205 X10 Y10
G0 F2400 X140.681 Y78.908
M204 S1800
M205 X8 Y8
G1 F1200 X144.626 Y82.853 E254.99116
M204 S3000
M205 X10 Y10
