;FLAVOR:Marlin
;TIME:1853
;Filament used: 1.1782m
;Layer height: 0.2
;MINX:16.49
;MINY:59.603
;MINZ:0.2
;MAXX:58.218
;MAXY:119.001
;MAXZ:14.8
;Generated with Cura_SteamEngine 4.10.0
M140 S30
M105
M190 S30
M104 S230
M105
M109 S230
M82 ;absolute extrusion mode
G21 ;metric values
G90 ;absolute positioning
M82 ;set extruder to absolute mode
M107 ;start with the fan off
G28 X0 Y0 ;move X/Y to min endstops
G28 Z0 ;move Z to min endstops
M501
M420 S1 ;Marlin Bed-leveling on
G1 Z15.0 F120 ;move the platform down 15mm
G92 E0 ;zero the extruded length
G1 F200 E3 ;extrude 3mm of feed stock
G92 E0 ;zero the extruded length again
G1 F120
M117 Printing...
G5
G92 E0
G92 E0
G1 F2700 E-6
;LAYER_COUNT:75
;LAYER:0
M107
M204 S3000
M205 X10 Y10
G1 F600 Z0.275
;MESH:v2_duct.stl
G0 F2400 X21.964 Y74.402 Z0.275
M204 S1800
M205 X8 Y8
;TYPE:WALL-INNER
G1 F600 Z0.2
G1 F2700 E0
G1 F1200 X22.032 Y74.738 E0.015
G1 X22.097 Y75.052 E0.02904
G1 X22.181 Y75.462 E0.04736
G1 X22.318 Y76.125 E0.07699
G1 X22.055 Y75.489 E0.08076
G1 X21.672 Y75.319 E0.09282
G1 X21.244 Y75.129 E0.11332
G1 X21.061 Y75.048 E0.12208
G1 X20.814 Y74.946 E0.13378
G1 X21.066 Y74.962 E0.13446
G1 X21.31 Y74.978 E0.13772
G1 X21.842 Y74.306 E0.17524
G1 X22.101 Y73.979 E0.1935
G1 X25.978 Y69.079 E0.46699
G1 X30.549 Y65.366 E0.72475
G1 X35.667 Y62.716 E0.97701
G1 X40.988 Y61.185 E1.21937
G1 X43.025 Y60.997 E1.3089
G1 X43.329 Y60.97 E1.32226
G1 X43.329 Y61.275 E1.33069
G1 X43.329 Y61.276 E1.33073
G1 X43.329 Y68.675 E1.65459
G1 X43.329 Y68.676 E1.65463
G1 X43.329 Y70.083 E1.71622
G1 X42.791 Y68.782 E1.74762
G1 X42.767 Y68.725 E1.75033
G1 X38.689 Y67.037 E1.94351
G1 X34.612 Y68.725 E2.13665
G1 X32.924 Y72.802 E2.32979
G1 X34.612 Y76.879 E2.52294
G1 X37.042 Y77.885 E2.63805
G1 X37.529 Y78.087 E2.66113
G1 X37.088 Y78.377 E2.67402
G1 X35.987 Y79.1 E2.73167
G1 X33.118 Y83.466 E2.96034
G1 X32.779 Y83.982 E2.98736
G1 X32.589 Y84.978 E3.03174
G1 X32.589 Y83.982 E3.03898
G1 X32.589 Y83.364 E3.05747
G1 X32.589 Y74.402 E3.44974
G1 X22.382 Y74.402 E3.89651
G1 X22.307 Y74.402 E3.89979
G1 X22.306 Y74.402 E3.89983
G1 X21.964 Y74.402 E3.909
M204 S3000
M205 X10 Y10
G0 F2400 X22.105 Y77.518
G0 X20.189 Y98.687
M204 S1800
M205 X8 Y8
G1 F1200 X19.331 Y99.042 E3.94965
G1 X19.287 Y99.06 E3.95173
G1 X18.825 Y99.251 E3.97361
G1 X19.104 Y98.619 E3.98992
G1 X19.093 Y98.573 E3.99187
G1 X18.074 Y94.524 E4.17463
G1 X17.595 Y89.302 E4.40415
G1 X18.074 Y84.077 E4.63381
G1 X19.094 Y80.032 E4.81641
G1 X19.105 Y79.987 E4.81843
G1 X18.825 Y79.353 E4.84877
G1 X19.287 Y79.544 E4.85671
G1 X19.33 Y79.561 E4.85874
G1 X20.189 Y79.917 E4.89944
G1 X20.928 Y79.611 E4.93445
G1 X21.255 Y79.476 E4.94993
G1 X21.47 Y79.387 E4.96012
G1 X21.289 Y79.556 E4.9614
G1 X21.289 Y79.91 E4.97144
G1 X21.289 Y98.693 E5.79358
G1 X21.289 Y99.043 E5.8089
G1 X21.475 Y99.219 E5.82011
G1 X21.255 Y99.128 E5.82078
G1 X20.932 Y98.995 E5.83074
G1 X20.189 Y98.687 E5.86594
M204 S3000
M205 X10 Y10
G0 F2400 X21.485 Y100.006
G0 X22.021 Y101.302
G0 X21.964 Y104.202
M204 S1800
M205 X8 Y8
G1 F1200 X22.307 Y104.202 E5.88095
G1 X22.381 Y104.202 E5.88419
G1 X32.589 Y104.202 E6.331
G1 X32.589 Y95.241 E6.72323
G1 X32.589 Y94.623 E6.75028
G1 X32.589 Y93.627 E6.79387
G1 X32.779 Y94.623 E6.80186
G1 X33.118 Y95.139 E6.82032
G1 X35.987 Y99.505 E7.04899
G1 X37.087 Y100.228 E7.10661
G1 X37.528 Y100.518 E7.12971
G1 X37.04 Y100.719 E7.14258
G1 X34.612 Y101.725 E7.25762
G1 X32.924 Y105.802 E7.45076
G1 X34.612 Y109.879 E7.6439
G1 X38.689 Y111.567 E7.83705
G1 X42.767 Y109.879 E8.03023
G1 X42.791 Y109.822 E8.03294
G1 X43.329 Y108.522 E8.09452
G1 X43.329 Y109.928 E8.12588
G1 X43.329 Y109.929 E8.12592
G1 X43.329 Y117.328 E8.44978
G1 X43.329 Y117.329 E8.44982
G1 X43.329 Y117.634 E8.46317
G1 X43.025 Y117.607 E8.4716
G1 X40.988 Y117.419 E8.56114
G1 X35.667 Y115.889 E8.80348
G1 X30.549 Y113.238 E9.05577
G1 X25.978 Y109.525 E9.31353
G1 X22.1 Y104.627 E9.58698
G1 X21.842 Y104.3 E9.60521
G1 X21.311 Y103.629 E9.64266
G1 X20.81 Y103.66 E9.66464
G1 X21.248 Y103.479 E9.66734
G1 X22.039 Y103.152 E9.7048
G1 X22.319 Y102.476 E9.73683
G1 X22.175 Y103.179 E9.74054
G1 X22.033 Y103.866 E9.77125
G1 X21.964 Y104.202 E9.78045
M204 S3000
M205 X10 Y10
G0 F2400 X18.768 Y102.723
M204 S1800
M205 X8 Y8
G1 F1200 X20.189 Y103.311 E9.84776
G1 X21.61 Y102.723 E9.91508
G1 X22.198 Y101.302 E9.98239
G1 X21.61 Y99.881 E10.0497
G1 X20.189 Y99.293 E10.11701
G1 X18.768 Y99.881 E10.18433
G1 X18.18 Y101.302 E10.25164
G1 X18.768 Y102.723 E10.31895
M204 S3000
M205 X10 Y10
G0 F2400 X18.357 Y101.302
G0 X22.31 Y77.571
M204 S1800
M205 X8 Y8
G1 F1200 X21.623 Y75.91 E10.39763
G1 X20.84 Y75.563 E10.43511
G1 X20.189 Y75.293 E10.46596
G1 X18.768 Y75.881 E10.53327
G1 X18.18 Y77.302 E10.60059
G1 X18.768 Y78.723 E10.6679
G1 X20.189 Y79.311 E10.73521
G1 X21.61 Y78.723 E10.80252
G1 X21.977 Y77.838 E10.84446
G1 X22.31 Y77.571 E10.86314
M204 S3000
M205 X10 Y10
G0 F2400 X22.651 Y74.962
M204 S1800
M205 X8 Y8
G1 F1200 X22.72 Y75.298 E10.87815
G1 X23.116 Y77.224 E10.96422
G1 X22.176 Y79.494 E11.07176
G1 X21.849 Y79.799 E11.09133
G1 X21.849 Y98.802 E11.9231
G1 X22.173 Y99.108 E11.94261
G1 X23.115 Y101.385 E12.05046
G1 X22.72 Y103.306 E12.13631
G1 X22.651 Y103.642 E12.15132
G1 X22.994 Y103.642 E12.16052
G1 X32.029 Y103.642 E12.55599
G1 X32.029 Y90.651 E13.12461
G1 X32.029 Y89.302 E13.18365
G1 X32.029 Y87.954 E13.24266
G1 X32.029 Y74.962 E13.81132
G1 X22.994 Y74.962 E14.20678
G1 X22.651 Y74.962 E14.21599
M204 S3000
M205 X10 Y10
G0 F2400 X21.053 Y74.4
M204 S1800
M205 X8 Y8
G1 F1200 X25.577 Y68.683 E14.53509
G1 X30.239 Y64.896 E14.79799
G1 X35.458 Y62.193 E15.05525
G1 X40.886 Y60.632 E15.30246
G1 X43.585 Y60.384 E15.4211
G1 X43.889 Y60.356 E15.43446
G1 X43.889 Y60.661 E15.44288
G1 X43.889 Y60.662 E15.44293
G1 X43.889 Y71.497 E15.91718
G1 X43.889 Y72.802 E15.9743
G1 X43.889 Y74.107 E16.03142
G1 X43.889 Y75.885 E16.10924
G1 X42.968 Y76.061 E16.15029
G1 X42.967 Y76.062 E16.15035
G1 X42.459 Y76.158 E16.17298
G1 X42.657 Y75.68 E16.18567
G1 X43.349 Y74.008 E16.26487
G1 X43.848 Y72.802 E16.29604
G1 X43.349 Y71.597 E16.32717
G1 X42.338 Y69.154 E16.44289
G1 X38.689 Y67.643 E16.61576
G1 X35.041 Y69.154 E16.78859
G1 X33.53 Y72.802 E16.96142
G1 X35.041 Y76.45 E17.13425
G1 X38.226 Y77.769 E17.28514
G1 X38.689 Y77.961 E17.30708
G1 X38.825 Y77.905 E17.31352
G1 X38.705 Y77.984 E17.31361
G1 X38.286 Y78.259 E17.32634
G1 X36.391 Y79.504 E17.42559
G1 X33.308 Y84.196 E17.67132
G1 X32.586 Y87.978 E17.83985
G1 X32.334 Y89.302 E17.88547
G1 X32.586 Y90.627 E17.93112
G1 X33.308 Y94.409 E18.09965
G1 X36.391 Y99.101 E18.34538
G1 X38.282 Y100.344 E18.44443
G1 X38.703 Y100.62 E18.46647
G1 X38.821 Y100.698 E18.47266
G1 X38.689 Y100.643 E18.47287
G1 X38.224 Y100.835 E18.48561
G1 X35.041 Y102.154 E18.63642
G1 X33.53 Y105.802 E18.80925
G1 X35.041 Y109.45 E18.98208
G1 X38.689 Y110.961 E19.15491
G1 X42.338 Y109.45 E19.32778
G1 X43.349 Y107.01 E19.44338
G1 X43.842 Y105.82 E19.49976
G1 X43.553 Y105.123 E19.53279
G1 X43.402 Y104.724 E19.55146
G1 X43.332 Y104.555 E19.55947
G1 X42.657 Y102.925 E19.63669
G1 X42.459 Y102.447 E19.65934
G1 X42.967 Y102.543 E19.672
G1 X42.968 Y102.544 E19.67206
G1 X43.889 Y102.72 E19.7131
G1 X43.889 Y104.541 E19.79281
G1 X43.889 Y104.724 E19.79989
G1 X43.889 Y105.123 E19.81264
G1 X43.889 Y105.82 E19.82265
G1 X43.889 Y107.109 E19.85374
G1 X43.889 Y117.942 E20.32791
G1 X43.889 Y117.943 E20.32795
G1 X43.889 Y118.248 E20.3413
G1 X43.585 Y118.22 E20.34973
G1 X40.886 Y117.972 E20.46837
G1 X35.458 Y116.412 E20.71557
G1 X30.239 Y113.708 E20.97285
G1 X25.577 Y109.921 E21.23574
G1 X21.054 Y104.206 E21.55475
G1 X20.331 Y104.251 E21.58646
G1 X18.145 Y103.346 E21.69002
G1 X17.302 Y101.314 E21.78631
G1 X18.514 Y98.569 E21.91765
G1 X17.52 Y94.617 E22.09602
G1 X17.032 Y89.302 E22.32964
G1 X17.52 Y83.984 E22.56339
G1 X18.515 Y80.037 E22.74155
G1 X17.302 Y77.29 E22.87299
G1 X18.145 Y75.258 E22.96928
G1 X20.33 Y74.353 E23.0728
G1 X21.053 Y74.4 E23.10451
M204 S3000
M205 X10 Y10
G0 F2400 X20.842 Y73.925
M204 S1800
M205 X8 Y8
;TYPE:WALL-OUTER
G1 F1200 X25.248 Y68.358 E23.41526
G1 X29.985 Y64.51 E23.68239
G1 X35.287 Y61.764 E23.94374
G1 X40.801 Y60.178 E24.19488
G1 X44.045 Y59.88 E24.33746
G1 X44.349 Y59.852 E24.35083
G1 X44.349 Y60.157 E24.35925
G1 X44.349 Y60.158 E24.3593
G1 X44.349 Y76.266 E25.06435
G1 X41.921 Y76.73 E25.17255
G1 X41.259 Y76.856 E25.20204
G1 X40.65 Y77.256 E25.23393
G1 X36.723 Y79.836 E25.4396
G1 X33.743 Y84.372 E25.67715
G1 X32.802 Y89.302 E25.89684
G1 X33.743 Y94.233 E26.11656
G1 X36.723 Y98.769 E26.35412
G1 X40.645 Y101.346 E26.55953
G1 X41.259 Y101.749 E26.59167
G1 X41.928 Y101.876 E26.62148
G1 X44.349 Y102.339 E26.72937
G1 X44.349 Y118.446 E27.43438
G1 X44.349 Y118.447 E27.43442
G1 X44.349 Y118.752 E27.44777
G1 X44.045 Y118.724 E27.4562
G1 X40.801 Y118.426 E27.59879
G1 X35.287 Y116.841 E27.84991
G1 X29.985 Y114.094 E28.11128
G1 X25.248 Y110.246 E28.37841
G1 X20.843 Y104.68 E28.6891
G1 X20.253 Y104.717 E28.71498
G1 X17.793 Y103.698 E28.83153
G1 X16.802 Y101.308 E28.94477
G1 X18.029 Y98.528 E29.07778
G1 X17.065 Y94.694 E29.25082
G1 X16.57 Y89.302 E29.48782
G1 X17.065 Y83.907 E29.72495
G1 X18.03 Y80.078 E29.89779
G1 X16.802 Y77.296 E30.03089
G1 X17.793 Y74.906 E30.14414
G1 X20.253 Y73.887 E30.26069
G1 X20.842 Y73.925 E30.28652
M204 S3000
M205 X10 Y10
G0 F2400 X21.028 Y73.69
G0 X21.309 Y73.914
G0 X22.864 Y75.494
G0 X23.215 Y75.422
M204 S1800
M205 X8 Y8
G1 F1200 X23.284 Y75.758 E30.30154
G1 X23.595 Y77.269 E30.36906
G1 X22.563 Y79.762 E30.48716
G1 X22.309 Y79.999 E30.50237
G1 X22.309 Y98.604 E31.31671
G1 X22.561 Y98.842 E31.33188
G1 X23.594 Y101.34 E31.4502
G1 X23.284 Y102.846 E31.5175
G1 X23.215 Y103.182 E31.53252
G1 X23.558 Y103.182 E31.54172
G1 X31.569 Y103.182 E31.89236
G1 X31.569 Y75.422 E33.10743
G1 X23.558 Y75.422 E33.45807
G1 X23.215 Y75.422 E33.46728
M204 S3000
M205 X10 Y10
G0 F2400 X23.275 Y75.715
G0 X22.924 Y75.787
G0 X22.085 Y77.291
G0 X21.753 Y77.428
M204 S1800
M205 X8 Y8
G1 F1200 X21.268 Y76.256 E33.52279
G1 X20.659 Y75.986 E33.55195
G1 X20.189 Y75.791 E33.57422
G1 X19.12 Y76.233 E33.62486
G1 X18.678 Y77.302 E33.67549
G1 X19.12 Y78.371 E33.72612
G1 X20.189 Y78.813 E33.77675
G1 X21.258 Y78.371 E33.82739
G1 X21.597 Y77.553 E33.86614
G1 X21.753 Y77.428 E33.87489
M204 S3000
M205 X10 Y10
G0 F2400 X21.639 Y77.151
G0 X21.971 Y77.015
G0 X22.866 Y75.137
G0 X31.857 Y75.134
G0 X35.255 Y76.43
G0 X35.393 Y76.098
M204 S1800
M205 X8 Y8
G1 F1200 X38.689 Y77.463 E34.03104
G1 X40.424 Y76.744 E34.11325
G1 X41.097 Y76.466 E34.14121
G1 X41.719 Y76.209 E34.16705
G1 X41.986 Y76.098 E34.17971
G1 X43.35 Y72.802 E34.33584
G1 X41.986 Y69.506 E34.49198
G1 X38.689 Y68.141 E34.64817
G1 X35.393 Y69.506 E34.80431
G1 X34.028 Y72.802 E34.96046
G1 X35.393 Y76.098 E35.11661
M204 S3000
M205 X10 Y10
G0 F2400 X35.67 Y76.212
G0 X35.532 Y76.544
G0 X31.852 Y86.373
G0 X31.857 Y103.47
G0 X22.866 Y103.467
G0 X22.013 Y98.73
G0 X18.893 Y100.006
G0 X18.357 Y101.302
G0 X18.982 Y102.703
G0 X19.12 Y102.371
M204 S1800
M205 X8 Y8
G1 F1200 X20.189 Y102.813 E35.16725
G1 X21.258 Y102.371 E35.21788
G1 X21.7 Y101.302 E35.26851
G1 X21.258 Y100.233 E35.31914
G1 X20.189 Y99.791 E35.36978
G1 X19.12 Y100.233 E35.42041
G1 X18.678 Y101.302 E35.47104
G1 X19.12 Y102.371 E35.52167
M204 S3000
M205 X10 Y10
G0 F2400 X19.397 Y102.485
G0 X19.259 Y102.817
G0 X35.255 Y109.43
G0 X35.393 Y109.098
M204 S1800
M205 X8 Y8
G1 F1200 X38.689 Y110.463 E35.67782
G1 X41.986 Y109.098 E35.83401
G1 X43.344 Y105.82 E35.98932
G1 X43.128 Y105.299 E36.014
G1 X42.974 Y104.894 E36.03297
G1 X41.986 Y102.506 E36.14608
G1 X41.727 Y102.399 E36.15835
G1 X41.098 Y102.139 E36.18446
G1 X40.419 Y101.858 E36.21265
G1 X38.689 Y101.141 E36.29462
G1 X35.393 Y102.506 E36.45077
G1 X34.028 Y105.802 E36.60692
G1 X35.393 Y109.098 E36.76307
M204 S3000
M205 X10 Y10
G0 F2400 X35.67 Y109.212
G0 X35.532 Y109.544
G0 X34.191 Y110.3
M204 S1800
M205 X8 Y8
;TYPE:SKIN
G1 F1200 X38.689 Y112.162 E36.97615
G1 X42.779 Y110.469 E37.1699
G1 X42.779 Y117.031 E37.45712
G1 X41.085 Y116.875 E37.53158
G1 X35.877 Y115.378 E37.76877
G1 X30.851 Y112.774 E38.01653
G1 X26.375 Y109.138 E38.26894
G1 X22.903 Y104.752 E38.51379
G1 X32.764 Y104.752 E38.94541
G1 X32.329 Y105.802 E38.99515
G1 X34.191 Y110.3 E39.20824
M204 S3000
M205 X10 Y10
G0 F2400 X33.139 Y103.845
M204 S1800
M205 X8 Y8
G1 F1200 X33.139 Y96.173 E39.54404
G1 X35.59 Y99.902 E39.73936
G1 X36.358 Y100.407 E39.77959
G1 X34.191 Y101.304 E39.88225
G1 X33.139 Y103.845 E40.00262
M204 S3000
M205 X10 Y10
G0 F2400 X33.398 Y97.547
M204 S1800
M205 X8 Y8
G1 F1200 X34.372 Y98.521 E40.06291
M204 S3000
M205 X10 Y10
G0 F2400 X33.398 Y98.339
M204 S1800
M205 X8 Y8
G1 F1200 X35.527 Y100.468 E40.1947
M204 S3000
M205 X10 Y10
G0 F2400 X34.967 Y100.7
M204 S1800
M205 X8 Y8
G1 F1200 X33.398 Y99.131 E40.29182
M204 S3000
M205 X10 Y10
G0 F2400 X33.398 Y99.923
M204 S1800
M205 X8 Y8
G1 F1200 X34.407 Y100.932 E40.35428
M204 S3000
M205 X10 Y10
G0 F2400 X33.932 Y101.249
M204 S1800
M205 X8 Y8
G1 F1200 X33.398 Y100.715 E40.38734
M204 S3000
M205 X10 Y10
G0 F2400 X33.398 Y101.507
M204 S1800
M205 X8 Y8
G1 F1200 X33.7 Y101.809 E40.40603
M204 S3000
M205 X10 Y10
G0 F2400 X32.151 Y105.011
M204 S1800
M205 X8 Y8
G1 F1200 X32.309 Y105.17 E40.41584
M204 S3000
M205 X10 Y10
G0 F2400 X32.077 Y105.729
M204 S1800
M205 X8 Y8
G1 F1200 X31.359 Y105.011 E40.46029
M204 S3000
M205 X10 Y10
G0 F2400 X30.567 Y105.011
M204 S1800
M205 X8 Y8
G1 F1200 X32.534 Y106.978 E40.58204
G1 X32.604 Y107.048
M204 S3000
M205 X10 Y10
G0 F2400 X33.094 Y108.33
M204 S1800
M205 X8 Y8
G1 F1200 X29.775 Y105.011 E40.78749
M204 S3000
M205 X10 Y10
G0 F2400 X28.983 Y105.011
M204 S1800
M205 X8 Y8
G1 F1200 X33.654 Y109.682 E41.07663
G1 X33.724 Y109.752
M204 S3000
M205 X10 Y10
G0 F2400 X34.808 Y110.836
M204 S1800
M205 X8 Y8
G1 F1200 X40.37 Y116.398 E41.42092
M204 S3000
M205 X10 Y10
G0 F2400 X41.406 Y116.642
M204 S1800
M205 X8 Y8
G1 F1200 X36.16 Y111.396 E41.74565
G1 X36.09 Y111.326
M204 S3000
M205 X10 Y10
G0 F2400 X37.512 Y111.956
M204 S1800
M205 X8 Y8
G1 F1200 X42.278 Y116.722 E42.04067
M204 S3000
M205 X10 Y10
G0 F2400 X42.519 Y116.171
M204 S1800
M205 X8 Y8
G1 F1200 X38.761 Y112.413 E42.27329
M204 S3000
M205 X10 Y10
G0 F2400 X39.321 Y112.181
M204 S1800
M205 X8 Y8
G1 F1200 X42.519 Y115.379 E42.47125
M204 S3000
M205 X10 Y10
G0 F2400 X42.519 Y114.587
M204 S1800
M205 X8 Y8
G1 F1200 X39.881 Y111.949 E42.63454
M204 S3000
M205 X10 Y10
G0 F2400 X40.441 Y111.717
M204 S1800
M205 X8 Y8
G1 F1200 X42.519 Y113.795 E42.76317
M204 S3000
M205 X10 Y10
G0 F2400 X42.519 Y113.003
M204 S1800
M205 X8 Y8
G1 F1200 X41.001 Y111.485 E42.85714
M204 S3000
M205 X10 Y10
G0 F2400 X41.561 Y111.254
M204 S1800
M205 X8 Y8
G1 F1200 X42.519 Y112.211 E42.91641
M204 S3000
M205 X10 Y10
G0 F2400 X42.519 Y111.419
M204 S1800
M205 X8 Y8
G1 F1200 X42.121 Y111.022 E42.94101
M204 S3000
M205 X10 Y10
G0 F2400 X39.259 Y116.079
M204 S1800
M205 X8 Y8
G1 F1200 X28.191 Y105.011 E43.62613
M204 S3000
M205 X10 Y10
G0 F2400 X27.399 Y105.011
M204 S1800
M205 X8 Y8
G1 F1200 X38.147 Y115.759 E44.29144
G1 X38.217 Y115.829
M204 S3000
M205 X10 Y10
G0 F2400 X37.036 Y115.44
M204 S1800
M205 X8 Y8
G1 F1200 X26.607 Y105.011 E44.937
M204 S3000
M205 X10 Y10
G0 F2400 X25.815 Y105.011
M204 S1800
M205 X8 Y8
G1 F1200 X35.9 Y115.096 E45.56127
G1 X35.97 Y115.166
M204 S3000
M205 X10 Y10
G0 F2400 X34.256 Y114.244
M204 S1800
M205 X8 Y8
G1 F1200 X25.023 Y105.011 E46.1328
M204 S3000
M205 X10 Y10
G0 F2400 X24.231 Y105.011
M204 S1800
M205 X8 Y8
G1 F1200 X32.613 Y113.393 E46.65165
G1 X32.683 Y113.463
M204 S3000
M205 X10 Y10
G0 F2400 X30.932 Y112.504
M204 S1800
M205 X8 Y8
G1 F1200 X23.459 Y105.031 E47.11423
G1 X23.389 Y104.961
M204 S3000
M205 X10 Y10
G0 F2400 X26.46 Y108.824
M204 S1800
M205 X8 Y8
G1 F1200 X26.706 Y109.069 E47.12943
M204 S3000
M205 X10 Y10
G0 F2400 X22.866 Y103.467
G0 X20.739 Y98.319
M204 S1800
M205 X8 Y8
G1 F1200 X20.189 Y98.092 E47.15547
G1 X19.6 Y98.335 E47.18336
G1 X18.618 Y94.43 E47.3596
G1 X18.147 Y89.302 E47.585
G1 X18.618 Y84.171 E47.81053
G1 X19.601 Y80.27 E47.98662
G1 X20.189 Y80.512 E48.01445
G1 X20.739 Y80.285 E48.04049
G1 X20.739 Y98.319 E48.82985
M204 S3000
M205 X10 Y10
G0 F2400 X20.202 Y97.814
M204 S1800
M205 X8 Y8
G1 F1200 X19.581 Y97.193 E48.86829
