;FLAVOR:Marlin
;TIME:4424
;Filament used: 3.77089m
;Layer height: 0.2
;MINX:-52.706
;MINY:-45.056
;MINZ:0.2
;MAXX:59.607
;MAXY:37.926
;MAXZ:16.4
;Generated with Cura_SteamEngine 4.10.0
M104 S220
M105
M109 S220
M82 ;absolute extrusion mode
G21        ;metric values
G90        ;absolute positioning
M107       ;start with the fan off
G28   ;move to endstops
G92 E0                  ;zero the extruded length
G1 F200 E3              ;extrude 3mm of feed stock
G92 E0                  ;zero the extruded length again
G1 F150.0
;Put printing message on LCD screen
M117 Printing...
G92 E0
G92 E0
G1 F2700 E-7
;LAYER_COUNT:83
;LAYER:0
M107
M204 S3000
G0 F3000 X6.942 Y26.749 Z0.2
M204 S1500
;TYPE:SKIRT
G1 F2700 E0
G1 F1200 X4.278 Y27.463 E0.07545
G1 X1.65 Y28.247 E0.15047
G1 X-.931 Y29.099 E0.22483
G1 X-3.49 Y30.023 E0.29926
G1 X-6.028 Y31.021 E0.37386
G1 X-8.517 Y32.083 E0.44789
G1 X-11.032 Y33.242 E0.52365
G1 X-13.446 Y34.437 E0.59733
G1 X-15.872 Y35.725 E0.67248
G1 X-18.898 Y37.454 E0.76782
G1 X-19.335 Y37.671 E0.78116
G1 X-19.84 Y37.834 E0.79568
G1 X-20.364 Y37.919 E0.8102
G1 X-20.867 Y37.926 E0.82396
G1 X-21.479 Y37.882 E0.84075
G1 X-24.304 Y37.623 E0.91836
G1 X-25.029 Y37.547 E0.9383
G1 X-25.709 Y37.413 E0.95726
G1 X-26.091 Y37.308 E0.9681
G1 X-30.606 Y36.008 E1.09663
G1 X-31.262 Y35.809 E1.11538
G1 X-31.815 Y35.589 E1.13166
G1 X-32.53 Y35.231 E1.15354
G1 X-36.654 Y33.095 E1.28059
G1 X-37.253 Y32.774 E1.29918
G1 X-37.765 Y32.439 E1.31592
G1 X-38.514 Y31.85 E1.34199
G1 X-42.114 Y28.926 E1.46886
G1 X-42.683 Y28.449 E1.48917
G1 X-42.825 Y28.323 E1.49437
G1 X-43.551 Y27.643 E1.52158
G1 X-43.628 Y27.568 E1.52452
G1 X-45.636 Y25.724 E1.5991
G1 X-47.687 Y23.946 E1.67336
G1 X-49.034 Y22.853 E1.72081
G1 X-50.12 Y21.954 E1.75938
G1 X-50.502 Y21.586 E1.77389
G1 X-50.824 Y21.165 E1.78839
G1 X-51.138 Y20.581 E1.80653
G1 X-51.34 Y20.116 E1.8204
G1 X-52.004 Y18.511 E1.86791
G1 X-52.266 Y17.853 E1.88729
G1 X-52.425 Y17.347 E1.9018
G1 X-52.505 Y16.822 E1.91632
G1 X-52.511 Y16.27 E1.93143
G1 X-52.437 Y13.904 E1.99618
G1 X-52.428 Y11.169 E2.071
G1 X-52.497 Y8.442 E2.14563
G1 X-52.706 Y4.843 E2.24425
G1 X-52.703 Y4.387 E2.25673
G1 X-52.662 Y3.812 E2.2725
G1 X-52.509 Y1.116 E2.34637
G1 X-52.432 Y-1.65 E2.42206
G1 X-52.432 Y-4.372 E2.49653
G1 X-52.479 Y-6.308 E2.54951
G1 X-52.514 Y-7.325 E2.57734
G1 X-52.492 Y-7.856 E2.59188
G1 X-52.391 Y-8.377 E2.6064
G1 X-52.194 Y-8.941 E2.62274
G1 X-52.154 Y-9.044 E2.62577
G1 X-51.399 Y-10.87 E2.67982
G1 X-51.117 Y-11.524 E2.6993
G1 X-50.871 Y-11.994 E2.71382
G1 X-50.557 Y-12.422 E2.72834
G1 X-50.106 Y-12.861 E2.74556
G1 X-49.101 Y-13.679 E2.78101
G1 X-48.945 Y-13.803 E2.78646
G1 X-46.865 Y-15.543 E2.86064
G1 X-44.819 Y-17.356 E2.93543
G1 X-43.622 Y-18.484 E2.98042
G1 X-42.828 Y-19.218 E3.01
G1 X-42.324 Y-19.652 E3.0282
G1 X-38.345 Y-22.884 E3.16843
G1 X-37.828 Y-23.293 E3.18647
G1 X-37.314 Y-23.63 E3.20328
G1 X-36.438 Y-24.103 E3.23052
G1 X-32.499 Y-26.144 E3.35188
G1 X-31.81 Y-26.488 E3.37295
G1 X-31.257 Y-26.708 E3.38923
G1 X-30.529 Y-26.928 E3.41003
G1 X-26.268 Y-28.152 E3.53131
G1 X-25.577 Y-28.34 E3.5509
G1 X-25.286 Y-28.407 E3.55907
G1 X-24.167 Y-28.611 E3.59019
G1 X-23.6 Y-28.706 E3.60592
G1 X-20.985 Y-29.222 E3.67883
G1 X-18.279 Y-29.836 E3.75474
G1 X-15.649 Y-30.511 E3.82902
G1 X-13.035 Y-31.261 E3.90341
G1 X-10.436 Y-32.088 E3.97803
G1 X-7.828 Y-33 E4.05361
G1 X-5.3 Y-33.964 E4.12762
G1 X-2.801 Y-35 E4.20163
G1 X-.281 Y-36.128 E4.27716
G1 X2.17 Y-37.311 E4.35161
G1 X4.606 Y-38.571 E4.42664
G1 X6.062 Y-39.377 E4.47216
G1 X7.094 Y-39.93 E4.50419
G1 X11.444 Y-42.183 E4.63821
G1 X12.125 Y-42.524 E4.65904
G1 X12.683 Y-42.746 E4.67547
G1 X13.387 Y-42.959 E4.69559
G1 X17.869 Y-44.247 E4.82317
G1 X18.552 Y-44.432 E4.84252
G1 X19.043 Y-44.529 E4.85622
G1 X19.666 Y-44.597 E4.87336
G1 X24.09 Y-45.002 E4.99489
G1 X24.761 Y-45.054 E5.0133
G1 X25.282 Y-45.056 E5.02756
G1 X26.457 Y-44.972 E5.05978
G1 X30.457 Y-44.605 E5.16967
G1 X31.131 Y-44.533 E5.18821
G1 X31.629 Y-44.443 E5.20205
G1 X32.167 Y-44.299 E5.21729
G1 X36.87 Y-42.947 E5.35116
G1 X37.535 Y-42.745 E5.37017
G1 X38.086 Y-42.525 E5.3864
G1 X38.767 Y-42.184 E5.40724
G1 X43.15 Y-39.914 E5.54227
G1 X43.71 Y-39.613 E5.55966
G1 X44.216 Y-39.282 E5.5762
G1 X44.959 Y-38.699 E5.60204
G1 X48.705 Y-35.655 E5.73408
G1 X49.252 Y-35.198 E5.75358
G1 X49.689 Y-34.763 E5.77045
G1 X50.361 Y-33.964 E5.79901
G1 X53.377 Y-30.251 E5.92987
G1 X53.797 Y-29.718 E5.94844
G1 X54.128 Y-29.213 E5.96495
G1 X54.574 Y-28.388 E5.99061
G1 X55.584 Y-26.437 E6.05071
G1 X55.918 Y-25.771 E6.07109
G1 X56.005 Y-25.585 E6.07671
G1 X56.285 Y-24.933 E6.09612
G1 X57.443 Y-22.185 E6.1777
G1 X57.691 Y-21.566 E6.19594
G1 X58.026 Y-20.481 E6.22701
G1 X58.794 Y-17.808 E6.30309
G1 X58.98 Y-17.128 E6.32237
G1 X59.103 Y-16.433 E6.34168
G1 X59.143 Y-16.053 E6.35213
G1 X59.552 Y-11.585 E6.47487
G1 X59.605 Y-10.911 E6.49337
G1 X59.607 Y-10.386 E6.50773
G1 X59.521 Y-9.182 E6.54075
G1 X59.16 Y-5.251 E6.64874
G1 X59.085 Y-4.546 E6.66814
G1 X58.935 Y-3.806 E6.68879
G1 X58.867 Y-3.554 E6.69593
G1 X57.921 Y-.271 E6.7894
G1 X57.738 Y0.337 E6.80677
G1 X57.6 Y0.716 E6.8178
G1 X57.127 Y1.812 E6.85046
G1 X56.968 Y2.165 E6.86105
G1 X56.017 Y4.441 E6.92853
G1 X55.921 Y4.652 E6.93487
G1 X55.613 Y5.271 E6.95379
G1 X54.468 Y7.478 E7.0218
G1 X54.167 Y8.04 E7.03924
G1 X53.835 Y8.55 E7.05589
G1 X53.264 Y9.278 E7.0812
G1 X50.207 Y13.04 E7.21381
G1 X49.753 Y13.584 E7.2332
G1 X49.318 Y14.021 E7.25006
G1 X48.515 Y14.697 E7.27878
G1 X44.806 Y17.71 E7.4095
G1 X44.272 Y18.132 E7.42812
G1 X43.76 Y18.468 E7.44488
G1 X42.963 Y18.898 E7.46965
G1 X38.761 Y21.074 E7.5991
G1 X38.067 Y21.419 E7.6203
G1 X37.518 Y21.637 E7.63646
G1 X36.837 Y21.843 E7.65593
G1 X32.396 Y23.119 E7.78233
G1 X31.678 Y23.316 E7.8027
G1 X31.173 Y23.416 E7.81678
G1 X30.657 Y23.474 E7.83099
G1 X26.1 Y23.892 E7.95617
G1 X24.751 Y23.997 E7.99319
G1 X23.043 Y24.106 E8.04001
G1 X20.35 Y24.355 E8.11399
G1 X17.61 Y24.686 E8.1895
G1 X14.933 Y25.087 E8.26355
G1 X12.24 Y25.569 E8.33839
G1 X9.582 Y26.122 E8.41266
G1 X6.942 Y26.749 E8.48689
M204 S3000
G0 F3000 X6.838 Y26.415
M204 S1500
G1 F1200 X4.165 Y27.131 E8.56259
G1 X1.572 Y27.905 E8.63662
G1 X-1.049 Y28.77 E8.71212
G1 X-3.595 Y29.689 E8.78617
G1 X-6.181 Y30.706 E8.86219
G1 X-8.672 Y31.769 E8.93628
G1 X-11.178 Y32.923 E9.01175
G1 X-13.623 Y34.134 E9.0864
G1 X-16.029 Y35.411 E9.16091
G1 X-19.069 Y37.149 E9.25671
G1 X-19.491 Y37.357 E9.26958
G1 X-19.972 Y37.505 E9.28334
G1 X-20.47 Y37.576 E9.29711
G1 X-21.056 Y37.565 E9.31314
G1 X-21.48 Y37.531 E9.32478
G1 X-24.267 Y37.275 E9.40134
G1 X-24.992 Y37.199 E9.42128
G1 X-25.624 Y37.073 E9.43891
G1 X-25.994 Y36.971 E9.44941
G1 X-30.505 Y35.673 E9.57782
G1 X-31.161 Y35.474 E9.59658
G1 X-31.659 Y35.276 E9.61124
G1 X-32.369 Y34.92 E9.63296
G1 X-36.489 Y32.786 E9.75989
G1 X-37.088 Y32.465 E9.77849
G1 X-37.549 Y32.164 E9.79355
G1 X-38.294 Y31.579 E9.81946
G1 X-41.889 Y28.658 E9.94618
G1 X-42.458 Y28.181 E9.96649
G1 X-42.586 Y28.067 E9.97118
G1 X-43.307 Y27.393 E9.99818
G1 X-43.396 Y27.307 E10.00156
G1 X-45.398 Y25.467 E10.07595
G1 X-47.47 Y23.671 E10.15096
G1 X-48.811 Y22.584 E10.19819
G1 X-49.897 Y21.685 E10.23675
G1 X-50.258 Y21.334 E10.25053
G1 X-50.559 Y20.93 E10.26431
G1 X-50.823 Y20.429 E10.2798
G1 X-51.031 Y19.949 E10.29411
G1 X-51.679 Y18.382 E10.3405
G1 X-51.941 Y17.724 E10.35988
G1 X-52.089 Y17.242 E10.37367
G1 X-52.16 Y16.744 E10.38743
G1 X-52.16 Y16.236 E10.40133
G1 X-52.087 Y13.916 E10.46483
G1 X-52.078 Y11.162 E10.54017
G1 X-52.146 Y8.442 E10.6146
G1 X-52.357 Y4.822 E10.7138
G1 X-52.354 Y4.412 E10.72501
G1 X-52.313 Y3.837 E10.74078
G1 X-52.159 Y1.11 E10.8155
G1 X-52.082 Y-1.641 E10.89079
G1 X-52.082 Y-4.381 E10.96575
G1 X-52.129 Y-6.317 E11.01873
G1 X-52.164 Y-7.337 E11.04665
G1 X-52.141 Y-7.84 E11.06042
G1 X-51.962 Y-8.566 E11.08088
G1 X-51.83 Y-8.911 E11.09098
G1 X-51.078 Y-10.731 E11.14485
G1 X-50.796 Y-11.385 E11.16434
G1 X-50.56 Y-11.83 E11.17812
G1 X-50.257 Y-12.233 E11.19191
G1 X-49.885 Y-12.59 E11.20601
G1 X-48.884 Y-13.405 E11.24133
G1 X-48.731 Y-13.526 E11.24666
G1 X-46.618 Y-15.294 E11.32203
G1 X-44.577 Y-17.102 E11.39662
G1 X-43.384 Y-18.227 E11.44148
G1 X-42.514 Y-19.03 E11.47387
G1 X-42.099 Y-19.383 E11.48877
G1 X-38.16 Y-22.584 E11.62763
G1 X-37.611 Y-23.018 E11.64677
G1 X-37.148 Y-23.322 E11.66192
G1 X-36.277 Y-23.792 E11.689
G1 X-32.342 Y-25.831 E11.81024
G1 X-31.653 Y-26.175 E11.83131
G1 X-31.156 Y-26.373 E11.84594
G1 X-30.432 Y-26.591 E11.86663
G1 X-26.177 Y-27.815 E11.98775
G1 X-25.486 Y-28.003 E12.00734
G1 X-25.223 Y-28.062 E12.01471
G1 X-24.11 Y-28.265 E12.04566
G1 X-23.571 Y-28.355 E12.06061
G1 X-20.874 Y-28.887 E12.13581
G1 X-18.224 Y-29.489 E12.21016
G1 X-15.576 Y-30.168 E12.28494
G1 X-12.901 Y-30.936 E12.36107
G1 X-10.315 Y-31.759 E12.43531
G1 X-7.73 Y-32.662 E12.51022
G1 X-5.183 Y-33.634 E12.5848
G1 X-2.636 Y-34.69 E12.66023
G1 X-.157 Y-35.8 E12.73453
G1 X2.341 Y-37.005 E12.8104
G1 X4.766 Y-38.26 E12.8851
G1 X6.227 Y-39.068 E12.93077
G1 X7.255 Y-39.619 E12.96268
G1 X11.6 Y-41.87 E13.09655
G1 X12.281 Y-42.211 E13.11738
G1 X12.784 Y-42.411 E13.13219
G1 X13.483 Y-42.622 E13.15217
G1 X17.961 Y-43.91 E13.27964
G1 X18.644 Y-44.095 E13.29899
G1 X19.289 Y-44.206 E13.3169
G1 X19.727 Y-44.251 E13.32894
G1 X24.117 Y-44.654 E13.44954
G1 X24.788 Y-44.706 E13.46795
G1 X25.257 Y-44.707 E13.48078
G1 X26.425 Y-44.624 E13.51282
G1 X30.42 Y-44.257 E13.62257
G1 X31.094 Y-44.185 E13.64111
G1 X31.727 Y-44.057 E13.65878
G1 X32.098 Y-43.954 E13.66931
G1 X36.768 Y-42.612 E13.80223
G1 X37.433 Y-42.41 E13.82125
G1 X37.93 Y-42.212 E13.83588
G1 X38.606 Y-41.873 E13.85657
G1 X42.984 Y-39.606 E13.99144
G1 X43.544 Y-39.305 E14.00883
G1 X44 Y-39.006 E14.02375
G1 X44.738 Y-38.427 E14.04941
G1 X48.481 Y-35.387 E14.18132
G1 X49.028 Y-34.93 E14.20082
G1 X49.421 Y-34.538 E14.21601
G1 X50.089 Y-33.743 E14.24442
G1 X53.102 Y-30.034 E14.37514
G1 X53.522 Y-29.501 E14.3937
G1 X53.821 Y-29.047 E14.40858
G1 X54.263 Y-28.227 E14.43406
G1 X55.271 Y-26.28 E14.49404
G1 X55.605 Y-25.614 E14.51442
G1 X55.683 Y-25.447 E14.51946
G1 X55.963 Y-24.797 E14.53882
G1 X57.134 Y-22.019 E14.6213
G1 X57.356 Y-21.463 E14.63767
G1 X57.689 Y-20.384 E14.66856
G1 X58.457 Y-17.716 E14.74452
G1 X58.643 Y-17.036 E14.7638
G1 X58.756 Y-16.39 E14.78174
G1 X58.795 Y-16.022 E14.79187
G1 X59.203 Y-11.558 E14.91449
G1 X59.256 Y-10.884 E14.93299
G1 X59.258 Y-10.411 E14.94593
G1 X59.173 Y-9.214 E14.97876
G1 X58.812 Y-5.288 E15.08661
G1 X58.737 Y-4.583 E15.10601
G1 X58.595 Y-3.891 E15.12533
G1 X58.53 Y-3.651 E15.13213
G1 X57.586 Y-.372 E15.22548
G1 X57.403 Y0.236 E15.24285
G1 X57.279 Y0.578 E15.2528
G1 X56.808 Y1.668 E15.28528
G1 X56.66 Y1.997 E15.29515
G1 X55.695 Y4.306 E15.36361
G1 X55.608 Y4.496 E15.36933
G1 X55.302 Y5.11 E15.3881
G1 X54.16 Y7.313 E15.45598
G1 X53.859 Y7.875 E15.47342
G1 X53.559 Y8.334 E15.48842
G1 X52.992 Y9.057 E15.51356
G1 X49.939 Y12.815 E15.64601
G1 X49.485 Y13.359 E15.6654
G1 X49.093 Y13.753 E15.6806
G1 X48.294 Y14.425 E15.70916
G1 X44.589 Y17.435 E15.83975
G1 X44.055 Y17.857 E15.85837
G1 X43.594 Y18.16 E15.87346
G1 X42.802 Y18.587 E15.89807
G1 X38.605 Y20.761 E16.02738
G1 X37.911 Y21.106 E16.04858
G1 X37.417 Y21.302 E16.06312
G1 X36.74 Y21.506 E16.08246
G1 X32.303 Y22.782 E16.20876
G1 X31.585 Y22.979 E16.22913
G1 X30.886 Y23.098 E16.24853
G1 X30.586 Y23.13 E16.25678
G1 X26.073 Y23.543 E16.38076
G1 X24.729 Y23.648 E16.41764
G1 X23.024 Y23.757 E16.46437
G1 X20.28 Y24.011 E16.53976
G1 X17.586 Y24.336 E16.61399
G1 X14.854 Y24.745 E16.68956
G1 X12.177 Y25.224 E16.76396
G1 X9.532 Y25.774 E16.83787
G1 X6.838 Y26.415 E16.91362
M204 S3000
G1 F2700 E9.91362
;MESH:v2_duct.stl
G0 F3000 X-19.998 Y26.411
G0 X-21.207 Y26.412
G0 X-21.537 Y20.094
M204 S1500
;TYPE:WALL-INNER
G1 F2700 E16.91362
G1 F1200 X-21.537 Y20.972 E16.93764
G1 X-21.873 Y20.16 E16.94989
G1 X-22.751 Y18.041 E17.01263
G1 X-22.875 Y17.742 E17.02149
G1 X-22.557 Y17.802 E17.02644
G1 X-21.537 Y17.998 E17.05486
G1 X-21.537 Y20.093 E17.11217
G1 X-21.537 Y20.094 E17.1122
M204 S3000
G0 F3000 X-23.266 Y17.617
G0 X-26.701 Y16.194
G0 X-30.137 Y17.617
G0 X-30.841 Y19.317
G0 X-42.385 Y18.602
G0 X-43.997 Y18.402
G0 X-46.649 Y18
M204 S1500
G1 F1200 X-45.233 Y18.584 E17.1541
G1 X-44.127 Y18.154 E17.18656
G1 X-43.753 Y17.995 E17.19768
G1 X-43.154 Y16.552 E17.24042
G1 X-43.753 Y15.104 E17.28329
G1 X-45.201 Y14.505 E17.32616
G1 X-46.649 Y15.104 E17.36902
G1 X-47.248 Y16.552 E17.41189
G1 X-46.649 Y18 E17.45476
M204 S3000
G0 F3000 X-46.883 Y16.697
G0 X-46.649 Y-6
M204 S1500
G1 F1200 X-45.201 Y-5.401 E17.49763
G1 X-43.753 Y-6 E17.54049
G1 X-43.388 Y-6.882 E17.56661
G1 X-43.145 Y-7.427 E17.58293
G1 X-43.741 Y-8.865 E17.62551
G1 X-44.537 Y-9.221 E17.64937
G1 X-45.201 Y-9.495 E17.66902
G1 X-46.649 Y-8.896 E17.71189
G1 X-47.248 Y-7.448 E17.75475
G1 X-46.649 Y-6 E17.79762
M204 S3000
G0 F3000 X-46.909 Y-7.448
G0 X-46.409 Y-8.656
G0 X-44.319 Y-10.316
M204 S1500
G1 F1200 X-39.789 Y-16.043 E17.99738
G1 X-35.138 Y-19.82 E18.16128
G1 X-29.912 Y-22.527 E18.32229
G1 X-24.505 Y-24.082 E18.4762
G1 X-21.727 Y-24.337 E18.55252
G1 X-21.537 Y-24.354 E18.55774
G1 X-21.537 Y-24.164 E18.56102
G1 X-21.537 Y-24.163 E18.56105
G1 X-21.537 Y-12.907 E18.86897
G1 X-21.537 Y-12.906 E18.869
G1 X-21.537 Y-12.028 E18.89302
G1 X-21.873 Y-12.84 E18.90526
G1 X-23.026 Y-15.623 E18.98767
G1 X-26.701 Y-17.145 E19.09649
G1 X-30.377 Y-15.623 E19.20533
G1 X-31.898 Y-11.948 E19.31413
G1 X-30.377 Y-8.273 E19.42294
G1 X-27.051 Y-6.896 E19.52142
G1 X-26.747 Y-6.77 E19.53042
G1 X-27.022 Y-6.589 E19.53545
G1 X-29.026 Y-5.273 E19.60104
G1 X-32.116 Y-.568 E19.75502
G1 X-32.978 Y3.949 E19.88082
G1 X-33.092 Y4.552 E19.89761
G1 X-32.978 Y5.155 E19.9144
G1 X-32.116 Y9.672 E20.0402
G1 X-29.026 Y14.376 E20.19416
G1 X-27.021 Y15.693 E20.25979
G1 X-26.746 Y15.874 E20.26879
G1 X-27.05 Y16 E20.27382
G1 X-30.377 Y17.377 E20.37233
G1 X-31.898 Y21.052 E20.48113
G1 X-30.377 Y24.727 E20.58994
G1 X-26.701 Y26.249 E20.69878
G1 X-23.026 Y24.727 E20.80759
G1 X-21.873 Y21.945 E20.88998
G1 X-21.537 Y21.132 E20.91404
G1 X-21.537 Y22.011 E20.92629
G1 X-21.537 Y22.012 E20.92632
G1 X-21.538 Y33.267 E21.23421
G1 X-21.538 Y33.268 E21.23424
G1 X-21.538 Y33.458 E21.23944
G1 X-21.728 Y33.441 E21.24274
G1 X-24.505 Y33.186 E21.31902
G1 X-29.912 Y31.63 E21.47294
G1 X-35.138 Y28.924 E21.63394
G1 X-39.789 Y25.147 E21.79784
G1 X-44.32 Y19.419 E21.99764
G1 X-45.054 Y19.466 E22.01776
G1 X-47.219 Y18.57 E22.08186
G1 X-48.05 Y16.563 E22.14128
G1 X-46.839 Y13.822 E22.22326
G1 X-47.834 Y9.87 E22.33474
G1 X-48.321 Y4.552 E22.48083
G1 X-47.834 Y-.765 E22.6269
G1 X-46.838 Y-4.717 E22.73839
G1 X-48.05 Y-7.459 E22.8204
G1 X-47.219 Y-9.466 E22.87983
G1 X-45.053 Y-10.362 E22.94395
G1 X-44.319 Y-10.316 E22.96407
M204 S3000
G0 F3000 X-42.784 Y-9.823
M204 S1500
G1 F1200 X-42.741 Y-9.614 E22.96991
G1 X-42.311 Y-7.529 E23.02815
G1 X-43.244 Y-5.277 E23.09483
G1 X-43.576 Y-4.966 E23.10728
G1 X-43.576 Y14.067 E23.62795
G1 X-43.246 Y14.378 E23.64036
G1 X-42.312 Y16.637 E23.70723
G1 X-42.741 Y18.718 E23.76535
G1 X-42.784 Y18.927 E23.77119
G1 X-42.571 Y18.927 E23.77476
G1 X-42.57 Y18.927 E23.77479
G1 X-33.326 Y18.927 E24.02767
G1 X-33.326 Y5.166 E24.40412
G1 X-33.326 Y4.552 E24.41815
G1 X-33.326 Y3.938 E24.43218
G1 X-33.326 Y-9.823 E24.80863
G1 X-42.57 Y-9.823 E25.06151
G1 X-42.571 Y-9.823 E25.06154
G1 X-42.784 Y-9.823 E25.06511
M204 S3000
G0 F3000 X-33.648 Y-9.501
G0 X-26.701 Y-7.09
G0 X-22.557 Y-8.698
M204 S1500
G1 F1200 X-22.875 Y-8.638 E25.07396
G1 X-22.751 Y-8.937 E25.07892
G1 X-21.873 Y-11.056 E25.14167
G1 X-21.537 Y-11.868 E25.16571
G1 X-21.537 Y-10.99 E25.17794
G1 X-21.537 Y-10.989 E25.17797
G1 X-21.537 Y-8.894 E25.23528
G1 X-22.557 Y-8.698 E25.2637
M204 S3000
G0 F3000 X-26.701 Y-7.09
G0 X-30.179 Y-8.471
G0 X-30.109 Y-8.541
M204 S1500
G1 F1200 X-26.701 Y-7.13 E25.3646
G1 X-25.318 Y-7.703 E25.40555
G1 X-24.238 Y-8.15 E25.43753
G1 X-23.294 Y-8.541 E25.46548
G1 X-23.289 Y-8.554 E25.46586
G1 X-21.883 Y-11.948 E25.56636
G1 X-23.294 Y-15.355 E25.66724
G1 X-26.701 Y-16.766 E25.76812
G1 X-30.109 Y-15.355 E25.86903
G1 X-31.519 Y-11.948 E25.9699
G1 X-30.109 Y-8.541 E26.07077
M204 S3000
G0 F3000 X-30.179 Y-8.471
G0 X-33.648 Y-9.501
G0 X-42.431 Y-9.536
