;FLAVOR:Marlin
;TIME:3875
;Filament used: 2.90302m
;Layer height: 0.25
;MINX:120.444
;MINY:118.873
;MINZ:0.3
;MAXX:180.619
;MAXY:178.435
;MAXZ:37.05
;Generated with Cura_SteamEngine 4.10.0
M104 S225
M105
M109 S225
M82 ;absolute extrusion mode
G28 ; home all axes
 M117 Purge extruder
 G92 E0 ; reset extruder
 G1 Z1.0 F3000 ; move z up little to prevent scratching of surface
 G1 X2 Y20 Z0.3 F5000.0 ; move to start-line position
 G1 X2 Y200.0 Z0.3 F1500.0 E15 ; draw 1st line
 G1 X2 Y200.0 Z0.4 F5000.0 ; move to side a little
 G1 X2 Y20 Z0.4 F1500.0 E30 ; draw 2nd line
 G92 E0 ; reset extruder
 G1 Z1.0 F3000 ; move z up little to prevent scratching of surface
G92 E0
G92 E0
G1 F2100 E-2
;LAYER_COUNT:149
;LAYER:0
M106 S255
G0 F6000 X132.36 Y121.372 Z0.3
;TYPE:SKIRT
G1 F2100 E0
G1 F1200 X132.481 Y121.251 E0.01135
G1 X133.079 Y120.711 E0.06482
G1 X133.727 Y120.232 E0.11829
G1 X134.419 Y119.819 E0.17176
G1 X135.148 Y119.478 E0.22516
G1 X135.908 Y119.21 E0.27864
G1 X136.691 Y119.019 E0.33211
G1 X137.489 Y118.906 E0.38559
G1 X138.223 Y118.873 E0.43435
G1 X140.235 Y118.873 E0.56785
G1 X140.704 Y118.896 E0.59901
G1 X141.236 Y118.873 E0.63434
G1 X143.762 Y118.873 E0.80195
G1 X144.25 Y118.897 E0.83437
G1 X144.763 Y118.873 E0.86845
G1 X146.779 Y118.873 E1.00222
G1 X147.584 Y118.913 E1.0557
G1 X148.381 Y119.033 E1.10918
G1 X149.162 Y119.23 E1.16262
G1 X149.919 Y119.505 E1.21607
G1 X150.646 Y119.853 E1.26955
G1 X151.334 Y120.271 E1.32296
G1 X151.978 Y120.756 E1.37646
G1 X152.521 Y121.251 E1.42521
G1 X152.638 Y121.368 E1.43619
G1 X153.178 Y121.966 E1.48965
G1 X153.657 Y122.614 E1.54312
G1 X154.07 Y123.306 E1.5966
G1 X154.411 Y124.035 E1.65
G1 X154.679 Y124.795 E1.70347
G1 X154.87 Y125.578 E1.75695
G1 X154.983 Y126.376 E1.81043
G1 X155.016 Y127.11 E1.85918
G1 X155.017 Y144.476 E3.01149
G1 X172.382 Y144.477 E4.16372
G1 X173.187 Y144.517 E4.2172
G1 X173.984 Y144.637 E4.27068
G1 X174.765 Y144.835 E4.32415
G1 X175.522 Y145.109 E4.37756
G1 X176.249 Y145.457 E4.43105
G1 X176.938 Y145.875 E4.48452
G1 X177.581 Y146.36 E4.53796
G1 X178.124 Y146.855 E4.58671
G1 X178.241 Y146.972 E4.59769
G1 X178.781 Y147.57 E4.65116
G1 X179.26 Y148.218 E4.70463
G1 X179.673 Y148.91 E4.7581
G1 X180.014 Y149.639 E4.8115
G1 X180.282 Y150.399 E4.86497
G1 X180.473 Y151.182 E4.91845
G1 X180.586 Y151.98 E4.97193
G1 X180.619 Y152.714 E5.02068
G1 X180.619 Y154.73 E5.15445
G1 X180.595 Y155.205 E5.18601
G1 X180.619 Y155.731 E5.22095
G1 X180.619 Y158.255 E5.38843
G1 X180.595 Y158.743 E5.42085
G1 X180.619 Y159.256 E5.45493
G1 X180.619 Y161.272 E5.5887
G1 X180.579 Y162.077 E5.64218
G1 X180.459 Y162.874 E5.69566
G1 X180.262 Y163.655 E5.7491
G1 X179.987 Y164.412 E5.80254
G1 X179.639 Y165.139 E5.85602
G1 X179.221 Y165.827 E5.90944
G1 X178.736 Y166.471 E5.96294
G1 X178.241 Y167.014 E6.01169
G1 X178.124 Y167.131 E6.02267
G1 X177.526 Y167.671 E6.07613
G1 X176.878 Y168.15 E6.1296
G1 X176.186 Y168.563 E6.18308
G1 X175.457 Y168.904 E6.23648
G1 X174.697 Y169.172 E6.28995
G1 X173.914 Y169.363 E6.34343
G1 X173.116 Y169.476 E6.39691
G1 X172.382 Y169.509 E6.44566
G1 X167.262 Y169.509 E6.78539
G1 X167.272 Y169.669 E6.79603
G1 X167.284 Y170.475 E6.84952
G1 X167.217 Y171.278 E6.90298
G1 X167.07 Y172.07 E6.95643
G1 X166.846 Y172.844 E7.0099
G1 X166.546 Y173.592 E7.06338
G1 X166.173 Y174.306 E7.11683
G1 X165.732 Y174.98 E7.17027
G1 X165.225 Y175.607 E7.22378
G1 X164.659 Y176.18 E7.27722
G1 X164.039 Y176.695 E7.3307
G1 X163.302 Y177.187 E7.3895
G1 X163.094 Y177.31 E7.40553
G1 X162.381 Y177.686 E7.45902
G1 X161.634 Y177.988 E7.51248
G1 X160.861 Y178.215 E7.56594
G1 X160.07 Y178.365 E7.61936
G1 X159.267 Y178.435 E7.67285
G1 X158.461 Y178.426 E7.72633
G1 X157.661 Y178.336 E7.77975
G1 X156.873 Y178.168 E7.83321
G1 X156.105 Y177.922 E7.88672
G1 X155.366 Y177.602 E7.94016
G1 X154.646 Y177.199 E7.99491
G1 X154.383 Y177.034 E8.01551
G1 X153.703 Y176.558 E8.07058
G1 X152.511 Y175.628 E8.1709
G1 X151.901 Y175.101 E8.22439
G1 X151.347 Y174.517 E8.2778
G1 X150.853 Y173.881 E8.33124
G1 X150.424 Y173.198 E8.38476
G1 X150.065 Y172.477 E8.4382
G1 X149.78 Y171.723 E8.49169
G1 X149.57 Y170.945 E8.54516
G1 X149.439 Y170.15 E8.59862
G1 X149.398 Y169.51 E8.64117
G1 X142.666 Y169.51 E9.08787
G1 X141.862 Y169.47 E9.14128
G1 X141.065 Y169.351 E9.19475
G1 X140.284 Y169.153 E9.24822
G1 X139.526 Y168.878 E9.30172
G1 X138.943 Y168.606 E9.34441
G1 X137.996 Y168.231 E9.41199
G1 X137.518 Y168.038 E9.4462
G1 X136.499 Y167.542 E9.5214
G1 X135.993 Y167.25 E9.56016
G1 X135.316 Y166.813 E9.61363
G1 X134.686 Y166.311 E9.66708
G1 X134.078 Y165.717 E9.72348
G1 X133.289 Y164.86 E9.80078
G1 X132.774 Y164.241 E9.85421
G1 X132.32 Y163.571 E9.90791
G1 X131.879 Y162.844 E9.96433
G1 X131.496 Y162.136 E10.01774
G1 X131.172 Y161.354 E10.07391
G1 X131.119 Y161.205 E10.0844
G1 X130.998 Y160.838 E10.11004
G1 X130.796 Y160.171 E10.15628
G1 X130.601 Y159.389 E10.20976
G1 X130.487 Y158.622 E10.26122
G1 X130.406 Y157.809 E10.31543
G1 X130.366 Y156.982 E10.37037
G1 X130.4 Y156.291 E10.41627
G1 X130.304 Y156.01 E10.43598
G1 X130.12 Y155.226 E10.48941
G1 X130.014 Y154.427 E10.54289
G1 X129.987 Y153.766 E10.58679
G1 X129.982 Y127.116 E12.35512
G1 X130.022 Y126.311 E12.4086
G1 X130.141 Y125.514 E12.46207
G1 X130.339 Y124.733 E12.51554
G1 X130.613 Y123.975 E12.56902
G1 X130.961 Y123.248 E12.6225
G1 X131.379 Y122.56 E12.67592
G1 X131.864 Y121.916 E12.72941
G1 X132.36 Y121.372 E12.77826
G0 F6000 X132.756 Y121.768
G1 F1200 X132.877 Y121.647 E12.78961
G1 X133.455 Y121.127 E12.8412
G1 X134.082 Y120.668 E12.89276
G1 X134.754 Y120.276 E12.94438
G1 X135.462 Y119.955 E12.99597
G1 X136.199 Y119.709 E13.04752
G1 X136.958 Y119.54 E13.09912
G1 X137.73 Y119.449 E13.1507
G1 X138.223 Y119.433 E13.18343
G1 X140.235 Y119.433 E13.31693
G1 X140.691 Y119.457 E13.34723
G1 X140.766 Y119.448 E13.35224
G1 X141.236 Y119.433 E13.38344
G1 X143.762 Y119.433 E13.55105
G1 X144.295 Y119.46 E13.58647
G1 X144.763 Y119.433 E13.61757
G1 X146.779 Y119.433 E13.75134
G1 X147.555 Y119.473 E13.8029
G1 X148.324 Y119.592 E13.85453
G1 X149.075 Y119.79 E13.90607
G1 X149.803 Y120.064 E13.95768
G1 X150.499 Y120.411 E14.00929
G1 X151.155 Y120.828 E14.06086
G1 X151.765 Y121.31 E14.11245
G1 X152.125 Y121.647 E14.14517
G1 X152.242 Y121.764 E14.15615
G1 X152.762 Y122.342 E14.20774
G1 X153.221 Y122.969 E14.2593
G1 X153.613 Y123.641 E14.31092
G1 X153.934 Y124.349 E14.3625
G1 X154.18 Y125.086 E14.41406
G1 X154.349 Y125.845 E14.46566
G1 X154.44 Y126.617 E14.51724
G1 X154.456 Y127.11 E14.54996
G1 X154.457 Y145.036 E15.73943
G1 X172.382 Y145.037 E16.92882
G1 X173.159 Y145.077 E16.98045
G1 X173.927 Y145.197 E17.03202
G1 X174.679 Y145.394 E17.08361
G1 X175.406 Y145.668 E17.13516
G1 X176.102 Y146.016 E17.18679
G1 X176.758 Y146.432 E17.23833
G1 X177.368 Y146.914 E17.28992
G1 X177.728 Y147.251 E17.32264
G1 X177.845 Y147.368 E17.33362
G1 X178.365 Y147.946 E17.38521
G1 X178.824 Y148.573 E17.43677
G1 X179.216 Y149.245 E17.48839
G1 X179.537 Y149.953 E17.53997
G1 X179.783 Y150.69 E17.59153
G1 X179.952 Y151.449 E17.64313
G1 X180.043 Y152.221 E17.69471
G1 X180.059 Y152.714 E17.72743
G1 X180.059 Y154.73 E17.8612
G1 X180.036 Y155.178 E17.89097
G1 X180.043 Y155.238 E17.89498
G1 X180.059 Y155.731 E17.92771
G1 X180.059 Y158.255 E18.09519
G1 X180.032 Y158.788 E18.1306
G1 X180.059 Y159.256 E18.1617
G1 X180.059 Y161.272 E18.29547
G1 X180.019 Y162.048 E18.34703
G1 X179.9 Y162.817 E18.39866
G1 X179.702 Y163.568 E18.4502
G1 X179.428 Y164.296 E18.50181
G1 X179.081 Y164.992 E18.55342
G1 X178.664 Y165.648 E18.605
G1 X178.182 Y166.258 E18.65658
G1 X177.845 Y166.618 E18.6893
G1 X177.728 Y166.735 E18.70028
G1 X177.15 Y167.255 E18.75187
G1 X176.523 Y167.714 E18.80343
G1 X175.851 Y168.106 E18.85505
G1 X175.143 Y168.427 E18.90664
G1 X174.406 Y168.673 E18.95819
G1 X173.647 Y168.842 E19.00979
G1 X172.875 Y168.933 E19.06137
G1 X172.382 Y168.949 E19.0941
G1 X166.659 Y168.949 E19.47384
G1 X166.67 Y169.047 E19.48038
G1 X166.713 Y169.706 E19.5242
G1 X166.724 Y170.483 E19.57577
G1 X166.654 Y171.257 E19.62733
G1 X166.506 Y172.021 E19.67897
G1 X166.28 Y172.764 E19.7305
G1 X165.979 Y173.481 E19.7821
G1 X165.606 Y174.163 E19.83368
G1 X165.164 Y174.803 E19.88529
G1 X164.66 Y175.395 E19.93688
G1 X164.097 Y175.931 E19.98846
G1 X163.482 Y176.407 E20.04006
G1 X163.017 Y176.705 E20.07671
G1 X162.809 Y176.828 E20.09274
G1 X162.12 Y177.189 E20.14435
G1 X161.398 Y177.477 E20.19593
G1 X160.651 Y177.69 E20.24747
G1 X159.885 Y177.824 E20.29907
G1 X159.109 Y177.88 E20.3507
G1 X158.332 Y177.855 E20.40228
G1 X157.562 Y177.75 E20.45385
G1 X156.806 Y177.567 E20.50546
G1 X156.074 Y177.308 E20.55698
G1 X155.371 Y176.974 E20.60863
G1 X154.943 Y176.725 E20.64148
G1 X154.68 Y176.56 E20.66208
G1 X154.048 Y176.116 E20.71333
G1 X152.856 Y175.186 E20.81365
G1 X152.268 Y174.677 E20.86526
G1 X151.736 Y174.111 E20.9168
G1 X151.265 Y173.492 E20.96841
G1 X150.86 Y172.829 E21.01996
G1 X150.525 Y172.127 E21.07157
G1 X150.264 Y171.395 E21.12314
G1 X150.079 Y170.64 E21.17472
G1 X149.973 Y169.869 E21.22636
G1 X149.947 Y169.092 E21.27794
G1 X149.957 Y168.95 E21.28739
G1 X142.666 Y168.95 E21.77118
G1 X141.89 Y168.91 E21.82274
G1 X141.122 Y168.791 E21.8743
G1 X140.37 Y168.593 E21.9259
G1 X139.642 Y168.319 E21.97752
G1 X139.182 Y168.1 E22.01132
G1 X138.206 Y167.712 E22.08101
G1 X137.728 Y167.519 E22.11522
G1 X136.779 Y167.057 E22.18525
G1 X136.273 Y166.765 E22.22402
G1 X135.621 Y166.342 E22.27559
G1 X135.015 Y165.855 E22.32717
G1 X134.49 Y165.338 E22.37607
G1 X133.701 Y164.481 E22.45336
G1 X133.205 Y163.882 E22.50496
G1 X132.799 Y163.281 E22.55309
G1 X132.358 Y162.554 E22.60951
G1 X131.99 Y161.869 E22.66111
G1 X131.699 Y161.167 E22.71153
G1 X131.646 Y161.018 E22.72202
G1 X131.534 Y160.675 E22.74597
G1 X131.332 Y160.008 E22.79221
G1 X131.145 Y159.254 E22.84376
G1 X131.044 Y158.566 E22.8899
G1 X130.963 Y157.753 E22.94411
G1 X130.926 Y156.982 E22.99533
G1 X130.964 Y156.236 E23.04489
G1 X130.752 Y155.512 E23.09495
G1 X130.611 Y154.748 E23.1465
G1 X130.547 Y153.765 E23.21186
G1 X130.542 Y127.115 E24.9802
G1 X130.582 Y126.339 E25.03176
G1 X130.701 Y125.571 E25.08332
G1 X130.899 Y124.819 E25.13492
G1 X131.173 Y124.091 E25.18654
G1 X131.52 Y123.396 E25.23808
G1 X131.936 Y122.739 E25.28968
G1 X132.418 Y122.129 E25.34127
G1 X132.756 Y121.768 E25.37408
G0 F6000 X133.152 Y122.164
G1 F1200 X133.273 Y122.043 E25.38544
G1 X133.83 Y121.543 E25.4351
G1 X134.436 Y121.106 E25.48468
G1 X135.086 Y120.735 E25.53434
G1 X135.772 Y120.436 E25.58399
G1 X136.486 Y120.212 E25.63365
G1 X137.219 Y120.065 E25.68325
G1 X138.223 Y119.993 E25.75004
G1 X140.235 Y119.993 E25.88355
G1 X140.803 Y120.023 E25.92129
G1 X141.236 Y119.993 E25.95009
G1 X143.762 Y119.993 E26.1177
G1 X144.328 Y120.023 E26.15531
G1 X144.763 Y119.993 E26.18424
G1 X146.779 Y119.993 E26.31801
G1 X147.526 Y120.033 E26.36765
G1 X148.264 Y120.152 E26.41725
G1 X148.986 Y120.35 E26.46692
G1 X149.682 Y120.623 E26.51653
G1 X150.345 Y120.97 E26.56619
G1 X150.968 Y121.385 E26.61586
G1 X151.729 Y122.043 E26.68261
G1 X151.846 Y122.16 E26.69359
G1 X152.346 Y122.717 E26.74326
G1 X152.783 Y123.323 E26.79283
G1 X153.154 Y123.973 E26.84249
G1 X153.453 Y124.659 E26.89215
G1 X153.677 Y125.373 E26.9418
G1 X153.824 Y126.106 E26.99141
G1 X153.896 Y127.11 E27.0582
G1 X153.897 Y145.596 E28.28482
G1 X172.382 Y145.597 E29.51137
G1 X173.129 Y145.637 E29.56101
G1 X173.868 Y145.756 E29.61067
G1 X174.589 Y145.954 E29.66029
G1 X175.286 Y146.228 E29.70998
G1 X175.949 Y146.574 E29.7596
G1 X176.571 Y146.989 E29.80922
G1 X177.332 Y147.647 E29.87597
G1 X177.449 Y147.764 E29.88695
G1 X177.949 Y148.321 E29.93662
G1 X178.386 Y148.927 E29.98619
G1 X178.757 Y149.577 E30.03585
G1 X179.056 Y150.263 E30.08551
G1 X179.28 Y150.977 E30.13516
G1 X179.427 Y151.71 E30.18477
G1 X179.499 Y152.714 E30.25156
G1 X179.499 Y154.73 E30.38533
G1 X179.468 Y155.303 E30.4234
G1 X179.499 Y155.731 E30.45188
G1 X179.499 Y158.255 E30.61935
G1 X179.469 Y158.821 E30.65696
G1 X179.499 Y159.256 E30.6859
G1 X179.499 Y161.272 E30.81967
G1 X179.459 Y162.019 E30.8693
G1 X179.34 Y162.757 E30.91891
G1 X179.142 Y163.479 E30.96858
G1 X178.869 Y164.175 E31.01819
G1 X178.522 Y164.838 E31.06784
G1 X178.107 Y165.461 E31.11751
G1 X177.449 Y166.222 E31.18427
G1 X177.332 Y166.339 E31.19525
G1 X176.775 Y166.839 E31.24491
G1 X176.169 Y167.276 E31.29449
G1 X175.519 Y167.647 E31.34415
G1 X174.833 Y167.946 E31.3938
G1 X174.119 Y168.17 E31.44346
G1 X173.386 Y168.317 E31.49306
G1 X172.382 Y168.389 E31.55985
G1 X166.027 Y168.389 E31.98153
G1 X166.046 Y168.481 E31.98777
G1 X166.111 Y169.083 E32.02794
G1 X166.154 Y169.742 E32.07176
G1 X166.163 Y170.49 E32.1214
G1 X166.092 Y171.235 E32.17106
G1 X165.942 Y171.968 E32.2207
G1 X165.714 Y172.68 E32.27031
G1 X165.412 Y173.365 E32.31998
G1 X165.038 Y174.013 E32.36963
G1 X164.598 Y174.617 E32.41921
G1 X164.095 Y175.171 E32.46886
G1 X163.536 Y175.669 E32.51854
G1 X162.732 Y176.223 E32.58333
G1 X162.524 Y176.346 E32.59936
G1 X161.861 Y176.692 E32.64899
G1 X161.164 Y176.965 E32.69866
G1 X160.443 Y177.162 E32.74825
G1 X159.704 Y177.281 E32.79792
G1 X158.957 Y177.321 E32.84755
G1 X158.21 Y177.281 E32.89719
G1 X157.472 Y177.161 E32.9468
G1 X156.75 Y176.963 E32.99648
G1 X156.054 Y176.689 E33.04611
G1 X155.241 Y176.251 E33.10739
G1 X154.978 Y176.086 E33.12799
G1 X154.392 Y175.675 E33.17548
G1 X153.2 Y174.745 E33.2758
G1 X152.636 Y174.254 E33.32542
G1 X152.127 Y173.706 E33.37505
G1 X151.68 Y173.106 E33.4247
G1 X151.299 Y172.462 E33.47435
G1 X150.989 Y171.781 E33.52399
G1 X150.754 Y171.071 E33.57362
G1 X150.595 Y170.34 E33.62326
G1 X150.516 Y169.596 E33.6729
G1 X150.516 Y168.848 E33.72254
G1 X150.521 Y168.806 E33.72534
G1 X150.448 Y168.504 E33.74596
G1 X150.433 Y168.39 E33.75359
G1 X142.666 Y168.39 E34.26896
G1 X141.919 Y168.35 E34.3186
G1 X141.181 Y168.231 E34.3682
G1 X140.459 Y168.033 E34.41787
G1 X139.451 Y167.608 E34.49046
G1 X139.412 Y167.588 E34.49337
G1 X138.415 Y167.193 E34.56453
G1 X137.937 Y167 E34.59873
G1 X137.059 Y166.572 E34.66354
G1 X136.553 Y166.28 E34.70231
G1 X135.926 Y165.872 E34.75195
G1 X135.346 Y165.399 E34.80161
G1 X134.902 Y164.958 E34.84313
G1 X134.113 Y164.101 E34.92043
G1 X133.637 Y163.525 E34.97001
G1 X133.278 Y162.99 E35.01276
G1 X132.837 Y162.263 E35.06918
G1 X132.484 Y161.604 E35.11878
G1 X132.227 Y160.979 E35.16362
G1 X132.174 Y160.83 E35.17412
G1 X132.069 Y160.513 E35.19628
G1 X131.867 Y159.846 E35.24252
G1 X131.689 Y159.119 E35.29218
G1 X131.601 Y158.511 E35.33295
G1 X131.52 Y157.698 E35.38716
G1 X131.486 Y156.982 E35.43472
G1 X131.521 Y156.285 E35.48103
G1 X131.535 Y156.146 E35.4903
G1 X131.395 Y155.751 E35.51811
G1 X131.221 Y155.023 E35.56777
G1 X131.126 Y154.281 E35.61741
G1 X131.107 Y153.765 E35.65167
G1 X131.102 Y127.115 E37.42001
G1 X131.142 Y126.368 E37.46964
G1 X131.261 Y125.63 E37.51924
G1 X131.459 Y124.908 E37.56892
G1 X131.732 Y124.212 E37.61853
G1 X132.078 Y123.549 E37.66815
G1 X132.493 Y122.926 E37.71782
G1 X133.152 Y122.164 E37.78467
G0 F6000 X133.548 Y122.56
G1 F1200 X133.669 Y122.439 E37.79602
G1 X134.204 Y121.961 E37.84363
G1 X134.789 Y121.545 E37.89126
G1 X135.416 Y121.197 E37.93884
G1 X136.078 Y120.921 E37.98643
G1 X136.767 Y120.72 E38.03406
G1 X137.474 Y120.597 E38.08167
G1 X138.223 Y120.553 E38.13146
G1 X140.235 Y120.553 E38.26496
G1 X140.737 Y120.581 E38.29832
G1 X141.236 Y120.553 E38.33149
G1 X143.762 Y120.553 E38.4991
G1 X144.351 Y120.586 E38.53824
G1 X144.763 Y120.553 E38.56567
G1 X146.779 Y120.553 E38.69944
G1 X147.495 Y120.593 E38.74702
G1 X148.203 Y120.712 E38.79466
G1 X148.893 Y120.91 E38.84229
G1 X149.556 Y121.183 E38.88987
G1 X150.185 Y121.528 E38.93747
G1 X150.772 Y121.94 E38.98505
G1 X151.333 Y122.439 E39.03487
G1 X151.45 Y122.556 E39.04585
G1 X151.928 Y123.091 E39.09346
G1 X152.344 Y123.676 E39.14109
G1 X152.692 Y124.303 E39.18867
G1 X152.968 Y124.965 E39.23626
G1 X153.169 Y125.654 E39.28388
G1 X153.292 Y126.361 E39.3315
G1 X153.336 Y127.11 E39.38129
G1 X153.337 Y146.156 E40.64506
G1 X172.382 Y146.157 E41.90878
G1 X173.099 Y146.197 E41.95643
G1 X173.806 Y146.316 E42.004
G1 X174.496 Y146.514 E42.05163
G1 X175.159 Y146.787 E42.09921
G1 X175.789 Y147.132 E42.14687
G1 X176.375 Y147.545 E42.19444
G1 X176.936 Y148.043 E42.24421
