;FLAVOR:Marlin
;TIME:4110
;Filament used: 2.88068m
;Layer height: 0.25
;MINX:117.715
;MINY:119.66
;MINZ:0.25
;MAXX:182.293
;MAXY:176.452
;MAXZ:20.2
;Generated with Cura_SteamEngine 4.10.0
M140 S90
M105
M190 S90
M104 S240
M105
M109 S240
M82 ;absolute extrusion mode
G28 ; home all axes
 M117 Purge extruder
 G92 E0 ; reset extruder
 G1 Z1.0 F3000 ; move z up little to prevent scratching of surface
 G1 X2 Y20 Z0.3 F5000.0 ; move to start-line position
 G1 X2 Y200.0 Z0.3 F1500.0 E15 ; draw 1st line
 G1 X2 Y200.0 Z0.4 F5000.0 ; move to side a little
 G1 X2 Y20 Z0.4 F1500.0 E30 ; draw 2nd line
 G92 E0 ; reset extruder
 G1 Z1.0 F3000 ; move z up little to prevent scratching of surface
G92 E0
G92 E0
G1 F2100 E-2
;LAYER_COUNT:80
;LAYER:0
M107
G1 F300 Z0.45
G0 F6000 X137.289 Y123.456 Z0.45
;TYPE:SKIRT
G1 F300 Z0.25
G1 F2100 E0
G1 F600 X137.925 Y122.775 E0.05152
G1 X138.617 Y122.152 E0.10301
G1 X139.36 Y121.591 E0.15449
G1 X140.148 Y121.095 E0.20598
G1 X140.975 Y120.669 E0.25742
G1 X141.837 Y120.315 E0.30894
G1 X142.725 Y120.037 E0.36039
G1 X143.634 Y119.835 E0.41188
G1 X144.557 Y119.713 E0.46336
G1 X145.362 Y119.671 E0.50794
G1 X146.206 Y119.66 E0.55461
G1 X151.735 Y119.66 E0.86034
G1 X152.611 Y119.672 E0.90878
G1 X153.541 Y119.727 E0.96029
G1 X154.462 Y119.861 E1.01176
G1 X155.369 Y120.073 E1.06326
G1 X156.185 Y120.337 E1.11068
G1 X156.915 Y120.607 E1.15372
G1 X158.224 Y121.112 E1.2313
G1 X160.578 Y121.943 E1.36934
G1 X162.97 Y122.712 E1.50827
G1 X165.398 Y123.419 E1.6481
G1 X167.089 Y123.855 E1.74467
G1 X168.225 Y124.16 E1.80971
G1 X168.532 Y124.247 E1.82735
G1 X169.128 Y124.426 E1.86176
G1 X169.831 Y124.664 E1.9028
G1 X170.37 Y124.867 E1.93465
G1 X171.062 Y125.155 E1.97609
G1 X171.549 Y125.378 E2.00571
G1 X172.215 Y125.711 E2.04688
G1 X172.706 Y125.978 E2.07779
G1 X173.35 Y126.358 E2.11914
G1 X173.821 Y126.658 E2.15001
G1 X174.44 Y127.083 E2.19153
G1 X174.892 Y127.417 E2.22261
G1 X175.471 Y127.876 E2.26346
G1 X175.858 Y128.205 E2.29155
G1 X176.413 Y128.711 E2.33308
G1 X176.85 Y129.138 E2.36686
G1 X177.373 Y129.686 E2.40875
G1 X177.8 Y130.166 E2.44427
G1 X178.212 Y130.657 E2.47972
G1 X178.354 Y130.837 E2.49239
G1 X178.664 Y131.25 E2.52095
G1 X178.922 Y131.621 E2.54594
G1 X179.256 Y132.121 E2.57918
G1 X179.646 Y132.75 E2.62011
G1 X179.939 Y133.261 E2.65268
G1 X180.296 Y133.938 E2.695
G1 X180.538 Y134.439 E2.72576
G1 X180.832 Y135.104 E2.76597
G1 X181.095 Y135.757 E2.8049
G1 X181.385 Y136.567 E2.85247
G1 X181.473 Y136.848 E2.86875
G1 X181.646 Y137.467 E2.90429
G1 X181.799 Y138.081 E2.93928
G1 X181.955 Y138.814 E2.98072
G1 X182.05 Y139.351 E3.01087
G1 X182.154 Y140.079 E3.05154
G1 X182.22 Y140.692 E3.08563
G1 X182.275 Y141.465 E3.12848
G1 X182.291 Y141.913 E3.15327
G1 X182.293 Y142.639 E3.19341
G1 X182.273 Y143.279 E3.22882
G1 X182.223 Y144.03 E3.27044
G1 X182.174 Y144.515 E3.29739
G1 X182.074 Y145.25 E3.33841
G1 X181.97 Y145.859 E3.37257
G1 X181.813 Y146.614 E3.41521
G1 X181.689 Y147.12 E3.44402
G1 X181.491 Y147.827 E3.48461
G1 X181.33 Y148.333 E3.51398
G1 X181.075 Y149.046 E3.55585
G1 X180.859 Y149.59 E3.58821
G1 X180.562 Y150.27 E3.62924
G1 X180.259 Y150.903 E3.66805
G1 X179.81 Y151.744 E3.72076
G1 X179.636 Y152.038 E3.73965
G1 X179.351 Y152.494 E3.76939
G1 X179.047 Y152.954 E3.79988
G1 X178.61 Y153.567 E3.8415
G1 X178.257 Y154.028 E3.87361
G1 X177.796 Y154.589 E3.91376
G1 X177.415 Y155.023 E3.94569
G1 X176.882 Y155.589 E3.98868
G1 X176.509 Y155.957 E4.01766
G1 X175.971 Y156.453 E4.05812
G1 X175.545 Y156.82 E4.08921
G1 X174.915 Y157.323 E4.13379
G1 X174.439 Y157.675 E4.16652
G1 X173.871 Y158.067 E4.20468
G1 X173.482 Y158.318 E4.23028
G1 X172.843 Y158.701 E4.27148
G1 X172.294 Y159.004 E4.30615
G1 X171.615 Y159.347 E4.34821
G1 X171.024 Y159.621 E4.38423
G1 X170.487 Y159.853 E4.41658
G1 X168.816 Y160.521 E4.51609
G1 X166.466 Y161.536 E4.65763
G1 X164.165 Y162.607 E4.79797
G1 X161.944 Y163.718 E4.93529
G1 X159.668 Y164.939 E5.07811
G1 X158.308 Y165.709 E5.16453
G1 X157.905 Y165.942 E5.19027
G1 X155.641 Y167.294 E5.33608
G1 X153.556 Y168.619 E5.47268
G1 X151.438 Y170.052 E5.61408
G1 X149.377 Y171.534 E5.75445
G1 X148.221 Y172.407 E5.83455
G1 X148.016 Y172.558 E5.84863
G1 X147.272 Y173.093 E5.8993
G1 X146.66 Y173.502 E5.94
G1 X146.13 Y173.831 E5.97449
G1 X145.633 Y174.121 E6.00631
G1 X145.451 Y174.221 E6.01779
G1 X144.96 Y174.475 E6.04836
G1 X144.861 Y174.523 E6.05445
G1 X144.52 Y174.681 E6.07523
G1 X143.892 Y174.959 E6.1132
G1 X143.207 Y175.235 E6.15404
G1 X142.709 Y175.416 E6.18334
G1 X141.957 Y175.659 E6.22704
G1 X141.448 Y175.803 E6.25629
G1 X140.787 Y175.967 E6.29394
G1 X140.218 Y176.09 E6.32613
G1 X139.43 Y176.23 E6.37039
G1 X138.851 Y176.311 E6.40272
G1 X138.134 Y176.388 E6.44259
G1 X137.666 Y176.422 E6.46854
G1 X136.916 Y176.45 E6.51004
G1 X136.296 Y176.452 E6.54432
G1 X135.546 Y176.428 E6.58581
G1 X135.032 Y176.394 E6.6143
G1 X134.266 Y176.316 E6.65687
G1 X133.686 Y176.236 E6.68925
G1 X132.973 Y176.114 E6.72924
G1 X132.46 Y176.008 E6.75821
G1 X131.721 Y175.828 E6.80027
G1 X131.013 Y175.629 E6.84093
G1 X130.156 Y175.349 E6.89079
G1 X129.888 Y175.249 E6.9066
G1 X129.345 Y175.029 E6.939
G1 X128.79 Y174.787 E6.97248
G1 X128.104 Y174.459 E7.01452
G1 X127.434 Y174.109 E7.05632
G1 X126.672 Y173.671 E7.10492
G1 X126.396 Y173.497 E7.12296
G1 X125.881 Y173.151 E7.15727
G1 X125.326 Y172.755 E7.19497
G1 X124.914 Y172.446 E7.22345
G1 X124.702 Y172.279 E7.23837
G1 X124.176 Y171.837 E7.27636
G1 X123.87 Y171.557 E7.29929
G1 X123.416 Y171.126 E7.33391
G1 X122.908 Y170.611 E7.37391
G1 X122.496 Y170.164 E7.40752
G1 X122.029 Y169.621 E7.44713
G1 X121.725 Y169.244 E7.4739
G1 X121.257 Y168.619 E7.51708
G1 X120.899 Y168.103 E7.55181
G1 X120.49 Y167.468 E7.59357
G1 X120.24 Y167.048 E7.6206
G1 X119.866 Y166.366 E7.66361
G1 X119.586 Y165.808 E7.69813
G1 X119.293 Y165.174 E7.73675
G1 X119.063 Y164.631 E7.76936
G1 X118.861 Y164.118 E7.79984
G1 X118.776 Y163.885 E7.81356
G1 X118.574 Y163.273 E7.84919
G1 X118.436 Y162.797 E7.8766
G1 X118.266 Y162.159 E7.91311
G1 X118.148 Y161.668 E7.94103
G1 X118.087 Y161.387 E7.95693
G1 X117.96 Y160.692 E7.99599
G1 X117.894 Y160.231 E8.02175
G1 X117.819 Y159.625 E8.05551
G1 X117.766 Y159.08 E8.08579
G1 X117.745 Y158.791 E8.10181
G1 X117.719 Y158.266 E8.13088
G1 X117.715 Y157.765 E8.15858
G1 X117.727 Y156.935 E8.20448
G1 X117.782 Y155.994 E8.2566
G1 X117.822 Y155.601 E8.27844
G1 X117.892 Y155.052 E8.30905
G1 X117.981 Y154.473 E8.34144
G1 X118.075 Y153.947 E8.37098
G1 X118.137 Y153.644 E8.38809
G1 X118.272 Y153.067 E8.42085
G1 X118.32 Y152.884 E8.43131
G1 X118.422 Y152.521 E8.45216
G1 X118.604 Y151.914 E8.4872
G1 X118.768 Y151.409 E8.51656
G1 X118.865 Y151.135 E8.53264
G1 X119.102 Y150.525 E8.56882
G1 X119.27 Y150.142 E8.59195
G1 X119.531 Y149.574 E8.62651
G1 X119.859 Y148.919 E8.66702
G1 X120.155 Y148.375 E8.70126
G1 X120.538 Y147.727 E8.74288
G1 X120.825 Y147.277 E8.7724
G1 X121.232 Y146.682 E8.81226
G1 X121.527 Y146.281 E8.83979
G1 X122.003 Y145.68 E8.88218
G1 X123.562 Y143.848 E9.01519
G1 X123.955 Y143.392 E9.04848
G1 X125.533 Y141.465 E9.1862
G1 X127.085 Y139.456 E9.32658
G1 X128.557 Y137.437 E9.46474
G1 X129.986 Y135.353 E9.60446
G1 X131.346 Y133.246 E9.74313
G1 X133.025 Y130.451 E9.92342
G1 X135.747 Y125.737 E10.22442
G1 X136.205 Y124.967 E10.27396
G1 X136.715 Y124.188 E10.32544
G1 X137.289 Y123.456 E10.37688
G0 F6000 X137.746 Y123.784
G1 F600 X138.369 Y123.125 E10.42702
G1 X139.047 Y122.524 E10.47712
G1 X139.776 Y121.985 E10.52725
G1 X140.549 Y121.512 E10.57736
G1 X141.361 Y121.109 E10.62749
G1 X142.206 Y120.779 E10.67765
G1 X143.076 Y120.525 E10.72776
G1 X143.966 Y120.348 E10.77794
G1 X144.867 Y120.251 E10.82805
G1 X145.37 Y120.231 E10.85588
G1 X146.206 Y120.22 E10.90211
G1 X151.735 Y120.22 E11.20784
G1 X152.603 Y120.232 E11.25584
G1 X153.508 Y120.286 E11.30597
G1 X154.404 Y120.42 E11.35607
G1 X155.286 Y120.632 E11.40623
G1 X155.991 Y120.863 E11.44725
G1 X156.713 Y121.13 E11.48981
G1 X158.002 Y121.627 E11.5662
G1 X160.398 Y122.473 E11.70671
G1 X162.829 Y123.255 E11.84791
G1 X165.26 Y123.962 E11.9879
G1 X166.944 Y124.396 E12.08406
G1 X168.08 Y124.701 E12.1491
G1 X168.371 Y124.783 E12.16582
G1 X168.967 Y124.962 E12.20023
G1 X169.633 Y125.188 E12.23912
G1 X170.172 Y125.391 E12.27097
G1 X170.829 Y125.664 E12.31031
G1 X171.316 Y125.887 E12.33993
G1 X171.947 Y126.203 E12.37895
G1 X172.438 Y126.47 E12.40985
G1 X173.05 Y126.83 E12.44911
G1 X173.521 Y127.13 E12.47999
G1 X174.107 Y127.533 E12.51932
G1 X174.559 Y127.867 E12.55039
G1 X175.108 Y128.303 E12.58916
G1 X175.495 Y128.632 E12.61725
G1 X176.021 Y129.111 E12.65658
G1 X176.458 Y129.538 E12.69037
G1 X176.955 Y130.058 E12.73014
G1 X177.382 Y130.538 E12.76567
G1 X177.772 Y131.004 E12.79927
G1 X177.914 Y131.184 E12.81194
G1 X178.208 Y131.576 E12.83904
G1 X178.456 Y131.932 E12.86303
G1 X178.79 Y132.432 E12.89628
G1 X179.16 Y133.029 E12.93511
G1 X179.453 Y133.54 E12.96769
G1 X179.792 Y134.182 E13.00783
G1 X180.034 Y134.683 E13.0386
G1 X180.313 Y135.313 E13.07669
G1 X180.576 Y135.966 E13.11562
G1 X180.85 Y136.735 E13.16076
G1 X180.938 Y137.016 E13.17704
G1 X181.103 Y137.602 E13.21071
G1 X181.256 Y138.216 E13.2457
G1 X181.404 Y138.911 E13.28499
G1 X181.499 Y139.448 E13.31514
G1 X181.597 Y140.139 E13.35373
G1 X181.663 Y140.752 E13.38782
G1 X181.715 Y141.485 E13.42846
G1 X181.731 Y141.933 E13.45325
G1 X181.733 Y142.621 E13.49129
G1 X181.713 Y143.261 E13.52669
G1 X181.666 Y143.973 E13.56615
G1 X181.617 Y144.458 E13.5931
G1 X181.522 Y145.155 E13.632
G1 X181.418 Y145.764 E13.66616
G1 X181.27 Y146.481 E13.70665
G1 X181.146 Y146.987 E13.73545
G1 X180.957 Y147.657 E13.77395
G1 X180.796 Y148.163 E13.80331
G1 X180.554 Y148.84 E13.84306
G1 X180.338 Y149.384 E13.87543
G1 X180.056 Y150.028 E13.9143
G1 X179.753 Y150.661 E13.95311
G1 X179.328 Y151.459 E14.0031
G1 X179.154 Y151.753 E14.02199
G1 X178.883 Y152.185 E14.05019
G1 X178.579 Y152.645 E14.08068
G1 X178.165 Y153.227 E14.12017
G1 X177.812 Y153.688 E14.15228
G1 X177.375 Y154.22 E14.19035
G1 X176.994 Y154.654 E14.22228
G1 X176.489 Y155.19 E14.263
G1 X176.116 Y155.558 E14.29197
G1 X175.606 Y156.028 E14.33032
G1 X175.18 Y156.395 E14.36141
G1 X174.582 Y156.872 E14.40371
G1 X174.106 Y157.224 E14.43645
G1 X173.568 Y157.597 E14.47265
G1 X173.179 Y157.848 E14.49824
G1 X172.572 Y158.21 E14.53732
G1 X172.023 Y158.513 E14.572
G1 X171.38 Y158.839 E14.61186
G1 X170.789 Y159.113 E14.64788
G1 X170.279 Y159.333 E14.67859
G1 X168.606 Y160.001 E14.7782
G1 X166.229 Y161.028 E14.92138
G1 X163.957 Y162.086 E15.05997
G1 X161.652 Y163.239 E15.20248
G1 X159.411 Y164.441 E15.34309
G1 X157.986 Y165.248 E15.43365
G1 X157.615 Y165.462 E15.45733
G1 X155.374 Y166.801 E15.60168
G1 X153.218 Y168.171 E15.74293
G1 X151.116 Y169.593 E15.88326
G1 X149.042 Y171.085 E16.02453
G1 X147.883 Y171.96 E16.10483
G1 X147.689 Y172.103 E16.11816
G1 X146.945 Y172.638 E16.16883
G1 X146.365 Y173.026 E16.20741
G1 X145.835 Y173.355 E16.24191
G1 X145.363 Y173.631 E16.27214
G1 X145.181 Y173.731 E16.28362
G1 X144.716 Y173.971 E16.31256
G1 X144.617 Y174.019 E16.31864
G1 X144.293 Y174.169 E16.33838
G1 X143.665 Y174.447 E16.37636
G1 X143.016 Y174.709 E16.41506
G1 X142.518 Y174.89 E16.44436
G1 X141.804 Y175.12 E16.48584
G1 X141.295 Y175.264 E16.51509
G1 X140.669 Y175.42 E16.55076
G1 X140.1 Y175.543 E16.58295
G1 X139.352 Y175.676 E16.62496
G1 X138.773 Y175.757 E16.65729
G1 X138.094 Y175.829 E16.69504
G1 X137.626 Y175.863 E16.72099
G1 X136.914 Y175.89 E16.76039
G1 X136.294 Y175.892 E16.79467
G1 X135.582 Y175.87 E16.83406
G1 X135.068 Y175.836 E16.86254
G1 X134.342 Y175.762 E16.9029
G1 X133.762 Y175.682 E16.93527
G1 X133.087 Y175.565 E16.97315
G1 X132.574 Y175.459 E17.00212
G1 X131.872 Y175.289 E17.04206
G1 X131.164 Y175.09 E17.08272
G1 X130.352 Y174.824 E17.12997
G1 X130.084 Y174.724 E17.14579
G1 X129.569 Y174.516 E17.1765
G1 X129.014 Y174.274 E17.20998
G1 X128.363 Y173.963 E17.24987
G1 X127.693 Y173.613 E17.29167
G1 X126.971 Y173.197 E17.33774
G1 X126.695 Y173.023 E17.35579
G1 X126.206 Y172.695 E17.38834
G1 X125.651 Y172.299 E17.42604
G1 X125.261 Y172.006 E17.45302
G1 X125.049 Y171.839 E17.46794
G1 X124.55 Y171.42 E17.50397
G1 X124.255 Y171.15 E17.52608
G1 X123.801 Y170.719 E17.5607
G1 X123.32 Y170.231 E17.59859
G1 X122.908 Y169.784 E17.6322
G1 X122.465 Y169.27 E17.66972
G1 X122.161 Y168.893 E17.6965
G1 X121.717 Y168.3 E17.73746
G1 X121.359 Y167.784 E17.77219
G1 X120.971 Y167.182 E17.81179
G1 X120.721 Y166.762 E17.83882
G1 X120.367 Y166.115 E17.8796
G1 X120.087 Y165.557 E17.91412
G1 X119.809 Y164.955 E17.95079
G1 X119.579 Y164.412 E17.98339
G1 X119.388 Y163.926 E18.01227
G1 X119.303 Y163.693 E18.02598
G1 X119.11 Y163.113 E18.05978
G1 X119.061 Y162.949 E18.06925
G1 X118.978 Y162.653 E18.08624
G1 X118.808 Y162.015 E18.12275
G1 X118.695 Y161.549 E18.14927
G1 X118.634 Y161.268 E18.16517
G1 X118.513 Y160.609 E18.20222
G1 X118.485 Y160.422 E18.21267
G1 X118.45 Y160.163 E18.22712
G1 X118.375 Y159.557 E18.26089
G1 X118.324 Y159.039 E18.28967
G1 X118.303 Y158.75 E18.30569
G1 X118.279 Y158.253 E18.33321
G1 X118.275 Y157.773 E18.35975
G1 X118.287 Y156.943 E18.40565
G1 X118.339 Y156.051 E18.45505
G1 X118.379 Y155.658 E18.4769
G1 X118.445 Y155.137 E18.50594
G1 X118.534 Y154.558 E18.53833
G1 X118.624 Y154.059 E18.56637
G1 X118.686 Y153.756 E18.58347
G1 X118.813 Y153.209 E18.61452
G1 X118.861 Y153.026 E18.62498
G1 X118.958 Y152.682 E18.64474
G1 X119.14 Y152.075 E18.67978
G1 X119.296 Y151.596 E18.70764
G1 X119.393 Y151.322 E18.72371
G1 X119.618 Y150.744 E18.75801
G1 X119.779 Y150.376 E18.78022
G1 X120.04 Y149.808 E18.81478
G1 X120.351 Y149.187 E18.85319
G1 X120.647 Y148.643 E18.88743
G1 X121.01 Y148.028 E18.92692
G1 X121.297 Y147.578 E18.95643
G1 X121.683 Y147.014 E18.99422
G1 X121.978 Y146.613 E19.02175
G1 X122.43 Y146.043 E19.06198
G1 X123.987 Y144.214 E19.19479
G1 X124.344 Y143.8 E19.22502
G1 X125.978 Y141.804 E19.36766
G1 X127.52 Y139.809 E19.50708
G1 X129.022 Y137.748 E19.6481
G1 X130.458 Y135.655 E19.78845
G1 X131.823 Y133.54 E19.92764
G1 X133.515 Y130.722 E20.10939
G1 X136.301 Y125.9 E20.41733
G1 X136.686 Y125.253 E20.45896
G1 X137.183 Y124.495 E20.50908
G1 X137.746 Y123.784 E20.55922
G1 F2100 E18.55922
G1 F300 Z0.45
;MESH:ext_hex_20mm.stl(1)
G0 F6000 X151.09 Y137.176 Z0.45
;TYPE:WALL-INNER
G1 F300 Z0.25
G1 F2100 E20.55922
G1 F600 X151.168 Y136.838 E20.5784
G1 X151.196 Y136.492 E20.5976
G1 X151.166 Y136.144 E20.61691
G1 X151.084 Y135.804 E20.63625
G1 X150.947 Y135.483 E20.65555
G1 X150.765 Y135.189 E20.67467
G1 X150.539 Y134.925 E20.69389
G1 X150.273 Y134.701 E20.71312
G1 X149.977 Y134.521 E20.73227
G1 X149.654 Y134.388 E20.75159
G1 X149.316 Y134.31 E20.77077
G1 X148.97 Y134.282 E20.78996
G1 X148.622 Y134.312 E20.80928
G1 X148.282 Y134.394 E20.82862
G1 X147.961 Y134.531 E20.84792
G1 X147.667 Y134.713 E20.86703
G1 X147.403 Y134.939 E20.88625
G1 X147.179 Y135.205 E20.90548
G1 X146.999 Y135.501 E20.92464
G1 X146.866 Y135.824 E20.94395
G1 X146.788 Y136.162 E20.96313
G1 X146.76 Y136.508 E20.98233
G1 X146.79 Y136.856 E21.00164
G1 X146.872 Y137.196 E21.02098
G1 X147.009 Y137.517 E21.04028
G1 X147.191 Y137.811 E21.0594
G1 X147.417 Y138.075 E21.07861
G1 X147.683 Y138.299 E21.09784
G1 X147.979 Y138.479 E21.117
G1 X148.302 Y138.612 E21.13631
G1 X148.64 Y138.69 E21.1555
G1 X148.986 Y138.718 E21.17469
G1 X149.334 Y138.688 E21.194
G1 X149.674 Y138.606 E21.21334
G1 X149.995 Y138.469 E21.23264
G1 X150.289 Y138.287 E21.25176
G1 X150.553 Y138.061 E21.27098
G1 X150.777 Y137.795 E21.29021
G1 X150.957 Y137.499 E21.30936
G1 X151.09 Y137.176 E21.32868
G0 F6000 X150.555 Y137.005
;TYPE:WALL-OUTER
G1 F600 X150.613 Y136.752 E21.34303
G1 X150.634 Y136.493 E21.3574
G1 X150.612 Y136.234 E21.37177
G1 X150.551 Y135.981 E21.38616
G1 X150.449 Y135.742 E21.40053
G1 X150.312 Y135.521 E21.41491
G1 X150.143 Y135.324 E21.42926
G1 X149.945 Y135.157 E21.44358
G1 X149.723 Y135.022 E21.45795
G1 X149.483 Y134.923 E21.47231
G1 X149.23 Y134.865 E21.48666
G1 X148.971 Y134.844 E21.50103
G1 X148.712 Y134.866 E21.5154
G1 X148.459 Y134.927 E21.52979
G1 X148.22 Y135.029 E21.54416
G1 X147.999 Y135.166 E21.55854
G1 X147.802 Y135.335 E21.57289
G1 X147.635 Y135.533 E21.58721
G1 X147.5 Y135.755 E21.60158
