;FLAVOR:Marlin
;TIME:1552
;Filament used: 2.10299m
;Layer height: 0.3
;Generated with Cura_SteamEngine 3.6.0
M104 S205
M105
M109 S205
M82 ;absolute extrusion mode
G21 ;metric values
G90 ;absolute positioning
M82 ;set extruder to absolute mode
M107 ;start with the fan off
G28 X0 Y0 ;move X/Y to min endstops
G28 Z0 ;move Z to min endstops
G1 Z15.0 F120 ;move the platform down 15mm
G92 E0 ;zero the extruded length
G1 F200 E3 ;extrude 3mm of feed stock
G92 E0 ;zero the extruded length again
G1 F120
M117 Printing...
G5
G92 E0
G1 F2400 E-6
;LAYER_COUNT:47
;LAYER:0
M106 S63.8
M204 S3000
M205 X10 Y10
G0 F3600 X20.439 Y63.247 Z0.3
M204 S1800
M205 X8 Y8
;TYPE:SUPPORT
G1 F2400 E0
G1 F1200 X25.324 Y63.247 E0.41797
G1 X25.384 Y63.306 E0.42517
G1 X25.39 Y65.918 E0.64866
G1 X25.384 Y68.085 E0.83407
G1 X25.389 Y70.111 E1.00742
G1 X25.382 Y72.247 E1.19018
G1 X25.263 Y72.247 E1.20036
G1 X25.064 Y72.706 E1.24317
G1 X24.494 Y72.047 E1.31772
G1 X21.281 Y72.047 E1.59263
G1 X20.708 Y72.723 E1.66845
G1 X20.5 Y72.247 E1.71289
G1 X20.365 Y72.247 E1.72445
G1 X20.377 Y68.012 E2.0868
G1 X20.369 Y65.176 E2.32945
G1 X20.374 Y63.312 E2.48894
G1 X20.439 Y63.247 E2.49681
M204 S3000
M205 X10 Y10
G0 F3600 X20.084 Y112.709
M204 S1800
M205 X8 Y8
G1 F1200 X20.123 Y113.184 E2.53759
G1 X20.64 Y117.963 E2.94887
G1 X21.153 Y121.362 E3.24299
G1 X21.645 Y123.351 E3.4183
G1 X21.744 Y123.549 E3.43724
G1 X22.33 Y124.331 E3.52085
G1 X23.43 Y124.331 E3.61497
G1 X24.016 Y123.548 E3.69865
G1 X24.113 Y123.35 E3.71751
G1 X24.617 Y121.307 E3.89756
G1 X25.121 Y117.94 E4.18885
G1 X25.636 Y113.177 E4.59876
G1 X25.677 Y112.702 E4.63955
G1 X25.838 Y112.889 E4.66067
G1 X25.438 Y119.483 E5.2259
G1 X25.181 Y123.037 E5.53078
G1 X25.66 Y123.59 E5.59337
G1 X25.265 Y130.113 E6.15252
G1 X25.019 Y133.53 E6.44564
G1 X25.496 Y134.092 E6.50871
G1 X25.091 Y140.749 E7.07934
G1 X24.85 Y144.14 E7.37022
G1 X25.185 Y144.758 E7.43036
G1 X26.007 Y145.214 E7.51079
G1 X25.819 Y149.519 E7.87949
G1 X25.736 Y150.847 E7.99333
G1 X25.547 Y150.847 E8.0095
G1 X25.507 Y150.189 E8.06591
G1 X25.44 Y148.733 E8.19062
G1 X25.394 Y147.211 E8.3209
G1 X25.394 Y145.628 E8.45635
G1 X24.886 Y145.056 E8.5218
G1 X23.159 Y144.859 E8.67052
G1 X22.854 Y144.848 E8.69664
G1 X22.469 Y144.868 E8.72962
G1 X20.896 Y145.146 E8.8663
G1 X20.409 Y145.712 E8.93019
G1 X20.342 Y148.132 E9.13732
G1 X20.261 Y150.064 E9.30277
G1 X20.215 Y150.792 E9.36519
G1 X20.157 Y150.847 E9.37203
G1 X20.07 Y150.847 E9.37947
G1 X20.016 Y150.795 E9.38588
G1 X19.852 Y147.499 E9.66824
G1 X19.751 Y145.221 E9.86335
G1 X20.577 Y144.754 E9.94453
G1 X20.909 Y144.136 E10.00456
G1 X20.667 Y140.745 E10.29544
G1 X20.263 Y134.07 E10.8676
G1 X20.738 Y133.521 E10.92972
G1 X20.495 Y130.113 E11.22205
G1 X20.097 Y123.544 E11.78514
G1 X20.574 Y122.995 E11.84737
G1 X20.323 Y119.487 E12.14828
G1 X19.921 Y112.898 E12.7131
G1 X20.084 Y112.709 E12.73445
M204 S3000
M205 X10 Y10
G0 F3600 X25.364 Y123.92
M204 S1800
M205 X8 Y8
G1 F1200 X20.562 Y126.692 E13.20886
M204 S3000
M205 X10 Y10
G0 F3600 X22.63 Y123.731
M204 S1800
M205 X8 Y8
;TYPE:SUPPORT-INTERFACE
G1 F1200 X22.257 Y123.233 E13.2621
G1 X22.213 Y123.145 E13.27052
G1 X21.739 Y121.229 E13.4394
G1 X21.736 Y121.212 E13.44087
G1 X21.24 Y117.92 E13.72572
G1 X21.24 Y117.907 E13.72683
G1 X20.723 Y113.143 E14.13684
G1 X20.174 Y106.694 E14.69063
G1 X19.836 Y101.913 E15.10072
G1 X20.116 Y101.593 E15.1371
G1 X19.879 Y98.278 E15.42146
G1 X19.88 Y98.278 E15.42155
G1 X19.47 Y91.546 E15.99861
G1 X19.483 Y91.545 E15.99973
G1 X19.948 Y91.013 E16.06019
G1 X19.702 Y87.556 E16.35672
G1 X19.703 Y87.556 E16.35681
G1 X19.302 Y81.019 E16.91717
G1 X19.313 Y81.018 E16.91812
G1 X19.777 Y80.486 E16.97852
G1 X19.618 Y78.307 E17.16545
G1 X19.619 Y78.307 E17.16554
G1 X19.307 Y73.273 E17.59708
G1 X19.706 Y72.847 E17.64702
G1 X19.835 Y72.847 E17.65806
G1 X19.539 Y73.167 E17.69536
G1 X19.857 Y77.523 E18.06906
G1 X20.397 Y83.782 E18.60658
G1 X21 Y89.346 E19.08543
G1 X21.579 Y93.193 E19.41829
G1 X22.14 Y95.439 E19.61637
G1 X22.624 Y96.103 E19.68667
G1 X23.123 Y96.107 E19.72937
G1 X23.596 Y95.489 E19.79596
G1 X24.18 Y93.205 E19.99767
G1 X24.759 Y89.352 E20.33104
G1 X25.362 Y83.79 E20.80972
G1 X25.808 Y78.592 E21.2561
G1 X26.099 Y74.969 E21.56709
G1 X26.226 Y73.165 E21.72183
G1 X25.93 Y72.847 E21.759
G1 X26.055 Y72.847 E21.76969
G1 X26.457 Y73.274 E21.81987
G1 X26.294 Y75.876 E22.04294
G1 X26.034 Y79.841 E22.38292
G1 X26.493 Y80.365 E22.44252
G1 X26.415 Y81.715 E22.55822
G1 X26.055 Y87.61 E23.06355
G1 X26.056 Y87.61 E23.06364
G1 X25.805 Y91.132 E23.36575
G1 X26.268 Y91.664 E23.42609
G1 X26.281 Y91.665 E23.42721
G1 X25.88 Y98.278 E23.99407
G1 X25.881 Y98.278 E23.99415
G1 X25.631 Y101.76 E24.29284
G1 X25.912 Y102.083 E24.32947
G1 X25.586 Y106.704 E24.72584
G1 X25.036 Y113.148 E25.2792
G1 X24.521 Y117.906 E25.68868
G1 X24.521 Y117.92 E25.68988
G1 X24.025 Y121.209 E25.97447
G1 X24.022 Y121.226 E25.97595
G1 X23.546 Y123.143 E26.14495
G1 X23.5 Y123.236 E26.15383
G1 X23.13 Y123.731 E26.20671
G1 X22.63 Y123.731 E26.24949
M204 S3000
M205 X10 Y10
G0 F3600 X23.136 Y98.807
M204 S1800
M205 X8 Y8
G1 F1200 X22.879 Y102.376 E26.55565
G1 X22.623 Y98.803 E26.86215
G1 X23.136 Y98.807 E26.90604
M204 S3000
M205 X10 Y10
G0 F3600 X23.874 Y98.306
M204 S1800
M205 X8 Y8
G1 F1200 X23.576 Y102.445 E27.2611
G1 X23.86 Y102.772 E27.29815
G1 X23.594 Y106.533 E27.62076
G1 X23.049 Y112.914 E28.16871
G1 X22.88 Y114.477 E28.30323
G1 X22.709 Y112.904 E28.43861
G1 X22.166 Y106.525 E28.98638
G1 X21.889 Y102.606 E29.32253
G1 X22.171 Y102.284 E29.35915
G1 X21.886 Y98.306 E29.70039
G1 X21.873 Y98.097 E29.71831
G1 X23.886 Y98.113 E29.89055
G1 X23.874 Y98.306 E29.90709
M204 S3000
M205 X10 Y10
G0 F3600 X24.573 Y98.348
M204 S1800
M205 X8 Y8
G1 F1200 X24.295 Y102.206 E30.23805
G1 X24.578 Y102.532 E30.27498
G1 X24.291 Y106.593 E30.62332
G1 X23.745 Y112.989 E31.17256
G1 X23.224 Y117.804 E31.58694
G1 X22.88 Y120.086 E31.7844
G1 X22.537 Y117.804 E31.98185
G1 X22.013 Y112.98 E32.39702
G1 X21.469 Y106.584 E32.94625
G1 X21.17 Y102.363 E33.30831
G1 X21.452 Y102.042 E33.34487
G1 X21.187 Y98.348 E33.66175
G1 X21.054 Y96.156 E33.84965
G1 X21.959 Y97.398 E33.98113
G1 X23.762 Y97.412 E34.1354
G1 X24.704 Y96.18 E34.2681
G1 X24.573 Y98.348 E34.45394
M204 S3000
M205 X10 Y10
G0 F3600 X23.418 Y96.709
M204 S1800
M205 X8 Y8
G1 F1200 X24.147 Y95.756 E34.5566
G1 X24.768 Y93.325 E34.77128
G1 X25.299 Y89.795 E35.07671
G1 X25.189 Y91.338 E35.20906
G1 X25.666 Y91.886 E35.27123
G1 X25.272 Y98.39 E35.82874
G1 X25.014 Y101.966 E36.1355
G1 X25.297 Y102.291 E36.17238
G1 X24.988 Y106.653 E36.54653
G1 X24.441 Y113.064 E37.09706
G1 X23.921 Y117.874 E37.51101
G1 X23.921 Y117.878 E37.51135
G1 X23.436 Y121.094 E37.78963
G1 X22.98 Y122.93 E37.9515
G1 X22.88 Y123.064 E37.9658
G1 X22.778 Y122.927 E37.98042
G1 X22.325 Y121.097 E38.14172
G1 X21.84 Y117.878 E38.42025
G1 X21.84 Y117.874 E38.42059
G1 X21.317 Y113.056 E38.83525
G1 X20.772 Y106.643 E39.38594
G1 X20.451 Y102.121 E39.77382
G1 X20.733 Y101.8 E39.81038
G1 X20.488 Y98.391 E40.10281
G1 X20.085 Y91.768 E40.67053
G1 X20.565 Y91.22 E40.73286
G1 X20.465 Y89.821 E40.85287
G1 X20.99 Y93.311 E41.15484
G1 X21.586 Y95.698 E41.36535
G1 X22.317 Y96.701 E41.47154
G1 X23.418 Y96.709 E41.56574
M204 S3000
M205 X10 Y10
G0 F3600 X22.867 Y102.552
M204 S1800
M205 X8 Y8
G1 F1200 X22.857 Y102.685 E41.57716
G1 X23.142 Y103.013 E41.61433
G1 X22.897 Y106.473 E41.91112
G1 X22.88 Y106.669 E41.92795
G1 X22.863 Y106.466 E41.94538
G1 X22.608 Y102.848 E42.25571
G1 X22.867 Y102.552 E42.28937
M204 S3000
M205 X10 Y10
G1 F2400 E36.28937
;MESH:Corps_skaliert_x132_xy.stl
G0 F3600 X21.382 Y75.951
G0 X22.867 Y75.018
G0 X22.877 Y74.865
G0 X22.897 Y74.897
M204 S1800
M205 X8 Y8
;TYPE:WALL-INNER
G1 F2400 E42.28937
G1 F1200 X22.867 Y75.039 E42.30178
G1 X22.828 Y74.882 E42.30341
G1 X22.707 Y74.157 E42.3663
G1 X22.697 Y74.097 E42.37151
G1 X23.067 Y74.097 E42.39101
G1 X23.052 Y74.171
G1 X22.897 Y74.897 E42.41083
M204 S3000
M205 X10 Y10
G0 F3600 X22.877 Y74.865
G0 X22.675 Y76.395
G0 X22.58 Y76.423
M204 S1800
M205 X8 Y8
;TYPE:WALL-OUTER
G1 F1200 X22.361 Y75.687 E42.47654
G1 X22.191 Y75.014 E42.53593
G1 X21.997 Y73.854 E42.63656
G1 X21.93 Y73.447 E42.67185
G1 X22.342 Y73.447 E42.69367
G1 X22.343 Y73.447 E42.69375
G1 X23.527 Y73.447 E42.79506
G1 X23.823 Y73.447 E42.82038
G1 X23.854 Y73.447 E42.82304
G1 X23.823 Y73.666 E42.83376
G1 X23.762 Y73.955 E42.85228
G1 X23.382 Y75.746 E43.00893
G1 X23.251 Y76.26 E43.05432
G1 X23.187 Y76.511 E43.07648
G1 X22.939 Y77.016 E43.12462
G1 X22.906 Y77.082 E43.13093
G1 X22.882 Y77.113 E43.13429
G1 X22.724 Y76.911 E43.14147
G1 X22.653 Y76.671 E43.14875
G1 X22.58 Y76.423 E43.16869
M204 S3000
M205 X10 Y10
G0 F3600 X22.495 Y76.136
G1 F2400 E37.16869
;MESH:NONMESH
G0 F3600 X22.628 Y76.238
G0 X22.507 Y76.187
G0 X21.382 Y75.951
G0 X21.196 Y75.215
G0 X20.89 Y73.359
G0 X20.397 Y63.147
;TIME_ELAPSED:37.073297
;LAYER:1
M106 S255
G0 F5400 X20.397 Y63.147 Z0.6
M204 S1800
M205 X8 Y8
;TYPE:SUPPORT
G1 F2400 E43.16869
G1 F1200 X20.923 Y63.147 E43.20018
G1 X20.912 Y65.077 E43.31572
G1 X20.928 Y68.042 E43.49324
G1 X20.913 Y71.019 E43.67147
G1 X20.917 Y72.147 E43.739
G1 X20.367 Y72.147 E43.77193
G1 X20.373 Y72.159 E43.77273
G1 X20.265 Y72.159 E43.77919
G1 X20.277 Y68.018 E44.02711
G1 X20.269 Y65.171 E44.19756
G1 X20.274 Y63.27 E44.31137
G1 X20.397 Y63.147 E44.32178
M204 S3000
M205 X10 Y10
G0 F5400 X24.831 Y63.147
M204 S1800
M205 X8 Y8
G1 F1200 X25.365 Y63.147 E44.35375
G1 X25.484 Y63.264 E44.36374
G1 X25.49 Y65.918 E44.52263
G1 X25.484 Y68.085 E44.65237
G1 X25.489 Y70.111 E44.77366
G1 X25.482 Y72.159 E44.89627
G1 X25.387 Y72.159 E44.90196
G1 X25.392 Y72.147 E44.90274
G1 X24.835 Y72.147 E44.93608
G1 X24.847 Y70.073 E45.06025
G1 X24.837 Y68.052 E45.18125
G1 X24.848 Y66.01 E45.3035
G1 X24.831 Y63.147 E45.47491
M204 S3000
M205 X10 Y10
G1 F2400 E39.47491
G0 F5400 X25.971 Y73.037
G0 X25.409 Y123.149
M204 S1800
M205 X8 Y8
G1 F2400 E45.47491
G1 F1200 X25.747 Y123.538 E45.50576
G1 X25.762 Y123.539 E45.50666
G1 X25.364 Y130.123 E45.90155
G1 X25.12 Y133.508 E46.10473
G1 X25.184 Y133.572 E46.11015
G1 X25.585 Y134.042 E46.14714
G1 X25.599 Y134.042 E46.14797
G1 X25.19 Y140.77 E46.55151
G1 X24.951 Y144.118 E46.75246
G1 X25.259 Y144.684 E46.79104
G1 X26.11 Y145.157 E46.84933
G1 X25.918 Y149.519 E47.11072
G1 X25.83 Y150.947 E47.19638
G1 X25.455 Y150.947 E47.21883
G1 X25.407 Y150.193 E47.26406
G1 X25.341 Y148.754 E47.3503
G1 X25.294 Y147.208 E47.4429
G1 X25.294 Y145.65 E47.53618
G1 X24.832 Y145.136 E47.57755
G1 X23.267 Y144.971 E47.67176
G1 X23.151 Y144.959 E47.67875
G1 X22.843 Y144.948 E47.6972
G1 X22.481 Y144.967 E47.7189
G1 X22.389 Y144.983 E47.72449
G1 X20.967 Y145.163 E47.8103
G1 X20.509 Y145.669 E47.85116
G1 X20.441 Y148.152 E47.99987
G1 X20.361 Y150.047 E48.11342
G1 X20.311 Y150.837 E48.16081
G1 X20.195 Y150.947 E48.17038
G1 X20.03 Y150.947 E48.18026
G1 X19.919 Y150.84 E48.18949
G1 X19.752 Y147.499 E48.38976
G1 X19.648 Y145.164 E48.52969
G1 X20.503 Y144.681 E48.58848
G1 X20.808 Y144.115 E48.62697
G1 X20.568 Y140.766 E48.82799
G1 X20.161 Y134.022 E49.23247
G1 X20.174 Y134.021 E49.23325
G1 X20.636 Y133.487 E49.27553
G1 X20.395 Y130.123 E49.47744
G1 X19.995 Y123.495 E49.87497
G1 X20.008 Y123.494 E49.87575
G1 X20.346 Y123.106 E49.90656
G1 X20.82 Y127.49 E50.17055
G1 X21.296 Y130.648 E50.36175
G1 X21.767 Y132.57 E50.48022
G1 X21.856 Y132.75 E50.49224
G1 X22.38 Y133.448 E50.54449
G1 X23.38 Y133.448 E50.60436
G1 X23.904 Y132.75 E50.65662
G1 X23.993 Y132.57 E50.66864
G1 X24.464 Y130.649 E50.78705
G1 X24.941 Y127.488 E50.97844
G1 X25.409 Y123.149 E51.23971
M204 S3000
M205 X10 Y10
G0 F5400 X20.557 Y126.695
M204 S1800
M205 X8 Y8
G1 F1200 X20.369 Y126.803 E51.25269
M204 S3000
M205 X10 Y10
G0 F5400 X23.212 Y108.722
M204 S1800
M205 X8 Y8
;TYPE:SUPPORT-INTERFACE
G1 F1000 X22.887 Y113.273 E51.52585
G1 X23.171 Y113.558 E51.54993
G1 X22.95 Y116.687 E51.73773
G1 X22.88 Y117.517 E51.7876
G1 X22.809 Y116.675 E51.83818
G1 X22.584 Y113.488 E52.02946
G1 X22.866 Y113.163 E52.05522
G1 X22.546 Y108.714 E52.32226
G1 X22.491 Y107.822 E52.37576
G1 X23.267 Y107.822 E52.42222
G1 X23.212 Y108.722 E52.4762
M204 S3000
M205 X10 Y10
G0 F5400 X23.711 Y108.758
M204 S1800
M205 X8 Y8
G1 F1000 X23.402 Y113.081 E52.73568
G1 X23.686 Y113.366 E52.75976
G1 X23.449 Y116.722 E52.96118
G1 X22.939 Y122.732 E53.32228
G1 X22.88 Y123.28 E53.35528
G1 X22.821 Y122.737 E53.38798
G1 X22.31 Y116.71 E53.7501
G1 X22.071 Y113.317 E53.95374
G1 X22.352 Y112.992 E53.97946
G1 X22.047 Y108.75 E54.23407
G1 X21.96 Y107.322 E54.31972
G1 X23.799 Y107.322 E54.42982
G1 X23.711 Y108.758 E54.51595
M204 S3000
M205 X10 Y10
G0 F5400 X24.21 Y108.794
M204 S1800
M205 X8 Y8
G1 F1000 X23.917 Y112.889 E54.76174
G1 X24.201 Y113.174 E54.78583
G1 X23.948 Y116.757 E55.00087
G1 X23.436 Y122.786 E55.36312
G1 X22.947 Y127.318 E55.63601
G1 X22.88 Y127.76 E55.66278
G1 X22.816 Y127.335 E55.68851
G1 X22.324 Y122.791 E55.96214
G1 X21.811 Y116.745 E56.3254
G1 X21.557 Y113.146 E56.54141
G1 X21.838 Y112.821 E56.56713
G1 X21.548 Y108.786 E56.80932
G1 X21.389 Y106.167 E56.9664
G1 X21.87 Y106.822 E57.01505
G1 X23.89 Y106.822 E57.13599
G1 X24.37 Y106.169 E57.18451
G1 X24.21 Y108.794 E57.34195
M204 S3000
M205 X10 Y10
G0 F5400 X24.709 Y108.83
M204 S1800
M205 X8 Y8
G1 F1000 X24.432 Y112.697 E57.57406
G1 X24.716 Y112.982 E57.59814
G1 X24.447 Y116.792 E57.82681
G1 X23.933 Y122.84 E58.1902
G1 X23.443 Y127.381 E58.46364
G1 X22.988 Y130.381 E58.6453
G1 X22.88 Y130.82 E58.67236
G1 X22.772 Y130.381 E58.69943
G1 X22.319 Y127.393 E58.88036
G1 X21.827 Y122.845 E59.15423
G1 X21.312 Y116.78 E59.51864
G1 X21.043 Y112.974 E59.74706
G1 X21.324 Y112.65 E59.77274
G1 X21.049 Y108.822 E60.00251
G1 X20.689 Y102.888 E60.35842
G1 X21.243 Y105.124 E60.49633
G1 X22.123 Y106.322 E60.58532
G1 X23.637 Y106.322 E60.67596
G1 X24.517 Y105.124 E60.76496
G1 X25.07 Y102.893 E60.90256
G1 X24.709 Y108.83 E61.25866
M204 S3000
M205 X10 Y10
G0 F5400 X25.208 Y108.866
M204 S1800
M205 X8 Y8
G1 F1000 X24.947 Y112.506 E61.47714
G1 X25.166 Y112.726 E61.49572
G1 X25.23 Y112.8 E61.50158
G1 X24.946 Y116.827 E61.74327
G1 X24.43 Y122.894 E62.1078
G1 X23.941 Y127.43 E62.38094
G1 X23.941 Y127.432 E62.38105
G1 X23.479 Y130.478 E62.5655
G1 X23.049 Y132.222 E62.67304
G1 X22.88 Y132.448 E62.68993
G1 X22.711 Y132.222 E62.70683
G1 X22.281 Y130.478 E62.81436
G1 X21.82 Y127.437 E62.9985
G1 X21.82 Y127.432 E62.9988
G1 X21.33 Y122.899 E63.27177
G1 X20.813 Y116.815 E63.63732
G1 X20.53 Y112.804 E63.87805
G1 X20.81 Y112.48 E63.90368
G1 X20.55 Y108.858 E64.12108
G1 X20.153 Y102.314 E64.51358
G1 X20.63 Y101.767 E64.55703
G1 X20.379 Y98.252 E64.768
G1 X20.212 Y95.505 E64.93277
G1 X20.584 Y98.938 E65.1395
G1 X21.141 Y102.634 E65.36327
G1 X21.705 Y104.908 E65.50353
G1 X22.376 Y105.822 E65.57142
G1 X23.384 Y105.822 E65.63176
G1 X24.055 Y104.908 E65.69964
G1 X24.62 Y102.63 E65.84016
G1 X25.175 Y98.938 E66.06367
G1 X25.548 Y95.499 E66.27077
G1 X25.381 Y98.252 E66.43589
G1 X25.117 Y101.931 E66.65671
G1 X25.514 Y102.387 E66.69291
G1 X25.596 Y102.481 E66.70037
G1 X25.208 Y108.866 E67.08334
M204 S3000
M205 X10 Y10
G0 F5400 X25.707 Y108.89
M204 S1800
M205 X8 Y8
G1 F1000 X25.707 Y108.902 E67.08406
G1 X25.462 Y112.314 E67.28885
G1 X25.52 Y112.372 E67.29376
G1 X25.744 Y112.628 E67.31413
G1 X25.445 Y116.862 E67.56824
G1 X24.927 Y122.948 E67.93392
G1 X24.441 Y127.457 E68.20543
G1 X24.441 Y127.47 E68.20621
G1 X23.971 Y130.565 E68.39362
G1 X23.968 Y130.582 E68.39466
G1 X23.52 Y132.398 E68.50664
G1 X23.476 Y132.486 E68.51253
G1 X23.13 Y132.948 E68.54708
G1 X22.63 Y132.948 E68.57702
G1 X22.284 Y132.486 E68.61157
G1 X22.24 Y132.398 E68.61746
G1 X21.792 Y130.582 E68.72944
G1 X21.789 Y130.565 E68.73048
G1 X21.32 Y127.472 E68.91777
G1 X21.32 Y127.459 E68.91854
G1 X20.833 Y122.953 E69.18988
G1 X20.314 Y116.85 E69.55658
G1 X20.016 Y112.634 E69.80961
G1 X20.296 Y112.31 E69.83525
G1 X20.051 Y108.894 E70.04028
G1 X20.052 Y108.894 E70.04034
G1 X19.641 Y102.129 E70.4461
G1 X19.652 Y102.128 E70.44676
G1 X20.116 Y101.595 E70.48907
G1 X19.88 Y98.288 E70.68755
G1 X19.881 Y98.288 E70.68761
G1 X19.471 Y91.546 E71.09199
G1 X19.483 Y91.545 E71.09271
G1 X19.941 Y91.021 E71.13438
G1 X19.941 Y90.917 E71.1406
