;FLAVOR:Marlin
;TIME:4200
;Filament used: 2.04693m
;Layer height: 0.2
;MINX:-33.596
;MINY:-16.006
;MINZ:0.36
;MAXX:33.595
;MAXY:18.633
;MAXZ:19.16
;Generated with Cura_SteamEngine 4.10.0
M140 S90
M105
M190 S90
M104 S230
M105
M109 S230
M82 ;absolute extrusion mode
G21        ;metric values
G90        ;absolute positioning
M107       ;start with the fan off
G28   ;move to endstops

;Z-Offset Reset und dann Z +0,1 für PLA
;MacroZOffset0
;MacroZOffsetPlus0100

G92 E0                  ;zero the extruded length
G1 F200 E3              ;extrude 3mm of feed stock
G92 E0                  ;zero the extruded length again
G1 F120
;Put printing message on LCD screen
M117 Printing...
G92 E0
G92 E0
G1 F2400 E-2
;LAYER_COUNT:90
;LAYER:-6
M107
G0 F7200 X-.94 Y-15.426 Z0.36
;TYPE:SUPPORT-INTERFACE
G1 F2400 E0
G1 F450 X1.223 Y-15.426 E0.51798
G1 X1.993 Y-15.362 E0.70301
G1 X2.109 Y-15.34 E0.73128
G1 X2.81 Y-15.252 E0.90047
G1 X3.227 Y-15.252 E1.00033
G1 X3.233 Y-15.191 E1.01501
G1 X4.538 Y-15.384 E1.33092
G1 X5.18 Y-15.426 E1.48499
G1 X7.343 Y-15.426 E2.00297
G1 X7.469 Y-15.422 E2.03316
G1 X8.092 Y-15.366 E2.18295
G1 X8.626 Y-15.244 E2.31413
G1 X9.096 Y-15.073 E2.4339
G1 X9.561 Y-14.837 E2.55877
G1 X10.024 Y-14.517 E2.69355
G1 X10.477 Y-14.12 E2.8378
G1 X10.952 Y-13.56 E3.01365
G1 X11.24 Y-13.103 E3.14301
G1 X11.445 Y-12.699 E3.2515
G1 X11.805 Y-12.089 E3.42112
G1 X12.254 Y-11.51 E3.59658
G1 X12.772 Y-10.991 E3.77218
G1 X13.352 Y-10.542 E3.94783
G1 X13.985 Y-10.17 E4.12365
G1 X14.659 Y-9.881 E4.29927
G1 X15.364 Y-9.679 E4.47489
G1 X16.088 Y-9.568 E4.65029
G1 X16.822 Y-9.548 E4.82613
G1 X17.552 Y-9.622 E5.00184
G1 X18.267 Y-9.787 E5.17757
G1 X18.959 Y-10.044 E5.35434
G1 X21.802 Y-11.32 E6.10059
G1 X22.45 Y-11.561 E6.26616
G1 X23.067 Y-11.742 E6.42014
G1 X23.594 Y-11.856 E6.54926
G1 X24.208 Y-11.942 E6.69773
G1 X24.756 Y-11.977 E6.82923
G1 X25.349 Y-11.974 E6.97124
G1 X25.934 Y-11.926 E7.1118
G1 X26.511 Y-11.837 E7.25161
G1 X27.093 Y-11.701 E7.39474
G1 X27.612 Y-11.544 E7.52459
G1 X28.084 Y-11.362 E7.64573
G1 X28.708 Y-11.07 E7.81071
G1 X29.155 Y-10.817 E7.93371
G1 X29.718 Y-10.444 E8.09544
G1 X30.133 Y-10.12 E8.22152
G1 X30.585 Y-9.713 E8.36718
G1 X30.959 Y-9.324 E8.49641
G1 X31.312 Y-8.904 E8.62779
G1 X31.626 Y-8.471 E8.75588
G1 X31.961 Y-7.935 E8.90724
G1 X32.215 Y-7.451 E9.03814
G1 X32.435 Y-6.964 E9.16611
G1 X32.623 Y-6.431 E9.30146
G1 X32.803 Y-5.793 E9.46021
G1 X32.9 Y-5.297 E9.58123
G1 X32.976 Y-4.748 E9.71396
G1 X32.989 Y-4.592 E9.75145
G1 X33.012 Y-4.074 E9.87561
G1 X32.997 Y-3.481 E10.01767
G1 X32.951 Y-2.983 E10.13743
G1 X32.876 Y-2.464 E10.26301
G1 X32.723 Y-1.827 E10.41989
G1 X32.535 Y-1.236 E10.56841
G1 X32.318 Y-.704 E10.706
G1 X32.051 Y-.16 E10.85112
G1 X31.754 Y0.344 E10.99121
G1 X31.467 Y0.77 E11.11422
G1 X31.117 Y1.209 E11.24867
G1 X30.679 Y1.687 E11.40393
G1 X30.269 Y2.07 E11.53828
G1 X30.016 Y2.289 E11.61842
G1 X11.686 Y17.031 E17.25146
G1 X11.275 Y17.327 E17.37275
G1 X10.78 Y17.61 E17.50929
G1 X10.252 Y17.824 E17.64573
G1 X9.644 Y17.977 E17.79586
G1 X9.147 Y18.042 E17.9159
G1 X8.844 Y18.053 E17.9885
G1 X-8.808 Y18.053 E22.21568
G1 X-9.56 Y17.992 E22.39636
G1 X-10.06 Y17.885 E22.5188
G1 X-10.719 Y17.636 E22.68751
G1 X-11.22 Y17.365 E22.82391
G1 X-11.679 Y17.036 E22.95915
G1 X-30.04 Y2.27 E28.60158
G1 X-30.608 Y1.755 E28.78518
G1 X-31.056 Y1.282 E28.9412
G1 X-31.417 Y0.834 E29.07898
G1 X-31.754 Y0.344 E29.22139
G1 X-32.015 Y-0.097 E29.34411
G1 X-32.305 Y-.673 E29.49854
G1 X-32.535 Y-1.236 E29.64418
G1 X-32.706 Y-1.764 E29.77709
G1 X-32.839 Y-2.298 E29.90887
G1 X-32.937 Y-2.87 E30.04785
G1 X-32.997 Y-3.481 E30.19487
G1 X-33.014 Y-3.999 E30.31898
G1 X-32.989 Y-4.582 E30.45872
G1 X-32.924 Y-5.146 E30.59468
G1 X-32.827 Y-5.677 E30.72395
G1 X-32.666 Y-6.299 E30.87781
G1 X-32.495 Y-6.798 E31.00413
G1 X-32.236 Y-7.41 E31.16327
G1 X-31.969 Y-7.921 E31.30133
G1 X-31.693 Y-8.375 E31.42857
G1 X-31.321 Y-8.892 E31.5811
G1 X-30.959 Y-9.324 E31.71607
G1 X-30.602 Y-9.697 E31.83971
G1 X-30.14 Y-10.114 E31.98875
G1 X-29.718 Y-10.444 E32.11704
G1 X-29.213 Y-10.783 E32.26269
G1 X-28.708 Y-11.07 E32.40179
G1 X-28.194 Y-11.316 E32.53825
G1 X-27.698 Y-11.511 E32.66588
G1 X-27.093 Y-11.701 E32.81774
G1 X-26.59 Y-11.82 E32.94152
G1 X-25.934 Y-11.925 E33.10061
G1 X-25.349 Y-11.974 E33.24119
G1 X-24.778 Y-11.978 E33.37794
G1 X-24.208 Y-11.942 E33.51471
G1 X-23.651 Y-11.867 E33.6493
G1 X-23.067 Y-11.742 E33.79232
G1 X-22.576 Y-11.606 E33.91433
G1 X-21.996 Y-11.396 E34.06204
G1 X-21.72 Y-11.284 E34.13337
G1 X-18.756 Y-9.954 E34.91135
G1 X-18.093 Y-9.706 E35.08087
G1 X-17.38 Y-9.537 E35.25634
G1 X-16.65 Y-9.459 E35.43215
G1 X-15.916 Y-9.475 E35.60797
G1 X-15.192 Y-9.583 E35.78327
G1 X-14.485 Y-9.78 E35.95902
G1 X-13.809 Y-10.067 E36.13489
G1 X-13.175 Y-10.436 E36.31056
G1 X-12.593 Y-10.882 E36.48615
G1 X-12.072 Y-11.398 E36.66175
G1 X-11.615 Y-11.98 E36.83896
G1 X-11.174 Y-12.747 E37.05083
G1 X-10.921 Y-13.243 E37.18417
G1 X-10.611 Y-13.69 E37.31444
G1 X-10.213 Y-14.144 E37.45902
G1 X-9.654 Y-14.618 E37.63453
G1 X-9.197 Y-14.907 E37.76402
G1 X-8.737 Y-15.122 E37.88561
G1 X-8.228 Y-15.288 E38.01382
G1 X-7.699 Y-15.385 E38.14262
G1 X-7.06 Y-15.426 E38.29595
G1 X-4.897 Y-15.426 E38.81393
G1 X-4.127 Y-15.362 E38.99896
G1 X-4.011 Y-15.34 E39.02724
G1 X-3.31 Y-15.252 E39.19643
G1 X-2.893 Y-15.252 E39.29629
G1 X-2.887 Y-15.191 E39.31097
G1 X-1.582 Y-15.384 E39.62688
G1 X-.94 Y-15.426 E39.78095
G0 F7200 X0.00 Y-15.426
G1 F450 X0.00 Y18.053 E47.79826
G0 F7200 X-3.2 Y18.053
G1 F450 X-3.2 Y-15.252 E55.77391
G0 F7200 X-6.4 Y-15.426
G1 F450 X-6.4 Y18.053 E63.79123
G0 F7200 X-9.6 Y17.983
G1 F450 X-9.6 Y-14.653 E71.60667
G0 F7200 X-12.8 Y-10.724
G1 F450 X-12.8 Y16.134 E78.03843
G0 F7200 X-16 Y13.561
G1 F450 X-16 Y-9.474 E83.55469
G0 F7200 X-19.2 Y-10.153
G1 F450 X-19.2 Y10.987 E88.61715
G0 F7200 X-22.4 Y8.414
G1 F450 X-22.4 Y-11.542 E93.39607
G0 F7200 X-25.6 Y-11.953
G1 F450 X-25.6 Y5.84 E97.65701
G0 F7200 X-28.8 Y3.267
G1 F450 X-28.8 Y-11.018 E101.07789
G0 F7200 X-32 Y-7.862
G1 F450 X-32 Y-0.072 E102.94338
G0 F7200 X3.2 Y-15.252
G1 F450 X3.2 Y18.053 E110.91903
G0 F7200 X6.4 Y18.053
G1 F450 X6.4 Y-15.426 E118.93634
G0 F7200 X9.6 Y-14.81
G1 F450 X9.6 Y17.983 E126.78938
G0 F7200 X12.8 Y16.136
G1 F450 X12.8 Y-10.969 E133.2803
G0 F7200 X16 Y-9.581
G1 F450 X16 Y13.562 E138.82242
G0 F7200 X19.2 Y10.988
G1 F450 X19.2 Y-10.153 E143.88512
G0 F7200 X22.4 Y-11.543
G1 F450 X22.4 Y8.415 E148.66452
G0 F7200 X25.6 Y5.841
G1 F450 X25.6 Y-11.953 E152.9257
G0 F7200 X28.8 Y-11.017
G1 F450 X28.8 Y3.267 E156.34633
G0 F7200 X32 Y-0.073
G1 F450 X32 Y-7.86 E158.21111
G0 F600 X32 Y-7.86 Z0.66
G0 F7200 X32.835 Y-6.915
;TIME_ELAPSED:91.662551
;LAYER:-5
;TYPE:SUPPORT
G1 F450 X32.744 Y-7.16 E158.23979
G1 X32.568 Y-7.546 E158.28636
G1 X32.34 Y-7.991 E158.34124
G1 X32.28 Y-8.101 E158.35499
G1 X32.082 Y-8.44 E158.39808
G1 X31.984 Y-8.584 E158.4172
G1 X31.688 Y-9.001 E158.47333
G1 X31.6 Y-9.118 E158.48939
G1 X31.451 Y-9.311 E158.51616
G1 X31.227 Y-9.564 E158.55324
G1 X30.843 Y-9.963 E158.61403
G1 X30.648 Y-10.154 E158.64398
G1 X30.569 Y-10.223 E158.6555
G1 X30.29 Y-10.454 E158.69525
G1 X29.916 Y-10.745 E158.74727
G1 X29.684 Y-10.912 E158.77864
G1 X29.638 Y-10.942 E158.78467
G1 X29.394 Y-11.093 E158.81616
G1 X28.943 Y-11.351 E158.87319
G1 X28.872 Y-11.39 E158.88208
G1 X28.558 Y-11.551 E158.92081
G1 X28.221 Y-11.694 E158.96099
G1 X27.886 Y-11.824 E159.00043
G1 X32.856 Y-6.854 E159.77189
G1 X32.967 Y-6.534 E159.80906
G1 X33.006 Y-6.416 E159.8227
G1 X33.093 Y-6.129 E159.85562
G1 X33.151 Y-5.882 E159.88347
G1 X33.18 Y-5.744 E159.89894
G1 X33.25 Y-5.378 E159.93984
G1 X33.279 Y-5.202 E159.95942
G1 X33.323 Y-4.859 E159.99738
G1 X25.892 Y-12.29 E161.15083
G1 X25.38 Y-12.331 E161.20721
G1 X25.035 Y-12.345 E161.24511
G1 X24.754 Y-12.337 E161.27596
G1 X24.343 Y-12.312 E161.32115
G1 X33.345 Y-3.311 E162.71838
G1 X33.307 Y-2.94 E162.75932
G1 X33.293 Y-2.824 E162.77214
G1 X33.238 Y-2.455 E162.81309
G1 X33.23 Y-2.406 E162.81854
G1 X33.185 Y-2.201 E162.84158
G1 X33.135 Y-1.994 E162.86495
G1 X23.026 Y-12.102 E164.43401
G1 X22.99 Y-12.093 E164.43808
G1 X22.579 Y-11.982 E164.48481
G1 X22.454 Y-11.945 E164.49912
G1 X21.902 Y-11.745 E164.56356
G1 X21.869 Y-11.732 E164.56745
G1 X32.763 Y-.838 E166.25844
G1 X32.636 Y-.533 E166.2947
G1 X32.504 Y-.248 E166.32917
G1 X32.363 Y0.019 E166.36232
G1 X32.264 Y0.19 E166.384
G1 X20.806 Y-11.267 E168.16246
G1 X19.751 Y-10.795 E168.28931
G1 X31.657 Y1.11 E170.13731
G1 X31.396 Y1.434 E170.18297
G1 X31.181 Y1.69 E170.21967
G1 X30.947 Y1.927 E170.25622
G1 X18.69 Y-10.329 E172.1587
G1 X18.163 Y-10.133 E172.22041
G1 X17.51 Y-9.982 E172.29397
G1 X30.14 Y2.648 E174.25443
G1 X29.294 Y3.329 E174.37363
G1 X16.023 Y-9.941 E176.4335
G1 X15.441 Y-10.031 E176.49814
G1 X14.779 Y-10.221 E176.57373
G1 X14.147 Y-10.492 E176.64921
G1 X13.657 Y-10.779 E176.71154
G1 X28.446 Y4.009 E179.00704
G1 X27.6 Y4.69 E179.12624
G1 X7.124 Y-15.785 E182.30448
G1 X5.597 Y-15.785 E182.47208
G1 X26.754 Y5.371 E185.75604
G1 X25.907 Y6.052 E185.87532
G1 X4.164 Y-15.691 E189.25031
G1 X3.553 Y-15.601 E189.3181
G1 X3.553 Y-15.615 E189.31964
G1 X3.522 Y-15.61 E189.32308
G1 X2.831 Y-15.61 E189.39892
G1 X2.701 Y-15.627 E189.41331
G1 X25.061 Y6.733 E192.88408
G1 X24.214 Y7.414 E193.00336
G1 X1.016 Y-15.784 E196.6042
G1 X-.511 Y-15.784 E196.7718
G1 X23.368 Y8.094 E200.47827
G1 X22.521 Y8.775 E200.59755
G1 X-1.946 Y-15.692 E204.39537
G1 X-2.566 Y-15.6 E204.46416
G1 X-2.566 Y-15.615 E204.46581
G1 X-2.597 Y-15.611 E204.46924
G1 X-3.288 Y-15.611 E204.54508
G1 X-3.407 Y-15.626 E204.55825
G1 X21.674 Y9.456 E208.45145
G1 X20.828 Y10.137 E208.57065
G1 X-5.093 Y-15.785 E212.59423
G1 X-6.621 Y-15.785 E212.76194
G1 X19.982 Y10.818 E216.89131
G1 X19.135 Y11.498 E217.01053
G1 X-8.056 Y-15.692 E221.23109
G1 X-8.312 Y-15.637 E221.25983
G1 X-8.58 Y-15.559 E221.29047
G1 X-8.867 Y-15.457 E221.3239
G1 X-9.116 Y-15.35 E221.35364
G1 X-9.198 Y-15.308 E221.36375
G1 X18.289 Y12.179 E225.63034
G1 X17.442 Y12.86 E225.74963
G1 X-10.122 Y-14.704 E230.02816
G1 X-10.372 Y-14.486 E230.06457
G1 X-10.469 Y-14.395 E230.07917
G1 X-10.591 Y-14.263 E230.0989
G1 X-10.876 Y-13.931 E230.14692
G1 X16.596 Y13.541 E234.41118
G1 X15.749 Y14.222 E234.53046
G1 X-11.459 Y-12.986 E238.75374
G1 X-11.494 Y-12.913 E238.76263
G1 X-11.914 Y-12.179 E238.85544
G1 X-12.031 Y-12.031 E238.87615
G1 X14.902 Y14.902 E243.05674
G1 X14.056 Y15.583 E243.17594
G1 X-12.754 Y-11.227 E247.33744
G1 X-12.829 Y-11.153 E247.34901
G1 X-13.374 Y-10.736 E247.42433
G1 X-13.637 Y-10.582 E247.45778
G1 X13.21 Y16.264 E251.62494
G1 X12.363 Y16.945 E251.74423
G1 X-14.68 Y-10.098 E255.9419
G1 X-15.266 Y-9.936 E256.00863
G1 X-15.944 Y-9.835 E256.08386
G1 X11.498 Y17.608 E260.34354
G1 X11.48 Y17.622 E260.34604
G1 X11.223 Y17.78 E260.37916
G1 X10.931 Y17.935 E260.41544
G1 X10.751 Y18.019 E260.43724
G1 X10.487 Y18.124 E260.46843
G1 X-17.594 Y-9.957 E264.82721
G1 X-17.987 Y-10.05 E264.87154
G1 X-18.618 Y-10.286 E264.94548
G1 X-20.128 Y-10.964 E265.12716
G1 X9.229 Y18.393 E269.68401
G1 X9.178 Y18.399 E269.68964
G1 X8.911 Y18.41 E269.71897
G1 X7.719 Y18.41 E269.8498
G1 X-22.708 Y-12.017 E274.57274
G1 X-22.99 Y-12.093 E274.6048
G1 X-23.079 Y-12.116 E274.61489
G1 X-23.581 Y-12.219 E274.67113
G1 X-23.934 Y-12.276 E274.71038
G1 X-24.271 Y-12.308 E274.74753
G1 X-24.543 Y-12.324 E274.77744
G1 X6.192 Y18.41 E279.54811
G1 X4.664 Y18.41 E279.71582
G1 X-26.022 Y-12.276 E284.47896
G1 X-26.383 Y-12.227 E284.51894
G1 X-26.46 Y-12.213 E284.52753
G1 X-26.589 Y-12.188 E284.54195
G1 X-27.091 Y-12.072 E284.59851
G1 X-27.29 Y-12.017 E284.62117
G1 X3.137 Y18.41 E289.3441
G1 X1.61 Y18.41 E289.5117
G1 X-28.414 Y-11.613 E294.17201
G1 X-28.501 Y-11.577 E294.18234
G1 X-28.615 Y-11.523 E294.19619
G1 X-28.952 Y-11.346 E294.23797
G1 X-29.336 Y-11.128 E294.28643
G1 X-29.41 Y-11.082 E294.296
G1 X0.082 Y18.41 E298.8738
G1 X-1.444 Y18.41 E299.04129
G1 X-30.3 Y-10.445 E303.5203
G1 X-30.367 Y-10.391 E303.52974
G1 X-30.648 Y-10.154 E303.57009
G1 X-30.844 Y-9.961 E303.60028
G1 X-31.09 Y-9.707 E303.63909
G1 X-2.971 Y18.41 E308.00362
G1 X-4.499 Y18.41 E308.17133
G1 X-31.781 Y-8.871 E312.40602
G1 X-31.923 Y-8.673 E312.43276
G1 X-32.082 Y-8.44 E312.46372
G1 X-32.28 Y-8.101 E312.50681
G1 X-32.34 Y-7.991 E312.52056
G1 X-32.37 Y-7.933 E312.52773
G1 X-6.026 Y18.41 E316.61682
G1 X-7.554 Y18.41 E316.78453
G1 X-32.846 Y-6.881 E320.71032
G1 X-32.967 Y-6.534 E320.75066
G1 X-33.008 Y-6.411 E320.76489
G1 X-33.093 Y-6.129 E320.79722
G1 X-33.152 Y-5.873 E320.82605
G1 X-33.188 Y-5.695 E320.84598
G1 X-9.093 Y18.398 E324.5859
G1 X-9.314 Y18.384 E324.6102
G1 X-9.623 Y18.345 E324.64439
G1 X-9.924 Y18.288 E324.67801
G1 X-10.161 Y18.23 E324.70479
G1 X-10.407 Y18.154 E324.73305
G1 X-10.567 Y18.09 E324.75197
G1 X-10.88 Y17.958 E324.78925
G1 X-11.131 Y17.832 E324.82008
G1 X-11.265 Y17.754 E324.8371
G1 X-33.359 Y-4.34 E328.26657
G1 X-33.371 Y-4.071 E328.29612
G1 X-33.375 Y-3.891 E328.31588
G1 X-33.373 Y-3.79 E328.32697
G1 X-33.354 Y-3.454 E328.36391
G1 X-33.345 Y-3.317 E328.37898
G1 X-33.307 Y-2.94 E328.42057
G1 X-33.293 Y-2.824 E328.43339
G1 X-33.279 Y-2.732 E328.44361
G1 X-18.685 Y11.861 E330.70884
G1 X-26.49 Y5.584 E331.80817
G1 X-32.656 Y-.581 E332.76519
G0 F7200 X-32.649 Y-.564
G1 F450 X-32.504 Y-.248 E332.80335
G1 X-32.363 Y0.019 E332.83649
G1 X-32.115 Y0.444 E332.8905
G1 X-32.053 Y0.544 E332.90341
G1 X-31.828 Y0.882 E332.94798
G1 X-31.766 Y0.968 E332.95962
G1 X-31.703 Y1.051 E332.97105
G1 X-31.396 Y1.434 E333.02493
G1 X-31.181 Y1.69 E333.06162
G1 X-30.928 Y1.945 E333.10105
G1 X-30.852 Y2.019 E333.11269
G1 X-30.517 Y2.33 E333.16286
G1 X-30.334 Y2.492 E333.18969
G1 X-26.49 Y5.584 E333.73115
G0 F7200 X11.761 Y-12.871
G1 F450 X11.552 Y-13.28 E333.78156
G1 X11.413 Y-13.52 E333.81201
G1 X11.238 Y-13.779 E333.84631
G1 X11.079 Y-13.983 E333.8747
G1 X10.82 Y-14.278 E333.91779
G1 X10.729 Y-14.375 E333.93239
G1 X10.598 Y-14.497 E333.95204
G1 X10.242 Y-14.803 E334.00356
G1 X9.992 Y-14.988 E334.0377
G1 X9.76 Y-15.134 E334.06778
G1 X9.514 Y-15.272 E334.09874
G1 X9.241 Y-15.4 E334.13184
G1 X8.98 Y-15.504 E334.16267
G1 X8.909 Y-15.528 E334.1709
G1 X12.04 Y-12.396 E334.65698
G1 X12.102 Y-12.29 E334.67045
G1 X12.522 Y-11.747 E334.7458
G1 X13.01 Y-11.262 E334.82132
G1 X13.554 Y-10.84 E334.89688
G0 F600 X13.554 Y-10.84 Z0.86
G0 F7200 X15.905 Y-10.469
G0 X18.1 Y-10.343
;TIME_ELAPSED:306.812626
;LAYER:-4
;TYPE:SUPPORT-INTERFACE
G1 F600 X17.457 Y-10.195 E334.92102
G1 X16.8 Y-10.128 E334.94519
G1 X16.14 Y-10.145 E334.96934
G1 X15.489 Y-10.246 E334.99344
G1 X14.854 Y-10.427 E335.0176
G1 X14.546 Y-10.56 E335.02988
G1 X-14.132 Y-10.56 E336.07909
G1 X-14.069 Y-10.587 E336.0816
G1 X-13.498 Y-10.919 E336.10577
G1 X-13.392 Y-11 E336.11065
G1 X13.719 Y-11 E337.10253
G1 X13.678 Y-11.024 E337.10427
G1 X13.156 Y-11.428 E337.12842
G1 X13.144 Y-11.44 E337.12904
G1 X-12.853 Y-11.44 E338.08017
G1 X-12.505 Y-11.784 E338.09808
G1 X-12.429 Y-11.88 E338.10256
G1 X12.704 Y-11.88 E339.02207
G1 X12.69 Y-11.894 E339.0228
G1 X12.36 Y-12.32 E339.04251
G1 X-12.088 Y-12.32 E339.93697
G1 X-11.835 Y-12.76 E339.95554
G1 X12.083 Y-12.76 E340.83061
G1 X11.954 Y-12.978 E340.83988
G1 X11.842 Y-13.2 E340.84897
G1 X-11.601 Y-13.2 E341.70666
G1 X-11.56 Y-13.288 E341.71022
G1 X-11.426 Y-13.53 E341.72034
G1 X-11.355 Y-13.64 E341.72513
G1 X11.597 Y-13.64 E342.56485
G1 X11.588 Y-13.655 E342.56549
G1 X11.425 Y-13.897 E342.57617
G1 X11.283 Y-14.08 E342.58464
G1 X-11.04 Y-14.08 E343.40135
G1 X-10.764 Y-14.402 E343.41687
G1 X-10.654 Y-14.52 E343.42277
G1 X10.897 Y-14.52 E344.21124
G1 X10.888 Y-14.529 E344.2117
G1 X10.736 Y-14.67 E344.21929
G1 X10.398 Y-14.96 E344.23558
G1 X-10.158 Y-14.96 E344.98765
G1 X-9.99 Y-15.091 E344.99544
G1 X-9.743 Y-15.258 E345.00635
G1 X-9.502 Y-15.4 E345.01659
G1 X9.741 Y-15.4 E345.72061
G1 X9.625 Y-15.464 E345.72546
G1 X9.321 Y-15.608 E345.73777
G1 X9.068 Y-15.709 E345.74773
G1 X8.783 Y-15.802 E345.7587
G1 X8.639 Y-15.84 E345.76415
G1 X3.563 Y-15.84 E345.94986
G1 X3.748 Y-15.866 E345.9567
G1 X3.749 Y-15.854 E345.95714
G1 X4.49 Y-15.963 E345.98454
G1 X4.96 Y-15.999 E346.00179
G1 X5.159 Y-16.006 E346.00907
G1 X7.36 Y-16.006 E346.0896
G1 X7.479 Y-16.002 E346.09395
