;FLAVOR:Marlin
;TIME:3861
;Filament used: 1.75547m
;Layer height: 0.2
;MINX:-36.949
;MINY:-19.366
;MINZ:0.3
;MAXX:36.949
;MAXY:21.993
;MAXZ:18.1
;Generated with Cura_SteamEngine 4.10.0
M140 S90
M105
M190 S90
M104 S230
M105
M109 S230
M82 ;absolute extrusion mode
G21        ;metric values
G90        ;absolute positioning
M107       ;start with the fan off
G28   ;move to endstops

;Z-Offset Reset und dann Z +0,1 für PLA
;MacroZOffset0
;MacroZOffsetPlus0100

G92 E0                  ;zero the extruded length
G1 F200 E3              ;extrude 3mm of feed stock
G92 E0                  ;zero the extruded length again
G1 F120
;Put printing message on LCD screen
M117 Printing...
G92 E0
G92 E0
G1 F2400 E-2
;LAYER_COUNT:90
;LAYER:0
M107
G0 F3600 X-2.939 Y-19.139 Z0.3
;TYPE:SKIRT
G1 F2400 E0
G1 F600 X-2.612 Y-19.219 E0.01755
G1 X-1.814 Y-19.332 E0.05957
G1 X-1.071 Y-19.366 E0.09835
G1 X1.311 Y-19.366 E0.22253
G1 X2.117 Y-19.326 E0.26461
G1 X2.915 Y-19.206 E0.30668
G1 X3.181 Y-19.139 E0.32098
G1 X3.508 Y-19.219 E0.33853
G1 X4.306 Y-19.332 E0.38055
G1 X5.049 Y-19.366 E0.41933
G1 X7.431 Y-19.366 E0.54351
G1 X8.237 Y-19.326 E0.58558
G1 X9.035 Y-19.206 E0.62766
G1 X9.817 Y-19.009 E0.6697
G1 X10.575 Y-18.734 E0.71174
G1 X11.303 Y-18.386 E0.75381
G1 X11.993 Y-17.968 E0.79587
G1 X12.638 Y-17.483 E0.83794
G1 X13.187 Y-16.982 E0.87669
G1 X13.316 Y-16.853 E0.8862
G1 X13.857 Y-16.255 E0.92824
G1 X14.337 Y-15.606 E0.97033
G1 X14.75 Y-14.913 E1.01239
G1 X15.092 Y-14.183 E1.05441
G1 X15.361 Y-13.422 E1.09649
G1 X15.509 Y-12.816 E1.12902
G1 X20.096 Y-14.876 E1.39117
G1 X20.666 Y-15.106 E1.42322
G1 X21.192 Y-15.296 E1.45237
G1 X22.302 Y-15.61 E1.51251
G1 X22.851 Y-15.724 E1.54175
G1 X24.022 Y-15.88 E1.60334
G1 X24.559 Y-15.912 E1.63138
G1 X25.719 Y-15.898 E1.69186
G1 X26.259 Y-15.853 E1.72011
G1 X26.551 Y-15.823 E1.73542
G1 X27.452 Y-15.666 E1.7831
G1 X27.97 Y-15.545 E1.81083
G1 X29.049 Y-15.212 E1.86971
G1 X29.562 Y-15.014 E1.89837
G1 X30.635 Y-14.507 E1.96025
G1 X31.12 Y-14.233 E1.98929
G1 X32.098 Y-13.583 E2.05051
G1 X32.527 Y-13.251 E2.07879
G1 X32.816 Y-13.017 E2.09818
G1 X33.437 Y-12.433 E2.14262
G1 X33.821 Y-12.032 E2.17157
G1 X34.573 Y-11.123 E2.23307
G1 X34.892 Y-10.675 E2.26175
G1 X35.497 Y-9.683 E2.32232
G1 X35.749 Y-9.194 E2.351
G1 X36.208 Y-8.119 E2.41194
G1 X36.386 Y-7.603 E2.4404
G1 X36.687 Y-6.473 E2.50137
G1 X36.788 Y-5.943 E2.5295
G1 X36.924 Y-4.778 E2.59065
G1 X36.949 Y-4.212 E2.62019
G1 X36.916 Y-3.042 E2.68121
G1 X36.861 Y-2.493 E2.70997
G1 X36.66 Y-1.333 E2.77135
G1 X36.528 Y-.804 E2.79978
G1 X36.149 Y0.343 E2.86276
G1 X35.935 Y0.859 E2.89188
G1 X35.433 Y1.867 E2.95059
G1 X35.166 Y2.321 E2.97805
G1 X34.49 Y3.299 E3.04003
G1 X34.135 Y3.74 E3.06955
G1 X33.335 Y4.599 E3.13074
G1 X32.926 Y4.979 E3.15985
G1 X32.486 Y5.359 E3.19016
G1 X14.069 Y20.171 E4.42234
G1 X13.417 Y20.645 E4.46437
G1 X12.72 Y21.052 E4.50645
G1 X11.986 Y21.388 E4.54853
G1 X11.532 Y21.554 E4.57374
G1 X10.757 Y21.777 E4.61578
G1 X9.964 Y21.923 E4.65782
G1 X8.895 Y21.993 E4.71367
G1 X-8.895 Y21.993 E5.64116
G1 X-9.701 Y21.953 E5.68323
G1 X-10.499 Y21.833 E5.7253
G1 X-11.598 Y21.531 E5.78472
G1 X-11.669 Y21.506 E5.78865
G1 X-12.416 Y21.201 E5.83071
G1 X-13.129 Y20.823 E5.87279
G1 X-14.067 Y20.171 E5.93234
G1 X-32.491 Y5.355 E7.16494
G1 X-32.942 Y4.965 E7.19602
G1 X-33.357 Y4.578 E7.22561
G1 X-34.161 Y3.71 E7.28729
G1 X-34.505 Y3.28 E7.316
G1 X-35.166 Y2.321 E7.37672
G1 X-35.433 Y1.867 E7.40418
G1 X-35.935 Y0.859 E7.46289
G1 X-36.149 Y0.343 E7.49202
G1 X-36.421 Y-.416 E7.53405
G1 X-36.533 Y-.825 E7.55616
G1 X-36.667 Y-1.368 E7.58532
G1 X-36.864 Y-2.513 E7.64589
G1 X-36.917 Y-3.046 E7.67381
G1 X-36.949 Y-4.209 E7.73447
G1 X-36.924 Y-4.777 E7.76411
G1 X-36.785 Y-5.959 E7.82616
G1 X-36.68 Y-6.504 E7.8551
G1 X-36.378 Y-7.63 E7.91588
G1 X-36.204 Y-8.132 E7.94358
G1 X-35.749 Y-9.195 E8.00386
G1 X-35.497 Y-9.684 E8.03254
G1 X-34.889 Y-10.681 E8.09342
G1 X-34.571 Y-11.127 E8.12198
G1 X-33.822 Y-12.031 E8.18318
G1 X-33.437 Y-12.433 E8.2122
G1 X-32.548 Y-13.234 E8.27459
G1 X-32.106 Y-13.577 E8.30376
G1 X-31.143 Y-14.22 E8.36413
G1 X-30.674 Y-14.487 E8.39226
G1 X-29.609 Y-14.995 E8.45378
G1 X-29.097 Y-15.195 E8.48244
G1 X-27.991 Y-15.539 E8.54283
G1 X-27.44 Y-15.668 E8.57233
G1 X-26.646 Y-15.812 E8.6144
G1 X-26.227 Y-15.857 E8.63637
G1 X-25.672 Y-15.901 E8.6654
G1 X-24.516 Y-15.91 E8.72567
G1 X-23.978 Y-15.876 E8.75377
G1 X-22.805 Y-15.716 E8.81549
G1 X-22.257 Y-15.6 E8.84469
G1 X-21.148 Y-15.281 E8.90486
G1 X-20.631 Y-15.092 E8.93356
G1 X-20.092 Y-14.873 E8.96389
G1 X-15.295 Y-12.719 E9.23804
G1 X-15.103 Y-13.483 E9.27911
G1 X-14.828 Y-14.241 E9.32114
G1 X-14.48 Y-14.969 E9.36321
G1 X-14.062 Y-15.659 E9.40527
G1 X-13.577 Y-16.304 E9.44735
G1 X-13.076 Y-16.853 E9.48609
G1 X-12.947 Y-16.982 E9.49561
G1 X-12.349 Y-17.523 E9.53765
G1 X-11.7 Y-18.003 E9.57973
G1 X-11.007 Y-18.416 E9.62179
G1 X-10.277 Y-18.758 E9.66382
G1 X-9.516 Y-19.027 E9.7059
G1 X-8.732 Y-19.219 E9.74798
G1 X-7.934 Y-19.332 E9.79
G1 X-7.191 Y-19.366 E9.82878
G1 X-4.809 Y-19.366 E9.95296
G1 X-4.003 Y-19.326 E9.99504
G1 X-3.205 Y-19.206 E10.03711
G1 X-2.939 Y-19.139 E10.05141
G0 F3600 X-2.942 Y-18.687
G1 F600 X-2.402 Y-18.81 E10.08028
G1 X-1.623 Y-18.906 E10.1212
G1 X-1.071 Y-18.926 E10.15
G1 X1.311 Y-18.926 E10.27419
G1 X2.095 Y-18.886 E10.31512
G1 X2.87 Y-18.767 E10.35599
G1 X3.178 Y-18.687 E10.37258
G1 X3.718 Y-18.81 E10.40146
G1 X4.497 Y-18.906 E10.44238
G1 X5.049 Y-18.926 E10.47118
G1 X7.431 Y-18.926 E10.59536
G1 X8.215 Y-18.886 E10.63629
G1 X8.99 Y-18.767 E10.67717
G1 X9.749 Y-18.569 E10.71806
G1 X10.484 Y-18.295 E10.75896
G1 X11.188 Y-17.947 E10.7999
G1 X11.852 Y-17.53 E10.84078
G1 X12.471 Y-17.047 E10.88171
G1 X12.876 Y-16.671 E10.91053
G1 X13.005 Y-16.542 E10.92004
G1 X13.531 Y-15.959 E10.96097
G1 X13.994 Y-15.327 E11.00182
G1 X14.391 Y-14.65 E11.04274
G1 X14.717 Y-13.936 E11.08366
G1 X14.969 Y-13.193 E11.12456
G1 X15.144 Y-12.428 E11.16547
G1 X15.174 Y-12.183 E11.17834
G1 X20.276 Y-14.474 E11.46992
G1 X20.815 Y-14.692 E11.50024
G1 X21.341 Y-14.882 E11.52939
G1 X22.391 Y-15.179 E11.58628
G1 X22.94 Y-15.293 E11.61552
G1 X24.048 Y-15.44 E11.67379
G1 X24.585 Y-15.472 E11.70183
G1 X25.682 Y-15.459 E11.75903
G1 X26.222 Y-15.414 E11.78728
G1 X26.5 Y-15.386 E11.80185
G1 X27.351 Y-15.237 E11.84689
G1 X27.869 Y-15.116 E11.87462
G1 X28.891 Y-14.802 E11.93036
G1 X29.404 Y-14.604 E11.95903
G1 X30.418 Y-14.124 E12.01752
G1 X30.903 Y-13.85 E12.04656
G1 X31.829 Y-13.235 E12.10452
G1 X32.258 Y-12.903 E12.1328
G1 X32.532 Y-12.681 E12.15118
G1 X33.119 Y-12.129 E12.19319
G1 X33.503 Y-11.728 E12.22214
G1 X34.214 Y-10.868 E12.28031
G1 X34.533 Y-10.42 E12.30899
G1 X35.106 Y-9.481 E12.36634
G1 X35.358 Y-8.992 E12.39502
G1 X35.792 Y-7.976 E12.45262
G1 X35.97 Y-7.46 E12.48108
G1 X36.255 Y-6.39 E12.5388
G1 X36.356 Y-5.86 E12.56693
G1 X36.484 Y-4.759 E12.62472
G1 X36.509 Y-4.193 E12.65426
G1 X36.479 Y-3.085 E12.71205
G1 X36.424 Y-2.536 E12.74081
G1 X36.233 Y-1.44 E12.79881
G1 X36.101 Y-.911 E12.82724
G1 X35.743 Y0.175 E12.88685
G1 X35.529 Y0.691 E12.91598
G1 X35.053 Y1.644 E12.97151
G1 X34.786 Y2.098 E12.99897
G1 X34.147 Y3.023 E13.05759
G1 X33.792 Y3.464 E13.0871
G1 X33.035 Y4.277 E13.14502
G1 X32.626 Y4.657 E13.17412
G1 X32.211 Y5.016 E13.20273
G1 X13.794 Y19.828 E14.43491
G1 X13.158 Y20.288 E14.47584
G1 X12.479 Y20.681 E14.51674
G1 X11.463 Y21.113 E14.5743
G1 X11.39 Y21.138 E14.57832
G1 X10.635 Y21.354 E14.61926
G1 X9.863 Y21.492 E14.66015
G1 X8.895 Y21.553 E14.71071
G1 X-8.895 Y21.553 E15.6382
G1 X-9.679 Y21.513 E15.67913
G1 X-10.454 Y21.394 E15.72001
G1 X-11.452 Y21.116 E15.77402
G1 X-11.523 Y21.091 E15.77794
G1 X-12.249 Y20.793 E15.81886
G1 X-12.941 Y20.423 E15.85977
G1 X-13.791 Y19.828 E15.91386
G1 X-32.215 Y5.012 E17.14646
G1 X-32.641 Y4.643 E17.17584
G1 X-33.056 Y4.256 E17.20543
G1 X-33.818 Y3.435 E17.26382
G1 X-34.162 Y3.005 E17.29253
G1 X-34.786 Y2.098 E17.34993
G1 X-35.053 Y1.644 E17.37739
G1 X-35.529 Y0.691 E17.43293
G1 X-35.743 Y0.175 E17.46205
G1 X-36.106 Y-.93 E17.52269
G1 X-36.24 Y-1.473 E17.55185
G1 X-36.426 Y-2.556 E17.60914
G1 X-36.479 Y-3.089 E17.63706
G1 X-36.51 Y-4.19 E17.69448
G1 X-36.485 Y-4.758 E17.72413
G1 X-36.353 Y-5.876 E17.78282
G1 X-36.248 Y-6.421 E17.81175
G1 X-35.962 Y-7.486 E17.86925
G1 X-35.788 Y-7.988 E17.89695
G1 X-35.358 Y-8.993 E17.95394
G1 X-35.106 Y-9.482 E17.98262
G1 X-34.531 Y-10.425 E18.0402
G1 X-34.213 Y-10.871 E18.06876
G1 X-33.504 Y-11.727 E18.1267
G1 X-33.119 Y-12.129 E18.15572
G1 X-32.279 Y-12.886 E18.21468
G1 X-31.837 Y-13.229 E18.24385
G1 X-30.926 Y-13.838 E18.30098
G1 X-30.457 Y-14.105 E18.32911
G1 X-29.449 Y-14.585 E18.38732
G1 X-28.937 Y-14.785 E18.41598
G1 X-27.89 Y-15.11 E18.47313
G1 X-27.339 Y-15.239 E18.50263
G1 X-26.193 Y-15.418 E18.56311
G1 X-25.638 Y-15.462 E18.59213
G1 X-24.543 Y-15.471 E18.64922
G1 X-24.005 Y-15.437 E18.67733
G1 X-22.896 Y-15.285 E18.73568
G1 X-22.348 Y-15.169 E18.76489
G1 X-21.299 Y-14.868 E18.82178
G1 X-20.782 Y-14.679 E18.85048
G1 X-20.272 Y-14.472 E18.87918
G1 X-14.949 Y-12.082 E19.18338
G1 X-14.861 Y-12.656 E19.21366
G1 X-14.663 Y-13.415 E19.25455
G1 X-14.389 Y-14.15 E19.29545
G1 X-14.041 Y-14.854 E19.33639
G1 X-13.624 Y-15.518 E19.37727
G1 X-13.141 Y-16.137 E19.41821
G1 X-12.765 Y-16.542 E19.44702
G1 X-12.636 Y-16.671 E19.45653
G1 X-12.053 Y-17.197 E19.49747
G1 X-11.421 Y-17.66 E19.53831
G1 X-10.744 Y-18.057 E19.57923
G1 X-10.03 Y-18.383 E19.62015
G1 X-9.287 Y-18.635 E19.66105
G1 X-8.522 Y-18.81 E19.70197
G1 X-7.743 Y-18.906 E19.74289
G1 X-7.191 Y-18.926 E19.77168
G1 X-4.809 Y-18.926 E19.89587
G1 X-4.025 Y-18.886 E19.9368
G1 X-3.25 Y-18.767 E19.97768
G1 X-2.942 Y-18.687 E19.99427
G0 F3600 X-3.296 Y-18.327
G1 F600 X-2.941 Y-18.241 E20.01331
G1 X-2.195 Y-18.398 E20.05305
G1 X-1.071 Y-18.486 E20.11183
G1 X1.311 Y-18.486 E20.23602
G1 X2.072 Y-18.446 E20.27575
G1 X2.824 Y-18.327 E20.31544
G1 X3.179 Y-18.241 E20.33449
G1 X3.925 Y-18.398 E20.37423
G1 X5.049 Y-18.486 E20.43301
G1 X7.431 Y-18.486 E20.5572
G1 X8.192 Y-18.446 E20.59693
G1 X8.944 Y-18.327 E20.63662
G1 X9.68 Y-18.129 E20.67636
G1 X10.391 Y-17.855 E20.71608
G1 X11.069 Y-17.509 E20.75577
G1 X11.708 Y-17.093 E20.79552
G1 X12.565 Y-16.36 E20.85431
G1 X12.694 Y-16.231 E20.86382
G1 X13.203 Y-15.664 E20.90355
G1 X13.651 Y-15.048 E20.94326
G1 X14.031 Y-14.388 E20.98296
G1 X14.341 Y-13.692 E21.02269
G1 X14.575 Y-12.967 E21.0624
G1 X14.732 Y-12.221 E21.10215
G1 X14.786 Y-11.526 E21.13849
G1 X20.457 Y-14.073 E21.4626
G1 X20.965 Y-14.278 E21.49116
G1 X21.491 Y-14.468 E21.52032
G1 X22.481 Y-14.748 E21.57396
G1 X23.03 Y-14.862 E21.60319
G1 X24.074 Y-15.001 E21.6581
G1 X24.611 Y-15.033 E21.68615
G1 X25.646 Y-15.021 E21.74011
G1 X26.186 Y-14.976 E21.76836
G1 X26.448 Y-14.949 E21.78209
G1 X27.251 Y-14.809 E21.82459
G1 X27.769 Y-14.688 E21.85232
G1 X28.732 Y-14.391 E21.90486
G1 X29.245 Y-14.193 E21.93353
G1 X30.202 Y-13.741 E21.98871
G1 X30.687 Y-13.467 E22.01775
G1 X31.559 Y-12.887 E22.07235
G1 X31.988 Y-12.555 E22.10063
G1 X32.248 Y-12.345 E22.11806
G1 X32.802 Y-11.824 E22.1577
G1 X33.186 Y-11.423 E22.18665
G1 X33.856 Y-10.613 E22.24145
G1 X34.175 Y-10.165 E22.27013
G1 X34.714 Y-9.28 E22.32415
G1 X34.966 Y-8.791 E22.35283
G1 X35.376 Y-7.833 E22.40716
G1 X35.554 Y-7.317 E22.43562
G1 X35.823 Y-6.308 E22.49006
G1 X35.924 Y-5.778 E22.51819
G1 X36.045 Y-4.739 E22.57272
G1 X36.07 Y-4.173 E22.60226
G1 X36.041 Y-3.129 E22.65671
G1 X35.986 Y-2.58 E22.68547
G1 X35.806 Y-1.546 E22.74019
G1 X35.674 Y-1.017 E22.76862
G1 X35.336 Y0.006 E22.82479
G1 X35.122 Y0.522 E22.85391
G1 X34.674 Y1.421 E22.90628
G1 X34.407 Y1.875 E22.93374
G1 X33.804 Y2.747 E22.98901
G1 X33.449 Y3.188 E23.01853
G1 X32.736 Y3.955 E23.07312
G1 X32.327 Y4.335 E23.10223
G1 X31.935 Y4.673 E23.12921
G1 X13.518 Y19.485 E24.3614
G1 X12.9 Y19.931 E24.40113
G1 X12.239 Y20.309 E24.44083
G1 X11.32 Y20.696 E24.49282
G1 X11.247 Y20.721 E24.49684
G1 X10.514 Y20.93 E24.53658
G1 X9.764 Y21.061 E24.57627
G1 X8.895 Y21.113 E24.62166
G1 X-8.895 Y21.113 E25.54914
G1 X-9.656 Y21.073 E25.58887
G1 X-10.408 Y20.954 E25.62857
G1 X-11.306 Y20.701 E25.67721
G1 X-11.377 Y20.676 E25.68113
G1 X-12.082 Y20.386 E25.72087
G1 X-12.752 Y20.023 E25.7606
G1 X-13.516 Y19.486 E25.80929
G1 X-31.94 Y4.67 E27.04189
G1 X-32.341 Y4.322 E27.06957
G1 X-32.756 Y3.935 E27.09915
G1 X-33.474 Y3.16 E27.15423
G1 X-33.818 Y2.73 E27.18294
G1 X-34.407 Y1.875 E27.23707
G1 X-34.674 Y1.421 E27.26453
G1 X-35.122 Y0.522 E27.31689
G1 X-35.336 Y0.006 E27.34602
G1 X-35.679 Y-1.036 E27.40321
G1 X-35.813 Y-1.579 E27.43237
G1 X-35.988 Y-2.6 E27.48638
G1 X-36.041 Y-3.133 E27.5143
G1 X-36.07 Y-4.17 E27.56839
G1 X-36.045 Y-4.738 E27.59803
G1 X-35.921 Y-5.792 E27.65336
G1 X-35.816 Y-6.337 E27.68229
G1 X-35.547 Y-7.342 E27.73653
G1 X-35.373 Y-7.844 E27.76423
G1 X-34.966 Y-8.792 E27.81802
G1 X-34.714 Y-9.281 E27.8467
G1 X-34.172 Y-10.17 E27.90098
G1 X-33.854 Y-10.616 E27.92954
G1 X-33.186 Y-11.423 E27.98416
G1 X-32.801 Y-11.825 E28.01318
G1 X-32.009 Y-12.539 E28.06877
G1 X-31.567 Y-12.882 E28.09794
G1 X-30.708 Y-13.455 E28.15177
G1 X-30.239 Y-13.722 E28.17991
G1 X-29.289 Y-14.175 E28.23478
G1 X-28.777 Y-14.375 E28.26344
G1 X-27.79 Y-14.682 E28.31733
G1 X-27.239 Y-14.811 E28.34683
G1 X-26.158 Y-14.979 E28.40386
G1 X-25.603 Y-15.023 E28.43289
G1 X-24.571 Y-15.032 E28.4867
G1 X-24.033 Y-14.998 E28.5148
G1 X-22.988 Y-14.855 E28.56979
G1 X-22.44 Y-14.739 E28.59899
G1 X-21.45 Y-14.455 E28.65269
G1 X-20.933 Y-14.266 E28.68139
G1 X-20.452 Y-14.07 E28.70847
G1 X-14.563 Y-11.426 E29.04502
G1 X-14.54 Y-11.858 E29.06757
G1 X-14.421 Y-12.61 E29.10726
G1 X-14.223 Y-13.346 E29.147
G1 X-13.949 Y-14.057 E29.18673
G1 X-13.603 Y-14.735 E29.22641
G1 X-13.187 Y-15.374 E29.26616
G1 X-12.454 Y-16.231 E29.32496
G1 X-12.325 Y-16.36 E29.33447
G1 X-11.758 Y-16.869 E29.37419
G1 X-11.142 Y-17.317 E29.4139
G1 X-10.482 Y-17.697 E29.45361
G1 X-9.786 Y-18.007 E29.49333
G1 X-9.061 Y-18.241 E29.53305
G1 X-8.315 Y-18.398 E29.57279
G1 X-7.191 Y-18.486 E29.63157
G1 X-4.809 Y-18.486 E29.75576
G1 X-4.048 Y-18.446 E29.79549
G1 X-3.296 Y-18.327 E29.83518
G0 F3600 X-2.717 Y-17.844
G1 F600 X-1.992 Y-17.984 E29.87368
G1 X-1.071 Y-18.046 E29.9218
G1 X1.311 Y-18.046 E30.04599
G1 X2.048 Y-18.006 E30.08447
G1 X2.777 Y-17.887 E30.12298
G1 X3.178 Y-17.775 E30.14469
G1 X3.403 Y-17.844 E30.15696
G1 X4.128 Y-17.984 E30.19545
G1 X5.049 Y-18.046 E30.24358
G1 X7.431 Y-18.046 E30.36776
G1 X8.168 Y-18.006 E30.40624
G1 X8.897 Y-17.887 E30.44475
G1 X9.608 Y-17.689 E30.48323
G1 X10.294 Y-17.416 E30.52172
G1 X10.947 Y-17.07 E30.56025
G1 X11.558 Y-16.656 E30.59873
G1 X12.253 Y-16.048 E30.64687
G1 X12.382 Y-15.919 E30.65638
G1 X12.876 Y-15.37 E30.69489
G1 X13.306 Y-14.77 E30.73337
G1 X13.67 Y-14.127 E30.77189
G1 X13.962 Y-13.449 E30.81038
G1 X14.178 Y-12.743 E30.84887
G1 X14.318 Y-12.018 E30.88737
G1 X14.38 Y-11.097 E30.93549
G1 X14.38 Y-10.861 E30.9478
G1 X20.637 Y-13.671 E31.3054
G1 X21.114 Y-13.864 E31.33222
G1 X21.64 Y-14.054 E31.36138
G1 X22.57 Y-14.318 E31.41178
G1 X23.119 Y-14.432 E31.44101
G1 X24.1 Y-14.562 E31.49261
G1 X24.637 Y-14.594 E31.52065
G1 X25.609 Y-14.582 E31.57133
G1 X26.149 Y-14.537 E31.59958
G1 X26.397 Y-14.512 E31.61258
G1 X27.151 Y-14.38 E31.65248
G1 X27.669 Y-14.259 E31.68022
G1 X28.574 Y-13.981 E31.72958
G1 X29.087 Y-13.783 E31.75824
G1 X29.986 Y-13.358 E31.81009
G1 X30.471 Y-13.084 E31.83913
G1 X31.29 Y-12.54 E31.89039
G1 X31.719 Y-12.208 E31.91867
G1 X31.963 Y-12.009 E31.93509
G1 X32.484 Y-11.52 E31.97234
G1 X32.868 Y-11.119 E32.00128
G1 X33.498 Y-10.358 E32.05279
G1 X33.817 Y-9.91 E32.08146
G1 X34.323 Y-9.078 E32.13223
G1 X34.575 Y-8.589 E32.16091
G1 X34.96 Y-7.689 E32.21195
G1 X35.138 Y-7.173 E32.2404
G1 X35.39 Y-6.226 E32.2915
G1 X35.491 Y-5.696 E32.31962
G1 X35.605 Y-4.72 E32.37085
G1 X35.63 Y-4.154 E32.40039
G1 X35.603 Y-3.173 E32.45156
G1 X35.548 Y-2.624 E32.48032
G1 X35.379 Y-1.653 E32.53171
G1 X35.247 Y-1.124 E32.56013
G1 X34.93 Y-.162 E32.61294
G1 X34.716 Y0.354 E32.64206
G1 X34.295 Y1.198 E32.69123
G1 X34.028 Y1.652 E32.71869
G1 X33.462 Y2.472 E32.77064
G1 X33.107 Y2.913 E32.80015
G1 X32.436 Y3.632 E32.85143
G1 X32.027 Y4.012 E32.88053
G1 X31.659 Y4.33 E32.90589
G1 X13.242 Y19.142 E34.13807
G1 X12.643 Y19.573 E34.17654
