;FLAVOR:Marlin
;TIME:2023
;Filament used: 1.71811m
;Layer height: 0.2
;MINX:119.486
;MINY:102.011
;MINZ:0.3
;MAXX:192.874
;MAXY:141.733
;MAXZ:18.1
;Generated with Cura_SteamEngine 4.10.0
M140 S90
M105
M190 S90
M104 S230
M105
M109 S230
M82 ;absolute extrusion mode
G28 ; home all axes
 M117 Purge extruder
 G92 E0 ; reset extruder
 G1 Z1.0 F3000 ; move z up little to prevent scratching of surface
 G1 X2 Y20 Z0.3 F5000.0 ; move to start-line position
 G1 X2 Y200.0 Z0.3 F1500.0 E15 ; draw 1st line
 G1 X2 Y200.0 Z0.4 F5000.0 ; move to side a little
 G1 X2 Y20 Z0.4 F1500.0 E30 ; draw 2nd line
 G92 E0 ; reset extruder
 G1 Z1.0 F3000 ; move z up little to prevent scratching of surface
G92 E0
G92 E0
G1 F2100 E-2
;LAYER_COUNT:90
;LAYER:0
M107
G0 F6000 X122.565 Y108.123 Z0.3
;TYPE:SKIRT
G1 F2100 E0
G1 F1200 X122.957 Y107.717 E0.04119
G1 X123.767 Y106.988 E0.12073
G1 X124.218 Y106.637 E0.16244
G1 X124.618 Y106.346 E0.19855
G1 X125.162 Y106.006 E0.24537
G1 X125.646 Y105.731 E0.286
G1 X126.173 Y105.458 E0.32932
G1 X126.694 Y105.234 E0.37072
G1 X127.235 Y105.025 E0.41305
G1 X128.255 Y104.711 E0.49095
G1 X128.789 Y104.586 E0.53098
G1 X129.9 Y104.41 E0.61308
G1 X130.484 Y104.361 E0.65585
G1 X131.574 Y104.347 E0.73542
G1 X132.143 Y104.38 E0.77702
G1 X132.759 Y104.441 E0.8222
G1 X133.314 Y104.537 E0.86331
G1 X133.876 Y104.656 E0.90524
G1 X134.924 Y104.957 E0.98483
G1 X135.463 Y105.154 E1.02671
G1 X135.974 Y105.362 E1.06698
G1 X141.276 Y107.743 E1.4912
G1 X141.334 Y107.522 E1.50788
G1 X141.608 Y106.787 E1.56513
G1 X141.956 Y106.083 E1.62245
G1 X142.373 Y105.419 E1.67968
G1 X142.856 Y104.8 E1.73699
G1 X143.232 Y104.395 E1.77733
G1 X143.361 Y104.266 E1.79064
G1 X143.944 Y103.74 E1.84795
G1 X144.576 Y103.277 E1.90514
G1 X145.253 Y102.88 E1.96242
G1 X145.967 Y102.554 E2.01971
G1 X146.71 Y102.302 E2.07698
G1 X147.475 Y102.127 E2.13425
G1 X148.254 Y102.031 E2.19154
G1 X148.806 Y102.011 E2.23186
G1 X151.548 Y102.011 E2.432
G1 X152.332 Y102.051 E2.48929
G1 X153.107 Y102.17 E2.54652
G1 X153.247 Y102.207 E2.55709
G1 X153.595 Y102.127 E2.58316
G1 X154.374 Y102.031 E2.64045
G1 X154.926 Y102.011 E2.68076
G1 X157.668 Y102.011 E2.8809
G1 X158.452 Y102.051 E2.9382
G1 X159.227 Y102.17 E2.99543
G1 X159.367 Y102.207 E3.006
G1 X159.715 Y102.127 E3.03206
G1 X160.494 Y102.031 E3.08935
G1 X161.046 Y102.011 E3.12966
G1 X163.788 Y102.011 E3.3298
G1 X164.572 Y102.051 E3.3871
G1 X165.347 Y102.17 E3.44433
G1 X166.106 Y102.368 E3.50158
G1 X166.841 Y102.642 E3.55884
G1 X167.545 Y102.99 E3.61616
G1 X168.209 Y103.407 E3.67338
G1 X168.828 Y103.89 E3.73069
G1 X169.233 Y104.266 E3.77103
G1 X169.362 Y104.395 E3.78434
G1 X169.888 Y104.978 E3.84166
G1 X170.351 Y105.61 E3.89884
G1 X170.748 Y106.287 E3.95612
G1 X171.074 Y107.001 E4.01341
G1 X171.293 Y107.647 E4.0632
G1 X176.39 Y105.358 E4.47102
G1 X176.905 Y105.148 E4.51161
G1 X177.434 Y104.955 E4.55271
G1 X178.478 Y104.656 E4.63198
G1 X179.04 Y104.537 E4.67391
G1 X179.617 Y104.438 E4.71664
G1 X180.211 Y104.38 E4.7602
G1 X180.78 Y104.347 E4.8018
G1 X181.871 Y104.361 E4.88144
G1 X182.454 Y104.41 E4.92414
G1 X183.588 Y104.591 E5.00796
G1 X184.144 Y104.723 E5.04967
G1 X185.158 Y105.039 E5.12719
G1 X185.677 Y105.241 E5.16784
G1 X186.199 Y105.467 E5.20936
G1 X186.723 Y105.741 E5.25252
G1 X187.227 Y106.029 E5.29489
G1 X188.134 Y106.636 E5.37455
G1 X188.584 Y106.986 E5.41616
G1 X189.397 Y107.716 E5.49591
G1 X189.788 Y108.121 E5.537
G1 X190.502 Y108.977 E5.61836
G1 X190.831 Y109.435 E5.65952
G1 X191.137 Y109.895 E5.69984
G1 X191.435 Y110.421 E5.74397
G1 X191.704 Y110.943 E5.78683
G1 X192.143 Y111.972 E5.86849
G1 X192.321 Y112.491 E5.90853
G1 X192.591 Y113.494 E5.98435
G1 X192.702 Y114.055 E6.02609
G1 X192.84 Y115.209 E6.11092
G1 X192.866 Y115.796 E6.15381
G1 X192.874 Y116.158 E6.18023
G1 X192.835 Y116.928 E6.23651
G1 X192.778 Y117.495 E6.2781
G1 X192.586 Y118.599 E6.35989
G1 X192.445 Y119.161 E6.40218
G1 X192.091 Y120.232 E6.48451
G1 X191.87 Y120.766 E6.5267
G1 X191.386 Y121.735 E6.60576
G1 X191.105 Y122.211 E6.6461
G1 X190.484 Y123.11 E6.72585
G1 X190.122 Y123.562 E6.76812
G1 X189.714 Y124.031 E6.81349
G1 X189.341 Y124.403 E6.85194
G1 X188.926 Y124.789 E6.89331
G1 X188.508 Y125.151 E6.93367
G1 X170.048 Y139.998 E8.66277
G1 X169.412 Y140.458 E8.72006
G1 X168.733 Y140.851 E8.77732
G1 X167.743 Y141.274 E8.8559
G1 X167.642 Y141.309 E8.8637
G1 X166.889 Y141.527 E8.92092
G1 X166.117 Y141.668 E8.9782
G1 X165.121 Y141.733 E9.05105
G1 X147.233 Y141.733 E10.35669
G1 X146.449 Y141.693 E10.41399
G1 X145.674 Y141.574 E10.47122
G1 X144.666 Y141.293 E10.54759
G1 X144.567 Y141.258 E10.55526
G1 X143.842 Y140.959 E10.6125
G1 X143.151 Y140.588 E10.66975
G1 X142.308 Y139.998 E10.74485
G1 X123.839 Y125.145 E12.47474
G1 X123.424 Y124.787 E12.51474
G1 X123.016 Y124.408 E12.55538
G1 X122.259 Y123.594 E12.63652
G1 X121.835 Y123.067 E12.68589
G1 X121.246 Y122.206 E12.76203
G1 X120.966 Y121.731 E12.80228
G1 X120.484 Y120.766 E12.88101
G1 X120.263 Y120.232 E12.92319
G1 X119.909 Y119.161 E13.00552
G1 X119.768 Y118.599 E13.04781
G1 X119.577 Y117.513 E13.1283
G1 X119.519 Y116.949 E13.16968
G1 X119.486 Y115.83 E13.25139
G1 X119.511 Y115.249 E13.29384
G1 X119.538 Y114.861 E13.32222
G1 X119.641 Y114.125 E13.37647
G1 X119.745 Y113.576 E13.41725
G1 X120.033 Y112.493 E13.49905
G1 X120.219 Y111.955 E13.5406
G1 X120.378 Y111.534 E13.57344
G1 X120.665 Y110.913 E13.62337
G1 X120.924 Y110.412 E13.66454
G1 X121.205 Y109.915 E13.70621
G1 X121.517 Y109.444 E13.74745
G1 X121.846 Y108.985 E13.78867
G1 X122.565 Y108.123 E13.8706
G0 F6000 X123.008 Y108.55
G1 F1200 X123.4 Y108.144 E13.91179
G1 X124.145 Y107.475 E13.98487
G1 X124.596 Y107.124 E14.02659
G1 X124.966 Y106.855 E14.05998
G1 X125.466 Y106.542 E14.10303
G1 X125.95 Y106.267 E14.14366
G1 X126.436 Y106.015 E14.18362
G1 X126.916 Y105.809 E14.22175
G1 X127.457 Y105.6 E14.26408
G1 X128.395 Y105.31 E14.33574
G1 X128.929 Y105.185 E14.37577
G1 X129.952 Y105.024 E14.45136
G1 X130.536 Y104.975 E14.49413
G1 X131.538 Y104.962 E14.56727
G1 X132.107 Y104.995 E14.60887
G1 X132.676 Y105.051 E14.65061
G1 X133.186 Y105.14 E14.68839
G1 X133.748 Y105.259 E14.73032
G1 X134.713 Y105.535 E14.80358
G1 X135.252 Y105.732 E14.84547
G1 X135.722 Y105.924 E14.88252
G1 X141.709 Y108.612 E15.36153
G1 X141.752 Y108.346 E15.3812
G1 X141.95 Y107.619 E15.4362
G1 X142.224 Y106.918 E15.49113
G1 X142.57 Y106.25 E15.54604
G1 X142.985 Y105.623 E15.60092
G1 X143.668 Y104.831 E15.67726
G1 X143.797 Y104.702 E15.69057
G1 X144.356 Y104.199 E15.74546
G1 X144.966 Y103.758 E15.8004
G1 X145.62 Y103.384 E15.85539
G1 X146.309 Y103.082 E15.9103
G1 X147.026 Y102.854 E15.96521
G1 X147.763 Y102.704 E16.02011
G1 X148.806 Y102.627 E16.09644
G1 X151.548 Y102.627 E16.29658
G1 X152.299 Y102.667 E16.35147
G1 X153.042 Y102.786 E16.4064
G1 X153.229 Y102.837 E16.42054
G1 X153.883 Y102.704 E16.46926
G1 X154.926 Y102.627 E16.54559
G1 X157.668 Y102.627 E16.74573
G1 X158.419 Y102.667 E16.80062
G1 X159.162 Y102.786 E16.85554
G1 X159.349 Y102.837 E16.86969
G1 X160.003 Y102.704 E16.9184
G1 X161.046 Y102.627 E16.99474
G1 X163.788 Y102.627 E17.19487
G1 X164.539 Y102.667 E17.24977
G1 X165.282 Y102.786 E17.30469
G1 X166.009 Y102.984 E17.35969
G1 X166.71 Y103.258 E17.41462
G1 X167.378 Y103.604 E17.46953
G1 X168.005 Y104.019 E17.52441
G1 X168.797 Y104.702 E17.60075
G1 X168.926 Y104.831 E17.61406
G1 X169.429 Y105.39 E17.66895
G1 X169.87 Y106 E17.72389
G1 X170.244 Y106.654 E17.77888
G1 X170.546 Y107.343 E17.83379
G1 X170.774 Y108.06 E17.8887
G1 X170.866 Y108.513 E17.92244
G1 X176.642 Y105.92 E18.38456
G1 X177.116 Y105.727 E18.42192
G1 X177.645 Y105.534 E18.46302
G1 X178.606 Y105.259 E18.53598
G1 X179.168 Y105.14 E18.5779
G1 X179.7 Y105.048 E18.61731
G1 X180.247 Y104.995 E18.65742
G1 X180.816 Y104.962 E18.69902
G1 X181.819 Y104.975 E18.77224
G1 X182.402 Y105.024 E18.81494
G1 X183.445 Y105.191 E18.89204
G1 X184.001 Y105.323 E18.93375
G1 X184.934 Y105.613 E19.00506
G1 X185.453 Y105.815 E19.04571
G1 X185.936 Y106.024 E19.08412
G1 X186.418 Y106.275 E19.12379
G1 X186.922 Y106.563 E19.16616
G1 X187.756 Y107.122 E19.23944
G1 X188.206 Y107.472 E19.28105
G1 X188.953 Y108.144 E19.35439
G1 X189.344 Y108.549 E19.39548
G1 X190.001 Y109.336 E19.47031
G1 X190.33 Y109.794 E19.51147
G1 X190.613 Y110.219 E19.54874
G1 X190.887 Y110.703 E19.58933
G1 X191.156 Y111.225 E19.63219
G1 X191.56 Y112.172 E19.70734
G1 X191.738 Y112.691 E19.74739
G1 X191.986 Y113.614 E19.81715
G1 X192.097 Y114.175 E19.85889
G1 X192.225 Y115.237 E19.93696
G1 X192.251 Y115.824 E19.97985
G1 X192.258 Y116.158 E20.00423
G1 X192.222 Y116.867 E20.05605
G1 X192.165 Y117.434 E20.09764
G1 X191.988 Y118.449 E20.17285
G1 X191.847 Y119.011 E20.21514
G1 X191.522 Y119.996 E20.29084
G1 X191.301 Y120.53 E20.33303
G1 X190.855 Y121.422 E20.40582
G1 X190.574 Y121.898 E20.44616
G1 X190.003 Y122.725 E20.51951
G1 X189.641 Y123.177 E20.56178
G1 X189.265 Y123.61 E20.60364
G1 X188.922 Y123.952 E20.63899
G1 X188.507 Y124.338 E20.68036
G1 X188.122 Y124.671 E20.71751
G1 X169.662 Y139.518 E22.44662
G1 X169.051 Y139.958 E22.50157
G1 X168.397 Y140.331 E22.55653
G1 X167.542 Y140.691 E22.62424
G1 X167.441 Y140.726 E22.63204
G1 X166.717 Y140.935 E22.68704
G1 X165.976 Y141.065 E22.74195
G1 X165.121 Y141.117 E22.80447
G1 X147.233 Y141.117 E24.11011
G1 X146.482 Y141.077 E24.165
G1 X145.739 Y140.958 E24.21992
G1 X144.872 Y140.712 E24.2857
G1 X144.773 Y140.677 E24.29337
G1 X144.078 Y140.389 E24.34828
G1 X143.417 Y140.028 E24.40325
G1 X142.694 Y139.518 E24.46783
G1 X124.225 Y124.665 E26.19772
G1 X123.844 Y124.335 E26.23451
G1 X123.436 Y123.956 E26.27515
G1 X122.738 Y123.208 E26.34983
G1 X122.319 Y122.686 E26.39868
G1 X121.776 Y121.893 E26.46883
G1 X121.496 Y121.418 E26.50908
G1 X121.053 Y120.53 E26.58151
G1 X120.832 Y119.996 E26.62369
G1 X120.507 Y119.011 E26.6994
G1 X120.366 Y118.449 E26.74169
G1 X120.19 Y117.45 E26.81573
G1 X120.132 Y116.886 E26.85711
G1 X120.102 Y115.856 E26.93232
G1 X120.127 Y115.275 E26.97477
G1 X120.151 Y114.917 E27.00096
G1 X120.246 Y114.239 E27.05093
G1 X120.35 Y113.69 E27.09171
G1 X120.615 Y112.694 E27.16694
G1 X120.801 Y112.156 E27.20849
G1 X120.948 Y111.767 E27.23884
G1 X121.212 Y111.196 E27.28476
G1 X121.471 Y110.695 E27.32592
G1 X121.73 Y110.236 E27.36439
G1 X122.017 Y109.803 E27.40231
G1 X122.346 Y109.344 E27.44352
G1 X123.008 Y108.55 E27.51898
G0 F6000 X123.451 Y108.978
G1 F1200 X123.843 Y108.572 E27.56017
G1 X124.523 Y107.961 E27.6269
G1 X124.974 Y107.61 E27.66861
G1 X125.314 Y107.363 E27.69928
G1 X125.771 Y107.077 E27.73863
G1 X126.255 Y106.802 E27.77926
G1 X126.7 Y106.572 E27.81583
G1 X127.138 Y106.384 E27.85062
G1 X127.679 Y106.175 E27.89295
G1 X128.536 Y105.91 E27.95842
G1 X129.07 Y105.785 E27.99845
G1 X130.003 Y105.638 E28.06739
G1 X130.587 Y105.589 E28.11017
G1 X131.502 Y105.577 E28.17696
G1 X132.071 Y105.61 E28.21856
G1 X132.593 Y105.661 E28.25684
G1 X133.059 Y105.742 E28.29136
G1 X133.621 Y105.861 E28.33329
G1 X134.501 Y106.114 E28.40012
G1 X135.04 Y106.311 E28.44201
G1 X135.469 Y106.486 E28.47583
G1 X142.227 Y109.52 E29.01652
G1 X142.249 Y109.122 E29.04561
G1 X142.368 Y108.413 E29.09809
G1 X142.566 Y107.722 E29.15055
G1 X142.839 Y107.056 E29.20309
G1 X143.184 Y106.425 E29.25558
G1 X143.597 Y105.837 E29.30803
G1 X144.103 Y105.266 E29.36371
G1 X144.232 Y105.137 E29.37703
G1 X144.768 Y104.658 E29.4295
G1 X145.354 Y104.241 E29.48199
G1 X145.983 Y103.892 E29.5345
G1 X146.646 Y103.614 E29.58697
G1 X147.336 Y103.412 E29.63945
G1 X148.044 Y103.288 E29.69191
G1 X148.806 Y103.243 E29.74762
G1 X151.548 Y103.243 E29.94776
G1 X152.266 Y103.283 E30.00025
G1 X152.975 Y103.402 E30.05272
G1 X153.235 Y103.477 E30.07247
G1 X153.456 Y103.412 E30.08929
G1 X154.164 Y103.288 E30.14175
G1 X154.926 Y103.243 E30.19747
G1 X157.668 Y103.243 E30.3976
G1 X158.386 Y103.283 E30.45009
G1 X159.095 Y103.402 E30.50256
G1 X159.355 Y103.477 E30.52231
G1 X159.576 Y103.412 E30.53913
G1 X160.284 Y103.288 E30.59159
G1 X161.046 Y103.243 E30.64731
G1 X163.788 Y103.243 E30.84744
G1 X164.506 Y103.283 E30.89993
G1 X165.215 Y103.402 E30.9524
G1 X165.906 Y103.6 E31.00487
G1 X166.572 Y103.873 E31.05741
G1 X167.203 Y104.218 E31.1099
G1 X167.791 Y104.631 E31.16234
G1 X168.362 Y105.137 E31.21803
G1 X168.491 Y105.266 E31.23134
G1 X168.97 Y105.802 E31.28381
G1 X169.387 Y106.388 E31.33631
G1 X169.736 Y107.017 E31.38881
G1 X170.014 Y107.68 E31.44129
G1 X170.216 Y108.37 E31.49376
G1 X170.34 Y109.078 E31.54623
G1 X170.36 Y109.416 E31.57094
G1 X176.895 Y106.482 E32.09379
G1 X177.327 Y106.306 E32.12784
G1 X177.856 Y106.113 E32.16894
G1 X178.733 Y105.861 E32.23554
G1 X179.295 Y105.742 E32.27747
G1 X179.783 Y105.658 E32.31362
G1 X180.283 Y105.61 E32.35028
G1 X180.852 Y105.577 E32.39188
G1 X181.768 Y105.589 E32.45874
G1 X182.351 Y105.638 E32.50145
G1 X183.303 Y105.79 E32.57181
G1 X183.859 Y105.922 E32.61352
G1 X184.711 Y106.187 E32.67865
G1 X185.23 Y106.389 E32.7193
G1 X185.672 Y106.581 E32.75447
G1 X186.112 Y106.81 E32.79067
G1 X186.616 Y107.098 E32.83304
G1 X187.378 Y107.608 E32.89997
G1 X187.828 Y107.958 E32.94158
G1 X188.51 Y108.572 E33.00856
G1 X188.901 Y108.977 E33.04965
G1 X189.501 Y109.695 E33.11794
G1 X189.83 Y110.153 E33.1591
G1 X190.09 Y110.544 E33.19338
G1 X190.339 Y110.985 E33.23034
G1 X190.608 Y111.507 E33.2732
G1 X190.977 Y112.372 E33.34184
G1 X191.155 Y112.891 E33.38189
G1 X191.382 Y113.734 E33.44561
G1 X191.493 Y114.295 E33.48735
G1 X191.61 Y115.264 E33.55859
G1 X191.636 Y115.851 E33.60148
G1 X191.642 Y116.158 E33.62389
G1 X191.61 Y116.805 E33.67118
G1 X191.553 Y117.372 E33.71277
G1 X191.391 Y118.299 E33.78146
G1 X191.25 Y118.861 E33.82375
G1 X190.952 Y119.76 E33.89288
G1 X190.731 Y120.294 E33.93506
G1 X190.325 Y121.109 E34.00152
G1 X190.044 Y121.585 E34.04186
G1 X189.522 Y122.34 E34.10886
G1 X189.16 Y122.792 E34.15112
G1 X188.816 Y123.189 E34.18947
G1 X188.502 Y123.501 E34.22178
G1 X188.087 Y123.887 E34.26314
G1 X187.736 Y124.191 E34.29704
G1 X169.276 Y139.038 E36.02614
G1 X168.691 Y139.457 E36.07866
G1 X168.064 Y139.808 E36.1311
G1 X167.34 Y140.109 E36.18833
G1 X167.239 Y140.144 E36.19614
G1 X166.547 Y140.342 E36.24867
G1 X165.838 Y140.461 E36.30114
G1 X165.121 Y140.501 E36.35356
G1 X147.233 Y140.501 E37.65919
G1 X146.515 Y140.461 E37.71168
G1 X145.806 Y140.342 E37.76415
G1 X145.077 Y140.131 E37.81955
G1 X144.978 Y140.096 E37.82721
G1 X144.315 Y139.819 E37.87966
G1 X143.686 Y139.47 E37.93216
G1 X143.081 Y139.038 E37.98642
G1 X124.612 Y124.185 E39.71631
G1 X124.263 Y123.884 E39.74995
G1 X123.855 Y123.505 E39.79059
G1 X123.218 Y122.821 E39.85882
G1 X122.802 Y122.304 E39.90725
G1 X122.307 Y121.581 E39.9712
G1 X122.027 Y121.106 E40.01145
G1 X121.623 Y120.294 E40.07765
G1 X121.402 Y119.76 E40.11983
G1 X121.104 Y118.861 E40.18896
G1 X120.963 Y118.299 E40.23125
G1 X120.803 Y117.387 E40.29883
G1 X120.745 Y116.823 E40.34022
G1 X120.717 Y115.883 E40.40886
G1 X120.742 Y115.302 E40.4513
G1 X120.765 Y114.972 E40.47545
G1 X120.851 Y114.354 E40.52099
G1 X120.955 Y113.805 E40.56177
G1 X121.197 Y112.896 E40.63043
G1 X121.383 Y112.358 E40.67198
G1 X121.519 Y112 E40.69993
G1 X121.759 Y111.479 E40.7418
G1 X122.018 Y110.978 E40.78297
G1 X122.256 Y110.557 E40.81826
G1 X122.518 Y110.162 E40.85286
G1 X122.847 Y109.703 E40.89408
G1 X123.451 Y108.978 E40.96296
G0 F6000 X123.894 Y109.406
G1 F1200 X124.286 Y109 E41.00415
G1 X124.902 Y108.447 E41.06457
G1 X125.353 Y108.096 E41.10628
G1 X125.661 Y107.871 E41.13412
G1 X126.075 Y107.613 E41.16973
G1 X126.559 Y107.338 E41.21036
G1 X126.964 Y107.128 E41.24366
G1 X127.36 Y106.958 E41.27511
G1 X127.901 Y106.749 E41.31744
G1 X128.676 Y106.51 E41.37664
G1 X129.21 Y106.385 E41.41667
G1 X130.055 Y106.251 E41.47911
G1 X130.639 Y106.202 E41.52189
G1 X131.467 Y106.192 E41.58233
G1 X132.036 Y106.225 E41.62393
G1 X132.51 Y106.272 E41.6587
G1 X132.931 Y106.345 E41.68988
G1 X133.493 Y106.464 E41.73181
G1 X134.29 Y106.693 E41.79234
G1 X134.829 Y106.89 E41.83423
G1 X135.217 Y107.047 E41.86478
G1 X142.825 Y110.463 E42.47349
G1 X142.825 Y109.84 E42.51896
G1 X142.865 Y109.157 E42.5689
G1 X142.984 Y108.484 E42.61878
G1 X143.181 Y107.829 E42.6687
G1 X143.454 Y107.201 E42.71868
G1 X143.797 Y106.61 E42.76856
G1 X144.207 Y106.063 E42.81846
G1 X144.539 Y105.702 E42.85425
