; generated by PrusaSlicer 2.6.1+win64 on 2023-10-31 at 07:23:20 UTC


;
;
; 

; external perimeters extrusion width = 0.40mm
; perimeters extrusion width = 0.40mm
; infill extrusion width = 0.40mm
; solid infill extrusion width = 0.40mm
; top infill extrusion width = 0.40mm
; support material extrusion width = 0.30mm
; first layer extrusion width = 0.30mm

;TYPE:Custom
G90 ; use absolute coordinates
M83 ; extruder relative mode
M140 S50 ; set bed temp
M190 S50 ; wait for bed temp
M104 S210 ; set extruder temp
M109 S210 ; wait for extruder temp
G28                                        ; move X/Y/Z to min endstops
G1 Z0.28                                   ; lift nozzle a bit 
G92 E0 
G1 Y3 F2400                                    ; zero the extruded length 
G1 X180  E40 F500                       ; Extrude 25mm of filament in a 5cm line. 
G92 E0                                     ; zero the extruded length again 
G1 E-0.2 F3000                                ; Retract a little 
G1 X181 F4000                              ; Quickly wipe away from the filament line
M117
G21 ; set units to millimeters
G90 ; use absolute coordinates
M82 ; use absolute distances for extrusion
G92 E0
; Filament gcode
M107
;LAYER_CHANGE
;Z:0.1
;HEIGHT:0.1
; BEFORE_LAYER_CHANGE 0 @ 0.1mm
G1 E-2.5 F4800
G92 E0
G1 Z.1 F18000
; AFTER_LAYER_CHANGE 0 @ 0.1mm
M204 S20000
G1 X115.125 Y87.703
G1 E2.5 F4800
M204 S5000
;TYPE:Support material
;WIDTH:0.3
G1 F1200
G1 X118.54 Y86.893 E2.54064
G1 X123.761 Y93.956 E2.64235
G1 X132.494 Y92.678 E2.74456
G1 X134.393 Y95.791 E2.78679
G1 X137.375 Y97.63 E2.82736
G1 X136.112 Y106.064 E2.92612
G1 X143.734 Y111.525 E3.0347
G1 X142.862 Y115.239 E3.07888
G1 X142.344 Y115.323 E3.08496
G1 X143.107 Y118.54 E3.12325
G1 X136.247 Y123.611 E3.22204
G1 X137.775 Y132.861 E3.33061
G1 X134.532 Y134.871 E3.37479
G1 X134.104 Y134.562 E3.3809
G1 X132.37 Y137.375 E3.41917
G1 X123.936 Y136.112 E3.51793
G1 X118.475 Y143.734 E3.62651
G1 X114.761 Y142.862 E3.67069
G1 X114.662 Y142.252 E3.67785
G1 X111.478 Y143.013 E3.71576
G1 X106.435 Y136.239 E3.81356
G1 X97.139 Y137.775 E3.92267
G1 X95.129 Y134.532 E3.96685
G1 X95.439 Y134.102 E3.97299
G1 X92.627 Y132.368 E4.01125
G1 X93.889 Y123.936 E4.10998
G1 X86.266 Y118.475 E4.21857
G1 X87.138 Y114.761 E4.26275
G1 X87.659 Y114.676 E4.26886
G1 X86.896 Y111.461 E4.30712
G1 X93.753 Y106.391 E4.40587
G1 X92.229 Y97.165 E4.51416
G1 X95.469 Y95.155 E4.55831
G1 X95.885 Y95.454 E4.56424
G1 X97.63 Y92.625 E4.60273
G1 X106.314 Y93.926 E4.70442
G1 X111.586 Y86.846 E4.80664
G1 X115.084 Y87.693 E4.84832
M204 S20000
;WIPE_START
G1 F14400
G1 X111.586 Y86.846 E3.70861
G1 X109.02 Y90.291 E2.34832
;WIPE_END
G92 E0
G1 X143.163 Y113.406 F18000
G1 E2.5 F4800
M204 S5000
G1 F1200
G1 X143.163 Y111.425 E2.52294
G1 X142.854 Y111.203 E2.52735
G1 X142.854 Y114.176 E2.56178
G1 X142.656 Y115.019 E2.57181
G1 X142.544 Y115.037 E2.57312
G1 X142.544 Y110.981 E2.62009
G1 X142.235 Y110.76 E2.62449
G1 X142.235 Y115.087 E2.6746
G1 X142.038 Y115.119 E2.67691
G1 X142.235 Y115.949 E2.68679
G1 X142.235 Y118.873 E2.72065
G1 X142.544 Y118.644 E2.7251
G1 X142.544 Y116.711 E2.74748
M204 S20000
;WIPE_START
G1 F14400
G1 X142.544 Y118.644 E2.13536
G1 X142.235 Y118.873 E2.01357
G1 X142.235 Y115.949 E1.08764
G1 X142.038 Y115.119 E.8175
G1 X142.235 Y115.087 E.7543
G1 X142.235 Y113.487 E.24748
;WIPE_END
G92 E0
G1 X141.925 Y119.257 F18000
G1 E2.5 F4800
M204 S5000
G1 F1200
G1 X141.925 Y110.538 E2.60097
G1 X141.616 Y110.316 E2.60538
G1 X141.616 Y119.33 E2.70977
G1 X141.306 Y119.559 E2.71423
G1 X141.306 Y110.094 E2.82384
G1 X140.997 Y109.873 E2.82824
G1 X140.997 Y119.788 E2.94306
G1 X140.688 Y120.017 E2.94751
G1 X140.688 Y109.651 E3.06755
G1 X140.378 Y109.429 E3.07197
G1 X140.378 Y120.245 E3.19722
G1 X140.069 Y120.474 E3.20167
G1 X140.069 Y109.208 E3.33213
G1 X139.759 Y108.986 E3.33655
G1 X139.759 Y120.703 E3.47224
G1 X139.45 Y120.932 E3.47669
G1 X139.45 Y108.764 E3.6176
G1 X139.14 Y108.542 E3.62202
G1 X139.14 Y121.16 E3.76814
G1 X138.831 Y121.389 E3.77259
G1 X138.831 Y108.321 E3.92392
G1 X138.521 Y108.099 E3.92834
G1 X138.521 Y121.618 E4.08489
G1 X138.212 Y121.847 E4.08934
G1 X138.212 Y107.877 E4.25112
G1 X137.902 Y107.655 E4.25554
G1 X137.902 Y122.076 E4.42254
G1 X137.593 Y122.304 E4.42699
G1 X137.593 Y107.434 E4.59919
G1 X137.283 Y107.212 E4.60361
G1 X137.283 Y122.533 E4.78103
G1 X136.974 Y122.762 E4.78548
G1 X136.974 Y106.99 E4.96813
G1 X136.664 Y106.769 E4.97254
G1 X136.664 Y122.991 E5.1604
G1 X136.355 Y123.22 E5.16485
G1 X136.355 Y106.547 E5.35793
G1 X136.045 Y106.325 E5.36235
G1 X136.045 Y133.638 E5.67864
G1 X136.355 Y133.446 E5.68286
G1 X136.355 Y125.801 E5.77139
G1 X136.664 Y127.675 E5.79338
G1 X136.664 Y133.255 E5.858
G1 X136.974 Y133.063 E5.86222
G1 X136.974 Y129.548 E5.90292
G1 X137.283 Y131.421 E5.9249
G1 X137.283 Y133.018 E5.94339
M204 S20000
;WIPE_START
G1 F14400
G1 X137.283 Y131.421 E5.43767
G1 X136.974 Y129.548 E4.83654
G1 X136.974 Y133.063 E3.72346
G1 X136.664 Y133.255 E3.60799
G1 X136.664 Y132.735 E3.44339
;WIPE_END
G92 E0
G1 X136.974 Y99.464 F18000
G1 E2.5 F4800
M204 S5000
G1 F1200
G1 X136.974 Y97.677 E2.52069
G1 X136.664 Y97.486 E2.52491
G1 X136.664 Y100.684 E2.56194
G1 X136.355 Y102.75 E2.58613
G1 X136.355 Y97.295 E2.6493
G1 X136.045 Y97.105 E2.65351
G1 X136.045 Y105.662 E2.7526
M204 S20000
;WIPE_START
G1 F14400
G1 X136.045 Y97.767 E.2526
;WIPE_END
G92 E0
G1 X135.736 Y133.978 F18000
G1 E2.5 F4800
M204 S5000
G1 F1200
G1 X135.736 Y96.914 E2.92921
G1 X135.426 Y96.723 E2.93343
G1 X135.426 Y134.022 E3.36537
G1 X135.117 Y134.214 E3.36958
G1 X135.117 Y96.532 E3.80595
G1 X134.807 Y96.341 E3.81017
G1 X134.807 Y134.406 E4.25098
G1 X134.543 Y134.569 E4.25457
G1 X134.498 Y134.537 E4.25521
G1 X134.498 Y96.15 E4.69974
G1 X134.21 Y95.973 E4.70365
G1 X134.188 Y95.937 E4.70414
G1 X134.188 Y134.314 E5.14856
G1 X134.032 Y134.201 E5.15079
G1 X133.879 Y134.45 E5.15417
G1 X133.879 Y95.43 E5.60603
G1 X133.569 Y94.923 E5.61291
G1 X133.569 Y134.952 E6.07646
G1 X133.26 Y135.454 E6.08329
G1 X133.26 Y94.415 E6.55854
G1 X132.95 Y93.908 E6.56542
G1 X132.95 Y135.956 E7.05235
G1 X132.641 Y136.458 E7.05918
G1 X132.641 Y93.4 E7.55781
G1 X132.366 Y92.95 E7.56392
G1 X132.331 Y92.955 E7.56433
G1 X132.331 Y136.96 E8.07392
G1 X132.243 Y137.103 E8.07586
G1 X132.022 Y137.07 E8.07845
G1 X132.022 Y93 E8.5888
G1 X131.712 Y93.046 E8.59243
G1 X131.712 Y137.023 E9.1017
G1 X131.403 Y136.977 E9.10532
G1 X131.403 Y93.091 E9.61353
G1 X131.093 Y93.136 E9.61716
G1 X131.093 Y136.93 E10.12431
G1 X130.784 Y136.884 E10.12793
G1 X130.784 Y93.182 E10.63401
G1 X130.474 Y93.227 E10.63764
G1 X130.474 Y136.838 E11.14267
G1 X130.165 Y136.791 E11.14629
G1 X130.165 Y93.272 E11.65025
G1 X129.855 Y93.317 E11.65388
G1 X129.855 Y136.745 E12.15679
G1 X129.546 Y136.699 E12.16041
G1 X129.546 Y93.363 E12.66226
G1 X129.236 Y93.408 E12.66589
G1 X129.236 Y136.652 E13.16667
G1 X128.927 Y136.606 E13.17029
G1 X128.927 Y93.453 E13.67002
G1 X128.617 Y93.499 E13.67365
G1 X128.617 Y136.56 E14.17231
G1 X128.308 Y136.513 E14.17593
G1 X128.308 Y93.544 E14.67353
G1 X127.998 Y93.589 E14.67716
G1 X127.998 Y136.467 E15.1737
G1 X127.689 Y136.42 E15.17732
G1 X127.689 Y93.635 E15.67278
G1 X127.38 Y93.68 E15.6764
G1 X127.38 Y136.374 E16.17081
G1 X127.07 Y136.328 E16.17444
G1 X127.07 Y93.725 E16.6678
G1 X126.761 Y93.771 E16.67142
G1 X126.761 Y136.281 E17.1637
G1 X126.451 Y136.235 E17.16733
G1 X126.451 Y93.816 E17.65856
G1 X126.142 Y93.861 E17.66218
G1 X126.142 Y136.189 E18.15235
G1 X125.832 Y136.142 E18.15598
G1 X125.832 Y93.906 E18.64509
G1 X125.523 Y93.952 E18.64871
G1 X125.523 Y136.096 E19.13675
G1 X125.213 Y136.049 E19.14038
G1 X125.213 Y93.997 E19.62736
G1 X124.904 Y94.042 E19.63098
G1 X124.904 Y136.003 E20.1169
G1 X124.594 Y135.957 E20.12053
G1 X124.594 Y94.088 E20.60539
G1 X124.285 Y94.133 E20.60901
G1 X124.285 Y135.91 E21.0928
G1 X123.975 Y135.864 E21.09643
G1 X123.975 Y94.178 E21.57917
G1 X123.666 Y94.224 E21.58279
G1 X123.666 Y136.058 E22.06724
G1 X123.356 Y136.49 E22.0734
G1 X123.356 Y93.83 E22.56742
G1 X123.047 Y93.412 E22.57344
G1 X123.047 Y136.922 E23.0773
G1 X122.737 Y137.354 E23.08346
G1 X122.737 Y92.993 E23.59718
G1 X122.428 Y92.574 E23.60321
G1 X122.428 Y137.786 E24.12678
G1 X122.118 Y138.218 E24.13294
G1 X122.118 Y92.156 E24.66635
G1 X121.809 Y91.737 E24.67238
G1 X121.809 Y138.65 E25.21565
G1 X121.499 Y139.082 E25.22181
G1 X121.499 Y91.318 E25.77493
G1 X121.19 Y90.9 E25.78095
G1 X121.19 Y139.514 E26.34392
G1 X120.88 Y139.946 E26.35008
G1 X120.88 Y90.481 E26.9229
G1 X120.571 Y90.062 E26.92893
G1 X120.571 Y140.378 E27.51161
G1 X120.261 Y140.81 E27.51777
G1 X120.261 Y89.644 E28.11029
G1 X119.952 Y89.225 E28.11632
G1 X119.952 Y141.242 E28.71869
G1 X119.642 Y141.674 E28.72485
G1 X119.642 Y88.807 E29.33707
G1 X119.333 Y88.388 E29.3431
G1 X119.333 Y142.106 E29.96517
G1 X119.023 Y142.538 E29.97133
G1 X119.023 Y87.969 E30.60326
G1 X118.714 Y87.551 E30.60928
G1 X118.714 Y142.97 E31.25105
G1 X118.404 Y143.402 E31.25721
G1 X118.404 Y87.183 E31.90825
G1 X118.095 Y87.256 E31.91193
G1 X118.095 Y143.387 E32.56195
G1 X117.785 Y143.314 E32.56564
G1 X117.785 Y87.33 E33.21395
G1 X117.476 Y87.403 E33.21763
G1 X117.476 Y143.242 E33.86426
G1 X117.166 Y143.169 E33.86795
G1 X117.166 Y87.477 E34.51288
G1 X116.857 Y87.55 E34.51656
G1 X116.857 Y143.096 E35.1598
G1 X116.547 Y143.024 E35.16349
G1 X116.547 Y87.623 E35.80505
G1 X116.238 Y87.697 E35.80873
G1 X116.238 Y142.951 E36.44859
G1 X115.928 Y142.878 E36.45228
G1 X115.928 Y87.77 E37.09045
G1 X115.619 Y87.844 E37.09413
G1 X115.619 Y142.806 E37.73061
G1 X115.309 Y142.733 E37.7343
G1 X115.309 Y87.917 E38.36909
G1 X115.124 Y87.961 E38.37129
G1 X115 Y87.931 E38.37277
G1 X115 Y142.661 E39.00656
G1 X114.981 Y142.656 E39.00679
G1 X114.866 Y141.946 E39.01512
G1 X114.691 Y141.988 E39.0172
G1 X114.691 Y87.856 E39.64407
G1 X114.381 Y87.781 E39.64776
G1 X114.381 Y142.062 E40.27635
G1 X114.072 Y142.136 E40.28003
G1 X114.072 Y87.706 E40.91035
G1 X113.762 Y87.631 E40.91404
G1 X113.762 Y142.21 E41.54608
G1 X113.453 Y142.283 E41.54976
G1 X113.453 Y87.556 E42.18352
G1 X113.143 Y87.481 E42.18721
G1 X113.143 Y142.357 E42.82269
G1 X112.834 Y142.431 E42.82637
G1 X112.834 Y87.406 E43.46358
G1 X112.524 Y87.331 E43.46727
G1 X112.524 Y142.505 E44.1062
G1 X112.215 Y142.579 E44.10988
G1 X112.215 Y87.256 E44.75054
G1 X111.905 Y87.181 E44.75423
G1 X111.905 Y142.653 E45.39661
G1 X111.596 Y142.727 E45.40029
G1 X111.596 Y87.252 E46.04271
G1 X111.286 Y87.668 E46.04872
G1 X111.286 Y142.336 E46.68179
G1 X110.977 Y141.92 E46.68779
G1 X110.977 Y88.084 E47.31123
G1 X110.667 Y88.499 E47.31723
G1 X110.667 Y141.504 E47.93105
G1 X110.358 Y141.088 E47.93705
G1 X110.358 Y88.915 E48.54123
G1 X110.048 Y89.331 E48.54724
G1 X110.048 Y140.673 E49.1418
G1 X109.739 Y140.257 E49.1478
G1 X109.739 Y89.746 E49.73273
G1 X109.429 Y90.162 E49.73874
G1 X109.429 Y139.841 E50.31404
G1 X109.12 Y139.426 E50.32003
G1 X109.12 Y90.578 E50.88571
G1 X108.81 Y90.993 E50.89171
G1 X108.81 Y139.01 E51.44776
G1 X108.501 Y138.594 E51.45376
G1 X108.501 Y91.409 E52.00018
G1 X108.191 Y91.824 E52.00618
G1 X108.191 Y138.178 E52.54298
G1 X107.882 Y137.763 E52.54897
G1 X107.882 Y92.24 E53.07614
G1 X107.572 Y92.656 E53.08215
G1 X107.572 Y137.347 E53.59969
G1 X107.263 Y136.931 E53.60569
G1 X107.263 Y93.071 E54.1136
G1 X106.953 Y93.487 E54.11961
G1 X106.953 Y136.515 E54.61789
G1 X106.644 Y136.1 E54.62388
G1 X106.644 Y93.903 E55.11254
G1 X106.425 Y94.196 E55.11678
G1 X106.334 Y94.182 E55.11785
G1 X106.334 Y136.002 E55.60214
G1 X106.025 Y136.053 E55.60577
G1 X106.025 Y94.136 E56.09118
G1 X105.715 Y94.09 E56.09481
G1 X105.715 Y136.104 E56.58135
G1 X105.406 Y136.155 E56.58498
G1 X105.406 Y94.043 E57.07265
G1 X105.096 Y93.997 E57.07628
G1 X105.096 Y136.206 E57.56507
G1 X104.787 Y136.257 E57.5687
G1 X104.787 Y93.951 E58.05862
G1 X104.477 Y93.904 E58.06225
G1 X104.477 Y136.309 E58.55331
G1 X104.168 Y136.36 E58.55694
G1 X104.168 Y93.858 E59.04913
G1 X103.858 Y93.811 E59.05276
G1 X103.858 Y136.411 E59.54608
G1 X103.549 Y136.462 E59.54971
G1 X103.549 Y93.765 E60.04416
G1 X103.239 Y93.719 E60.04779
G1 X103.239 Y136.513 E60.54336
G1 X102.93 Y136.564 E60.54699
G1 X102.93 Y93.672 E61.04369
G1 X102.62 Y93.626 E61.04732
G1 X102.62 Y136.615 E61.54515
G1 X102.311 Y136.667 E61.54878
G1 X102.311 Y93.58 E62.04774
G1 X102.002 Y93.533 E62.05136
G1 X102.002 Y136.718 E62.55146
G1 X101.692 Y136.769 E62.5551
G1 X101.692 Y93.487 E63.05632
G1 X101.383 Y93.44 E63.05994
G1 X101.383 Y136.82 E63.5623
G1 X101.073 Y136.871 E63.56594
G1 X101.073 Y93.394 E64.06942
G1 X100.764 Y93.348 E64.07304
G1 X100.764 Y136.922 E64.57764
G1 X100.454 Y136.973 E64.58128
G1 X100.454 Y93.301 E65.08702
G1 X100.145 Y93.255 E65.09064
G1 X100.145 Y137.024 E65.5975
G1 X99.835 Y137.076 E65.60114
G1 X99.835 Y93.209 E66.10913
G1 X99.526 Y93.162 E66.11275
G1 X99.526 Y137.127 E66.62188
G1 X99.216 Y137.178 E66.62552
G1 X99.216 Y93.116 E67.13577
G1 X98.907 Y93.07 E67.13939
G1 X98.907 Y137.229 E67.65077
G1 X98.597 Y137.28 E67.65441
G1 X98.597 Y93.023 E68.16692
G1 X98.288 Y92.977 E68.17054
G1 X98.288 Y137.331 E68.68417
G1 X97.978 Y137.382 E68.68781
G1 X97.978 Y92.93 E69.20258
G1 X97.757 Y92.897 E69.20517
G1 X97.669 Y93.04 E69.20711
G1 X97.669 Y137.433 E69.7212
G1 X97.359 Y137.485 E69.72484
G1 X97.359 Y93.542 E70.23371
G1 X97.05 Y94.044 E70.24054
G1 X97.05 Y137.155 E70.73978
G1 X96.74 Y136.656 E70.74658
G1 X96.74 Y94.546 E71.23423
G1 X96.431 Y95.048 E71.24106
G1 X96.431 Y136.156 E71.7171
G1 X96.121 Y135.657 E71.7239
G1 X96.121 Y95.55 E72.18835
G1 X95.958 Y95.815 E72.19195
G1 X95.812 Y95.71 E72.19403
G1 X95.812 Y135.158 E72.65085
G1 X95.502 Y134.658 E72.65766
G1 X95.502 Y134.443 E72.66015
G1 X95.8 Y134.03 E72.66605
G1 X95.502 Y133.846 E72.67011
G1 X95.502 Y95.487 E73.11432
G1 X95.459 Y95.456 E73.11493
G1 X95.193 Y95.622 E73.11856
G1 X95.193 Y133.656 E73.55901
G1 X94.883 Y133.465 E73.56323
G1 X94.883 Y95.814 E73.99924
G1 X94.574 Y96.006 E74.00345
G1 X94.574 Y133.274 E74.43503
G1 X94.264 Y133.083 E74.43925
G1 X94.264 Y96.198 E74.86639
G1 X93.955 Y96.39 E74.8706
G1 X93.955 Y123.675 E75.18657
G1 X93.645 Y123.453 E75.19099
G1 X93.645 Y106.782 E75.38405
G1 X93.336 Y107.011 E75.3885
G1 X93.336 Y123.231 E75.57633
G1 X93.026 Y123.01 E75.58074
G1 X93.026 Y107.24 E75.76336
G1 X92.717 Y107.469 E75.76781
G1 X92.717 Y122.788 E75.94521
G1 X92.407 Y122.566 E75.94963
G1 X92.407 Y107.698 E76.12181
G1 X92.098 Y107.926 E76.12626
G1 X92.098 Y122.345 E76.29324
G1 X91.788 Y122.123 E76.29766
G1 X91.788 Y108.155 E76.45941
G1 X91.479 Y108.384 E76.46386
G1 X91.479 Y121.901 E76.62039
G1 X91.169 Y121.679 E76.62481
G1 X91.169 Y108.613 E76.77612
G1 X90.86 Y108.842 E76.78057
G1 X90.86 Y121.458 E76.92667
G1 X90.55 Y121.236 E76.93109
G1 X90.55 Y109.071 E77.07196
G1 X90.241 Y109.299 E77.07641
G1 X90.241 Y121.014 E77.21207
G1 X89.931 Y120.792 E77.21649
G1 X89.931 Y109.528 E77.34693
G1 X89.622 Y109.757 E77.35138
G1 X89.622 Y120.571 E77.47661
G1 X89.312 Y120.349 E77.48103
G1 X89.312 Y109.986 E77.60104
G1 X89.003 Y110.215 E77.60549
G1 X89.003 Y120.127 E77.72027
G1 X88.694 Y119.906 E77.72467
G1 X88.694 Y110.444 E77.83424
G1 X88.384 Y110.673 E77.8387
G1 X88.384 Y119.684 E77.94305
G1 X88.075 Y119.462 E77.94746
G1 X88.075 Y110.901 E78.0466
G1 X87.765 Y111.13 E78.05106
G1 X87.765 Y114.037 E78.08472
G1 X87.456 Y112.732 E78.10025
G1 X87.456 Y111.203 E78.11796
M204 S20000
;WIPE_START
G1 F14400
G1 X87.456 Y112.732 E77.63378
G1 X87.765 Y114.037 E77.2091
G1 X87.765 Y111.13 E76.28855
G1 X88.075 Y110.901 E76.1665
G1 X88.075 Y112.633 E75.61796
;WIPE_END
G92 E0
G1 X93.955 Y133.04 F18000
G1 E2.5 F4800
M204 S5000
G1 F1200
G1 X93.955 Y125.192 E2.59088
G1 X93.645 Y127.259 E2.61508
G1 X93.645 Y132.702 E2.67811
G1 X93.336 Y132.511 E2.68232
G1 X93.336 Y129.326 E2.7192
G1 X93.026 Y131.392 E2.74339
G1 X93.026 Y132.467 E2.75584
M204 S20000
;WIPE_START
G1 F14400
G1 X93.026 Y131.392 E2.41542
G1 X93.336 Y129.326 E1.75386
G1 X93.336 Y132.511 E.74528
G1 X93.645 Y132.702 E.63025
G1 X93.645 Y131.52 E.25584
;WIPE_END
G92 E0
G1 X93.645 Y104.968 F18000
G1 E2.5 F4800
M204 S5000
G1 F1200
G1 X93.645 Y96.582 E2.59711
G1 X93.336 Y96.774 E2.60132
G1 X93.336 Y102.326 E2.66561
