;FLAVOR:Marlin
;TIME:11307
;Filament used: 13.9385m
;Layer height: 0.3
;MINX:55.22
;MINY:55.22
;MINZ:0.3
;MAXX:244.78
;MAXY:244.78
;MAXZ:1.5
;Generated with Cura_SteamEngine 4.10.0
M104 S228
M105
M109 S228
M82 ;absolute extrusion mode
G28 ; home all axes
 M117 Purge extruder
 G92 E0 ; reset extruder
 G1 Z1.0 F3000 ; move z up little to prevent scratching of surface
 G1 X2 Y20 Z0.3 F5000.0 ; move to start-line position
 G1 X2 Y200.0 Z0.3 F1500.0 E15 ; draw 1st line
 G1 X2 Y200.0 Z0.4 F5000.0 ; move to side a little
 G1 X2 Y20 Z0.4 F1500.0 E30 ; draw 2nd line
 G92 E0 ; reset extruder
 G1 Z1.0 F3000 ; move z up little to prevent scratching of surface
G92 E0
G92 E0
G1 F2400 E-1.6
;LAYER_COUNT:5
;LAYER:0
M106 S89.3
;MESH:washer_190mm_noHole_2mmThickness_v01.stl
G0 F6000 X173.423 Y58.752 Z0.3
;TYPE:WALL-INNER
G1 F2400 E0
G1 F900 X179.114 Y60.404 E0.38186
G1 X184.672 Y62.404 E0.7625
G1 X190.122 Y64.762 E1.14515
G1 X195.393 Y67.449 E1.5264
G1 X200.471 Y70.453 E1.90659
G1 X205.371 Y73.782 E2.28832
G1 X210.055 Y77.416 E2.67034
G1 X214.488 Y81.324 E3.05115
G1 X218.676 Y85.512 E3.43281
G1 X222.581 Y89.941 E3.8133
G1 X226.218 Y94.629 E4.19564
G1 X229.55 Y99.534 E4.57775
G1 X232.551 Y104.607 E4.95756
G1 X235.236 Y109.874 E5.33852
G1 X237.597 Y115.331 E5.72167
G1 X239.595 Y120.886 E6.10208
G1 X241.25 Y126.583 E6.48436
G1 X242.541 Y132.358 E6.86569
G1 X243.464 Y138.184 E7.24579
G1 X244.023 Y144.095 E7.62839
G1 X244.207 Y150 E8.00909
G1 X244.023 Y155.905 E8.38979
G1 X243.464 Y161.812 E8.77213
G1 X242.541 Y167.642 E9.15249
G1 X241.25 Y173.417 E9.53381
G1 X239.596 Y179.114 E9.91608
G1 X237.597 Y184.669 E10.29651
G1 X235.238 Y190.122 E10.67937
G1 X232.553 Y195.39 E11.06038
G1 X229.55 Y200.466 E11.44043
G1 X226.218 Y205.371 E11.82254
G1 X222.584 Y210.055 E12.20456
G1 X218.676 Y214.488 E12.58537
G1 X214.492 Y218.672 E12.96666
G1 X210.055 Y222.584 E13.34784
G1 X205.371 Y226.218 E13.72986
G1 X200.471 Y229.547 E14.11159
G1 X195.393 Y232.551 E14.49178
G1 X190.122 Y235.238 E14.87303
G1 X184.672 Y237.596 E15.25568
G1 X179.114 Y239.595 E15.63629
G1 X173.423 Y241.248 E16.01817
G1 X167.647 Y242.54 E16.39957
G1 X161.82 Y243.463 E16.77974
G1 X155.912 Y244.022 E17.16215
G1 X150 Y244.207 E17.5433
G1 X144.088 Y244.022 E17.92445
G1 X138.18 Y243.463 E18.30686
G1 X132.353 Y242.54 E18.68703
G1 X126.577 Y241.248 E19.06842
G1 X120.886 Y239.596 E19.45029
G1 X115.328 Y237.596 E19.83092
G1 X109.878 Y235.238 E20.21358
G1 X104.607 Y232.551 E20.59482
G1 X99.529 Y229.547 E20.97501
G1 X94.629 Y226.218 E21.35674
G1 X89.945 Y222.584 E21.73876
G1 X85.508 Y218.672 E22.11994
G1 X81.324 Y214.488 E22.50123
G1 X77.416 Y210.055 E22.88204
G1 X73.782 Y205.371 E23.26407
G1 X70.45 Y200.466 E23.64617
G1 X67.447 Y195.39 E24.02622
G1 X64.762 Y190.122 E24.40723
G1 X62.403 Y184.669 E24.79009
G1 X60.405 Y179.114 E25.1705
G1 X58.75 Y173.417 E25.55279
G1 X57.459 Y167.642 E25.93411
G1 X56.536 Y161.812 E26.31447
G1 X55.977 Y155.905 E26.69681
G1 X55.793 Y150 E27.07751
G1 X55.977 Y144.095 E27.45821
G1 X56.536 Y138.184 E27.84081
G1 X57.459 Y132.358 E28.22091
G1 X58.75 Y126.583 E28.60223
G1 X60.404 Y120.886 E28.9845
G1 X62.403 Y115.331 E29.36493
G1 X64.764 Y109.874 E29.74808
G1 X67.449 Y104.607 E30.12904
G1 X70.45 Y99.534 E30.50885
G1 X73.782 Y94.629 E30.89096
G1 X77.419 Y89.941 E31.2733
G1 X81.324 Y85.512 E31.65379
G1 X85.512 Y81.324 E32.03545
G1 X89.945 Y77.416 E32.41626
G1 X94.629 Y73.782 E32.79828
G1 X99.529 Y70.453 E33.18001
G1 X104.607 Y67.449 E33.5602
G1 X109.878 Y64.762 E33.94145
G1 X115.328 Y62.404 E34.3241
G1 X120.886 Y60.405 E34.70472
G1 X126.577 Y58.752 E35.0866
G1 X132.353 Y57.46 E35.468
G1 X138.18 Y56.537 E35.84816
G1 X144.088 Y55.978 E36.23057
G1 X150 Y55.793 E36.61172
G1 X155.912 Y55.978 E36.99287
G1 X161.82 Y56.537 E37.37528
G1 X167.647 Y57.46 E37.75545
G1 X173.423 Y58.752 E38.13685
G0 F6000 X173.557 Y58.241
;TYPE:WALL-OUTER
G1 F900 X179.283 Y59.903 E38.52106
G1 X184.87 Y61.914 E38.90369
G1 X190.336 Y64.279 E39.28747
G1 X195.647 Y66.986 E39.6716
G1 X200.763 Y70.013 E40.05465
G1 X205.678 Y73.352 E40.43754
G1 X210.389 Y77.007 E40.82177
G1 X214.845 Y80.935 E41.20454
G1 X219.065 Y85.155 E41.58912
G1 X222.99 Y89.607 E41.97157
G1 X226.648 Y94.322 E42.35612
G1 X229.987 Y99.237 E42.73901
G1 X233.014 Y104.353 E43.12206
G1 X235.721 Y109.664 E43.50619
G1 X238.087 Y115.133 E43.89017
G1 X240.096 Y120.717 E44.27258
G1 X241.761 Y126.449 E44.65722
G1 X243.059 Y132.257 E45.04071
G1 X243.99 Y138.134 E45.42414
G1 X244.55 Y144.06 E45.80771
G1 X244.736 Y150 E46.19067
G1 X244.55 Y155.94 E46.57362
G1 X243.99 Y161.866 E46.95719
G1 X243.059 Y167.743 E47.34062
G1 X241.761 Y173.551 E47.72412
G1 X240.097 Y179.283 E48.10873
G1 X238.087 Y184.867 E48.49116
G1 X235.721 Y190.336 E48.87515
G1 X233.016 Y195.644 E49.25904
G1 X229.987 Y200.763 E49.64233
G1 X226.648 Y205.678 E50.02522
G1 X222.993 Y210.389 E50.40944
G1 X219.065 Y214.845 E50.79222
G1 X214.849 Y219.061 E51.17643
G1 X210.389 Y222.993 E51.55957
G1 X205.678 Y226.648 E51.94379
G1 X200.763 Y229.987 E52.32668
G1 X195.647 Y233.014 E52.70974
G1 X190.336 Y235.721 E53.09387
G1 X184.87 Y238.086 E53.47765
G1 X179.283 Y240.096 E53.86026
G1 X173.557 Y241.759 E54.24448
G1 X167.748 Y243.058 E54.62806
G1 X161.874 Y243.989 E55.0113
G1 X155.947 Y244.549 E55.39493
G1 X150 Y244.736 E55.77834
G1 X144.053 Y244.549 E56.16175
G1 X138.126 Y243.989 E56.54538
G1 X132.252 Y243.058 E56.92862
G1 X126.443 Y241.759 E57.31219
G1 X120.717 Y240.097 E57.6964
G1 X115.13 Y238.086 E58.07903
G1 X109.664 Y235.721 E58.46281
G1 X104.353 Y233.014 E58.84694
G1 X99.237 Y229.987 E59.22999
G1 X94.322 Y226.648 E59.61289
G1 X89.611 Y222.993 E59.99711
G1 X85.151 Y219.061 E60.38025
G1 X80.935 Y214.845 E60.76446
G1 X77.007 Y210.389 E61.14724
G1 X73.352 Y205.678 E61.53146
G1 X70.013 Y200.763 E61.91435
G1 X66.984 Y195.644 E62.29764
G1 X64.279 Y190.336 E62.68153
G1 X61.913 Y184.867 E63.06552
G1 X59.904 Y179.283 E63.44793
G1 X58.239 Y173.551 E63.83256
G1 X56.941 Y167.743 E64.21605
G1 X56.01 Y161.866 E64.59949
G1 X55.45 Y155.94 E64.98305
G1 X55.264 Y150 E65.36601
G1 X55.45 Y144.06 E65.74897
G1 X56.01 Y138.134 E66.13253
G1 X56.941 Y132.257 E66.51597
G1 X58.239 Y126.449 E66.89946
G1 X59.903 Y120.717 E67.28408
G1 X61.913 Y115.133 E67.6665
G1 X64.279 Y109.664 E68.05049
G1 X66.986 Y104.353 E68.43462
G1 X70.013 Y99.237 E68.81767
G1 X73.352 Y94.322 E69.20056
G1 X77.01 Y89.607 E69.58511
G1 X80.935 Y85.155 E69.96756
G1 X85.155 Y80.935 E70.35214
G1 X89.611 Y77.007 E70.73491
G1 X94.322 Y73.352 E71.11914
G1 X99.237 Y70.013 E71.50203
G1 X104.353 Y66.986 E71.88508
G1 X109.664 Y64.279 E72.26921
G1 X115.13 Y61.914 E72.65299
G1 X120.717 Y59.904 E73.0356
G1 X126.443 Y58.241 E73.41983
G1 X132.252 Y56.942 E73.8034
G1 X138.126 Y56.011 E74.18664
G1 X144.053 Y55.451 E74.57027
G1 X150 Y55.264 E74.95368
G1 X155.947 Y55.451 E75.33709
G1 X161.874 Y56.011 E75.72072
G1 X167.748 Y56.942 E76.10396
G1 X173.557 Y58.241 E76.48754
G0 F6000 X173.413 Y58.802
G0 X173.29 Y59.254
;TYPE:SKIN
G1 F900 X178.973 Y60.903 E76.86885
G1 X184.477 Y62.884 E77.24579
G1 X189.908 Y65.233 E77.6271
G1 X195.144 Y67.903 E78.00584
G1 X200.196 Y70.893 E78.38413
G1 X205.053 Y74.192 E78.76248
G1 X209.728 Y77.819 E79.14376
G1 X214.121 Y81.691 E79.52111
G1 X218.309 Y85.879 E79.90276
G1 X222.175 Y90.264 E80.27947
G1 X225.808 Y94.947 E80.6614
G1 X229.11 Y99.809 E81.04012
G1 X232.097 Y104.856 E81.41804
G1 X234.765 Y110.088 E81.79649
G1 X237.116 Y115.522 E82.17802
G1 X239.096 Y121.028 E82.55506
G1 X240.752 Y126.728 E82.93755
G1 X242.032 Y132.456 E83.31577
G1 X242.952 Y138.265 E83.69476
G1 X243.506 Y144.136 E84.07476
G1 X243.689 Y149.984 E84.45179
G1 X243.506 Y155.864 E84.83087
G1 X242.952 Y161.731 E85.21062
G1 X242.033 Y167.539 E85.58954
G1 X240.752 Y173.272 E85.96808
G1 X239.097 Y178.973 E86.35061
G1 X237.118 Y184.471 E86.72715
G1 X234.768 Y189.906 E87.10871
G1 X232.101 Y195.138 E87.48714
G1 X229.11 Y200.191 E87.86551
G1 X225.808 Y205.053 E88.24424
G1 X222.181 Y209.728 E88.62553
G1 X218.309 Y214.121 E89.00287
G1 X214.133 Y218.297 E89.38343
G1 X209.728 Y222.181 E89.76187
G1 X205.055 Y225.807 E90.14302
G1 X200.196 Y229.107 E90.52151
G1 X195.144 Y232.097 E90.8998
G1 X189.908 Y234.767 E91.27854
G1 X184.477 Y237.116 E91.65984
G1 X178.972 Y239.096 E92.03683
G1 X173.29 Y240.746 E92.41809
G1 X167.549 Y242.031 E92.79719
G1 X161.755 Y242.949 E93.17521
G1 X155.878 Y243.504 E93.55561
G1 X150 Y243.689 E93.93457
G1 X144.122 Y243.504 E94.31353
G1 X138.245 Y242.949 E94.69392
G1 X132.451 Y242.031 E95.07194
G1 X126.71 Y240.746 E95.45104
G1 X121.027 Y239.097 E95.83235
G1 X115.523 Y237.116 E96.2093
G1 X110.092 Y234.767 E96.5906
G1 X104.856 Y232.097 E96.96934
G1 X99.804 Y229.107 E97.34763
G1 X94.945 Y225.807 E97.72612
G1 X90.272 Y222.181 E98.10727
G1 X85.867 Y218.297 E98.4857
G1 X81.691 Y214.121 E98.86627
G1 X77.819 Y209.728 E99.24361
G1 X74.192 Y205.053 E99.6249
G1 X70.89 Y200.191 E100.00362
G1 X67.899 Y195.138 E100.382
G1 X65.232 Y189.906 E100.76042
G1 X62.882 Y184.471 E101.14199
G1 X60.904 Y178.972 E101.51857
G1 X59.248 Y173.272 E101.90106
G1 X57.967 Y167.539 E102.2796
G1 X57.048 Y161.731 E102.65851
G1 X56.494 Y155.864 E103.03826
G1 X56.311 Y150.016 E103.41529
G1 X56.494 Y144.136 E103.79437
G1 X57.048 Y138.265 E104.17437
G1 X57.968 Y132.456 E104.55337
G1 X59.248 Y126.728 E104.93158
G1 X60.903 Y121.027 E105.31411
G1 X62.884 Y115.522 E105.69112
G1 X65.235 Y110.088 E106.07265
G1 X67.903 Y104.856 E106.4511
G1 X70.89 Y99.809 E106.82902
G1 X74.192 Y94.947 E107.20774
G1 X77.825 Y90.264 E107.58967
G1 X81.691 Y85.879 E107.96637
G1 X85.879 Y81.691 E108.34803
G1 X90.272 Y77.819 E108.72538
G1 X94.947 Y74.192 E109.10666
G1 X99.804 Y70.893 E109.48501
G1 X104.856 Y67.903 E109.8633
G1 X110.092 Y65.233 E110.24204
G1 X115.523 Y62.884 E110.62334
G1 X121.028 Y60.904 E111.00033
G1 X126.71 Y59.254 E111.3816
G1 X132.451 Y57.969 E111.7607
G1 X138.245 Y57.051 E112.13871
G1 X144.122 Y56.496 E112.51911
G1 X150 Y56.311 E112.89807
G1 X155.878 Y56.496 E113.27703
G1 X161.755 Y57.051 E113.65742
G1 X167.549 Y57.969 E114.03544
G1 X173.29 Y59.254 E114.41454
G1 F2400 E112.81454
G0 F6000 X173.398 Y58.881
G0 X179.062 Y60.587
G0 X184.599 Y62.58
G0 X190.04 Y64.933
G0 X195.3 Y67.615
G0 X200.375 Y70.618
G0 X204.765 Y73.6
G0 X209.167 Y76.892
G0 X208.793 Y77.373
G1 F2400 E114.41454
G1 F900 X222.626 Y91.206 E115.67515
G0 F6000 X223.108 Y90.833
G0 X225.695 Y94.167
G0 X225.213 Y94.54
G1 F900 X205.459 Y74.786 E117.47535
G0 F6000 X205.833 Y74.305
G0 X203.312 Y72.541
G0 X202.97 Y73.043
G1 F900 X226.957 Y97.03 E119.6613
G0 F6000 X227.46 Y96.689
G0 X229.04 Y99.014
G0 X228.536 Y99.356
G1 F900 X200.643 Y71.463 E122.20322
G0 F6000 X200.986 Y70.96
G0 X199.002 Y69.736
G0 X198.692 Y70.259
G1 F900 X229.741 Y101.308 E125.03273
G0 F6000 X230.265 Y100.999
G0 X231.348 Y102.83
G0 X230.825 Y103.138
G1 F900 X196.861 Y69.174 E128.1279
G0 F6000 X197.17 Y68.652
G0 X195.308 Y67.552
G0 X195.032 Y68.092
G1 F900 X231.906 Y104.967 E131.4883
G0 F6000 X232.43 Y104.659
G0 X233.225 Y106.215
G0 X232.684 Y106.49
G1 F900 X193.508 Y67.315 E135.05839
G0 F6000 X193.784 Y66.775
G0 X192.26 Y65.998
G0 X191.984 Y66.538
G1 F900 X233.461 Y108.014 E138.83818
G0 F6000 X234.002 Y107.739
G0 X234.779 Y109.263
G0 X234.238 Y109.538
G1 F900 X190.46 Y65.76 E142.8277
G0 F6000 X190.735 Y65.221
G0 X189.297 Y64.547
G0 X189.056 Y65.103
G1 F900 X234.895 Y110.942 E147.00505
G0 F6000 X235.452 Y110.702
G0 X236.022 Y112.018
G0 X235.464 Y112.258
G1 F900 X187.741 Y64.534 E151.35412
G0 F6000 X187.982 Y63.978
G0 X186.666 Y63.409
G0 X186.425 Y63.966
G1 F900 X236.032 Y113.573 E155.87485
G0 F6000 X236.59 Y113.333
G0 X237.16 Y114.649
G0 X236.602 Y114.889
G1 F900 X185.11 Y63.397 E160.56735
G0 F6000 X185.351 Y62.841
G0 X184.067 Y62.325
G0 X183.862 Y62.896
G1 F900 X237.103 Y116.137 E165.41925
G0 F6000 X237.676 Y115.933
G0 X238.095 Y117.098
G0 X237.522 Y117.303
G1 F900 X182.695 Y62.475 E170.41572
G0 F6000 X182.9 Y61.905
G0 X181.733 Y61.485
G0 X181.528 Y62.055
G1 F900 X237.942 Y118.47 E175.55682
G0 F6000 X238.515 Y118.265
G0 X238.934 Y119.432
G0 X238.362 Y119.636
G1 F900 X180.361 Y61.635 E180.84249
G0 F6000 X180.566 Y61.065
G0 X179.4 Y60.645
G0 X179.195 Y61.215
G1 F900 X238.781 Y120.802 E186.27266
G0 F6000 X239.353 Y120.598
G0 X239.699 Y121.71
G0 X239.112 Y121.879
G1 F900 X178.118 Y60.885 E191.83109
G0 F6000 X178.288 Y60.3
G0 X177.234 Y59.994
G0 X177.065 Y60.579
G1 F900 X239.418 Y122.932 E197.51336
G0 F6000 X240.005 Y122.763
G0 X240.311 Y123.816
G0 X239.724 Y123.985
G1 F900 X176.013 Y60.274 E203.31939
G0 F6000 X176.183 Y59.689
G0 X175.131 Y59.384
G0 X174.961 Y59.969
G1 F900 X240.03 Y125.038 E209.24918
G0 F6000 X240.617 Y124.869
G0 X240.923 Y125.922
G0 X240.337 Y126.091
G1 F900 X173.91 Y59.664 E215.30273
G0 F6000 X174.08 Y59.079
G0 X173.022 Y58.796
G0 X172.889 Y59.39
G1 F900 X240.612 Y127.113 E221.47437
G0 F6000 X240.827 Y128.074
G1 F900 X171.928 Y59.175 E227.75319
G0 F6000 X170.965 Y58.959
G1 F900 X241.042 Y129.036 E234.13936
G0 F6000 X241.256 Y129.997
G1 F900 X170.004 Y58.745 E240.63261
G0 F6000 X169.041 Y58.529
G1 F900 X241.471 Y130.959 E247.23322
G0 F6000 X241.685 Y131.919
G1 F900 X168.079 Y58.314 E253.94094
G0 F6000 X167.148 Y58.129
G1 F900 X241.871 Y132.852 E260.75051
G0 F6000 X242.012 Y133.74
G1 F900 X166.26 Y57.988 E267.65384
G0 F6000 X165.373 Y57.847
G1 F900 X242.152 Y134.627 E274.65082
G0 F6000 X242.292 Y135.514
G1 F900 X164.485 Y57.706 E281.74147
G0 F6000 X163.598 Y57.566
G1 F900 X242.433 Y136.401 E288.92577
G0 F6000 X242.574 Y137.289
G1 F900 X162.71 Y57.425 E296.20384
G0 F6000 X161.823 Y57.284
G1 F900 X242.715 Y138.176 E303.57559
G0 F6000 X242.801 Y139.009
G1 F900 X160.991 Y57.199 E311.03099
G0 F6000 X160.168 Y57.122
G1 F900 X242.879 Y139.833 E318.56851
G0 F6000 X242.956 Y140.657
G1 F900 X159.343 Y57.045 E326.18818
G0 F6000 X158.519 Y56.967
G1 F900 X243.034 Y141.482 E333.8901
G0 F6000 X243.111 Y142.306
G1 F900 X157.694 Y56.889 E341.67422
G0 F6000 X156.87 Y56.811
G1 F900 X243.189 Y143.131 E349.54058
G0 F6000 X243.266 Y143.954
G1 F900 X156.045 Y56.734 E357.48905
G0 F6000 X155.262 Y56.697
G1 F900 X243.304 Y144.739 E365.51238
G0 F6000 X243.328 Y145.509
G1 F900 X154.491 Y56.673 E373.60812
G0 F6000 X153.72 Y56.649
G1 F900 X243.352 Y146.28 E381.77631
G0 F6000 X243.376 Y147.051
G1 F900 X152.949 Y56.624 E390.01699
G0 F6000 X152.178 Y56.6
G1 F900 X243.401 Y147.822 E398.33017
G0 F6000 X243.425 Y148.593
G1 F900 X151.407 Y56.575 E406.71584
G0 F6000 X150.636 Y56.551
G1 F900 X243.449 Y149.364 E415.17396
G0 F6000 X243.464 Y150.126
G1 F900 X149.873 Y56.535 E423.70298
G0 F6000 X149.149 Y56.557
G1 F900 X243.442 Y150.85 E432.29597
G0 F6000 X243.419 Y151.574
G1 F900 X148.425 Y56.581 E440.9528
G0 F6000 X147.701 Y56.603
G1 F900 X243.396 Y152.298 E449.67356
G0 F6000 X243.374 Y153.022
G1 F900 X146.978 Y56.627 E458.45816
G0 F6000 X146.254 Y56.649
G1 F900 X243.351 Y153.746 E467.30668
G0 F6000 X243.328 Y154.471
G1 F900 X145.53 Y56.672 E476.21913
G0 F6000 X144.806 Y56.695
G1 F900 X243.306 Y155.195 E485.19551
G0 F6000 X243.279 Y155.914
G1 F900 X144.085 Y56.721 E494.23509
G0 F6000 X143.403 Y56.785
G1 F900 X243.215 Y156.597 E503.33104
G0 F6000 X243.15 Y157.279
G1 F900 X142.721 Y56.849 E512.48326
G0 F6000 X142.038 Y56.914
G1 F900 X243.086 Y157.961 E521.69179
G0 F6000 X243.021 Y158.644
G1 F900 X141.356 Y56.978 E530.95665
G0 F6000 X140.673 Y57.043
G1 F900 X242.957 Y159.326 E540.27782
G0 F6000 X242.893 Y160.009
G1 F900 X139.991 Y57.107 E549.65536
G0 F6000 X139.309 Y57.171
G1 F900 X242.828 Y160.691 E559.08917
G0 F6000 X242.764 Y161.373
G1 F900 X138.626 Y57.236 E568.5793
G0 F6000 X137.962 Y57.318
G1 F900 X242.68 Y162.036 E578.12233
G0 F6000 X242.578 Y162.681
G1 F900 X137.318 Y57.42 E587.7148
G0 F6000 X136.673 Y57.523
G1 F900 X242.476 Y163.326 E597.35671
G0 F6000 X242.374 Y163.97
G1 F900 X136.028 Y57.624 E607.0481
G0 F6000 X135.384 Y57.727
G1 F900 X242.272 Y164.615 E616.78889
G0 F6000 X242.17 Y165.26
G1 F900 X134.739 Y57.829 E626.57916
G0 F6000 X134.095 Y57.931
G1 F900 X242.068 Y165.904 E636.41882
G0 F6000 X241.966 Y166.549
G1 F900 X133.45 Y58.033 E646.30797
G0 F6000 X132.806 Y58.136
G1 F900 X241.864 Y167.193 E656.24646
G0 F6000 X241.743 Y167.819
G1 F900 X132.179 Y58.255 E666.23111
G0 F6000 X131.569 Y58.392
