;FLAVOR:Marlin
;TIME:3150
;Filament used: 2.74019m
;Layer height: 0.25
;MINX:-9.059
;MINY:20.003
;MINZ:0.3
;MAXX:54.756
;MAXY:83.825
;MAXZ:10.05
;Generated with Cura_SteamEngine 4.10.0
M104 S210
M105
M109 S210
M82 ;absolute extrusion mode
G21        ;metric values
G90        ;absolute positioning
M107       ;start with the fan off
G28   ;move to endstops

;Z-Offset Reset und dann Z +0,1 für PLA
;MacroZOffset0
;MacroZOffsetPlus0100

G92 E0                  ;zero the extruded length
G1 F200 E3              ;extrude 3mm of feed stock
G92 E0                  ;zero the extruded length again
G1 F150.0
;Put printing message on LCD screen
M117 Printing...
G92 E0
G92 E0
G1 F2400 E-6
;LAYER_COUNT:40
;LAYER:0
M107
M204 S3000
G0 F900 X9.855 Y22.769 Z0.3
M204 S2000
;TYPE:SKIRT
G1 F2400 E0
G1 F300 X10.68 Y22.413 E0.04259
G1 X10.805 Y22.361 E0.049
G1 X11.536 Y22.072 E0.08626
G1 X11.672 Y22.021 E0.09314
G1 X12.519 Y21.718 E0.13578
G1 X12.651 Y21.673 E0.14239
G1 X13.473 Y21.408 E0.18332
G1 X14.386 Y21.143 E0.22838
G1 X14.518 Y21.107 E0.23486
G1 X15.496 Y20.859 E0.28269
G1 X16.256 Y20.689 E0.3196
G1 X16.405 Y20.658 E0.32681
G1 X17.338 Y20.483 E0.3718
G1 X17.459 Y20.462 E0.37762
G1 X18.391 Y20.314 E0.42235
G1 X18.532 Y20.294 E0.4291
G1 X19.28 Y20.2 E0.46483
G1 X20.247 Y20.107 E0.51087
G1 X20.385 Y20.096 E0.51743
G1 X21.336 Y20.036 E0.5626
G1 X21.476 Y20.029 E0.56924
G1 X22.248 Y20.005 E0.60585
G1 X22.385 Y20.003 E0.61234
G1 X23.313 Y20.003 E0.65632
G1 X23.45 Y20.005 E0.66282
G1 X24.222 Y20.029 E0.69942
G1 X24.362 Y20.036 E0.70607
G1 X25.312 Y20.096 E0.75118
G1 X25.449 Y20.107 E0.7577
G1 X26.429 Y20.201 E0.80436
G1 X27.226 Y20.301 E0.84243
G1 X27.361 Y20.32 E0.84889
G1 X28.246 Y20.459 E0.89135
G1 X28.382 Y20.483 E0.8979
G1 X29.216 Y20.641 E0.93813
G1 X29.356 Y20.67 E0.9449
G1 X30.207 Y20.86 E0.98623
G1 X30.342 Y20.892 E0.99281
G1 X31.191 Y21.11 E1.03435
G1 X31.312 Y21.143 E1.04029
G1 X32.095 Y21.368 E1.07891
G1 X32.232 Y21.41 E1.0857
G1 X32.991 Y21.655 E1.1235
G1 X33.13 Y21.702 E1.13045
G1 X34.046 Y22.032 E1.1766
G1 X35.003 Y22.406 E1.2253
G1 X35.133 Y22.459 E1.23195
G1 X35.829 Y22.758 E1.26785
G1 X35.958 Y22.816 E1.27456
G1 X36.778 Y23.2 E1.31747
G1 X37.682 Y23.656 E1.36546
G1 X37.803 Y23.72 E1.37195
G1 X38.609 Y24.162 E1.41552
G1 X39.415 Y24.637 E1.45986
G1 X39.528 Y24.706 E1.46613
G1 X40.259 Y25.167 E1.50709
G1 X40.371 Y25.24 E1.51343
G1 X41.003 Y25.666 E1.54955
G1 X41.117 Y25.746 E1.55615
G1 X41.887 Y26.301 E1.60114
G1 X41.999 Y26.384 E1.60775
G1 X42.674 Y26.904 E1.64813
G1 X42.784 Y26.992 E1.65481
G1 X43.427 Y27.521 E1.69427
G1 X43.531 Y27.609 E1.70073
G1 X44.126 Y28.13 E1.73821
G1 X44.973 Y28.919 E1.79308
G1 X45.065 Y29.006 E1.79908
G1 X45.634 Y29.569 E1.83702
G1 X46.346 Y30.317 E1.88596
G1 X46.446 Y30.425 E1.89294
G1 X46.975 Y31.021 E1.93071
G1 X47.064 Y31.125 E1.93719
G1 X47.62 Y31.792 E1.97835
G1 X47.704 Y31.896 E1.98469
G1 X48.195 Y32.523 E2.02243
G1 X48.283 Y32.639 E2.02933
G1 X48.88 Y33.458 E2.07737
G1 X49.453 Y34.29 E2.12525
G1 X49.532 Y34.41 E2.13206
G1 X49.949 Y35.06 E2.16866
G1 X50.023 Y35.179 E2.1753
G1 X50.446 Y35.887 E2.21439
G1 X50.915 Y36.726 E2.25994
G1 X50.978 Y36.842 E2.2662
G1 X51.41 Y37.676 E2.31072
G1 X51.835 Y38.561 E2.35725
G1 X51.893 Y38.687 E2.36382
G1 X52.223 Y39.437 E2.40266
G1 X52.277 Y39.565 E2.40924
G1 X52.609 Y40.389 E2.45135
G1 X52.66 Y40.52 E2.45801
G1 X52.962 Y41.345 E2.49965
G1 X53.006 Y41.471 E2.50597
G1 X53.266 Y42.254 E2.54508
G1 X53.308 Y42.389 E2.55178
G1 X53.582 Y43.317 E2.59764
G1 X53.812 Y44.186 E2.64024
G1 X53.846 Y44.324 E2.64698
G1 X54.043 Y45.179 E2.68857
G1 X54.229 Y46.107 E2.73342
G1 X54.255 Y46.247 E2.74017
G1 X54.409 Y47.177 E2.78485
G1 X54.429 Y47.314 E2.79141
G1 X54.544 Y48.188 E2.83319
G1 X54.63 Y49.025 E2.87307
G1 X54.643 Y49.173 E2.88011
G1 X54.706 Y50.09 E2.92368
G1 X54.749 Y51.112 E2.97216
G1 X54.753 Y51.272 E2.97975
G1 X54.756 Y52.218 E3.02458
G1 X54.739 Y53.044 E3.06374
G1 X54.733 Y53.201 E3.07119
G1 X54.679 Y54.159 E3.11666
G1 X54.601 Y55.096 E3.16123
G1 X54.587 Y55.239 E3.16804
G1 X54.485 Y56.104 E3.20932
G1 X54.467 Y56.239 E3.21577
G1 X54.347 Y57.042 E3.25425
G1 X54.168 Y58.037 E3.30217
G1 X54.142 Y58.172 E3.30869
G1 X53.981 Y58.925 E3.34518
G1 X53.732 Y59.939 E3.39467
G1 X53.699 Y60.065 E3.40084
G1 X53.429 Y61.033 E3.44847
G1 X53.389 Y61.17 E3.45524
G1 X53.171 Y61.864 E3.48971
G1 X53.128 Y61.994 E3.4962
G1 X52.826 Y62.86 E3.53967
G1 X52.779 Y62.988 E3.54613
G1 X52.48 Y63.767 E3.58568
G1 X52.426 Y63.9 E3.59249
G1 X52.099 Y64.675 E3.63235
G1 X52.043 Y64.803 E3.63897
G1 X51.672 Y65.61 E3.68107
G1 X51.615 Y65.729 E3.68733
G1 X51.234 Y66.496 E3.72792
G1 X51.172 Y66.617 E3.73436
G1 X50.767 Y67.373 E3.77501
G1 X50.286 Y68.209 E3.82072
G1 X50.216 Y68.328 E3.82726
G1 X49.731 Y69.111 E3.87092
G1 X49.654 Y69.231 E3.87768
G1 X49.203 Y69.909 E3.91627
G1 X48.599 Y70.762 E3.96581
G1 X48.516 Y70.876 E3.97249
G1 X48.031 Y71.515 E4.01051
G1 X47.404 Y72.296 E4.05798
G1 X47.308 Y72.412 E4.06512
G1 X46.771 Y73.034 E4.10406
G1 X46.682 Y73.134 E4.11041
G1 X46.17 Y73.692 E4.1463
G1 X46.075 Y73.792 E4.15284
G1 X45.298 Y74.587 E4.20553
G1 X45.204 Y74.68 E4.21179
G1 X44.495 Y75.361 E4.25839
G1 X43.997 Y75.811 E4.2902
G1 X43.888 Y75.906 E4.29705
G1 X43.124 Y76.552 E4.34447
G1 X42.417 Y77.119 E4.38743
G1 X42.294 Y77.214 E4.39479
G1 X41.512 Y77.795 E4.44097
G1 X40.764 Y78.32 E4.48428
G1 X40.651 Y78.397 E4.49076
G1 X39.954 Y78.853 E4.53024
G1 X39.828 Y78.933 E4.53731
G1 X39.126 Y79.359 E4.57623
G1 X38.144 Y79.919 E4.62981
G1 X38.019 Y79.988 E4.63657
G1 X37.318 Y80.357 E4.67412
G1 X37.195 Y80.419 E4.68065
G1 X36.46 Y80.777 E4.7194
G1 X36.336 Y80.835 E4.72589
G1 X35.528 Y81.198 E4.76787
G1 X35.399 Y81.253 E4.77451
G1 X34.597 Y81.583 E4.81562
G1 X34.475 Y81.631 E4.82183
G1 X33.695 Y81.925 E4.86134
G1 X33.555 Y81.975 E4.86839
G1 X32.571 Y82.307 E4.91761
G1 X31.774 Y82.552 E4.95712
G1 X31.636 Y82.592 E4.96393
G1 X30.842 Y82.808 E5.00293
G1 X30.705 Y82.843 E5.00964
G1 X29.788 Y83.061 E5.05431
G1 X28.922 Y83.242 E5.09624
G1 X28.781 Y83.269 E5.10304
G1 X27.883 Y83.425 E5.14624
G1 X27.745 Y83.447 E5.15287
G1 X26.873 Y83.57 E5.1946
G1 X26.736 Y83.587 E5.20115
G1 X25.922 Y83.676 E5.23996
G1 X25.794 Y83.688 E5.24605
G1 X24.929 Y83.757 E5.28718
G1 X24.781 Y83.766 E5.29421
G1 X23.867 Y83.808 E5.33757
G1 X23.735 Y83.812 E5.34383
G1 X22.919 Y83.825 E5.38251
G1 X22.779 Y83.825 E5.38915
G1 X21.963 Y83.812 E5.42783
G1 X21.831 Y83.808 E5.43408
G1 X20.984 Y83.769 E5.47427
G1 X20.831 Y83.76 E5.48154
G1 X19.978 Y83.691 E5.5221
G1 X19.852 Y83.679 E5.52809
G1 X18.871 Y83.571 E5.57487
G1 X18.743 Y83.555 E5.58098
G1 X17.906 Y83.438 E5.62104
G1 X16.921 Y83.269 E5.66841
G1 X16.78 Y83.243 E5.6752
G1 X16.036 Y83.089 E5.71121
G1 X14.993 Y82.843 E5.762
G1 X14.851 Y82.807 E5.76895
G1 X14.059 Y82.591 E5.80785
G1 X13.926 Y82.552 E5.81442
G1 X13.003 Y82.267 E5.86021
G1 X12.126 Y81.969 E5.90411
G1 X11.997 Y81.923 E5.9106
G1 X11.229 Y81.635 E5.94947
G1 X11.099 Y81.584 E5.95609
G1 X10.312 Y81.26 E5.99643
G1 X10.181 Y81.203 E6.0032
G1 X9.24 Y80.778 E6.05214
G1 X8.503 Y80.419 E6.09099
G1 X7.614 Y79.953 E6.13857
G1 X7.492 Y79.886 E6.14516
G1 X6.776 Y79.48 E6.18417
G1 X6.649 Y79.406 E6.19114
G1 X5.868 Y78.928 E6.23454
G1 X5.025 Y78.381 E6.28217
G1 X4.902 Y78.298 E6.2892
G1 X4.16 Y77.777 E6.33217
G1 X3.415 Y77.22 E6.37626
G1 X2.594 Y76.571 E6.42586
G1 X2.484 Y76.481 E6.4326
G1 X1.904 Y75.99 E6.46861
G1 X1.796 Y75.896 E6.4754
G1 X1.139 Y75.302 E6.51738
G1 X1.043 Y75.213 E6.52358
G1 X0.422 Y74.617 E6.56438
G1 X0.315 Y74.51 E6.57155
G1 X-.298 Y73.88 E6.61321
G1 X-.384 Y73.789 E6.61915
G1 X-.939 Y73.185 E6.65802
G1 X-1.032 Y73.08 E6.66467
G1 X-1.611 Y72.408 E6.70671
G1 X-1.701 Y72.301 E6.71334
G1 X-2.251 Y71.62 E6.75483
G1 X-2.335 Y71.513 E6.76128
G1 X-2.82 Y70.873 E6.79933
G1 X-3.384 Y70.083 E6.84534
G1 X-3.468 Y69.96 E6.8524
G1 X-3.919 Y69.279 E6.89111
G1 X-3.992 Y69.165 E6.89753
G1 X-4.497 Y68.349 E6.94301
G1 X-4.568 Y68.231 E6.94954
G1 X-5.1 Y67.305 E7.00015
G1 X-5.501 Y66.562 E7.04017
G1 X-5.571 Y66.427 E7.04738
G1 X-5.927 Y65.709 E7.08536
G1 X-5.986 Y65.586 E7.09183
G1 X-6.356 Y64.778 E7.13395
G1 X-6.413 Y64.648 E7.14067
G1 X-6.715 Y63.928 E7.17768
G1 X-7.101 Y62.93 E7.22839
G1 X-7.15 Y62.797 E7.23511
G1 X-7.44 Y61.961 E7.27705
G1 X-7.718 Y61.076 E7.32102
G1 X-7.758 Y60.939 E7.32778
G1 X-8.003 Y60.055 E7.37126
G1 X-8.252 Y59.057 E7.42001
G1 X-8.286 Y58.911 E7.42711
G1 X-8.444 Y58.171 E7.46298
G1 X-8.47 Y58.041 E7.46926
G1 X-8.615 Y57.246 E7.50756
G1 X-8.638 Y57.104 E7.51438
G1 X-8.783 Y56.129 E7.5611
G1 X-8.8 Y56 E7.56727
G1 X-8.884 Y55.292 E7.60106
G1 X-8.899 Y55.151 E7.60778
G1 X-8.982 Y54.185 E7.65373
G1 X-9.031 Y53.312 E7.69517
G1 X-9.037 Y53.17 E7.70191
G1 X-9.058 Y52.214 E7.74723
G1 X-9.059 Y52.092 E7.75301
G1 X-9.054 Y51.218 E7.79444
G1 X-9.051 Y51.071 E7.80141
G1 X-9.016 Y50.178 E7.84376
G1 X-9.008 Y50.038 E7.85041
G1 X-8.951 Y49.237 E7.88847
G1 X-8.939 Y49.102 E7.89489
G1 X-8.844 Y48.187 E7.93849
G1 X-8.718 Y47.253 E7.98316
G1 X-8.548 Y46.208 E8.03334
G1 X-8.523 Y46.071 E8.03994
G1 X-8.378 Y45.335 E8.07549
G1 X-8.349 Y45.197 E8.08218
G1 X-8.134 Y44.264 E8.12756
G1 X-8.1 Y44.128 E8.1342
G1 X-7.905 Y43.39 E8.17038
G1 X-7.617 Y42.416 E8.21852
G1 X-7.576 Y42.284 E8.22507
G1 X-7.293 Y41.431 E8.26767
G1 X-7.247 Y41.3 E8.27425
G1 X-6.914 Y40.398 E8.31982
G1 X-6.575 Y39.556 E8.36284
G1 X-6.519 Y39.423 E8.36968
G1 X-6.2 Y38.7 E8.40713
G1 X-5.775 Y37.804 E8.45413
G1 X-5.711 Y37.673 E8.46104
G1 X-5.284 Y36.847 E8.50511
G1 X-4.813 Y36 E8.55105
G1 X-4.745 Y35.883 E8.55746
G1 X-4.343 Y35.212 E8.59453
G1 X-4.275 Y35.102 E8.60066
G1 X-3.792 Y34.347 E8.64314
G1 X-3.71 Y34.223 E8.65019
G1 X-3.233 Y33.53 E8.69006
G1 X-2.599 Y32.66 E8.74108
G1 X-2.506 Y32.536 E8.74843
G1 X-2.068 Y31.979 E8.78201
G1 X-1.987 Y31.879 E8.78811
G1 X-1.29 Y31.044 E8.83967
G1 X-1.203 Y30.943 E8.84598
G1 X-.705 Y30.382 E8.88154
G1 X-.611 Y30.28 E8.88811
G1 X0.016 Y29.617 E8.93136
G1 X0.119 Y29.512 E8.93833
G1 X0.762 Y28.878 E8.98113
G1 X1.413 Y28.271 E9.02332
G1 X1.518 Y28.176 E9.03003
G1 X2.138 Y27.634 E9.06906
G1 X2.236 Y27.551 E9.07515
G1 X2.912 Y26.994 E9.11666
G1 X3.024 Y26.905 E9.12344
G1 X3.726 Y26.364 E9.16545
G1 X3.839 Y26.28 E9.17212
G1 X4.534 Y25.779 E9.21273
G1 X4.647 Y25.7 E9.21926
G1 X5.353 Y25.224 E9.25962
G1 X5.466 Y25.15 E9.26602
G1 X6.17 Y24.706 E9.30547
G1 X7.069 Y24.176 E9.35493
G1 X7.184 Y24.11 E9.36121
G1 X7.925 Y23.704 E9.40126
G1 X8.051 Y23.638 E9.408
G1 X8.74 Y23.289 E9.44461
G1 X8.871 Y23.225 E9.45152
G1 X9.741 Y22.82 E9.497
G1 X9.855 Y22.769 E9.50292
M204 S3000
G0 F900 X10.013 Y23.136
M204 S2000
G1 F300 X10.838 Y22.78 E9.54551
G1 X10.952 Y22.733 E9.55135
G1 X11.683 Y22.444 E9.58861
G1 X12.654 Y22.095 E9.63751
G1 X12.774 Y22.054 E9.64352
G1 X13.596 Y21.789 E9.68445
G1 X13.714 Y21.753 E9.6903
G1 X14.617 Y21.494 E9.73482
G1 X15.583 Y21.249 E9.78206
G1 X16.343 Y21.079 E9.81897
G1 X17.412 Y20.877 E9.87053
G1 X17.522 Y20.857 E9.87583
G1 X18.454 Y20.709 E9.92056
G1 X18.582 Y20.691 E9.92668
G1 X19.33 Y20.597 E9.96241
G1 X20.284 Y20.505 E10.00784
G1 X20.41 Y20.495 E10.01383
G1 X21.361 Y20.435 E10.05899
G1 X21.489 Y20.429 E10.06507
G1 X22.261 Y20.405 E10.10167
G1 X22.385 Y20.403 E10.10755
G1 X23.313 Y20.403 E10.15153
G1 X23.437 Y20.405 E10.15741
G1 X24.209 Y20.429 E10.19402
G1 X24.337 Y20.435 E10.20009
G1 X25.287 Y20.495 E10.24521
G1 X25.412 Y20.505 E10.25115
G1 X26.379 Y20.598 E10.2972
G1 X27.299 Y20.715 E10.34115
G1 X28.184 Y20.854 E10.38361
G1 X29.142 Y21.034 E10.42981
G1 X29.269 Y21.06 E10.43595
G1 X30.12 Y21.25 E10.47728
G1 X31.092 Y21.498 E10.52482
G1 X31.985 Y21.753 E10.56884
G1 X32.109 Y21.79 E10.57497
G1 X32.868 Y22.035 E10.61278
G1 X32.995 Y22.079 E10.61915
G1 X34.016 Y22.448 E10.6706
G1 X34.857 Y22.778 E10.71342
G1 X35.671 Y23.126 E10.75538
G1 X35.788 Y23.179 E10.76146
G1 X36.719 Y23.616 E10.81021
G1 X37.501 Y24.012 E10.85175
G1 X38.293 Y24.443 E10.89449
G1 X38.406 Y24.507 E10.90064
G1 X39.212 Y24.982 E10.94499
G1 X39.315 Y25.045 E10.95071
G1 X40.148 Y25.572 E10.99743
G1 X40.78 Y25.998 E11.03355
G1 X40.883 Y26.07 E11.03951
G1 X41.653 Y26.625 E11.08449
G1 X41.755 Y26.701 E11.09052
G1 X42.43 Y27.221 E11.13091
G1 X42.53 Y27.301 E11.13698
G1 X43.173 Y27.83 E11.17644
G1 X43.267 Y27.91 E11.18229
G1 X43.862 Y28.431 E11.21977
G1 X43.957 Y28.517 E11.22585
G1 X44.7 Y29.211 E11.27403
G1 X45.352 Y29.854 E11.31743
G1 X45.44 Y29.943 E11.32337
G1 X46.056 Y30.592 E11.36578
G1 X46.147 Y30.691 E11.37215
G1 X46.676 Y31.287 E11.40992
G1 X46.757 Y31.381 E11.4158
G1 X47.313 Y32.048 E11.45696
G1 X47.88 Y32.77 E11.50047
G1 X47.96 Y32.875 E11.50672
G1 X48.485 Y33.593 E11.54888
G1 X49.123 Y34.517 E11.6021
G1 X49.196 Y34.626 E11.60832
G1 X49.613 Y35.276 E11.64492
G1 X49.68 Y35.384 E11.65094
G1 X50.103 Y36.092 E11.69003
G1 X50.164 Y36.198 E11.69583
G1 X50.566 Y36.92 E11.73499
G1 X50.623 Y37.026 E11.7407
G1 X51.055 Y37.86 E11.78521
G1 X51.112 Y37.974 E11.79126
G1 X51.475 Y38.733 E11.83113
G1 X51.857 Y39.598 E11.87595
G1 X51.906 Y39.714 E11.88192
G1 X52.238 Y40.538 E11.92402
G1 X52.284 Y40.658 E11.93011
G1 X52.586 Y41.483 E11.97175
G1 X52.626 Y41.597 E11.97748
G1 X52.886 Y42.38 E12.01658
G1 X52.925 Y42.503 E12.0227
G1 X53.163 Y43.305 E12.06235
G1 X53.425 Y44.289 E12.11061
G1 X53.456 Y44.414 E12.11671
G1 X53.653 Y45.269 E12.1583
G1 X53.678 Y45.386 E12.16397
G1 X53.837 Y46.185 E12.20258
G1 X53.86 Y46.313 E12.20874
G1 X54.033 Y47.367 E12.25937
G1 X54.132 Y48.109 E12.29485
G1 X54.146 Y48.229 E12.30057
G1 X54.232 Y49.066 E12.34045
G1 X54.244 Y49.201 E12.34687
G1 X54.313 Y50.228 E12.39566
G1 X54.35 Y51.129 E12.4384
G1 X54.353 Y51.274 E12.44527
G1 X54.356 Y52.209 E12.48959
G1 X54.339 Y53.035 E12.52875
G1 X54.334 Y53.178 E12.53553
G1 X54.28 Y54.136 E12.581
G1 X54.203 Y55.062 E12.62504
G1 X54.087 Y56.057 E12.67252
G1 X54.071 Y56.18 E12.6784
G1 X53.931 Y57.106 E12.72279
G1 X53.775 Y57.966 E12.76421
G1 X53.751 Y58.088 E12.77011
G1 X53.59 Y58.841 E12.8066
G1 X53.344 Y59.843 E12.8555
G1 X53.314 Y59.958 E12.86114
G1 X53.044 Y60.926 E12.90877
G1 X53.007 Y61.05 E12.9149
G1 X52.789 Y61.744 E12.94938
G1 X52.75 Y61.862 E12.95527
G1 X52.448 Y62.728 E12.99874
G1 X52.106 Y63.623 E13.04415
G1 X52.057 Y63.745 E13.05038
G1 X51.73 Y64.52 E13.09025
G1 X51.679 Y64.636 E13.09625
G1 X51.308 Y65.443 E13.13835
G1 X51.256 Y65.552 E13.14407
G1 X50.875 Y66.319 E13.18466
G1 X50.819 Y66.428 E13.19047
G1 X50.414 Y67.184 E13.23112
G1 X50.353 Y67.294 E13.23708
G1 X49.94 Y68.01 E13.27626
G1 X49.876 Y68.117 E13.28217
G1 X49.391 Y68.9 E13.32582
G1 X48.869 Y69.687 E13.37058
G1 X48.801 Y69.787 E13.37631
G1 X48.273 Y70.531 E13.41955
G1 X48.197 Y70.634 E13.42562
G1 X47.642 Y71.363 E13.46904
G1 X47.093 Y72.045 E13.51054
G1 X47.005 Y72.151 E13.51707
G1 X46.468 Y72.773 E13.55601
G1 X45.875 Y73.421 E13.59765
G1 X45.789 Y73.513 E13.60361
G1 X45.012 Y74.308 E13.6563
G1 X44.321 Y74.976 E13.70185
G1 X44.227 Y75.064 E13.70796
G1 X43.729 Y75.514 E13.73977
G1 X43.63 Y75.6 E13.74598
G1 X42.781 Y76.316 E13.79862
G1 X42.168 Y76.806 E13.83582
G1 X42.056 Y76.893 E13.84254
G1 X41.274 Y77.474 E13.88871
G1 X40.535 Y77.992 E13.93148
G1 X40.432 Y78.062 E13.93739
G1 X39.735 Y78.518 E13.97686
G1 X39.62 Y78.591 E13.98332
G1 X38.918 Y79.017 E14.02224
G1 X37.946 Y79.571 E14.07526
G1 X37.832 Y79.634 E14.08144
G1 X37.131 Y80.003 E14.11898
G1 X37.02 Y80.059 E14.12488
G1 X36.285 Y80.417 E14.16362
G1 X36.172 Y80.47 E14.16954
G1 X35.364 Y80.833 E14.21152
G1 X35.247 Y80.883 E14.21755
G1 X34.334 Y81.257 E14.26432
G1 X33.554 Y81.551 E14.30382
G1 X33.426 Y81.597 E14.31027
G1 X32.561 Y81.89 E14.35356
G1 X31.656 Y82.169 E14.39844
G1 X31.531 Y82.206 E14.40462
G1 X30.737 Y82.422 E14.44362
G1 X30.612 Y82.454 E14.44973
G1 X29.583 Y82.697 E14.49985
G1 X28.841 Y82.851 E14.53576
G1 X28.713 Y82.875 E14.54194
G1 X27.815 Y83.031 E14.58513
G1 X27.689 Y83.051 E14.59118
G1 X26.817 Y83.174 E14.63292
G1 X25.879 Y83.278 E14.67765
G1 X25.762 Y83.289 E14.68322
G1 X24.897 Y83.358 E14.72435
G1 X24.763 Y83.367 E14.73071
G1 X23.849 Y83.409 E14.77408
G1 X22.913 Y83.425 E14.81845
G1 X22.785 Y83.425 E14.82451
G1 X21.849 Y83.409 E14.86888
G1 X21.002 Y83.37 E14.90907
G1 X20.863 Y83.361 E14.91567
G1 X20.01 Y83.292 E14.95623
G1 X19.895 Y83.281 E14.96171
