;FLAVOR:Marlin
;TIME:802
;Filament used: 0.366719m
;Layer height: 0.15
;MINX:-19.064
;MINY:-15.522
;MINZ:0.2
;MAXX:11.876
;MAXY:9.471
;MAXZ:15.5
;Generated with Cura_SteamEngine 4.10.0
M104 S205
M105
M109 S205
M82 ;absolute extrusion mode
G21        ;metric values
G90        ;absolute positioning
M107       ;start with the fan off
G28   ;move to endstops
G92 E0                  ;zero the extruded length
G1 F200 E3              ;extrude 3mm of feed stock
G92 E0                  ;zero the extruded length again
G1 F120
;Put printing message on LCD screen
M117 Printing...
G92 E0
G92 E0
G1 F2400 E-6
;LAYER_COUNT:103
;LAYER:0
M107
G0 F4800 X-1.749 Y9.245 Z0.2
;TYPE:SKIRT
G1 F2400 E0
G1 F1200 X-2.38 Y9.12 E0.0207
G1 X-2.547 Y9.08 E0.02623
G1 X-3.093 Y8.937 E0.0444
G1 X-3.683 Y8.756 E0.06426
G1 X-4.06 Y8.622 E0.07714
G1 X-4.707 Y8.371 E0.09947
G1 X-4.933 Y8.275 E0.10738
G1 X-6.522 Y7.545 E0.16366
G1 X-6.663 Y7.486 E0.16858
G1 X-7.874 Y6.924 E0.21154
G1 X-10.34 Y5.867 E0.2979
G1 X-12.866 Y4.863 E0.38538
G1 X-13.583 Y4.59 E0.41008
G1 X-13.802 Y4.499 E0.41771
G1 X-14.534 Y4.17 E0.44354
G1 X-15.121 Y3.862 E0.46487
G1 X-15.611 Y3.56 E0.4834
G1 X-16.125 Y3.197 E0.50365
G1 X-16.548 Y2.865 E0.52096
G1 X-17.015 Y2.457 E0.54092
G1 X-17.386 Y2.094 E0.55762
G1 X-17.754 Y1.679 E0.57548
G1 X-18.13 Y1.226 E0.59442
G1 X-18.462 Y0.763 E0.61276
G1 X-18.726 Y0.259 E0.63107
G1 X-18.916 Y-.277 E0.64938
G1 X-19.03 Y-.834 E0.66767
G1 X-19.064 Y-1.402 E0.68599
G1 X-19.018 Y-1.969 E0.7043
G1 X-18.893 Y-2.524 E0.72261
G1 X-18.692 Y-3.056 E0.74091
G1 X-18.418 Y-3.555 E0.75923
G1 X-18.187 Y-3.878 E0.77201
G1 X-17.792 Y-4.376 E0.79247
G1 X-17.55 Y-4.665 E0.8046
G1 X-16.978 Y-5.219 E0.83023
G1 X-16.743 Y-5.406 E0.8399
G1 X-14.6 Y-7.157 E0.92897
G1 X-12.542 Y-8.939 E1.01659
G1 X-10.567 Y-10.748 E1.10279
G1 X-8.169 Y-13.101 E1.21092
G1 X-7.847 Y-13.412 E1.22532
G1 X-7.411 Y-13.778 E1.24365
G1 X-6.897 Y-14.094 E1.26306
G1 X-5.9 Y-14.611 E1.29921
G1 X-5.782 Y-14.67 E1.30346
G1 X-5.152 Y-14.971 E1.32593
G1 X-4.623 Y-15.18 E1.34424
G1 X-4.069 Y-15.312 E1.36257
G1 X-3.381 Y-15.367 E1.38478
G1 X-2.183 Y-15.359 E1.42334
G1 X-1.552 Y-15.346 E1.44365
G1 X1.176 Y-15.372 E1.53146
G1 X4.202 Y-15.488 E1.62892
G1 X4.83 Y-15.522 E1.64916
G1 X5.399 Y-15.513 E1.66748
G1 X5.961 Y-15.424 E1.68579
G1 X6.505 Y-15.258 E1.7041
G1 X7.02 Y-15.017 E1.7224
G1 X7.496 Y-14.706 E1.7407
G1 X8.002 Y-14.251 E1.7626
G1 X8.366 Y-13.845 E1.78015
G1 X8.821 Y-13.307 E1.80283
G1 X9.156 Y-12.847 E1.82114
G1 X9.423 Y-12.345 E1.83944
G1 X9.617 Y-11.81 E1.85776
G1 X9.738 Y-11.233 E1.87673
G1 X9.895 Y-10.059 E1.91486
G1 X10.295 Y-7.344 E2.00318
G1 X10.765 Y-4.694 E2.0898
G1 X11.32 Y-1.998 E2.17839
G1 X11.617 Y-.733 E2.22022
G1 X11.744 Y-.153 E2.23933
G1 X11.824 Y0.341 E2.25543
G1 X11.876 Y1.021 E2.27738
G1 X11.868 Y1.572 E2.29512
G1 X11.823 Y2.145 E2.31362
G1 X11.702 Y2.858 E2.33689
G1 X11.497 Y3.569 E2.36071
G1 X11.259 Y4.172 E2.38157
G1 X10.921 Y4.823 E2.40518
G1 X10.554 Y5.384 E2.42676
G1 X10.113 Y5.936 E2.4495
G1 X9.697 Y6.369 E2.46882
G1 X9.159 Y6.828 E2.49158
G1 X8.48 Y7.298 E2.51816
G1 X7.918 Y7.632 E2.5392
G1 X7.253 Y7.981 E2.56338
G1 X6.915 Y8.139 E2.57538
G1 X6.166 Y8.46 E2.60161
G1 X5.55 Y8.694 E2.62282
G1 X5.378 Y8.752 E2.62866
G1 X4.759 Y8.942 E2.6495
G1 X4.258 Y9.071 E2.66615
G1 X4.123 Y9.1 E2.6706
G1 X3.36 Y9.252 E2.69564
G1 X3.102 Y9.295 E2.70405
G1 X2.447 Y9.382 E2.72532
G1 X1.945 Y9.431 E2.74155
G1 X1.51 Y9.455 E2.75558
G1 X0.633 Y9.471 E2.78381
G1 X-0.067 Y9.453 E2.80634
G1 X-.63 Y9.404 E2.82453
G1 X-.975 Y9.362 E2.83572
G1 X-1.749 Y9.245 E2.86091
G0 F4800 X-1.804 Y8.81
G1 F1200 X-2.441 Y8.674 E2.88188
G1 X-2.987 Y8.531 E2.90004
G1 X-3.545 Y8.359 E2.91884
G1 X-3.908 Y8.23 E2.93124
G1 X-4.555 Y7.979 E2.95357
G1 X-4.758 Y7.893 E2.96067
G1 X-6.408 Y7.135 E3.01911
G1 X-6.486 Y7.105 E3.0218
G1 X-7.693 Y6.545 E3.06462
G1 X-10.208 Y5.467 E3.15269
G1 X-12.691 Y4.48 E3.23869
G1 X-13.434 Y4.197 E3.26428
G1 X-13.63 Y4.116 E3.2711
G1 X-14.362 Y3.787 E3.29693
G1 X-14.919 Y3.494 E3.31719
G1 X-15.386 Y3.205 E3.33487
G1 X-15.879 Y2.857 E3.35429
G1 X-16.273 Y2.548 E3.3704
G1 X-16.729 Y2.149 E3.38991
G1 X-17.219 Y1.655 E3.4123
G1 X-17.431 Y1.41 E3.42273
G1 X-17.807 Y0.957 E3.44168
G1 X-18.119 Y0.519 E3.45898
G1 X-18.363 Y0.039 E3.47631
G1 X-18.534 Y-.472 E3.49366
G1 X-18.626 Y-1.003 E3.511
G1 X-18.64 Y-1.541 E3.52832
G1 X-18.573 Y-2.076 E3.54568
G1 X-18.428 Y-2.594 E3.56299
G1 X-18.208 Y-3.086 E3.58034
G1 X-17.858 Y-3.617 E3.60081
G1 X-17.463 Y-4.115 E3.62126
G1 X-17.23 Y-4.393 E3.63294
G1 X-16.717 Y-4.891 E3.65595
G1 X-16.44 Y-5.111 E3.66733
G1 X-14.318 Y-6.845 E3.75553
G1 X-12.282 Y-8.608 E3.84222
G1 X-10.271 Y-10.451 E3.93001
G1 X-7.877 Y-12.799 E4.03793
G1 X-7.555 Y-13.11 E4.05234
G1 X-7.141 Y-13.454 E4.06967
G1 X-6.704 Y-13.722 E4.08617
G1 X-5.707 Y-14.239 E4.12231
G1 X-4.971 Y-14.592 E4.14858
G1 X-4.469 Y-14.788 E4.16593
G1 X-3.944 Y-14.907 E4.18325
G1 X-3.384 Y-14.947 E4.20132
G1 X-2.192 Y-14.939 E4.23969
G1 X-1.557 Y-14.926 E4.26013
G1 X1.197 Y-14.952 E4.34877
G1 X4.191 Y-15.067 E4.44521
G1 X4.853 Y-15.103 E4.46655
G1 X5.391 Y-15.092 E4.48386
G1 X5.922 Y-15.002 E4.5012
G1 X6.434 Y-14.834 E4.51854
G1 X6.915 Y-14.592 E4.53587
G1 X7.355 Y-14.282 E4.5532
G1 X7.758 Y-13.897 E4.57113
G1 X8.104 Y-13.505 E4.58796
G1 X8.499 Y-13.036 E4.6077
G1 X8.815 Y-12.6 E4.62503
G1 X9.062 Y-12.122 E4.64234
G1 X9.236 Y-11.612 E4.65969
G1 X9.321 Y-11.178 E4.67392
G1 X9.473 Y-10.035 E4.71103
G1 X9.88 Y-7.279 E4.8007
G1 X10.353 Y-4.604 E4.88813
G1 X10.898 Y-1.961 E4.97498
G1 X11.207 Y-.643 E5.01855
G1 X11.334 Y-0.063 E5.03766
G1 X11.424 Y0.556 E5.0578
G1 X11.459 Y1.186 E5.0781
G1 X11.449 Y1.539 E5.08947
G1 X11.404 Y2.112 E5.10797
G1 X11.296 Y2.751 E5.12883
G1 X11.095 Y3.447 E5.15214
G1 X10.882 Y3.987 E5.17083
G1 X10.551 Y4.623 E5.1939
G1 X10.223 Y5.126 E5.21323
G1 X9.788 Y5.668 E5.2356
G1 X9.416 Y6.057 E5.25292
G1 X8.892 Y6.504 E5.27509
G1 X8.252 Y6.945 E5.3001
G1 X7.718 Y7.263 E5.32011
G1 X7.062 Y7.607 E5.34395
G1 X6.75 Y7.752 E5.35502
G1 X5.908 Y8.112 E5.38449
G1 X5.408 Y8.299 E5.40167
G1 X5.254 Y8.351 E5.40691
G1 X4.753 Y8.506 E5.42378
G1 X4.162 Y8.662 E5.44346
G1 X4.041 Y8.688 E5.44744
G1 X3.278 Y8.84 E5.47248
G1 X3.047 Y8.878 E5.48002
G1 X2.392 Y8.965 E5.50128
G1 X1.676 Y9.028 E5.52442
G1 X1.502 Y9.035 E5.53002
G1 X0.625 Y9.051 E5.55825
G1 X-0.048 Y9.033 E5.57992
G1 X-.591 Y8.986 E5.59746
G1 X-.913 Y8.946 E5.6079
G1 X-1.804 Y8.81 E5.63691
G0 F4800 X-1.728 Y8.397
G1 F1200 X-2.334 Y8.267 E5.65686
G1 X-2.88 Y8.124 E5.67503
G1 X-3.407 Y7.962 E5.69277
G1 X-3.756 Y7.839 E5.70468
G1 X-4.403 Y7.588 E5.72702
G1 X-4.582 Y7.512 E5.73328
G1 X-6.257 Y6.742 E5.79261
G1 X-6.31 Y6.724 E5.79441
G1 X-7.537 Y6.155 E5.83794
G1 X-10.03 Y5.086 E5.92525
G1 X-12.541 Y4.088 E6.01221
G1 X-13.284 Y3.805 E6.0378
G1 X-13.458 Y3.733 E6.04386
G1 X-14.19 Y3.404 E6.06969
G1 X-14.716 Y3.126 E6.08884
G1 X-15.161 Y2.851 E6.10568
G1 X-15.633 Y2.517 E6.12429
G1 X-16.361 Y1.915 E6.15469
G1 X-16.767 Y1.526 E6.17279
G1 X-17.108 Y1.142 E6.18932
G1 X-17.484 Y0.689 E6.20827
G1 X-17.776 Y0.275 E6.22457
G1 X-17.999 Y-.179 E6.24085
G1 X-18.147 Y-.663 E6.25714
G1 X-18.218 Y-1.165 E6.27346
G1 X-18.209 Y-1.671 E6.28975
G1 X-18.12 Y-2.17 E6.30606
G1 X-17.955 Y-2.648 E6.32234
G1 X-17.716 Y-3.095 E6.33865
G1 X-17.529 Y-3.356 E6.34898
G1 X-17.134 Y-3.854 E6.36944
G1 X-16.909 Y-4.122 E6.3807
G1 X-16.455 Y-4.562 E6.40105
G1 X-16.178 Y-4.782 E6.41244
G1 X-14.077 Y-6.499 E6.49977
G1 X-11.982 Y-8.312 E6.58894
G1 X-9.974 Y-10.152 E6.6766
G1 X-7.585 Y-12.497 E6.78434
G1 X-7.263 Y-12.808 E6.79875
G1 X-6.872 Y-13.13 E6.81505
G1 X-6.511 Y-13.349 E6.82864
G1 X-5.514 Y-13.866 E6.86479
G1 X-4.79 Y-14.213 E6.89063
G1 X-4.317 Y-14.395 E6.90694
G1 X-3.822 Y-14.5 E6.92322
G1 X-3.386 Y-14.527 E6.93728
G1 X-2.2 Y-14.519 E6.97546
G1 X-1.561 Y-14.506 E6.99603
G1 X1.183 Y-14.532 E7.08435
G1 X4.265 Y-14.65 E7.18361
G1 X4.876 Y-14.683 E7.20331
G1 X5.382 Y-14.671 E7.2196
G1 X5.88 Y-14.579 E7.2359
G1 X6.357 Y-14.41 E7.25218
G1 X6.802 Y-14.168 E7.26849
G1 X7.203 Y-13.859 E7.28478
G1 X7.736 Y-13.29 E7.30987
G1 X8.178 Y-12.766 E7.33194
G1 X8.473 Y-12.354 E7.34825
G1 X8.699 Y-11.901 E7.36454
G1 X8.851 Y-11.418 E7.38084
G1 X8.905 Y-11.122 E7.39052
G1 X9.058 Y-9.974 E7.4278
G1 X9.465 Y-7.214 E7.51759
G1 X9.942 Y-4.522 E7.60558
G1 X10.493 Y-1.849 E7.69342
G1 X10.797 Y-.554 E7.73623
G1 X10.924 Y0.026 E7.75534
G1 X11.006 Y0.591 E7.77372
G1 X11.039 Y1.194 E7.79315
G1 X11.03 Y1.506 E7.8032
G1 X10.985 Y2.079 E7.8217
G1 X10.89 Y2.644 E7.84014
G1 X10.693 Y3.325 E7.86296
G1 X10.505 Y3.802 E7.87946
G1 X10.182 Y4.423 E7.90199
G1 X9.891 Y4.869 E7.91913
G1 X9.464 Y5.401 E7.94108
G1 X8.994 Y5.872 E7.9625
G1 X8.332 Y6.393 E7.98961
G1 X7.638 Y6.825 E8.01592
G1 X7.184 Y7.073 E8.03257
G1 X6.651 Y7.337 E8.05172
G1 X5.753 Y7.721 E8.08315
G1 X5.266 Y7.904 E8.09989
G1 X5.13 Y7.95 E8.10451
G1 X4.629 Y8.105 E8.12139
G1 X4.066 Y8.253 E8.14013
G1 X3.959 Y8.276 E8.14365
G1 X3.196 Y8.428 E8.16869
G1 X2.992 Y8.462 E8.17535
G1 X2.337 Y8.549 E8.19661
G1 X1.649 Y8.609 E8.21884
G1 X1.495 Y8.615 E8.2238
G1 X0.506 Y8.632 E8.25564
G1 X-0.028 Y8.614 E8.27283
G1 X-.551 Y8.568 E8.28973
G1 X-.85 Y8.531 E8.29943
G1 X-1.728 Y8.397 E8.32802
G0 F4800 X-1.226 Y5.021
;TYPE:SUPPORT
G1 F1200 X-2.014 Y4.827 E8.35413
G1 X-2.675 Y4.606 E8.37657
G1 X-3.312 Y4.348 E8.39869
G1 X-3.965 Y4.035 E8.42199
G1 X-4.467 Y3.729 E8.44091
G1 X-5.726 Y2.752 E8.49221
G1 X-6.17 Y2.183 E8.51543
G1 X-7.335 Y1.041 E8.56794
G1 X-7.754 Y0.961 E8.58167
G1 X-8.544 Y1.294 E8.60926
G1 X-11.35 Y0.838 E8.70076
G1 X-11.841 Y0.704 E8.71714
G1 X-12.346 Y0.504 E8.73462
G1 X-12.883 Y0.249 E8.75375
G1 X-13.361 Y-0.046 E8.77183
G1 X-13.815 Y-.385 E8.79007
G1 X-14.239 Y-.765 E8.80839
G1 X-14.758 Y-1.371 E8.83407
G1 X-14.364 Y-1.85 E8.85404
G1 X-14.053 Y-1.868 E8.86406
G1 X-13.418 Y-1.495 E8.88776
G1 X-12.936 Y-1.264 E8.90497
G1 X-12.461 Y-1.093 E8.92122
G1 X-11.974 Y-.964 E8.93743
G1 X-11.607 Y-.898 E8.94943
G1 X-11.063 Y-.854 E8.967
G1 X-10.063 Y-.868 E8.99919
G1 X-9.837 Y-.723 E9.00783
G1 X-8.433 Y-.502 E9.05357
G1 X-7.935 Y-.377 E9.0701
G1 X-7.361 Y-.173 E9.0897
G1 X-5.639 Y0.614 E9.15064
G1 X-5.618 Y1.064 E9.16514
G1 X-4.882 Y2.023 E9.20405
G1 X-4.444 Y2.519 E9.22535
G1 X-4.024 Y2.91 E9.24381
G1 X-3.516 Y3.313 E9.26468
G1 X-2.992 Y3.662 E9.28495
G1 X-2.458 Y3.949 E9.30446
G1 X-1.89 Y4.207 E9.32454
G1 X-1.322 Y4.411 E9.34396
G1 X-.786 Y4.553 E9.36181
G1 X-0.06 Y4.688 E9.38558
G1 X0.286 Y4.722 E9.39677
G1 X1.22 Y4.742 E9.42683
G1 X1.546 Y4.726 E9.43734
G1 X2.45 Y4.619 E9.46664
G1 X3.055 Y4.493 E9.48653
G1 X3.702 Y4.318 E9.5081
G1 X4.458 Y4.053 E9.53388
G1 X5.118 Y3.763 E9.55709
G1 X6.726 Y2.886 E9.61604
G1 X6.902 Y2.481 E9.63025
G1 X6.191 Y-.305 E9.72279
G1 X5.842 Y-.576 E9.73701
G1 X5.223 Y-.576 E9.75693
G1 X5.012 Y-1.069 E9.77419
G1 X5.012 Y-1.175 E9.77761
G1 X5.418 Y-1.525 E9.79486
G1 X5.971 Y-1.281 E9.81431
G1 X6.442 Y-1.017 E9.83169
G1 X6.845 Y-.676 E9.84868
G1 X7.199 Y-.23 E9.86701
G1 X7.438 Y0.234 E9.88381
G1 X7.592 Y0.757 E9.90135
G1 X7.638 Y1.293 E9.91867
G1 X7.59 Y1.777 E9.93432
G1 X7.431 Y2.326 E9.95272
G1 X7.195 Y2.781 E9.96922
G1 X6.838 Y3.226 E9.98758
G1 X6.46 Y3.545 E10.0035
G1 X6.004 Y3.829 E10.02079
G1 X5.615 Y4.047 E10.03514
G1 X5.03 Y4.332 E10.05608
G1 X4.327 Y4.618 E10.08051
G1 X3.64 Y4.841 E10.10376
G1 X3.053 Y4.986 E10.12322
G1 X2.358 Y5.111 E10.14594
G1 X1.652 Y5.191 E10.16881
G1 X0.726 Y5.225 E10.19864
G1 X0.674 Y5.225 E10.20031
G1 X0.153 Y5.209 E10.21709
G1 X0.114 Y5.203 E10.21836
G1 X-.593 Y5.13 E10.24123
G1 X-1.226 Y5.021 E10.2619
G0 F4800 X0.00 Y5.011
G1 F1200 X0.00 Y4.875 E10.26628
G0 F4800 X6 Y3.62
G1 F1200 X6 Y3.487 E10.27056
G0 F4800 X6.455 Y0.00
G1 F1200 X7.115 Y0.00 E10.2918
G0 F4800 X6 Y-.682
G1 F1200 X6 Y-1.058 E10.30391
G0 F4800 X-6 Y0.647
G1 F1200 X-6 Y2.108 E10.35093
G0 F4800 X-7.417 Y0.00
G1 F1200 X-12.944 Y0.00 E10.52882
G0 F4800 X-12 Y0.448
G1 F1200 X-12 Y-.786 E10.56853
G1 F2400 E4.56853
G0 F4800 X-4.611 Y-10.233
G0 X-4.118 Y-10.665
G0 X4.539 Y-11.076
G1 F2400 E10.56853
G1 F1200 X4.99 Y-11.241 E10.58399
G1 X5.512 Y-10.637 E10.60968
G1 X5.483 Y-10.41 E10.61705
G1 X4.929 Y-10.913 E10.64113
G1 X4.696 Y-11.076 E10.65028
G1 X4.539 Y-11.076 E10.65534
G1 F2400 E4.65534
;MESH:rj45-clip_04.9.stl
G0 F4800 X4.151 Y-9.355
G0 X-1.066 Y-2.999
;TYPE:WALL-INNER
G1 F2400 E10.65534
G1 F1200 X-2.838 Y-2.997 E10.71237
G1 X-3.048 Y-2.997 E10.71913
G1 X-3.048 Y-3.207 E10.72351
G1 X-3.047 Y-8.535 E10.89499
G1 X-3.048 Y-8.793 E10.90329
G1 X-3.048 Y-9.003 E10.91005
G1 X-2.838 Y-9.003 E10.91443
G1 X1.685 Y-9.002 E11.06
G1 X3.541 Y-9.005 E11.11974
G1 X3.751 Y-9.005 E11.1265
G1 X3.751 Y-8.795 E11.13087
G1 X3.751 Y-3.208 E11.31069
G1 X3.751 Y-2.998 E11.31745
G1 X3.541 Y-2.998 E11.32183
G1 X-1.066 Y-2.999 E11.4701
G0 F4800 X-1.066 Y-2.579
G1 F1200 X-2.806 Y-2.576 E11.52611
G1 X-3.46 Y-2.579 E11.54716
G1 X-3.468 Y-2.651 E11.54949
G1 X-3.467 Y-8.534 E11.73883
G1 X-3.469 Y-8.858 E11.74926
G1 X-3.466 Y-9.423 E11.76745
G1 X1.685 Y-9.422 E11.93323
G1 X3.479 Y-9.425 E11.99097
G1 X4.164 Y-9.424 E12.01302
G1 X4.171 Y-9.355 E12.01525
G1 X4.172 Y-3.146 E12.21509
G1 X4.168 Y-2.578 E12.23337
G1 X-1.066 Y-2.579 E12.40183
G0 F4800 X-1.065 Y-2.209
;TYPE:WALL-OUTER
G1 F1200 X-2.807 Y-2.206 E12.45789
G1 X-3.79 Y-2.21 E12.48953
G1 X-3.838 Y-2.626 E12.50301
G1 X-3.837 Y-8.533 E12.69313
G1 X-3.839 Y-8.859 E12.70362
G1 X-3.837 Y-9.444 E12.72245
G1 X-3.79 Y-9.793 E12.73378
G1 X1.685 Y-9.792 E12.91
G1 X3.479 Y-9.795 E12.96774
G1 X4.496 Y-9.793 E13.00047
G1 X4.541 Y-9.376 E13.01397
G1 X4.542 Y-3.143 E13.21458
G1 X4.537 Y-2.478 E13.23598
G1 X4.496 Y-2.209 E13.24474
G1 X3.513 Y-2.207 E13.27638
G1 X-1.065 Y-2.209 E13.42372
G0 F4800 X-1.265 Y-2.209
G0 X-1.265 Y-2.679
G0 X-1.066 Y-3.409
;TYPE:SKIN
G1 F1200 X-2.638 Y-3.407 E13.47432
G1 X-2.637 Y-8.593 E13.64123
G1 X1.685 Y-8.592 E13.78033
G1 X3.341 Y-8.595 E13.83363
G1 X3.341 Y-3.408 E14.00058
G1 X-1.066 Y-3.409 E14.14242
G0 F4800 X-2.443 Y-4.224
G1 F1200 X-1.82 Y-3.602 E14.17075
G0 F4800 X-1.227 Y-3.603
G1 F1200 X-2.443 Y-4.818 E14.22608
G0 F4800 X-2.443 Y-5.412
G1 F1200 X-.633 Y-3.603 E14.30844
G0 F4800 X-0.039 Y-3.603
G1 F1200 X-2.443 Y-6.006 E14.41784
G0 F4800 X-2.443 Y-6.6
G1 F1200 X0.554 Y-3.603 E14.55425
G0 F4800 X1.148 Y-3.603
G1 F1200 X-2.443 Y-7.194 E14.7177
G0 F4800 X-2.443 Y-7.788
G1 F1200 X1.742 Y-3.603 E14.90819
G0 F4800 X2.336 Y-3.603
G1 F1200 X-2.443 Y-8.382 E15.12571
G0 F4800 X-1.863 Y-8.396
G1 F1200 X2.93 Y-3.603 E15.34388
G0 F4800 X3.145 Y-3.981
G1 F1200 X-1.269 Y-8.396 E15.54481
G0 F4800 X-.675 Y-8.396
G1 F1200 X3.145 Y-4.575 E15.71871
G0 F4800 X3.145 Y-5.169
G1 F1200 X-0.081 Y-8.396 E15.86557
G0 F4800 X0.512 Y-8.396
G1 F1200 X3.145 Y-5.763 E15.98541
G0 F4800 X3.145 Y-6.357
G1 F1200 X1.106 Y-8.396 E16.07822
G0 F4800 X1.7 Y-8.396
G1 F1200 X3.145 Y-6.951 E16.14399
G0 F4800 X3.145 Y-7.545
G1 F1200 X2.293 Y-8.397 E16.18277
G0 F4800 X2.886 Y-8.399
G1 F1200 X3.145 Y-8.139 E16.19458
G1 F2400 E10.19458
;MESH:NONMESH
G0 F600 X3.145 Y-8.139 Z0.35
G0 F4800 X4.152 Y-3.146
G0 X5.417 Y-3.138
G0 X6 Y-.376
;TIME_ELAPSED:29.608225
;LAYER:1
M106 S255
;TYPE:SUPPORT
G1 F2400 E16.19458
G1 F1500 X6.136 Y-.27 E16.19768
G1 X6.84 Y2.472 E16.24853
G1 X6.68 Y2.839 E16.25572
G1 X6 Y3.211 E16.26964
G1 X5.087 Y3.712 E16.28834
G1 X4.442 Y3.996 E16.301
G1 X3.687 Y4.259 E16.31536
G1 X3.041 Y4.435 E16.32738
G1 X2.438 Y4.56 E16.33844
G1 X1.552 Y4.666 E16.35447
G1 X1.222 Y4.682 E16.36041
G1 X0.274 Y4.661 E16.37744
G1 X0.00 Y4.635 E16.38238
G1 X0.00 Y5.25 E16.39342
G1 X-.601 Y5.189 E16.40427
G1 X-1.234 Y5.081 E16.41581
G1 X-2.034 Y4.883 E16.43061
G1 X-2.701 Y4.661 E16.44324
G1 X-3.336 Y4.404 E16.45554
G1 X-3.984 Y4.092 E16.46846
G1 X-4.508 Y3.774 E16.47946
G1 X-5.769 Y2.794 E16.50815
G1 X-6 Y2.498 E16.51489
G1 X-6 Y0.383 E16.55288
G1 X-7.338 Y-.229 E16.5793
G1 X-7.914 Y-.433 E16.59028
G1 X-8.417 Y-.559 E16.59959
G1 X-9.816 Y-.78 E16.62503
G1 X-10.047 Y-.928 E16.62996
G1 X-11.059 Y-.914 E16.64814
G1 X-11.592 Y-.956 E16.65774
G1 X-11.966 Y-1.023 E16.66456
G1 X-12 Y-1.032 E16.66519
G1 X-12 Y0.706 E16.69641
G1 X-12.371 Y0.559 E16.70358
G1 X-12.904 Y0.306 E16.71417
G1 X-13.39 Y0.006 E16.72443
G1 X-13.855 Y-.34 E16.73484
