;FLAVOR:Marlin
;TIME:1510
;Filament used: 1.15974m
;Layer height: 0.2
;MINX:130.393
;MINY:131.958
;MINZ:0.2
;MAXX:169.607
;MAXY:168.032
;MAXZ:7
;Generated with Cura_SteamEngine 4.10.0
M104 S215
M105
M109 S215
M82 ;absolute extrusion mode
G28 ; home all axes
 M117 Purge extruder
 G92 E0 ; reset extruder
 G1 Z1.0 F3000 ; move z up little to prevent scratching of surface
 G1 X2 Y20 Z0.3 F5000.0 ; move to start-line position
 G1 X2 Y200.0 Z0.3 F1500.0 E15 ; draw 1st line
 G1 X2 Y200.0 Z0.4 F5000.0 ; move to side a little
 G1 X2 Y20 Z0.4 F1500.0 E30 ; draw 2nd line
 G92 E0 ; reset extruder
 G1 Z1.0 F3000 ; move z up little to prevent scratching of surface
G92 E0
G92 E0
G1 F1500 E-2
;LAYER_COUNT:35
;LAYER:0
M107
;MESH:GoPro_-_lens_cap.STL
G0 F6000 X168.32 Y160.687 Z0.2
;TYPE:WALL-INNER
G1 F1500 E0
G1 F1200 X168.278 Y161.027 E0.01025
G1 X168.224 Y161.339 E0.01973
G1 X168.153 Y161.654 E0.0294
G1 X168.061 Y161.987 E0.03974
G1 X167.958 Y162.301 E0.04963
G1 X167.84 Y162.606 E0.05942
G1 X167.71 Y162.901 E0.06907
G1 X167.554 Y163.211 E0.07946
G1 X167.4 Y163.485 E0.08887
G1 X167.218 Y163.773 E0.09907
G1 X167.021 Y164.052 E0.10929
G1 X166.823 Y164.305 E0.11891
G1 X166.597 Y164.567 E0.12927
G1 X166.38 Y164.797 E0.13873
G1 X166.145 Y165.019 E0.14841
G1 X165.88 Y165.248 E0.15889
G1 X165.627 Y165.446 E0.16851
G1 X165.351 Y165.641 E0.17862
G1 X165.073 Y165.817 E0.18847
G1 X164.787 Y165.979 E0.19831
G1 X164.493 Y166.127 E0.20817
G1 X164.188 Y166.262 E0.21815
G1 X163.87 Y166.385 E0.22836
G1 X163.567 Y166.485 E0.23791
G1 X163.228 Y166.578 E0.24843
G1 X162.919 Y166.648 E0.25791
G1 X162.604 Y166.702 E0.26748
G1 X162.258 Y166.746 E0.27792
G1 X161.94 Y166.769 E0.28747
G1 X161.588 Y166.778 E0.29801
G1 X138.413 Y166.778 E0.99173
G1 X138.062 Y166.769 E1.00224
G1 X137.738 Y166.745 E1.01196
G1 X137.398 Y166.703 E1.02222
G1 X137.081 Y166.648 E1.03185
G1 X136.772 Y166.578 E1.04133
G1 X136.433 Y166.485 E1.05186
G1 X136.13 Y166.385 E1.06141
G1 X135.812 Y166.262 E1.07161
G1 X135.507 Y166.127 E1.0816
G1 X135.213 Y165.979 E1.09145
G1 X134.927 Y165.817 E1.10129
G1 X134.649 Y165.641 E1.11114
G1 X134.373 Y165.446 E1.12126
G1 X134.12 Y165.248 E1.13087
G1 X133.855 Y165.019 E1.14136
G1 X133.62 Y164.797 E1.15103
G1 X133.403 Y164.567 E1.1605
G1 X133.177 Y164.305 E1.17086
G1 X132.979 Y164.052 E1.18047
G1 X132.782 Y163.773 E1.1907
G1 X132.6 Y163.485 E1.2009
G1 X132.446 Y163.211 E1.2103
G1 X132.29 Y162.901 E1.22069
G1 X132.16 Y162.606 E1.23034
G1 X132.042 Y162.301 E1.24013
G1 X131.939 Y161.987 E1.25002
G1 X131.847 Y161.654 E1.26037
G1 X131.776 Y161.339 E1.27003
G1 X131.723 Y161.03 E1.27942
G1 X131.679 Y160.683 E1.28989
G1 X131.656 Y160.365 E1.29943
G1 X131.648 Y160.034 E1.30934
G1 X131.647 Y139.987 E1.90943
G1 X131.656 Y139.637 E1.91991
G1 X131.681 Y139.306 E1.92985
G1 X131.723 Y138.967 E1.94007
G1 X131.778 Y138.651 E1.94967
G1 X131.847 Y138.346 E1.95903
G1 X131.94 Y138.008 E1.96953
G1 X132.044 Y137.693 E1.97946
G1 X132.16 Y137.394 E1.98906
G1 X132.29 Y137.099 E1.99871
G1 X132.447 Y136.786 E2.00919
G1 X132.6 Y136.515 E2.01851
G1 X132.782 Y136.227 E2.0287
G1 X132.979 Y135.948 E2.03893
G1 X133.177 Y135.695 E2.04854
G1 X133.406 Y135.43 E2.05903
G1 X133.62 Y135.203 E2.06837
G1 X133.855 Y134.981 E2.07804
G1 X134.12 Y134.752 E2.08853
G1 X134.373 Y134.554 E2.09815
G1 X134.652 Y134.357 E2.10837
G1 X134.927 Y134.183 E2.11811
G1 X135.213 Y134.021 E2.12795
G1 X135.507 Y133.873 E2.1378
G1 X135.819 Y133.735 E2.14801
G1 X136.119 Y133.619 E2.15764
G1 X136.439 Y133.513 E2.16773
G1 X136.771 Y133.422 E2.17804
G1 X137.081 Y133.352 E2.18755
G1 X137.396 Y133.298 E2.19712
G1 X137.742 Y133.254 E2.20756
G1 X138.06 Y133.231 E2.2171
G1 X138.413 Y133.222 E2.22767
G1 X161.588 Y133.222 E2.9214
G1 X161.938 Y133.231 E2.93188
G1 X162.262 Y133.255 E2.9416
G1 X162.602 Y133.297 E2.95186
G1 X162.919 Y133.352 E2.96149
G1 X163.229 Y133.422 E2.971
G1 X163.561 Y133.513 E2.98131
G1 X163.881 Y133.619 E2.9914
G1 X164.181 Y133.735 E3.00102
G1 X164.493 Y133.873 E3.01124
G1 X164.787 Y134.021 E3.02109
G1 X165.073 Y134.183 E3.03093
G1 X165.348 Y134.357 E3.04067
G1 X165.627 Y134.554 E3.05089
G1 X165.88 Y134.752 E3.06051
G1 X166.145 Y134.981 E3.07099
G1 X166.372 Y135.195 E3.08033
G1 X166.594 Y135.43 E3.09001
G1 X166.823 Y135.695 E3.10049
G1 X167.021 Y135.948 E3.11011
G1 X167.218 Y136.227 E3.12033
G1 X167.395 Y136.507 E3.13025
G1 X167.558 Y136.795 E3.14016
G1 X167.702 Y137.082 E3.14977
G1 X167.84 Y137.394 E3.15998
G1 X167.96 Y137.704 E3.16993
G1 X168.063 Y138.017 E3.1798
G1 X168.147 Y138.319 E3.18918
G1 X168.22 Y138.642 E3.19909
G1 X168.277 Y138.968 E3.209
G1 X168.322 Y139.326 E3.2198
G1 X168.344 Y139.627 E3.22883
G1 X168.353 Y139.972 E3.23916
G1 X168.353 Y160.013 E3.83907
G1 X168.344 Y160.363 E3.84955
G1 X168.32 Y160.687 E3.85928
G0 F6000 X168.718 Y160.724
;TYPE:WALL-OUTER
G1 F1200 X168.674 Y161.082 E3.87008
G1 X168.616 Y161.417 E3.88025
G1 X168.539 Y161.76 E3.89078
G1 X168.446 Y162.098 E3.90127
G1 X168.336 Y162.432 E3.9118
G1 X168.206 Y162.768 E3.92258
G1 X168.068 Y163.08 E3.93279
G1 X167.911 Y163.393 E3.94327
G1 X167.738 Y163.699 E3.9538
G1 X167.545 Y164.004 E3.9646
G1 X167.348 Y164.283 E3.97482
G1 X167.126 Y164.567 E3.98562
G1 X166.897 Y164.832 E3.9961
G1 X166.663 Y165.08 E4.00631
G1 X166.407 Y165.322 E4.01685
G1 X166.142 Y165.551 E4.02733
G1 X165.858 Y165.773 E4.03813
G1 X165.579 Y165.97 E4.04835
G1 X165.282 Y166.158 E4.05887
G1 X164.977 Y166.331 E4.06937
G1 X164.655 Y166.493 E4.08016
G1 X164.343 Y166.631 E4.09037
G1 X164.008 Y166.761 E4.10113
G1 X163.678 Y166.87 E4.11153
G1 X163.335 Y166.964 E4.12218
G1 X162.997 Y167.04 E4.13255
G1 X162.657 Y167.099 E4.14288
G1 X162.299 Y167.144 E4.15368
G1 X161.958 Y167.169 E4.16391
G1 X161.598 Y167.178 E4.17469
G1 X138.403 Y167.178 E4.86901
G1 X138.042 Y167.169 E4.87982
G1 X137.701 Y167.143 E4.89006
G1 X137.343 Y167.099 E4.90086
G1 X137.003 Y167.04 E4.91119
G1 X136.665 Y166.964 E4.92156
G1 X136.322 Y166.87 E4.9322
G1 X135.992 Y166.761 E4.94261
G1 X135.657 Y166.631 E4.95336
G1 X135.345 Y166.493 E4.96357
G1 X135.023 Y166.331 E4.97436
G1 X134.718 Y166.158 E4.98486
G1 X134.421 Y165.97 E4.99538
G1 X134.142 Y165.773 E5.00561
G1 X133.858 Y165.551 E5.0164
G1 X133.593 Y165.322 E5.02688
G1 X133.337 Y165.08 E5.03743
G1 X133.103 Y164.832 E5.04763
G1 X132.874 Y164.567 E5.05812
G1 X132.652 Y164.283 E5.06891
G1 X132.455 Y164.004 E5.07913
G1 X132.262 Y163.699 E5.08993
G1 X132.089 Y163.393 E5.10046
G1 X131.932 Y163.08 E5.11094
G1 X131.794 Y162.768 E5.12115
G1 X131.664 Y162.432 E5.13194
G1 X131.554 Y162.098 E5.14246
G1 X131.461 Y161.76 E5.15296
G1 X131.384 Y161.417 E5.16348
G1 X131.326 Y161.082 E5.17366
G1 X131.281 Y160.724 E5.18446
G1 X131.256 Y160.383 E5.19469
G1 X131.248 Y160.034 E5.20514
G1 X131.247 Y139.977 E5.80553
G1 X131.256 Y139.617 E5.81631
G1 X131.282 Y139.276 E5.82655
G1 X131.326 Y138.918 E5.83734
G1 X131.384 Y138.583 E5.84752
G1 X131.461 Y138.24 E5.85804
G1 X131.554 Y137.902 E5.86854
G1 X131.664 Y137.568 E5.87906
G1 X131.794 Y137.232 E5.88985
G1 X131.932 Y136.92 E5.90006
G1 X132.089 Y136.607 E5.91054
G1 X132.262 Y136.301 E5.92106
G1 X132.455 Y135.996 E5.93187
G1 X132.652 Y135.717 E5.94209
G1 X132.874 Y135.433 E5.95288
G1 X133.103 Y135.168 E5.96337
G1 X133.337 Y134.92 E5.97357
G1 X133.593 Y134.678 E5.98412
G1 X133.858 Y134.449 E5.9946
G1 X134.142 Y134.227 E6.00539
G1 X134.421 Y134.03 E6.01562
G1 X134.718 Y133.842 E6.02614
G1 X135.023 Y133.669 E6.03664
G1 X135.345 Y133.507 E6.04743
G1 X135.657 Y133.369 E6.05764
G1 X135.993 Y133.239 E6.06842
G1 X136.322 Y133.13 E6.0788
G1 X136.665 Y133.036 E6.08944
G1 X137.003 Y132.96 E6.09981
G1 X137.343 Y132.901 E6.11014
G1 X137.701 Y132.856 E6.12094
G1 X138.042 Y132.831 E6.13118
G1 X138.403 Y132.822 E6.14199
G1 X161.598 Y132.822 E6.83631
G1 X161.958 Y132.831 E6.84709
G1 X162.299 Y132.857 E6.85733
G1 X162.657 Y132.901 E6.86812
G1 X162.997 Y132.96 E6.87845
G1 X163.335 Y133.036 E6.88882
G1 X163.678 Y133.13 E6.89947
G1 X164.007 Y133.239 E6.90984
G1 X164.343 Y133.369 E6.92063
G1 X164.655 Y133.507 E6.93084
G1 X164.977 Y133.669 E6.94163
G1 X165.282 Y133.842 E6.95213
G1 X165.579 Y134.03 E6.96265
G1 X165.858 Y134.227 E6.97287
G1 X166.142 Y134.449 E6.98366
G1 X166.407 Y134.678 E6.99415
G1 X166.655 Y134.912 E7.00435
G1 X166.897 Y135.168 E7.0149
G1 X167.126 Y135.433 E7.02538
G1 X167.348 Y135.717 E7.03617
G1 X167.545 Y135.996 E7.0464
G1 X167.733 Y136.293 E7.05692
G1 X167.906 Y136.598 E7.06742
G1 X168.068 Y136.92 E7.07821
G1 X168.206 Y137.232 E7.08842
G1 X168.333 Y137.559 E7.09892
G1 X168.443 Y137.892 E7.10942
G1 X168.537 Y138.231 E7.11995
G1 X168.614 Y138.573 E7.13044
G1 X168.674 Y138.918 E7.14092
G1 X168.719 Y139.276 E7.15172
G1 X168.744 Y139.617 E7.16196
G1 X168.753 Y139.972 E7.17259
G1 X168.753 Y160.023 E7.7728
G1 X168.744 Y160.383 E7.78358
G1 X168.718 Y160.724 E7.79381
G0 F6000 X168.281 Y160.681
G0 X167.933 Y160.639
;TYPE:SKIN
G1 F1200 X167.893 Y160.964 E7.80416
G1 X167.844 Y161.253 E7.81342
G1 X167.777 Y161.55 E7.82304
G1 X167.685 Y161.883 E7.83396
G1 X167.594 Y162.16 E7.84317
G1 X167.479 Y162.457 E7.85324
G1 X167.361 Y162.726 E7.86252
G1 X167.209 Y163.028 E7.8732
G1 X167.07 Y163.276 E7.88218
G1 X166.888 Y163.564 E7.89295
G1 X166.713 Y163.812 E7.90254
G1 X166.515 Y164.065 E7.91269
G1 X166.302 Y164.312 E7.92299
G1 X166.113 Y164.514 E7.93174
G1 X165.89 Y164.724 E7.94141
G1 X165.64 Y164.94 E7.95185
G1 X165.388 Y165.138 E7.96198
G1 X165.142 Y165.311 E7.97148
G1 X164.872 Y165.482 E7.98158
G1 X164.612 Y165.63 E7.99103
G1 X164.326 Y165.774 E8.00115
G1 X164.039 Y165.901 E8.01107
G1 X163.74 Y166.017 E8.0212
G1 X163.45 Y166.112 E8.03084
G1 X163.128 Y166.201 E8.0414
G1 X162.843 Y166.266 E8.05064
G1 X162.537 Y166.318 E8.06044
G1 X162.224 Y166.358 E8.07041
G1 X161.922 Y166.379 E8.07998
G1 X161.578 Y166.388 E8.09085
G1 X138.423 Y166.388 E8.82248
G1 X138.072 Y166.379 E8.83358
G1 X137.781 Y166.357 E8.8428
G1 X137.455 Y166.317 E8.85318
G1 X137.157 Y166.266 E8.86273
G1 X136.872 Y166.201 E8.87197
G1 X136.55 Y166.112 E8.88252
G1 X136.26 Y166.017 E8.89216
G1 X135.961 Y165.901 E8.9023
G1 X135.674 Y165.774 E8.91221
G1 X135.388 Y165.63 E8.92233
G1 X135.128 Y165.482 E8.93178
G1 X134.858 Y165.311 E8.94188
G1 X134.612 Y165.138 E8.95139
G1 X134.36 Y164.94 E8.96151
G1 X134.11 Y164.724 E8.97195
G1 X133.887 Y164.514 E8.98163
G1 X133.698 Y164.312 E8.99037
G1 X133.485 Y164.065 E9.00068
G1 X133.287 Y163.812 E9.01083
G1 X133.112 Y163.564 E9.02042
G1 X132.93 Y163.276 E9.03118
G1 X132.791 Y163.028 E9.04017
G1 X132.639 Y162.726 E9.05085
G1 X132.521 Y162.457 E9.06013
G1 X132.406 Y162.16 E9.07019
G1 X132.315 Y161.883 E9.07941
G1 X132.223 Y161.55 E9.09032
G1 X132.156 Y161.253 E9.09994
G1 X132.107 Y160.964 E9.1092
G1 X132.067 Y160.645 E9.11936
G1 X132.046 Y160.345 E9.12886
G1 X132.038 Y160.034 E9.13869
G1 X132.037 Y139.997 E9.77181
G1 X132.046 Y139.647 E9.78287
G1 X132.068 Y139.354 E9.79215
G1 X132.109 Y139.024 E9.80266
G1 X132.158 Y138.737 E9.81186
G1 X132.223 Y138.449 E9.82119
G1 X132.313 Y138.121 E9.83194
G1 X132.411 Y137.825 E9.84179
G1 X132.517 Y137.552 E9.85104
G1 X132.639 Y137.274 E9.86063
G1 X132.792 Y136.969 E9.87142
G1 X132.93 Y136.724 E9.8803
G1 X133.112 Y136.436 E9.89106
G1 X133.287 Y136.188 E9.90066
G1 X133.485 Y135.935 E9.91081
G1 X133.696 Y135.691 E9.921
G1 X133.897 Y135.478 E9.93025
G1 X134.117 Y135.27 E9.93982
G1 X134.36 Y135.06 E9.94997
G1 X134.613 Y134.862 E9.96012
G1 X134.861 Y134.687 E9.96971
G1 X135.128 Y134.518 E9.97969
G1 X135.388 Y134.37 E9.98915
G1 X135.674 Y134.226 E9.99926
G1 X135.968 Y134.096 E10.00942
G1 X136.26 Y133.983 E10.01931
G1 X136.552 Y133.886 E10.02904
G1 X136.87 Y133.799 E10.03945
G1 X137.157 Y133.734 E10.04875
G1 X137.462 Y133.682 E10.05853
G1 X137.776 Y133.642 E10.06853
G1 X138.078 Y133.621 E10.07809
G1 X138.423 Y133.612 E10.089
G1 X161.578 Y133.612 E10.82063
G1 X161.928 Y133.621 E10.83169
G1 X162.219 Y133.643 E10.84091
G1 X162.545 Y133.683 E10.85129
G1 X162.843 Y133.734 E10.86085
G1 X163.13 Y133.799 E10.87014
G1 X163.448 Y133.886 E10.88056
G1 X163.74 Y133.983 E10.89028
G1 X164.032 Y134.096 E10.90018
G1 X164.326 Y134.226 E10.91033
G1 X164.612 Y134.37 E10.92045
G1 X164.872 Y134.518 E10.9299
G1 X165.139 Y134.687 E10.93989
G1 X165.387 Y134.862 E10.94948
G1 X165.64 Y135.06 E10.95963
G1 X165.884 Y135.271 E10.96982
G1 X166.097 Y135.472 E10.97908
G1 X166.305 Y135.692 E10.98864
G1 X166.515 Y135.935 E10.99879
G1 X166.708 Y136.181 E11.00867
G1 X166.888 Y136.436 E11.01853
G1 X167.06 Y136.708 E11.0287
G1 X167.209 Y136.97 E11.03822
G1 X167.349 Y137.249 E11.04809
G1 X167.479 Y137.543 E11.05824
G1 X167.593 Y137.836 E11.06818
G1 X167.687 Y138.122 E11.07769
G1 X167.771 Y138.424 E11.0876
G1 X167.836 Y138.709 E11.09683
G1 X167.893 Y139.035 E11.10729
G1 X167.933 Y139.355 E11.11748
G1 X167.954 Y139.646 E11.1267
G1 X167.963 Y139.972 E11.137
G1 X167.963 Y160.003 E11.76992
G1 X167.954 Y160.344 E11.7807
G1 X167.933 Y160.639 E11.79005
G1 F1500 E9.79005
G0 F6000 X169.607 Y160.421
G0 X169.578 Y139.187
G0 X169.272 Y137.647
G0 X168.786 Y136.472
G0 X168.267 Y135.52
G0 X166.418 Y136.394
G1 F1500 E11.79005
G1 F1200 X166.237 Y136.165 E11.79927
G1 X166.032 Y135.927 E11.8092
G1 X165.841 Y135.725 E11.81798
G1 X165.641 Y135.538 E11.82663
G1 X165.411 Y135.339 E11.83624
G1 X165.163 Y135.145 E11.84619
G1 X165.04 Y135.058 E11.85095
G1 X166.519 Y136.538 E11.91706
G0 F6000 X165.04 Y135.058
G1 F1200 X164.939 Y134.987 E11.92096
G1 X164.686 Y134.826 E11.93044
G1 X164.449 Y134.691 E11.93906
G1 X164.163 Y134.548 E11.94916
G1 X163.9 Y134.431 E11.95825
G1 X163.814 Y134.398 E11.96117
G1 X167.177 Y137.762 E12.11146
G1 X167.25 Y137.948 E12.11778
G1 X167.338 Y138.218 E12.12675
G1 X167.421 Y138.513 E12.13643
G1 X167.439 Y138.589 E12.1389
G1 X162.985 Y134.135 E12.33793
G1 X162.776 Y134.087 E12.3447
G1 X162.493 Y134.039 E12.35377
G1 X162.3 Y134.016 E12.35992
G1 X167.56 Y139.276 E12.59496
G1 X167.573 Y139.379 E12.59824
G1 X167.593 Y139.655 E12.60698
G1 X167.6 Y139.881 E12.61413
G1 X161.694 Y133.975 E12.87804
G1 X161.568 Y133.971 E12.88202
G1 X161.124 Y133.971 E12.89605
G1 X167.602 Y140.449 E13.18552
G1 X167.602 Y141.015 E13.2034
G1 X160.559 Y133.971 E13.51814
G1 X159.993 Y133.971 E13.53603
G1 X167.602 Y141.581 E13.87606
G1 X167.602 Y142.146 E13.89391
G1 X159.427 Y133.971 E14.25921
G1 X158.862 Y133.971 E14.27706
G1 X167.602 Y142.712 E14.66763
G1 X167.602 Y143.278 E14.68552
G1 X158.296 Y133.971 E15.10138
G1 X157.73 Y133.971 E15.11926
G1 X167.602 Y143.843 E15.56039
G1 X167.602 Y144.409 E15.57828
G1 X157.165 Y133.971 E16.04468
G1 X156.599 Y133.971 E16.06256
G1 X167.602 Y144.975 E16.55426
G1 X167.602 Y145.54 E16.57211
G1 X156.033 Y133.971 E17.08907
G1 X155.468 Y133.971 E17.10692
G1 X167.602 Y146.106 E17.64915
G1 X167.602 Y146.672 E17.66704
G1 X154.902 Y133.971 E18.23456
G1 X154.336 Y133.971 E18.25244
G1 X167.602 Y147.238 E18.84526
G1 X167.602 Y147.803 E18.86311
G1 X153.77 Y133.971 E19.4812
G1 X153.205 Y133.971 E19.49905
G1 X167.602 Y148.369 E20.1424
G1 X167.602 Y148.935 E20.16029
G1 X152.639 Y133.971 E20.82893
G1 X152.073 Y133.971 E20.84681
G1 X167.602 Y149.5 E21.54073
G1 X167.602 Y150.066 E21.55861
G1 X151.508 Y133.971 E22.2778
G1 X150.942 Y133.971 E22.29568
G1 X167.602 Y150.632 E23.04016
G1 X167.602 Y151.197 E23.05801
G1 X150.376 Y133.971 E23.82775
G1 X149.811 Y133.971 E23.84561
G1 X167.602 Y151.763 E24.64062
G1 X167.602 Y152.329 E24.65851
G1 X149.245 Y133.971 E25.47881
G1 X148.679 Y133.971 E25.4967
G1 X167.602 Y152.894 E26.34227
G1 X167.602 Y153.46 E26.36016
G1 X148.114 Y133.971 E27.231
G1 X147.548 Y133.971 E27.24889
G1 X167.602 Y154.026 E28.14502
G1 X167.602 Y154.591 E28.16287
G1 X146.982 Y133.971 E29.08428
G1 X146.417 Y133.971 E29.10213
G1 X167.602 Y155.157 E30.04881
G1 X167.602 Y155.723 E30.06669
G1 X145.851 Y133.971 E31.03866
G1 X145.285 Y133.971 E31.05655
G1 X167.602 Y156.288 E32.05378
G1 X167.602 Y156.854 E32.07167
G1 X144.72 Y133.971 E33.09417
G1 X144.154 Y133.971 E33.11206
G1 X167.602 Y157.42 E34.15986
G1 X167.602 Y157.986 E34.17774
G1 X143.588 Y133.971 E35.25083
G1 X143.022 Y133.971 E35.26871
G1 X167.602 Y158.551 E36.36707
G1 X167.602 Y159.117 E36.38496
G1 X142.457 Y133.971 E37.50859
G1 X141.891 Y133.971 E37.52647
G1 X167.602 Y159.683 E38.67539
G1 X167.602 Y159.994 E38.68522
