;FLAVOR:Marlin
;TIME:6553
;Filament used: 12.4209m
;Layer height: 0.3
;Generated with Cura_SteamEngine 3.6.0
M104 S220
M105
M109 S220
M82 ;absolute extrusion mode
G21 ;metric values
G90 ;absolute positioning
M82 ;set extruder to absolute mode
M107 ;start with the fan off
G28 X0 Y0 ;move X/Y to min endstops
G28 Z0 ;move Z to min endstops
G1 Z15.0 F120 ;move the platform down 15mm
G92 E0 ;zero the extruded length
G1 F200 E3 ;extrude 3mm of feed stock
G92 E0 ;zero the extruded length again
G1 F120
M117 Printing...
G5
G92 E0
G1 F2400 E-6
;LAYER_COUNT:104
;LAYER:0
M106 S127.5
M204 S3000
M205 X10 Y10
G0 F1200 X72.025 Y40.331 Z0.3
M204 S1800
M205 X8 Y8
;TYPE:SKIRT
G1 F2400 E0
G1 X72.451 Y39.732 E0.06032
G1 X72.732 Y39.402 E0.0959
G1 X72.801 Y39.326 E0.10432
G1 X73.101 Y39.016 E0.13972
G1 X73.296 Y38.827 E0.16201
G1 X73.851 Y38.345 E0.22234
G1 X74.454 Y37.927 E0.28255
G1 X75.1 Y37.576 E0.34289
G1 X75.78 Y37.298 E0.40318
G1 X76.486 Y37.095 E0.46347
G1 X77.209 Y36.97 E0.52369
G1 X78.169 Y36.926 E0.60256
G1 X86.794 Y37.15 E1.31064
G1 X123.322 Y37.16 E4.30847
G1 X124.209 Y37.219 E4.38143
G1 X130.787 Y38.093 E4.92603
G1 X132.5 Y38.252 E5.06722
G1 X133.226 Y38.359 E5.12744
G1 X133.937 Y38.545 E5.18776
G1 X134.623 Y38.807 E5.24802
G1 X135.277 Y39.142 E5.30833
G1 X135.89 Y39.546 E5.36858
G1 X136.53 Y40.084 E5.4372
G1 X136.8 Y40.341 E5.46779
G1 X137.304 Y40.875 E5.52805
G1 X137.746 Y41.462 E5.58836
G1 X138.123 Y42.093 E5.64868
G1 X138.428 Y42.761 E5.70895
G1 X138.659 Y43.458 E5.76921
G1 X138.813 Y44.176 E5.82948
G1 X138.895 Y45.099 E5.90552
G1 X139.018 Y51.424 E6.42471
G1 X139.019 Y51.556 E6.43554
G1 X139.009 Y161.206 E15.43445
G1 X139.008 Y161.331 E15.44471
G1 X138.896 Y167.312 E15.93565
G1 X138.842 Y168.045 E15.99597
G1 X138.709 Y168.767 E16.05623
G1 X138.498 Y169.471 E16.11654
G1 X138.213 Y170.148 E16.17682
G1 X137.855 Y170.789 E16.23708
G1 X137.429 Y171.388 E16.2974
G1 X136.929 Y171.95 E16.35914
G1 X136.662 Y172.218 E16.39019
G1 X136.116 Y172.709 E16.45045
G1 X135.52 Y173.139 E16.51076
G1 X134.88 Y173.5 E16.57107
G1 X134.206 Y173.791 E16.63132
G1 X133.503 Y174.006 E16.69165
G1 X132.782 Y174.143 E16.75188
G1 X131.883 Y174.204 E16.82583
G1 X129.912 Y174.205 E16.98759
G1 X129.025 Y174.147 E17.06054
G1 X122.694 Y173.31 E17.58464
G1 X117.415 Y172.935 E18.01898
G1 X113.423 Y172.85 E18.34668
G1 X77.992 Y172.904 E21.25448
G1 X77.259 Y172.865 E21.31472
G1 X76.534 Y172.747 E21.375
G1 X75.826 Y172.55 E21.43532
G1 X75.144 Y172.278 E21.49558
G1 X74.495 Y171.934 E21.55586
G1 X73.888 Y171.52 E21.61616
G1 X73.237 Y170.955 E21.6869
G1 X72.978 Y170.699 E21.71679
G1 X72.484 Y170.155 E21.77709
G1 X72.053 Y169.56 E21.83739
G1 X71.688 Y168.922 E21.89771
G1 X71.396 Y168.249 E21.95792
G1 X71.178 Y167.547 E22.01825
G1 X71.037 Y166.826 E22.07854
G1 X70.974 Y166.026 E22.1444
G1 X70.854 Y159.702 E22.6635
G1 X70.853 Y159.573 E22.67409
G1 X70.863 Y49.924 E31.67291
G1 X70.864 Y49.793 E31.68366
G1 X70.981 Y43.807 E32.17503
G1 X71.036 Y43.075 E32.23527
G1 X71.169 Y42.352 E32.2956
G1 X71.38 Y41.649 E32.35584
G1 X71.667 Y40.972 E32.41619
G1 X72.025 Y40.331 E32.47644
M204 S3000
M205 X10 Y10
G0 F1200 X72.718 Y40.55
M204 S1800
M205 X8 Y8
G1 F2400 X73.251 Y39.872 E32.54722
G1 X73.32 Y39.796 E32.55564
G1 X73.588 Y39.519 E32.58728
G1 X73.783 Y39.33 E32.60956
G1 X74.31 Y38.875 E32.6667
G1 X74.885 Y38.484 E32.72377
G1 X75.501 Y38.162 E32.78082
G1 X76.15 Y37.912 E32.83789
G1 X76.823 Y37.738 E32.89494
G1 X77.512 Y37.643 E32.95202
G1 X78.151 Y37.626 E33.00448
G1 X86.776 Y37.85 E33.71257
G1 X123.322 Y37.86 E36.71188
G1 X124.117 Y37.913 E36.77727
G1 X130.707 Y38.789 E37.32286
G1 X132.435 Y38.949 E37.46529
G1 X133.123 Y39.053 E37.52239
G1 X133.794 Y39.235 E37.57945
G1 X134.439 Y39.493 E37.63646
G1 X135.051 Y39.823 E37.69352
G1 X135.621 Y40.222 E37.75063
G1 X136.047 Y40.591 E37.79688
G1 X136.317 Y40.848 E37.82747
G1 X136.793 Y41.355 E37.88455
G1 X137.206 Y41.914 E37.94159
G1 X137.554 Y42.517 E37.99872
G1 X137.829 Y43.155 E38.05574
G1 X138.03 Y43.821 E38.11283
G1 X138.152 Y44.506 E38.16994
G1 X138.195 Y45.112 E38.2198
G1 X138.318 Y51.437 E38.73898
G1 X138.319 Y51.556 E38.74875
G1 X138.309 Y161.206 E47.74766
G1 X138.308 Y161.318 E47.75685
G1 X138.196 Y167.299 E48.24779
G1 X138.143 Y167.993 E48.30491
G1 X138.011 Y168.675 E48.36192
G1 X137.801 Y169.338 E48.419
G1 X137.517 Y169.973 E48.47609
G1 X137.161 Y170.571 E48.5332
G1 X136.74 Y171.124 E48.59024
G1 X136.433 Y171.456 E48.62735
G1 X136.166 Y171.724 E48.6584
G1 X135.648 Y172.188 E48.71548
G1 X135.08 Y172.589 E48.77254
G1 X134.469 Y172.922 E48.82965
G1 X133.825 Y173.183 E48.88667
G1 X133.154 Y173.368 E48.9438
G1 X132.467 Y173.475 E49.00086
G1 X131.883 Y173.504 E49.04885
G1 X129.912 Y173.505 E49.2106
G1 X129.116 Y173.453 E49.27607
G1 X122.767 Y172.614 E49.80166
G1 X117.46 Y172.237 E50.2383
G1 X113.393 Y172.15 E50.57215
G1 X77.991 Y172.204 E53.47758
G1 X77.297 Y172.165 E53.53462
G1 X76.612 Y172.047 E53.59167
G1 X75.944 Y171.851 E53.6488
G1 X75.304 Y171.579 E53.70587
G1 X74.699 Y171.236 E53.76295
G1 X74.138 Y170.826 E53.81997
G1 X73.729 Y170.457 E53.86518
G1 X73.47 Y170.201 E53.89507
G1 X73.004 Y169.684 E53.95219
G1 X72.601 Y169.118 E54.00921
G1 X72.265 Y168.509 E54.0663
G1 X72.002 Y167.865 E54.12339
G1 X71.814 Y167.196 E54.18042
G1 X71.704 Y166.509 E54.23752
G1 X71.674 Y166.013 E54.2783
G1 X71.554 Y159.689 E54.7974
G1 X71.553 Y159.573 E54.80692
G1 X71.563 Y49.924 E63.80575
G1 X71.564 Y49.807 E63.81535
G1 X71.681 Y43.821 E64.30671
G1 X71.735 Y43.127 E64.36384
G1 X71.867 Y42.445 E64.42085
G1 X72.078 Y41.782 E64.47795
G1 X72.362 Y41.148 E64.53496
G1 X72.718 Y40.55 E64.59208
M204 S3000
M205 X10 Y10
G0 F1200 X73.058 Y41.333
M204 S1800
M205 X8 Y8
G1 F2400 X73.41 Y40.783 E64.64567
G1 X73.769 Y40.343 E64.69227
G1 X73.838 Y40.267 E64.7007
G1 X74.076 Y40.021 E64.72879
G1 X74.271 Y39.832 E64.75108
G1 X74.767 Y39.407 E64.80468
G1 X75.312 Y39.045 E64.85838
G1 X75.896 Y38.752 E64.912
G1 X76.513 Y38.533 E64.96573
G1 X77.151 Y38.391 E65.01937
G1 X77.802 Y38.327 E65.07306
G1 X78.133 Y38.326 E65.10022
G1 X86.758 Y38.55 E65.80831
G1 X123.321 Y38.56 E68.80901
G1 X124.025 Y38.607 E68.86692
G1 X130.628 Y39.484 E69.41358
G1 X132.37 Y39.646 E69.55716
G1 X133.016 Y39.746 E69.61081
G1 X133.646 Y39.924 E69.66454
G1 X134.248 Y40.178 E69.71816
G1 X134.816 Y40.503 E69.77187
G1 X135.565 Y41.098 E69.85038
G1 X135.835 Y41.355 E69.88097
G1 X136.28 Y41.834 E69.93463
G1 X136.663 Y42.363 E69.98822
G1 X136.979 Y42.936 E70.04193
G1 X137.223 Y43.543 E70.09562
G1 X137.391 Y44.175 E70.14929
G1 X137.495 Y45.126 E70.2278
G1 X137.618 Y51.451 E70.74699
G1 X137.619 Y51.555 E70.75552
G1 X137.609 Y161.205 E79.75443
G1 X137.608 Y161.305 E79.76264
G1 X137.496 Y167.286 E80.25358
G1 X137.444 Y167.938 E80.30726
G1 X137.313 Y168.579 E80.36095
G1 X137.104 Y169.198 E80.41457
G1 X136.822 Y169.788 E80.46824
G1 X136.469 Y170.339 E80.52194
G1 X135.937 Y170.962 E80.58918
G1 X135.67 Y171.23 E80.62023
G1 X135.181 Y171.664 E80.67388
G1 X134.643 Y172.035 E80.72752
G1 X134.063 Y172.338 E80.78122
G1 X133.451 Y172.568 E80.83488
G1 X132.815 Y172.722 E80.88858
G1 X131.883 Y172.804 E80.96537
G1 X129.912 Y172.805 E81.12713
G1 X129.208 Y172.759 E81.18503
G1 X122.843 Y171.918 E81.71194
G1 X117.485 Y171.537 E82.15278
G1 X113.407 Y171.45 E82.48753
G1 X77.99 Y171.504 E85.39419
G1 X77.337 Y171.465 E85.44787
G1 X76.694 Y171.347 E85.50152
G1 X76.07 Y171.151 E85.5552
G1 X75.475 Y170.88 E85.60886
G1 X74.917 Y170.539 E85.66253
G1 X74.221 Y169.959 E85.73688
G1 X73.962 Y169.703 E85.76677
G1 X73.526 Y169.216 E85.82041
G1 X73.153 Y168.679 E85.87407
G1 X72.847 Y168.101 E85.92775
G1 X72.615 Y167.489 E85.98146
G1 X72.459 Y166.854 E86.03513
G1 X72.374 Y165.999 E86.10564
G1 X72.254 Y159.675 E86.62474
G1 X72.253 Y159.574 E86.63303
G1 X72.263 Y49.925 E95.63186
G1 X72.264 Y49.82 E95.64047
G1 X72.381 Y43.834 E96.13184
G1 X72.434 Y43.183 E96.18544
G1 X72.566 Y42.542 E96.23915
G1 X72.775 Y41.923 E96.29277
G1 X73.058 Y41.333 E96.34647
M204 S3000
M205 X10 Y10
G0 F1200 X78.064 Y44.084
M204 S1800
M205 X8 Y8
;TYPE:SUPPORT
G1 F600 X78.134 Y44.014 E96.3546
G1 X79.825 Y44.014 E96.49338
G1 X79.882 Y44.071 E96.49999
G1 X79.882 Y48.924 E96.89827
G1 X78.063 Y48.924 E97.04756
G1 X78.064 Y44.084 E97.44477
M204 S3000
M205 X10 Y10
G0 F1200 X78.338 Y45.228
M204 S1800
M205 X8 Y8
G1 F600 X79.607 Y45.961 E97.56505
M204 S3000
M205 X10 Y10
G1 F2400 E91.56505
G0 F1200 X86.651 Y43.289
G0 X123.349 Y43.289
G0 X129.988 Y45.385
M204 S1800
M205 X8 Y8
G1 F2400 E97.56505
G1 F600 X130.058 Y45.315 E97.57317
G1 X131.75 Y45.315 E97.71203
G1 X131.807 Y45.372 E97.71865
G1 X131.807 Y50.225 E98.11693
G1 X129.987 Y50.225 E98.2663
G1 X129.988 Y45.385 E98.66351
M204 S3000
M205 X10 Y10
G0 F1200 X130.263 Y46.036
M204 S1800
M205 X8 Y8
G1 F600 X131.036 Y45.589 E98.73679
M204 S3000
M205 X10 Y10
G0 F1200 X130.261 Y49.225
M204 S1800
M205 X8 Y8
G1 F600 X131.515 Y49.949 E98.85563
M204 S3000
M205 X10 Y10
G1 F2400 E92.85563
G0 F1200 X132.88 Y51.206
G0 X132.88 Y161.224
G0 X132.713 Y161.391
G0 X131.808 Y162.205
M204 S1800
M205 X8 Y8
G1 F2400 E98.85563
G1 F600 X131.807 Y167.046 E99.25293
G1 X131.738 Y167.115 E99.26094
G1 X130.044 Y167.115 E99.39996
G1 X129.987 Y167.058 E99.40658
G1 X129.988 Y162.205 E99.80486
G1 X131.808 Y162.205 E99.95423
M204 S3000
M205 X10 Y10
G0 F1200 X131.531 Y166.547
M204 S1800
M205 X8 Y8
G1 F600 X131.024 Y166.839 E100.00224
M204 S3000
M205 X10 Y10
G1 F2400 E94.00224
G0 F1200 X86.651 Y166.711
G0 X79.882 Y165.745
M204 S1800
M205 X8 Y8
G1 F2400 E100.00224
G1 F600 X79.813 Y165.814 E100.01025
G1 X78.12 Y165.814 E100.1492
G1 X78.063 Y165.757 E100.15581
G1 X78.064 Y160.904 E100.55409
G1 X79.883 Y160.904 E100.70338
G1 X79.882 Y165.745 E101.10068
M204 S3000
M205 X10 Y10
G0 F1200 X78.339 Y162.616
M204 S1800
M205 X8 Y8
G1 F600 X79.607 Y161.884 E101.22084
M204 S3000
M205 X10 Y10
G1 F2400 E95.22084
;MESH:cig_roll.stl
G0 F1200 X79.28 Y158.84
G0 X79.224 Y158.784
G0 X79.294 Y158.854
M204 S1800
M205 X8 Y8
;TYPE:WALL-INNER
G1 F2400 E101.22084
G1 F600 X78.653 Y158.854 E101.27344
G1 X78.653 Y50.974 E110.12709
G1 X79.294 Y50.974 E110.17969
G1 X79.294 Y158.854 E118.2871
M204 S3000
M205 X10 Y10
G0 F1200 X79.944 Y159.504
M204 S1800
M205 X8 Y8
;TYPE:WALL-OUTER
G1 F600 X78.003 Y159.504 E118.4464
G1 X78.003 Y50.324 E127.40673
G1 X79.944 Y50.324 E127.56603
G1 X79.944 Y159.504 E136.52637
M204 S3000
M205 X10 Y10
G0 F1200 X79.644 Y159.504
G1 F2400 E130.52637
;MESH:cig_body.stl
G0 F1200 X79.224 Y158.784
G0 X79.28 Y158.84
G0 X80.959 Y158.84
G0 X86.055 Y158.84
G0 X87.74 Y158.84
G0 X121.58 Y164.35
M204 S1800
M205 X8 Y8
;TYPE:WALL-INNER
G1 F2400 E136.52637
G1 F600 X88.42 Y164.35 E139.24779
G1 X88.42 Y45.65 E148.98942
G1 X121.58 Y45.65 E151.71084
G1 X121.58 Y164.35 E161.45248
M204 S3000
M205 X10 Y10
G0 F1200 X122.28 Y165.05
M204 S1800
M205 X8 Y8
G1 F600 X87.72 Y165.05 E164.2888
G1 X87.72 Y44.95 E174.14533
G1 X122.28 Y44.95 E176.98165
G1 X122.28 Y165.05 E186.83818
M204 S3000
M205 X10 Y10
G0 F1200 X122.93 Y165.7
M204 S1800
M205 X8 Y8
;TYPE:WALL-OUTER
G1 F600 X87.07 Y165.7 E189.78119
G1 X87.07 Y44.3 E199.74441
G1 X122.93 Y44.3 E202.68742
G1 X122.93 Y165.7 E212.65064
M204 S3000
M205 X10 Y10
G0 F1200 X122.63 Y165.7
G0 X122.21 Y164.98
G0 X120.89 Y163.66
M204 S1800
M205 X8 Y8
;TYPE:SKIN
G1 F600 X89.11 Y163.66 E215.25881
G1 X89.11 Y46.34 E224.88719
G1 X120.89 Y46.34 E227.49535
G1 X120.89 Y163.66 E237.12373
M204 S3000
M205 X10 Y10
G0 F1200 X90.077 Y163.333
M204 S1800
M205 X8 Y8
G1 F600 X89.434 Y162.69 E237.19836
M204 S3000
M205 X10 Y10
G0 F1200 X89.434 Y161.7
M204 S1800
M205 X8 Y8
G1 F600 X91.067 Y163.333 E237.38789
M204 S3000
M205 X10 Y10
G0 F1200 X92.057 Y163.333
M204 S1800
M205 X8 Y8
G1 F600 X89.434 Y160.71 E237.69233
M204 S3000
M205 X10 Y10
G0 F1200 X89.434 Y159.72
M204 S1800
M205 X8 Y8
G1 F600 X93.047 Y163.333 E238.11167
M204 S3000
M205 X10 Y10
G0 F1200 X94.037 Y163.333
M204 S1800
M205 X8 Y8
G1 F600 X89.434 Y158.73 E238.64591
M204 S3000
M205 X10 Y10
G0 F1200 X89.434 Y157.74
M204 S1800
M205 X8 Y8
G1 F600 X95.027 Y163.333 E239.29505
M204 S3000
M205 X10 Y10
G0 F1200 X96.017 Y163.333
M204 S1800
M205 X8 Y8
G1 F600 X89.434 Y156.75 E240.0591
M204 S3000
M205 X10 Y10
G0 F1200 X89.434 Y155.76
M204 S1800
M205 X8 Y8
G1 F600 X97.007 Y163.333 E240.93805
M204 S3000
M205 X10 Y10
G0 F1200 X97.997 Y163.333
M204 S1800
M205 X8 Y8
G1 F600 X89.434 Y154.77 E241.9319
M204 S3000
M205 X10 Y10
G0 F1200 X89.434 Y153.78
M204 S1800
M205 X8 Y8
G1 F600 X98.987 Y163.333 E243.04066
M204 S3000
M205 X10 Y10
G0 F1200 X99.977 Y163.333
M204 S1800
M205 X8 Y8
G1 F600 X89.434 Y152.79 E244.26432
M204 S3000
M205 X10 Y10
G0 F1200 X89.434 Y151.8
M204 S1800
M205 X8 Y8
G1 F600 X100.967 Y163.333 E245.60288
M204 S3000
M205 X10 Y10
G0 F1200 X101.957 Y163.333
M204 S1800
M205 X8 Y8
G1 F600 X89.434 Y150.811 E247.05629
M204 S3000
M205 X10 Y10
G0 F1200 X89.434 Y149.821
M204 S1800
M205 X8 Y8
G1 F600 X102.946 Y163.333 E248.62454
M204 S3000
M205 X10 Y10
G0 F1200 X103.936 Y163.333
M204 S1800
M205 X8 Y8
G1 F600 X89.434 Y148.831 E250.30769
M204 S3000
M205 X10 Y10
G0 F1200 X89.434 Y147.841
M204 S1800
M205 X8 Y8
G1 F600 X104.926 Y163.333 E252.10575
M204 S3000
M205 X10 Y10
G0 F1200 X105.916 Y163.333
M204 S1800
M205 X8 Y8
G1 F600 X89.434 Y146.851 E254.01871
M204 S3000
M205 X10 Y10
G0 F1200 X89.434 Y145.861
M204 S1800
M205 X8 Y8
G1 F600 X106.906 Y163.333 E256.04657
M204 S3000
M205 X10 Y10
G0 F1200 X107.896 Y163.333
M204 S1800
M205 X8 Y8
G1 F600 X89.434 Y144.871 E258.18934
M204 S3000
M205 X10 Y10
G0 F1200 X89.434 Y143.881
M204 S1800
M205 X8 Y8
G1 F600 X108.886 Y163.333 E260.44701
M204 S3000
M205 X10 Y10
G0 F1200 X109.876 Y163.333
M204 S1800
M205 X8 Y8
G1 F600 X89.434 Y142.891 E262.81958
M204 S3000
M205 X10 Y10
G0 F1200 X89.434 Y141.901
M204 S1800
M205 X8 Y8
G1 F600 X110.866 Y163.333 E265.30706
M204 S3000
M205 X10 Y10
G0 F1200 X111.856 Y163.333
M204 S1800
M205 X8 Y8
G1 F600 X89.434 Y140.911 E267.90944
M204 S3000
M205 X10 Y10
G0 F1200 X89.434 Y139.921
M204 S1800
M205 X8 Y8
G1 F600 X112.846 Y163.333 E270.62672
M204 S3000
M205 X10 Y10
G0 F1200 X113.836 Y163.333
M204 S1800
M205 X8 Y8
G1 F600 X89.434 Y138.931 E273.45891
M204 S3000
M205 X10 Y10
G0 F1200 X89.434 Y137.941
M204 S1800
M205 X8 Y8
G1 F600 X114.826 Y163.333 E276.40599
M204 S3000
M205 X10 Y10
G0 F1200 X115.816 Y163.333
M204 S1800
M205 X8 Y8
G1 F600 X89.434 Y136.951 E279.46798
M204 S3000
M205 X10 Y10
G0 F1200 X89.434 Y135.961
M204 S1800
M205 X8 Y8
G1 F600 X116.806 Y163.333 E282.64488
M204 S3000
M205 X10 Y10
G0 F1200 X117.796 Y163.333
M204 S1800
M205 X8 Y8
G1 F600 X89.434 Y134.971 E285.93667
M204 S3000
M205 X10 Y10
G0 F1200 X89.434 Y133.981
M204 S1800
M205 X8 Y8
G1 F600 X118.786 Y163.333 E289.34337
M204 S3000
M205 X10 Y10
G0 F1200 X119.776 Y163.333
M204 S1800
M205 X8 Y8
G1 F600 X89.434 Y132.991 E292.86498
M204 S3000
M205 X10 Y10
G0 F1200 X89.434 Y132.001
M204 S1800
M205 X8 Y8
G1 F600 X120.565 Y163.133 E296.47821
M204 S3000
M205 X10 Y10
G0 F1200 X120.565 Y162.143
M204 S1800
M205 X8 Y8
G1 F600 X89.434 Y131.012 E300.09139
M204 S3000
M205 X10 Y10
G0 F1200 X89.434 Y130.022
M204 S1800
M205 X8 Y8
G1 F600 X120.565 Y161.153 E303.70457
M204 S3000
M205 X10 Y10
G0 F1200 X120.565 Y160.163
M204 S1800
M205 X8 Y8
G1 F600 X89.434 Y129.032 E307.31774
M204 S3000
M205 X10 Y10
G0 F1200 X89.434 Y128.042
M204 S1800
M205 X8 Y8
G1 F600 X120.565 Y159.173 E310.93092
M204 S3000
M205 X10 Y10
G0 F1200 X120.565 Y158.183
M204 S1800
M205 X8 Y8
G1 F600 X89.434 Y127.052 E314.5441
M204 S3000
M205 X10 Y10
G0 F1200 X89.434 Y126.062
M204 S1800
M205 X8 Y8
G1 F600 X120.565 Y157.193 E318.15727
M204 S3000
M205 X10 Y10
G0 F1200 X120.565 Y156.203
M204 S1800
M205 X8 Y8
G1 F600 X89.434 Y125.072 E321.77045
M204 S3000
M205 X10 Y10
G0 F1200 X89.434 Y124.082
M204 S1800
M205 X8 Y8
G1 F600 X120.565 Y155.213 E325.38363
M204 S3000
M205 X10 Y10
G0 F1200 X120.565 Y154.223
M204 S1800
M205 X8 Y8
G1 F600 X89.434 Y123.092 E328.99681
M204 S3000
M205 X10 Y10
G0 F1200 X89.434 Y122.102
M204 S1800
M205 X8 Y8
G1 F600 X120.565 Y153.233 E332.60998
M204 S3000
M205 X10 Y10
G0 F1200 X120.565 Y152.243
M204 S1800
M205 X8 Y8
G1 F600 X89.434 Y121.112 E336.22316
M204 S3000
M205 X10 Y10
G0 F1200 X89.434 Y120.122
M204 S1800
M205 X8 Y8
G1 F600 X120.565 Y151.253 E339.83634
