;FLAVOR:Marlin
;TIME:405
;Filament used: 0.50356m
;Layer height: 0.2
;MINX:-25.098
;MINY:10.213
;MINZ:0.2
;MAXX:12.214
;MAXY:41.991
;MAXZ:8
;Generated with Cura_SteamEngine 4.10.0
M104 S228
M105
M109 S228
M82 ;absolute extrusion mode
G21        ;metric values
G90        ;absolute positioning
M107       ;start with the fan off
G28   ;move to endstops

;Z-Offset Reset und dann Z +0,1 für PLA
;MacroZOffset0
;MacroZOffsetPlus0100

G92 E0                  ;zero the extruded length
G1 F200 E3              ;extrude 3mm of feed stock
G92 E0                  ;zero the extruded length again
G1 F120
;Put printing message on LCD screen
M117 Printing...
G92 E0
G92 E0
G1 F2400 E-6
;LAYER_COUNT:40
;LAYER:0
M107
G0 X-1.276 Y10.269 Z0.2
;TYPE:SKIRT
G1 F2400 E0
G1 F1200 X-.771 Y10.335 E0.02058
G1 X-.241 Y10.434 E0.04237
G1 X0.478 Y10.621 E0.07239
G1 X1.042 Y10.806 E0.09638
G1 X1.694 Y11.069 E0.12479
G1 X2.177 Y11.3 E0.14643
G1 X2.52 Y11.482 E0.16212
G1 X3.497 Y12.034 E0.20746
G1 X3.593 Y12.078 E0.21173
G1 X4.987 Y12.862 E0.27636
G1 X7.418 Y14.141 E0.38737
G1 X8.656 Y14.757 E0.44325
G1 X9.55 Y15.194 E0.48346
G1 X10.088 Y15.506 E0.50859
G1 X10.254 Y15.619 E0.51671
G1 X10.718 Y15.983 E0.54054
G1 X11.128 Y16.407 E0.56438
G1 X11.477 Y16.881 E0.58816
G1 X11.759 Y17.399 E0.612
G1 X11.954 Y17.904 E0.63387
G1 X12.015 Y18.097 E0.64205
G1 X12.154 Y18.67 E0.66588
G1 X12.214 Y19.256 E0.68968
G1 X12.195 Y19.846 E0.71354
G1 X12.127 Y20.292 E0.73177
G1 X11.982 Y20.863 E0.75558
G1 X11.657 Y21.61 E0.7885
G1 X11.198 Y22.439 E0.82679
G1 X9.928 Y24.812 E0.93556
G1 X9.053 Y26.547 E1.01408
G1 X8.45 Y27.771 E1.06922
G1 X8.39 Y27.889 E1.07457
G1 X8.044 Y28.537 E1.10426
G1 X7.694 Y29.124 E1.13187
G1 X7.397 Y29.588 E1.15414
G1 X7.099 Y30.023 E1.17545
G1 X6.803 Y30.432 E1.19585
G1 X6.3 Y31.08 E1.229
G1 X5.937 Y31.52 E1.25205
G1 X5.542 Y31.979 E1.27652
G1 X5.411 Y32.126 E1.28448
G1 X3.638 Y34.166 E1.3937
G1 X3.31 Y34.565 E1.41457
G1 X2.406 Y35.639 E1.4713
G1 X1.997 Y36.064 E1.49514
G1 X1.556 Y36.416 E1.51794
G1 X0.899 Y36.814 E1.54898
G1 X0.659 Y36.932 E1.55979
G1 X-1.743 Y38.154 E1.6687
G1 X-4.129 Y39.453 E1.77848
G1 X-5.389 Y40.187 E1.83741
G1 X-6.415 Y40.77 E1.8851
G1 X-7.035 Y41.084 E1.91318
G1 X-7.498 Y41.283 E1.93355
G1 X-8.041 Y41.483 E1.95693
G1 X-8.585 Y41.648 E1.9799
G1 X-9.243 Y41.804 E2.00723
G1 X-9.965 Y41.919 E2.03678
G1 X-10.741 Y41.984 E2.06824
G1 X-11.462 Y41.991 E2.09738
G1 X-11.973 Y41.963 E2.11806
G1 X-12.516 Y41.904 E2.14014
G1 X-13.089 Y41.808 E2.16361
G1 X-13.374 Y41.75 E2.17537
G1 X-16.022 Y41.153 E2.28506
G1 X-18.706 Y40.62 E2.39564
G1 X-21.099 Y40.217 E2.49371
G1 X-21.64 Y40.095 E2.51612
G1 X-22.202 Y39.914 E2.53998
G1 X-22.733 Y39.659 E2.56378
G1 X-23.225 Y39.335 E2.58759
G1 X-23.75 Y38.864 E2.61609
G1 X-23.891 Y38.715 E2.62438
G1 X-24.266 Y38.26 E2.64821
G1 X-24.576 Y37.759 E2.67202
G1 X-24.816 Y37.22 E2.69586
G1 X-24.987 Y36.625 E2.72088
G1 X-25.013 Y36.502 E2.72596
G1 X-25.096 Y35.918 E2.7498
G1 X-25.098 Y35.328 E2.77364
G1 X-25.008 Y34.677 E2.8002
G1 X-24.719 Y33.347 E2.8552
G1 X-24.704 Y33.252 E2.85908
G1 X-24.55 Y32.569 E2.88738
G1 X-24.032 Y29.918 E2.99653
G1 X-23.825 Y28.692 E3.04678
G1 X-23.575 Y27.282 E3.10465
G1 X-23.529 Y27.054 E3.11405
G1 X-23.386 Y26.44 E3.13952
G1 X-23.34 Y26.262 E3.14695
G1 X-22.876 Y24.592 E3.21699
G1 X-22.687 Y23.94 E3.24443
G1 X-22.017 Y21.362 E3.35207
G1 X-21.4 Y18.628 E3.46533
G1 X-21.243 Y17.961 E3.49302
G1 X-21.07 Y17.398 E3.51682
G1 X-20.821 Y16.863 E3.54067
G1 X-20.503 Y16.367 E3.56448
G1 X-19.996 Y15.795 E3.59537
G1 X-19.942 Y15.744 E3.59837
G1 X-19.487 Y15.37 E3.62217
G1 X-18.985 Y15.06 E3.64601
G1 X-18.446 Y14.821 E3.66984
G1 X-17.651 Y14.584 E3.70336
G1 X-15.264 Y13.966 E3.80301
G1 X-12.644 Y13.208 E3.91322
G1 X-10.055 Y12.38 E4.02307
G1 X-7.505 Y11.481 E4.13233
G1 X-6.588 Y11.131 E4.172
G1 X-5.619 Y10.776 E4.2137
G1 X-5.109 Y10.612 E4.23535
G1 X-4.605 Y10.479 E4.25642
G1 X-4.06 Y10.366 E4.27891
G1 X-3.339 Y10.264 E4.30833
G1 X-2.571 Y10.216 E4.33943
G1 X-2.351 Y10.213 E4.34832
G1 X-1.792 Y10.227 E4.37092
G1 X-1.276 Y10.269 E4.39184
G0 F2400 X-1.038 Y10.842
G1 F1200 X-.365 Y10.96 E4.41945
G1 X0.334 Y11.141 E4.44863
G1 X0.853 Y11.312 E4.47071
G1 X1.466 Y11.559 E4.49742
G1 X1.925 Y11.777 E4.51795
G1 X2.254 Y11.952 E4.53301
G1 X3.246 Y12.513 E4.57907
G1 X3.328 Y12.548 E4.58267
G1 X4.739 Y13.342 E4.6481
G1 X7.15 Y14.61 E4.75818
G1 X8.444 Y15.254 E4.81659
G1 X9.313 Y15.679 E4.85568
G1 X9.784 Y15.952 E4.87768
G1 X9.95 Y16.065 E4.8858
G1 X10.382 Y16.408 E4.90809
G1 X10.761 Y16.81 E4.93042
G1 X11.077 Y17.262 E4.9527
G1 X11.325 Y17.755 E4.97501
G1 X11.5 Y18.26 E4.9966
G1 X11.628 Y18.797 E5.01891
G1 X11.676 Y19.346 E5.04118
G1 X11.614 Y20.096 E5.07159
G1 X11.596 Y20.194 E5.07562
G1 X11.458 Y20.728 E5.09791
G1 X11.184 Y21.348 E5.1253
G1 X10.726 Y22.177 E5.16358
G1 X9.444 Y24.573 E5.27339
G1 X8.571 Y26.304 E5.35173
G1 X7.966 Y27.532 E5.40705
G1 X7.913 Y27.636 E5.41177
G1 X7.574 Y28.271 E5.44086
G1 X7.232 Y28.844 E5.46783
G1 X6.95 Y29.285 E5.48898
G1 X6.662 Y29.707 E5.50963
G1 X6.17 Y30.373 E5.54309
G1 X5.825 Y30.808 E5.56552
G1 X5.473 Y31.232 E5.58779
G1 X5.138 Y31.62 E5.60851
G1 X5.038 Y31.732 E5.61458
G1 X3.213 Y33.832 E5.72701
G1 X2.897 Y34.217 E5.74713
G1 X1.993 Y35.291 E5.80386
G1 X1.608 Y35.687 E5.82618
G1 X1.236 Y35.98 E5.84532
G1 X0.661 Y36.329 E5.8725
G1 X0.444 Y36.436 E5.88228
G1 X-2.006 Y37.681 E5.99334
G1 X-4.377 Y38.973 E6.10245
G1 X-5.656 Y39.718 E6.16227
G1 X-6.682 Y40.301 E6.20995
G1 X-7.268 Y40.596 E6.23647
G1 X-7.971 Y40.886 E6.2672
G1 X-8.621 Y41.097 E6.29481
G1 X-9.359 Y41.276 E6.3255
G1 X-10.037 Y41.383 E6.35324
G1 X-10.773 Y41.444 E6.38309
G1 X-11.454 Y41.451 E6.41061
G1 X-12.18 Y41.4 E6.44002
G1 X-12.894 Y41.295 E6.46918
G1 X-13.255 Y41.224 E6.48405
G1 X-15.911 Y40.624 E6.59409
G1 X-18.611 Y40.088 E6.70532
G1 X-21.01 Y39.684 E6.80364
G1 X-21.51 Y39.571 E6.82435
G1 X-22.034 Y39.4 E6.84663
G1 X-22.528 Y39.154 E6.86893
G1 X-22.982 Y38.84 E6.89123
G1 X-23.357 Y38.493 E6.91188
G1 X-23.498 Y38.344 E6.92017
G1 X-23.848 Y37.917 E6.94248
G1 X-24.131 Y37.444 E6.96476
G1 X-24.344 Y36.934 E6.98709
G1 X-24.485 Y36.39 E7.0098
G1 X-24.559 Y35.843 E7.03211
G1 X-24.554 Y35.292 E7.05437
G1 X-24.48 Y34.792 E7.0748
G1 X-24.187 Y33.443 E7.13059
G1 X-24.177 Y33.371 E7.13352
G1 X-24.023 Y32.686 E7.1619
G1 X-23.503 Y30.028 E7.27134
G1 X-23.293 Y28.786 E7.32225
G1 X-23.043 Y27.376 E7.38012
G1 X-23.003 Y27.177 E7.38832
G1 X-22.86 Y26.563 E7.4138
G1 X-22.82 Y26.407 E7.4203
G1 X-22.357 Y24.742 E7.49014
G1 X-22.174 Y24.111 E7.51669
G1 X-21.488 Y21.471 E7.62692
G1 X-20.875 Y18.752 E7.73955
G1 X-20.718 Y18.085 E7.76725
G1 X-20.553 Y17.559 E7.78952
G1 X-20.313 Y17.061 E7.81186
G1 X-20.005 Y16.604 E7.83413
G1 X-19.625 Y16.188 E7.8569
G1 X-19.571 Y16.137 E7.8599
G1 X-19.144 Y15.788 E7.88219
G1 X-18.67 Y15.505 E7.9045
G1 X-17.983 Y15.238 E7.93428
G1 X-17.432 Y15.085 E7.95739
G1 X-15.118 Y14.486 E8.05399
G1 X-12.478 Y13.722 E8.16505
G1 X-9.882 Y12.893 E8.27518
G1 X-7.347 Y11.999 E8.3838
G1 X-6.403 Y11.639 E8.42463
G1 X-5.434 Y11.284 E8.46633
G1 X-4.949 Y11.128 E8.48692
G1 X-4.263 Y10.955 E8.51551
G1 X-3.493 Y10.825 E8.54707
G1 X-2.84 Y10.767 E8.57356
G1 X-2.357 Y10.753 E8.59309
G1 X-1.829 Y10.766 E8.61443
G1 X-1.038 Y10.842 E8.64654
G0 F2400 X-1.577 Y11.325
G1 F1200 X-.952 Y11.4 E8.67198
G1 X-.274 Y11.537 E8.69993
G1 X0.377 Y11.719 E8.72725
G1 X0.853 Y11.889 E8.74768
G1 X1.532 Y12.185 E8.77761
G1 X1.989 Y12.423 E8.79843
G1 X2.899 Y12.937 E8.84067
G1 X3.063 Y13.019 E8.84807
G1 X4.479 Y13.816 E8.91374
G1 X6.917 Y15.098 E9.02505
G1 X8.182 Y15.727 E9.08214
G1 X9.076 Y16.164 E9.12235
G1 X9.646 Y16.512 E9.14934
G1 X10.045 Y16.832 E9.17001
G1 X10.389 Y17.21 E9.19067
G1 X10.67 Y17.636 E9.21129
G1 X10.924 Y18.23 E9.2374
G1 X10.985 Y18.423 E9.24558
G1 X11.1 Y18.92 E9.26619
G1 X11.137 Y19.43 E9.28685
G1 X11.083 Y19.999 E9.30995
G1 X11.065 Y20.097 E9.31398
G1 X10.934 Y20.591 E9.33463
G1 X10.711 Y21.087 E9.35661
G1 X10.274 Y21.878 E9.39313
G1 X8.952 Y24.349 E9.50637
G1 X8.103 Y26.033 E9.58259
G1 X7.482 Y27.294 E9.63939
G1 X7.146 Y27.929 E9.66842
G1 X6.771 Y28.563 E9.69819
G1 X6.28 Y29.312 E9.73438
G1 X5.942 Y29.78 E9.75771
G1 X5.453 Y30.409 E9.7899
G1 X5.064 Y30.88 E9.81459
G1 X4.735 Y31.261 E9.83493
G1 X4.604 Y31.408 E9.84289
G1 X2.803 Y33.48 E9.95383
G1 X2.484 Y33.87 E9.97419
G1 X1.58 Y34.944 E10.03092
G1 X1.221 Y35.308 E10.05158
G1 X0.916 Y35.545 E10.06719
G1 X0.423 Y35.844 E10.09049
G1 X0.222 Y35.943 E10.09955
G1 X-2.253 Y37.202 E10.21176
G1 X-4.665 Y38.515 E10.32274
G1 X-5.922 Y39.248 E10.38154
G1 X-6.948 Y39.831 E10.42923
G1 X-7.5 Y40.109 E10.4542
G1 X-8.164 Y40.382 E10.48322
G1 X-8.775 Y40.579 E10.50916
G1 X-9.475 Y40.749 E10.53827
G1 X-10.108 Y40.848 E10.56416
G1 X-10.805 Y40.905 E10.59242
G1 X-11.446 Y40.911 E10.61833
G1 X-12.128 Y40.863 E10.64595
G1 X-12.802 Y40.763 E10.67349
G1 X-13.137 Y40.697 E10.68729
G1 X-15.843 Y40.086 E10.79939
G1 X-18.482 Y39.562 E10.90812
G1 X-20.92 Y39.152 E11.00802
G1 X-21.38 Y39.047 E11.02709
G1 X-21.864 Y38.885 E11.04772
G1 X-22.318 Y38.65 E11.06838
G1 X-22.729 Y38.347 E11.08901
G1 X-23.106 Y37.973 E11.11047
G1 X-23.427 Y37.575 E11.13113
G1 X-23.683 Y37.132 E11.15181
G1 X-23.866 Y36.655 E11.17246
G1 X-23.956 Y36.278 E11.18812
G1 X-24.023 Y35.772 E11.20875
G1 X-24.009 Y35.261 E11.2294
G1 X-23.952 Y34.907 E11.24389
G1 X-23.657 Y33.55 E11.30001
G1 X-23.65 Y33.489 E11.30249
G1 X-23.495 Y32.801 E11.33099
G1 X-22.974 Y30.138 E11.44065
G1 X-22.762 Y28.88 E11.4922
G1 X-22.512 Y27.47 E11.55007
G1 X-22.477 Y27.299 E11.55712
G1 X-22.334 Y26.685 E11.5826
G1 X-22.3 Y26.552 E11.58815
G1 X-21.838 Y24.893 E11.65774
G1 X-21.654 Y24.259 E11.68442
G1 X-20.963 Y21.602 E11.79536
G1 X-20.349 Y18.876 E11.90828
G1 X-20.192 Y18.209 E11.93597
G1 X-20.036 Y17.722 E11.95664
G1 X-19.807 Y17.265 E11.9773
G1 X-19.509 Y16.85 E11.99794
G1 X-19.2 Y16.53 E12.01592
G1 X-18.802 Y16.209 E12.03658
G1 X-18.359 Y15.954 E12.05724
G1 X-17.838 Y15.758 E12.07973
G1 X-17.297 Y15.607 E12.10243
G1 X-14.939 Y14.996 E12.20087
G1 X-12.335 Y14.243 E12.31041
G1 X-9.708 Y13.404 E12.42185
G1 X-7.135 Y12.497 E12.5321
G1 X-6.217 Y12.146 E12.57182
G1 X-5.248 Y11.791 E12.61352
G1 X-4.621 Y11.597 E12.64004
G1 X-3.855 Y11.427 E12.67175
G1 X-3.243 Y11.34 E12.69673
G1 X-2.53 Y11.295 E12.7256
G1 X-2.364 Y11.293 E12.73231
G1 X-1.577 Y11.325 E12.76414
G1 F2400 E6.76414
;MESH:Filament_Clip.STL
G0 X-.905 Y14.055
G0 X-1.157 Y15.222
G0 X1.263 Y18.177
G0 X2.667 Y21.329
G0 X1.578 Y23.058
G0 X0.747 Y25.376
G0 X0.174 Y28.077
G0 X0.572 Y29.042
G0 X1.725 Y28.928
G0 X3.144 Y26.493
G0 X4.742 Y22.814
;TYPE:WALL-INNER
G1 F2400 E12.76414
G1 F1200 X4.696 Y23.011 E12.77231
G1 X4.59 Y23.454 E12.79072
G1 X4.555 Y22.978 E12.79387
G1 X4.629 Y22.774 E12.79625
G1 X4.74 Y22.471 E12.80447
G1 X4.896 Y22.136 E12.8194
G1 X5.039 Y21.829 E12.83309
G1 X5.172 Y21.636 E12.84256
G1 X5.083 Y21.847 E12.84292
G1 X4.95 Y22.16 E12.84431
G1 X4.841 Y22.503 E12.84636
G1 X4.742 Y22.814 E12.84916
G0 F2400 X4.158 Y24.741
G1 F1200 X4.184 Y24.699 E12.85116
G1 X4.164 Y24.743
G1 X3.982 Y25.148 E12.86909
G1 X3.829 Y25.486 E12.88408
G1 X3.764 Y25.05 E12.88963
G1 X4.158 Y24.741 E12.89552
G0 F2400 X2.086 Y28.546
G0 X0.415 Y29.28
G1 F1200 X0.848 Y29.468 E12.9146
G1 X0.738 Y29.584
G1 X0.27 Y30.08 E12.94216
G1 X-.11 Y30.488 E12.96469
G1 X-0.001 Y30.018 E12.96911
G1 X0.184 Y29.227 E13.00193
G1 X0.215 Y29.096 E13.00737
G1 X0.415 Y29.28 E13.01271
G0 F2400 X1.717 Y20.747
G0 X1.7 Y19.152
G0 X1.263 Y18.177
G0 X0.581 Y17.336
G0 X-.287 Y16.704
G0 X-1.3 Y16.314
G0 X-2.363 Y16.196
G0 X-3.44 Y16.361
G0 X-4.422 Y16.79
G0 X-5.268 Y17.463
G0 X-5.909 Y18.327
G0 X-6.305 Y19.327
G0 X-6.436 Y20.399
G0 X-3.367 Y28.427
G1 F1200 X-3.441 Y29 E13.03606
G1 X-3.468 Y28.432 E13.03812
G1 X-3.473 Y28.344 E13.04168
G1 X-3.556 Y28.027 E13.05492
G1 X-3.655 Y27.652 E13.07059
G1 X-3.674 Y27.61 E13.07246
G1 X-3.848 Y27.23 E13.08935
G1 X-6.455 Y22.447 E13.30948
G1 X-6.491 Y22.381 E13.31252
G1 X-6.585 Y22.185 E13.3213
G1 X-6.708 Y21.927 E13.33285
G1 X-6.811 Y21.637 E13.34529
G1 X-6.878 Y21.447 E13.35343
G1 X-6.955 Y21.033 E13.37045
G1 X-7.056 Y20.494 E13.39261
G1 X-7.058 Y20.414 E13.39584
G1 X-7.07 Y19.996 E13.41274
G1 X-7.056 Y19.8 E13.42068
G1 X-7.032 Y19.496 E13.433
G1 X-6.976 Y19.189 E13.44561
G1 X-6.942 Y19.006 E13.45314
G1 X-6.82 Y18.591 E13.47062
G1 X-6.797 Y18.513 E13.4739
G1 X-6.616 Y18.077 E13.49298
G1 X-6.559 Y17.971 E13.49784
G1 X-6.375 Y17.634 E13.51336
G1 X-6.239 Y17.435 E13.5231
G1 X-6.093 Y17.222 E13.53354
G1 X-5.854 Y16.941 E13.54844
G1 X-5.766 Y16.837 E13.55395
G1 X-5.697 Y16.772 E13.55778
G1 X-5.413 Y16.504 E13.57356
G1 X-5.006 Y16.192 E13.59428
G1 X-4.574 Y15.929 E13.61472
G1 X-4.152 Y15.728 E13.63361
G1 X-3.677 Y15.561 E13.65396
G1 X-3.189 Y15.443 E13.67425
G1 X-2.705 Y15.38 E13.69397
G1 X-2.181 Y15.366 E13.71515
G1 X-1.75 Y15.425 E13.73273
G1 X-1.729 Y15.427 E13.73358
G1 X-1.676 Y15.434 E13.73575
G1 X-1.212 Y15.498 E13.75467
G1 X-.737 Y15.64 E13.77471
G1 X-.618 Y15.69 E13.77992
G1 X-.483 Y15.747 E13.78585
G1 X-.262 Y15.84 E13.79554
G1 X0.079 Y16.026 E13.81123
G1 X0.166 Y16.074 E13.81525
G1 X0.576 Y16.36 E13.83545
G1 X0.635 Y16.41 E13.83857
G1 X0.957 Y16.687 E13.85574
G1 X1.102 Y16.858 E13.8648
G1 X1.471 Y17.294 E13.88788
G1 X1.58 Y17.423 E13.89471
G1 X1.826 Y17.827 E13.91382
G1 X1.855 Y17.874 E13.91605
G1 X2.074 Y18.412 E13.93953
G1 X2.221 Y18.77 E13.95517
G1 X2.276 Y19.005 E13.96492
G1 X2.336 Y19.256 E13.97535
G1 X2.38 Y19.602 E13.98944
G1 X2.399 Y19.746 E13.99531
G1 X2.409 Y20.205 E14.01387
G1 X2.411 Y20.266 E14.01633
G1 X2.335 Y20.818 E14.03885
G1 X2.278 Y21.23 E14.05566
G1 X2.219 Y21.4 E14.06293
G1 X2.012 Y21.985 E14.08801
G1 X1.839 Y22.138 E14.09734
G1 X1.881 Y21.955 E14.09785
G1 X2.027 Y21.333 E14.10617
G1 X2.05 Y21.193 E14.10801
G1 X2.117 Y20.788 E14.11485
G1 X2.135 Y20.257 E14.12444
G1 X2.137 Y20.212 E14.1252
G1 X2.095 Y19.776 E14.13447
G1 X2.081 Y19.641 E14.13746
G1 X2.01 Y19.332 E14.14474
G1 X1.952 Y19.082 E14.15112
G1 X1.883 Y18.896 E14.15596
G1 X1.752 Y18.544 E14.16583
G1 X1.498 Y18.064 E14.18089
G1 X1.483 Y18.037 E14.18168
G1 X1.226 Y17.674 E14.19545
G1 X1.15 Y17.567 E14.19948
G1 X0.761 Y17.147 E14.21806
G1 X0.651 Y17.056 E14.22277
G1 X0.319 Y16.779 E14.23838
G1 X-.108 Y16.509 E14.25743
G1 X-.165 Y16.473 E14.25997
G1 X-.485 Y16.325 E14.27369
G1 X-.687 Y16.232 E14.2825
G1 X-.827 Y16.189 E14.28834
G1 X-1.236 Y16.06 E14.30567
G1 X-1.748 Y15.97 E14.32668
G1 X-1.801 Y15.961 E14.32885
G1 X-1.823 Y15.961 E14.32973
G1 X-2.374 Y15.935 E14.35202
G1 X-2.946 Y15.985 E14.37523
G1 X-3.509 Y16.11 E14.39853
G1 X-4.046 Y16.304 E14.42161
G1 X-4.557 Y16.567 E14.44483
G1 X-5.028 Y16.895 E14.46803
G1 X-5.335 Y17.173 E14.48476
G1 X-5.405 Y17.236 E14.48856
G1 X-5.454 Y17.28 E14.49115
G1 X-5.693 Y17.561 E14.50561
G1 X-5.825 Y17.717 E14.51339
G1 X-5.949 Y17.909 E14.52198
G1 X-6.137 Y18.2 E14.53471
G1 X-6.177 Y18.285 E14.53804
G1 X-6.384 Y18.719 E14.55508
G1 X-6.52 Y19.141 E14.57
G1 X-6.56 Y19.265 E14.574
G1 X-6.618 Y19.573 E14.58389
G1 X-6.666 Y19.829 E14.59158
G1 X-6.676 Y20.017 E14.59707
G1 X-6.697 Y20.403 E14.60779
G1 X-6.693 Y20.465 E14.60936
G1 X-6.652 Y20.976 E14.62198
G1 X-6.567 Y21.381 E14.63159
G1 X-6.534 Y21.538 E14.6349
G1 X-6.432 Y21.83 E14.64169
G1 X-6.348 Y22.071 E14.64668
G1 X-6.256 Y22.271 E14.65101
G1 X-6.231 Y22.324 E14.65195
G1 X-3.781 Y27.196 E14.71939
G1 X-3.592 Y27.572 E14.72202
G1 X-3.574 Y27.621 E14.72246
G1 X-3.432 Y27.994 E14.72587
G1 X-3.382 Y28.33 E14.72886
G1 X-3.367 Y28.427 E14.72974
G0 F2400 X-6.376 Y21.002
G0 X-6.305 Y19.327
G0 X-5.909 Y18.327
G0 X-5.268 Y17.463
G0 X-4.422 Y16.79
G0 X-3.44 Y16.361
G0 X-2.363 Y16.196
G0 X-1.3 Y16.314
G0 X-.287 Y16.704
G0 X0.581 Y17.336
G0 X1.263 Y18.177
G0 X1.7 Y19.152
G0 X1.634 Y21.254
G0 X0.174 Y28.077
G0 X0.572 Y29.042
G0 X1.725 Y28.928
G0 X3.257 Y26.275
G0 X4.253 Y23.68
G0 X4.157 Y23.657
;TYPE:WALL-OUTER
G1 F1200 X4.147 Y23.368 E14.74142
G1 X4.103 Y22.97 E14.7576
G1 X4.134 Y22.85 E14.76261
G1 X4.334 Y22.302 E14.78619
G1 X4.656 Y21.609 E14.81707
G1 X5.076 Y21 E14.84696
G1 X5.59 Y20.47 E14.8768
G1 X5.934 Y20.202 E14.89442
G1 X5.952 Y20.188 E14.89534
G1 X5.989 Y20.159 E14.89724
G1 X6.013 Y20.145 E14.89836
G1 X6.536 Y19.844 E14.92275
