;FLAVOR:Marlin
;TIME:2225
;Filament used: 6.7312m
;Layer height: 0.3
;MINX:-87.469
;MINY:-36.1
;MINZ:0.3
;MAXX:92.051
;MAXY:-11.671
;MAXZ:12
;Generated with Cura_SteamEngine 4.10.0
M140 S40
M105
M190 S40
M104 S235
M105
M109 S235
M82 ;absolute extrusion mode
G21        ;metric values
G90        ;absolute positioning
M107       ;start with the fan off
G28   ;move to endstops

;Z-Offset Reset und dann Z +0,1 für PLA
;MacroZOffset0
;MacroZOffsetPlus0100

G92 E0                  ;zero the extruded length
G1 F200 E3              ;extrude 3mm of feed stock
G92 E0                  ;zero the extruded length again
G1 F120
;Put printing message on LCD screen
M117 Printing...
G92 E0
G92 E0
G1 F2400 E-6
;LAYER_COUNT:41
;LAYER:0
M106 S89.3
M204 S2000
G0 X-54.588 Y-32.191 Z0.3
M204 S1500
;TYPE:SKIRT
G1 F2400 E0
G1 F1200 X59.15 Y-32.191 E13.10789
G1 X61.938 Y-32.23 E13.42923
G1 X64.63 Y-32.345 E13.73976
G1 X67.32 Y-32.535 E14.05054
G1 X69.993 Y-32.8 E14.3601
G1 X72.735 Y-33.151 E14.67869
G1 X75.376 Y-33.566 E14.98679
G1 X78.02 Y-34.058 E15.29673
G1 X80.661 Y-34.626 E15.60806
G1 X83.323 Y-35.279 E15.92394
G1 X84.363 Y-35.569 E16.04837
G1 X84.464 Y-35.59 E16.06026
G1 X85.685 Y-35.918 E16.20596
G1 X86.417 Y-36.055 E16.29179
G1 X86.998 Y-36.1 E16.35894
G1 X87.66 Y-36.054 E16.43542
G1 X87.876 Y-36.022 E16.46059
G1 X88.446 Y-35.897 E16.52784
G1 X88.994 Y-35.696 E16.59511
G1 X89.498 Y-35.437 E16.66041
G1 X89.992 Y-35.127 E16.72762
G1 X90.439 Y-34.752 E16.79487
G1 X90.845 Y-34.315 E16.86361
G1 X91.204 Y-33.855 E16.93086
G1 X91.497 Y-33.35 E16.99814
G1 X91.714 Y-32.841 E17.06191
G1 X91.894 Y-32.286 E17.12915
G1 X91.991 Y-31.771 E17.18955
G1 X92.046 Y-30.991 E17.27966
G1 X92.051 Y-30.666 E17.31712
G1 X92.051 Y-16.608 E18.93726
G1 X92.041 Y-15.881 E19.02105
G1 X91.993 Y-15.3 E19.08824
G1 X91.866 Y-14.73 E19.15554
G1 X91.662 Y-14.184 E19.22271
G1 X91.386 Y-13.67 E19.28995
G1 X91.042 Y-13.199 E19.35716
G1 X90.637 Y-12.779 E19.42441
G1 X90.178 Y-12.418 E19.4917
G1 X89.674 Y-12.124 E19.55895
G1 X89.135 Y-11.901 E19.62617
G1 X88.57 Y-11.754 E19.69345
G1 X87.901 Y-11.682 E19.771
G1 X87.461 Y-11.671 E19.82172
G1 X-82.557 Y-11.671 E39.41568
G1 X-83.255 Y-11.68 E39.49613
G1 X-83.836 Y-11.728 E39.56332
G1 X-84.406 Y-11.854 E39.63059
G1 X-84.953 Y-12.057 E39.69783
G1 X-85.467 Y-12.333 E39.76507
G1 X-85.939 Y-12.677 E39.83238
G1 X-86.359 Y-13.082 E39.89962
G1 X-86.72 Y-13.54 E39.96683
G1 X-87.015 Y-14.043 E40.03403
G1 X-87.238 Y-14.582 E40.10126
G1 X-87.386 Y-15.147 E40.16857
G1 X-87.459 Y-15.833 E40.24807
G1 X-87.469 Y-16.297 E40.30156
G1 X-87.467 Y-30.502 E41.93863
G1 X-87.456 Y-31.198 E42.01886
G1 X-87.409 Y-31.776 E42.08569
G1 X-87.295 Y-32.348 E42.15291
G1 X-87.107 Y-32.911 E42.22131
G1 X-86.87 Y-33.445 E42.28864
G1 X-86.39 Y-34.167 E42.38856
G1 X-86.217 Y-34.377 E42.41992
G1 X-85.816 Y-34.801 E42.48717
G1 X-85.361 Y-35.166 E42.5544
G1 X-84.855 Y-35.476 E42.62279
G1 X-84.332 Y-35.734 E42.68999
G1 X-83.651 Y-35.949 E42.7723
G1 X-83.447 Y-35.995 E42.7964
G1 X-82.87 Y-36.084 E42.86368
G1 X-82.297 Y-36.094 E42.92973
G1 X-82.097 Y-36.084 E42.9528
G1 X-81.286 Y-35.964 E43.04729
G1 X-81.095 Y-35.916 E43.06998
G1 X-79.877 Y-35.587 E43.21538
G1 X-79.632 Y-35.517 E43.24475
G1 X-77.003 Y-34.845 E43.55747
G1 X-74.406 Y-34.258 E43.86432
G1 X-71.688 Y-33.726 E44.1835
G1 X-69.037 Y-33.283 E44.49326
G1 X-66.379 Y-32.917 E44.80247
G1 X-63.653 Y-32.618 E45.11852
G1 X-60.978 Y-32.403 E45.4278
G1 X-58.278 Y-32.262 E45.73938
G1 X-54.588 Y-32.191 E46.16472
M204 S2000
G0 F2400 X-54.605 Y-31.351
M204 S1500
G1 F1200 X59.162 Y-31.351 E59.27596
G1 X61.95 Y-31.39 E59.59729
G1 X64.688 Y-31.507 E59.91313
G1 X67.393 Y-31.698 E60.22564
G1 X70.113 Y-31.968 E60.54065
G1 X72.794 Y-32.311 E60.85215
G1 X75.551 Y-32.744 E61.17378
G1 X78.206 Y-33.238 E61.48501
G1 X80.833 Y-33.803 E61.79468
G1 X83.531 Y-34.465 E62.11484
G1 X84.589 Y-34.76 E62.24142
G1 X84.677 Y-34.777 E62.25175
G1 X85.903 Y-35.107 E62.39807
G1 X86.539 Y-35.224 E62.4726
G1 X87.06 Y-35.26 E62.53279
G1 X87.753 Y-35.191 E62.61305
G1 X88.263 Y-35.075 E62.67332
G1 X88.87 Y-34.821 E62.74916
G1 X89.101 Y-34.697 E62.77937
G1 X89.541 Y-34.416 E62.83954
G1 X90.03 Y-33.967 E62.91605
G1 X90.22 Y-33.755 E62.94886
G1 X90.538 Y-33.34 E63.00911
G1 X90.846 Y-32.747 E63.08612
G1 X90.934 Y-32.528 E63.11332
G1 X91.092 Y-32.03 E63.17353
G1 X91.197 Y-31.252 E63.26401
G1 X91.211 Y-30.659 E63.33237
G1 X91.211 Y-16.62 E64.95031
G1 X91.201 Y-15.893 E65.0341
G1 X91.154 Y-15.372 E65.09439
G1 X91.028 Y-14.865 E65.1546
G1 X90.826 Y-14.383 E65.21483
G1 X90.553 Y-13.937 E65.27509
G1 X90.216 Y-13.538 E65.33528
G1 X89.821 Y-13.195 E65.39557
G1 X89.379 Y-12.916 E65.45581
G1 X88.9 Y-12.708 E65.51599
G1 X88.394 Y-12.575 E65.57629
G1 X87.877 Y-12.521 E65.63619
G1 X87.461 Y-12.511 E65.68415
G1 X-82.546 Y-12.511 E85.27684
G1 X-83.244 Y-12.52 E85.35729
G1 X-83.765 Y-12.567 E85.41757
G1 X-84.272 Y-12.692 E85.47775
G1 X-84.754 Y-12.894 E85.53798
G1 X-85.201 Y-13.166 E85.59829
G1 X-85.6 Y-13.503 E85.65848
G1 X-85.943 Y-13.898 E85.71877
G1 X-86.222 Y-14.339 E85.77891
G1 X-86.431 Y-14.819 E85.83924
G1 X-86.564 Y-15.324 E85.89943
G1 X-86.619 Y-15.854 E85.96083
G1 X-86.629 Y-16.297 E86.0119
G1 X-86.628 Y-30.489 E87.64748
G1 X-86.617 Y-31.185 E87.7277
G1 X-86.576 Y-31.669 E87.78368
G1 X-86.399 Y-32.398 E87.87013
G1 X-86.317 Y-32.624 E87.89784
G1 X-86.102 Y-33.101 E87.95814
G1 X-85.742 Y-33.633 E88.03217
G1 X-85.569 Y-33.843 E88.06353
G1 X-85.206 Y-34.219 E88.12376
G1 X-84.648 Y-34.625 E88.20329
G1 X-84.433 Y-34.75 E88.23195
G1 X-83.962 Y-34.977 E88.2922
G1 X-83.466 Y-35.129 E88.35199
G1 X-83.262 Y-35.175 E88.37609
G1 X-82.745 Y-35.251 E88.43631
G1 X-82.139 Y-35.245 E88.50616
G1 X-81.488 Y-35.149 E88.58199
G1 X-81.314 Y-35.105 E88.60268
G1 X-80.107 Y-34.779 E88.74676
G1 X-79.849 Y-34.705 E88.7777
G1 X-77.218 Y-34.032 E89.09067
G1 X-74.541 Y-33.428 E89.40694
G1 X-71.844 Y-32.9 E89.72366
G1 X-69.187 Y-32.456 E90.03412
G1 X-66.477 Y-32.083 E90.34938
G1 X-63.745 Y-31.783 E90.66612
G1 X-61.016 Y-31.564 E90.98164
G1 X-58.308 Y-31.422 E91.29416
G1 X-54.605 Y-31.351 E91.72099
M204 S2000
G1 F2400 E85.72099
;MESH:long_stretcher.3mf
G0 X-54.605 Y-26.951
G0 X83.312 Y-26.671
M204 S1500
;TYPE:WALL-INNER
G1 F2400 E91.72099
G1 F1200 X85.815 Y-29.173 E92.12886
G1 X86.531 Y-29.889 E92.24556
G1 X86.531 Y-28.877 E92.30831
G1 X86.531 Y-28.876 E92.30842
G1 X86.531 Y-17.191 E93.65508
G1 X-81.529 Y-17.191 E113.02338
G1 X-81.949 Y-17.191 E113.07178
G1 X-81.949 Y-17.611 E113.1031
G1 X-81.948 Y-28.875 E114.40124
G1 X-81.948 Y-28.876 E114.40135
G1 X-81.948 Y-29.888 E114.51798
G1 X-81.232 Y-29.172 E114.58077
G1 X-78.73 Y-26.671 E114.98847
G1 X83.312 Y-26.671 E133.66322
M204 S2000
G0 F2400 X83.006 Y-27.411
M204 S1500
;TYPE:WALL-OUTER
G1 F1200 X86.522 Y-30.926 E134.23619
G1 X86.848 Y-31.252 E134.28932
G1 X87.024 Y-31.331 E134.31156
G1 X87.181 Y-31.277 E134.33069
G1 X87.268 Y-31.115 E134.35188
G1 X87.271 Y-31.077 E134.35627
G1 X87.271 Y-30.615 E134.39833
G1 X87.271 Y-16.451 E136.03068
G1 X-82.269 Y-16.451 E155.56954
G1 X-82.689 Y-16.451 E155.61795
G1 X-82.689 Y-16.871 E155.64927
G1 X-82.688 Y-30.617 E157.23344
G1 X-82.688 Y-31.084 E157.28726
G1 X-82.62 Y-31.258 E157.30879
G1 X-82.466 Y-31.33 E157.32838
G1 X-82.299 Y-31.28 E157.34847
G1 X-82.267 Y-31.253 E157.3533
G1 X-81.937 Y-30.923 E157.39563
G1 X-78.424 Y-27.411 E157.9681
G1 X83.006 Y-27.411 E176.57232
M204 S2000
G0 F2400 X83.288 Y-27.693
G0 X83.669 Y-27.312
G0 X83.656 Y-25.841
M204 S1500
;TYPE:SKIN
G1 F1200 X85.701 Y-27.885 E176.90554
G1 X85.701 Y-18.021 E178.04233
G1 X-81.119 Y-18.021 E197.26773
G1 X-81.118 Y-27.884 E198.40441
G1 X-79.074 Y-25.841 E198.73746
G1 X83.656 Y-25.841 E217.4915
M204 S2000
G0 F2400 X84.719 Y-25.759
M204 S1500
G1 F1200 X84.125 Y-25.165 E217.58832
G1 X84.89 Y-24.4 E217.713
G1 X84.89 Y-23.212 E217.84991
G1 X83.071 Y-25.03 E218.1463
G1 X81.883 Y-25.03 E218.28321
G1 X84.89 Y-22.024 E218.77322
G1 X84.89 Y-20.836 E218.91013
G1 X80.695 Y-25.03 E219.59376
G1 X79.507 Y-25.03 E219.73067
G1 X84.89 Y-19.648 E220.60793
G1 X84.89 Y-18.83 E220.7022
G1 X84.519 Y-18.83 E220.74496
G1 X78.319 Y-25.03 E221.75545
G1 X77.131 Y-25.03 E221.89236
G1 X83.331 Y-18.83 E222.90286
G1 X82.143 Y-18.83 E223.03977
G1 X75.943 Y-25.03 E224.05027
G1 X74.756 Y-25.03 E224.18706
G1 X80.955 Y-18.83 E225.19748
G1 X79.768 Y-18.83 E225.33427
G1 X73.568 Y-25.03 E226.34477
G1 X72.38 Y-25.03 E226.48168
G1 X78.58 Y-18.83 E227.49218
G1 X77.392 Y-18.83 E227.62909
G1 X71.192 Y-25.03 E228.63958
G1 X70.004 Y-25.03 E228.7765
G1 X76.204 Y-18.83 E229.78699
G1 X75.016 Y-18.83 E229.9239
G1 X68.816 Y-25.03 E230.9344
G1 X67.628 Y-25.03 E231.07131
G1 X73.828 Y-18.83 E232.0818
G1 X72.64 Y-18.83 E232.21872
G1 X66.44 Y-25.03 E233.22921
G1 X65.252 Y-25.03 E233.36612
G1 X71.452 Y-18.83 E234.37662
G1 X70.264 Y-18.83 E234.51353
G1 X64.064 Y-25.03 E235.52403
G1 X62.876 Y-25.03 E235.66094
G1 X69.076 Y-18.83 E236.67143
G1 X67.888 Y-18.83 E236.80835
G1 X61.688 Y-25.03 E237.81884
G1 X60.5 Y-25.03 E237.95575
G1 X66.7 Y-18.83 E238.96625
G1 X65.512 Y-18.83 E239.10316
G1 X59.312 Y-25.03 E240.11365
G1 X58.124 Y-25.03 E240.25057
G1 X64.324 Y-18.83 E241.26106
G1 X63.136 Y-18.83 E241.39797
G1 X56.936 Y-25.03 E242.40847
G1 X55.749 Y-25.03 E242.54527
G1 X61.948 Y-18.83 E243.55568
G1 X60.76 Y-18.83 E243.69259
G1 X54.561 Y-25.03 E244.703
G1 X53.373 Y-25.03 E244.83992
G1 X59.573 Y-18.83 E245.85041
G1 X58.385 Y-18.83 E245.98732
G1 X52.185 Y-25.03 E246.99782
G1 X50.997 Y-25.03 E247.13473
G1 X57.197 Y-18.83 E248.14523
G1 X56.009 Y-18.83 E248.28214
G1 X49.809 Y-25.03 E249.29263
G1 X48.621 Y-25.03 E249.42955
G1 X54.821 Y-18.83 E250.44004
G1 X53.633 Y-18.83 E250.57695
G1 X47.433 Y-25.03 E251.58745
G1 X46.245 Y-25.03 E251.72436
G1 X52.445 Y-18.83 E252.73485
G1 X51.257 Y-18.83 E252.87177
G1 X45.057 Y-25.03 E253.88226
G1 X43.869 Y-25.03 E254.01917
G1 X50.069 Y-18.83 E255.02967
G1 X48.881 Y-18.83 E255.16658
G1 X42.681 Y-25.03 E256.17708
G1 X41.493 Y-25.03 E256.31399
G1 X47.693 Y-18.83 E257.32448
G1 X46.505 Y-18.83 E257.4614
G1 X40.305 Y-25.03 E258.47189
G1 X39.117 Y-25.03 E258.6088
G1 X45.317 Y-18.83 E259.6193
G1 X44.129 Y-18.83 E259.75621
G1 X37.929 Y-25.03 E260.7667
G1 X36.741 Y-25.03 E260.90362
G1 X42.941 Y-18.83 E261.91411
G1 X41.753 Y-18.83 E262.05102
G1 X35.554 Y-25.03 E263.06144
G1 X34.366 Y-25.03 E263.19835
G1 X40.566 Y-18.83 E264.20884
G1 X39.378 Y-18.83 E264.34576
G1 X33.178 Y-25.03 E265.35625
G1 X31.99 Y-25.03 E265.49316
G1 X38.19 Y-18.83 E266.50366
G1 X37.002 Y-18.83 E266.64057
G1 X30.802 Y-25.03 E267.65107
G1 X29.614 Y-25.03 E267.78798
G1 X35.814 Y-18.83 E268.79847
G1 X34.626 Y-18.83 E268.93539
G1 X28.426 Y-25.03 E269.94588
G1 X27.238 Y-25.03 E270.08279
G1 X33.438 Y-18.83 E271.09329
G1 X32.25 Y-18.83 E271.2302
G1 X26.05 Y-25.03 E272.24069
G1 X24.862 Y-25.03 E272.37761
G1 X31.062 Y-18.83 E273.3881
G1 X29.874 Y-18.83 E273.52501
G1 X23.674 Y-25.03 E274.53551
G1 X22.486 Y-25.03 E274.67242
G1 X28.686 Y-18.83 E275.68292
G1 X27.498 Y-18.83 E275.81983
G1 X21.298 Y-25.03 E276.83032
G1 X20.11 Y-25.03 E276.96724
G1 X26.31 Y-18.83 E277.97773
G1 X25.122 Y-18.83 E278.11464
G1 X18.922 Y-25.03 E279.12514
G1 X17.734 Y-25.03 E279.26205
G1 X23.934 Y-18.83 E280.27254
G1 X22.746 Y-18.83 E280.40946
G1 X16.547 Y-25.03 E281.41987
G1 X15.359 Y-25.03 E281.55678
G1 X21.558 Y-18.83 E282.5672
G1 X20.371 Y-18.83 E282.70399
G1 X14.171 Y-25.03 E283.71449
G1 X12.983 Y-25.03 E283.8514
G1 X19.183 Y-18.83 E284.86189
G1 X17.995 Y-18.83 E284.99881
G1 X11.795 Y-25.03 E286.0093
G1 X10.607 Y-25.03 E286.14621
G1 X16.807 Y-18.83 E287.15671
G1 X15.619 Y-18.83 E287.29362
G1 X9.419 Y-25.03 E288.30412
G1 X8.231 Y-25.03 E288.44103
G1 X14.431 Y-18.83 E289.45152
G1 X13.243 Y-18.83 E289.58844
G1 X7.043 Y-25.03 E290.59893
G1 X5.855 Y-25.03 E290.73584
G1 X12.055 Y-18.83 E291.74634
G1 X10.867 Y-18.83 E291.88325
G1 X4.667 Y-25.03 E292.89374
G1 X3.479 Y-25.03 E293.03066
G1 X9.679 Y-18.83 E294.04115
G1 X8.491 Y-18.83 E294.17806
G1 X2.291 Y-25.03 E295.18856
G1 X1.103 Y-25.03 E295.32547
G1 X7.303 Y-18.83 E296.33597
G1 X6.115 Y-18.83 E296.47288
G1 X-0.084 Y-25.03 E297.48329
G1 X-1.272 Y-25.03 E297.6202
G1 X4.927 Y-18.83 E298.63062
G1 X3.739 Y-18.83 E298.76753
G1 X-2.46 Y-25.03 E299.77794
G1 X-3.647 Y-25.03 E299.91474
G1 X2.551 Y-18.83 E300.92507
G1 X1.364 Y-18.83 E301.06187
G1 X-4.835 Y-25.03 E302.07228
G1 X-6.023 Y-25.03 E302.2092
G1 X0.176 Y-18.83 E303.21961
G1 X-1.011 Y-18.83 E303.35641
G1 X-7.211 Y-25.03 E304.3669
G1 X-8.399 Y-25.03 E304.50381
G1 X-2.199 Y-18.83 E305.51431
G1 X-3.387 Y-18.83 E305.65122
G1 X-9.587 Y-25.03 E306.66171
G1 X-10.775 Y-25.03 E306.79863
G1 X-4.575 Y-18.83 E307.80912
G1 X-5.763 Y-18.83 E307.94603
G1 X-11.963 Y-25.03 E308.95653
G1 X-13.151 Y-25.03 E309.09344
G1 X-6.951 Y-18.83 E310.10394
G1 X-8.139 Y-18.83 E310.24085
G1 X-14.339 Y-25.03 E311.25134
G1 X-15.527 Y-25.03 E311.38826
G1 X-9.327 Y-18.83 E312.39875
G1 X-10.515 Y-18.83 E312.53566
G1 X-16.715 Y-25.03 E313.54616
G1 X-17.903 Y-25.03 E313.68307
G1 X-11.703 Y-18.83 E314.69356
G1 X-12.891 Y-18.83 E314.83048
G1 X-19.091 Y-25.03 E315.84097
G1 X-20.279 Y-25.03 E315.97788
G1 X-14.079 Y-18.83 E316.98838
G1 X-15.267 Y-18.83 E317.12529
G1 X-21.467 Y-25.03 E318.13579
G1 X-22.654 Y-25.03 E318.27258
G1 X-16.455 Y-18.83 E319.283
G1 X-17.643 Y-18.83 E319.41991
G1 X-23.842 Y-25.03 E320.43032
G1 X-25.03 Y-25.03 E320.56723
G1 X-18.83 Y-18.83 E321.57773
G1 X-20.018 Y-18.83 E321.71464
G1 X-26.218 Y-25.03 E322.72514
G1 X-27.406 Y-25.03 E322.86205
G1 X-21.206 Y-18.83 E323.87254
G1 X-22.394 Y-18.83 E324.00946
G1 X-28.594 Y-25.03 E325.01995
G1 X-29.782 Y-25.03 E325.15686
G1 X-23.582 Y-18.83 E326.16736
G1 X-24.77 Y-18.83 E326.30427
G1 X-30.97 Y-25.03 E327.31476
G1 X-32.158 Y-25.03 E327.45168
G1 X-25.958 Y-18.83 E328.46217
G1 X-27.146 Y-18.83 E328.59908
G1 X-33.346 Y-25.03 E329.60958
G1 X-34.534 Y-25.03 E329.74649
G1 X-28.334 Y-18.83 E330.75699
G1 X-29.522 Y-18.83 E330.8939
G1 X-35.722 Y-25.03 E331.90439
G1 X-36.91 Y-25.03 E332.04131
G1 X-30.71 Y-18.83 E333.0518
G1 X-31.898 Y-18.83 E333.18871
G1 X-38.098 Y-25.03 E334.19921
G1 X-39.286 Y-25.03 E334.33612
G1 X-33.086 Y-18.83 E335.34661
G1 X-34.274 Y-18.83 E335.48353
G1 X-40.474 Y-25.03 E336.49402
G1 X-41.662 Y-25.03 E336.63093
G1 X-35.462 Y-18.83 E337.64143
G1 X-36.65 Y-18.83 E337.77834
G1 X-42.849 Y-25.03 E338.78875
G1 X-44.037 Y-25.03 E338.92567
G1 X-37.837 Y-18.83 E339.93616
G1 X-39.025 Y-18.83 E340.07307
G1 X-45.225 Y-25.03 E341.08357
G1 X-46.413 Y-25.03 E341.22048
G1 X-40.213 Y-18.83 E342.23098
G1 X-41.401 Y-18.83 E342.36789
G1 X-47.601 Y-25.03 E343.37838
G1 X-48.789 Y-25.03 E343.5153
G1 X-42.589 Y-18.83 E344.52579
G1 X-43.777 Y-18.83 E344.6627
G1 X-49.977 Y-25.03 E345.6732
G1 X-51.165 Y-25.03 E345.81011
G1 X-44.965 Y-18.83 E346.8206
G1 X-46.153 Y-18.83 E346.95752
G1 X-52.353 Y-25.03 E347.96801
G1 X-53.541 Y-25.03 E348.10492
G1 X-47.341 Y-18.83 E349.11542
G1 X-48.529 Y-18.83 E349.25233
G1 X-54.729 Y-25.03 E350.26283
G1 X-55.917 Y-25.03 E350.39974
G1 X-49.717 Y-18.83 E351.41023
G1 X-50.905 Y-18.83 E351.54715
G1 X-57.105 Y-25.03 E352.55764
G1 X-58.293 Y-25.03 E352.69455
G1 X-52.093 Y-18.83 E353.70505
G1 X-53.281 Y-18.83 E353.84196
G1 X-59.481 Y-25.03 E354.85245
G1 X-60.669 Y-25.03 E354.98937
G1 X-54.469 Y-18.83 E355.99986
G1 X-55.657 Y-18.83 E356.13677
G1 X-61.856 Y-25.03 E357.14719
G1 X-63.044 Y-25.03 E357.2841
G1 X-56.845 Y-18.83 E358.29451
G1 X-58.032 Y-18.83 E358.43131
G1 X-64.232 Y-25.03 E359.4418
G1 X-65.42 Y-25.03 E359.57872
G1 X-59.22 Y-18.83 E360.58921
G1 X-60.408 Y-18.83 E360.72612
G1 X-66.608 Y-25.03 E361.73662
G1 X-67.796 Y-25.03 E361.87353
G1 X-61.596 Y-18.83 E362.88403
G1 X-62.784 Y-18.83 E363.02094
G1 X-68.984 Y-25.03 E364.03143
G1 X-70.172 Y-25.03 E364.16835
G1 X-63.972 Y-18.83 E365.17884
G1 X-65.16 Y-18.83 E365.31575
G1 X-71.36 Y-25.03 E366.32625
G1 X-72.548 Y-25.03 E366.46316
G1 X-66.348 Y-18.83 E367.47365
G1 X-67.536 Y-18.83 E367.61057
G1 X-73.736 Y-25.03 E368.62106
G1 X-74.924 Y-25.03 E368.75797
G1 X-68.724 Y-18.83 E369.76847
G1 X-69.912 Y-18.83 E369.90538
G1 X-76.112 Y-25.03 E370.91588
G1 X-77.3 Y-25.03 E371.05279
G1 X-71.1 Y-18.83 E372.06328
G1 X-72.288 Y-18.83 E372.2002
G1 X-78.488 Y-25.03 E373.21069
