;FLAVOR:Marlin
;TIME:4616
;Filament used: 5.10851m
;Layer height: 0.3
;MINX:109.587
;MINY:143.886
;MINZ:0.3
;MAXX:155.052
;MAXY:283.486
;MAXZ:15.6
;Generated with Cura_SteamEngine 4.10.0
M104 S228
M105
M109 S228
M82 ;absolute extrusion mode
G28 ; home all axes
 M117 Purge extruder
 G92 E0 ; reset extruder
 G1 Z1.0 F3000 ; move z up little to prevent scratching of surface
 G1 X2 Y20 Z0.3 F5000.0 ; move to start-line position
 G1 X2 Y200.0 Z0.3 F1500.0 E15 ; draw 1st line
 G1 X2 Y200.0 Z0.4 F5000.0 ; move to side a little
 G1 X2 Y20 Z0.4 F1500.0 E30 ; draw 2nd line
 G92 E0 ; reset extruder
 G1 Z1.0 F3000 ; move z up little to prevent scratching of surface
G92 E0
G92 E0
G1 F2400 E-1.6
;LAYER_COUNT:53
;LAYER:0
M106 S89.3
G0 F6000 X148.82 Y146.271 Z0.3
;TYPE:SKIRT
G1 F2400 E0
G1 F900 X148.887 Y146.232 E0.00492
G1 X148.954 Y146.271 E0.00985
G1 X148.82 Y146.271 E0.01836
G0 F6000 X148.711 Y146.754
G1 F900 X148.234 Y146.801 E0.0488
G1 X148.008 Y146.862 E0.06367
G1 X147.544 Y147.072 E0.09602
G1 X147.46 Y147.117 E0.10207
G1 X147.066 Y147.363 E0.13157
G1 X146.907 Y147.498 E0.14482
G1 X146.505 Y147.954 E0.18343
G1 X146.405 Y148.101 E0.19472
G1 X146.215 Y148.471 E0.22114
G1 X146.178 Y148.554 E0.22691
G1 X146.08 Y148.824 E0.24516
G1 X146.051 Y148.928 E0.25201
G1 X145.966 Y149.35 E0.27935
G1 X145.952 Y149.492 E0.28842
G1 X145.952 Y149.777 E0.30652
G1 X145.977 Y150.173 E0.33172
G1 X146.015 Y150.362 E0.34396
G1 X146.184 Y150.85 E0.37677
G1 X146.243 Y150.978 E0.38572
G1 X146.411 Y151.265 E0.40684
G1 X146.448 Y151.322 E0.41116
G1 X146.636 Y151.583 E0.43159
G1 X146.728 Y151.688 E0.44045
G1 X147.087 Y152.024 E0.47168
G1 X147.234 Y152.13 E0.48319
G1 X147.558 Y152.307 E0.50664
G1 X147.812 Y152.419 E0.52427
G1 X147.856 Y152.437 E0.52729
G1 X148.218 Y152.565 E0.55168
G1 X148.424 Y152.605 E0.56501
G1 X148.87 Y152.626 E0.59337
G1 X148.948 Y152.626 E0.59832
G1 X149.402 Y152.598 E0.62721
G1 X149.621 Y152.549 E0.64147
G1 X150.373 Y152.254 E0.69277
G1 X150.614 Y152.099 E0.71097
G1 X151.087 Y151.636 E0.75301
G1 X151.173 Y151.533 E0.76153
G1 X151.349 Y151.281 E0.78106
G1 X151.385 Y151.225 E0.78528
G1 X151.594 Y150.857 E0.81216
G1 X151.667 Y150.675 E0.82462
G1 X151.77 Y150.261 E0.85172
G1 X151.787 Y150.166 E0.85785
G1 X151.842 Y149.666 E0.88979
G1 X151.832 Y149.444 E0.90391
G1 X151.652 Y148.556 E0.96146
G1 X151.502 Y148.241 E0.98362
G1 X150.972 Y147.597 E1.03659
G1 X150.835 Y147.47 E1.04845
G1 X150.468 Y147.207 E1.07713
G1 X150.375 Y147.15 E1.08406
G1 X149.856 Y146.886 E1.12104
G1 X149.607 Y146.812 E1.13754
G1 X149.079 Y146.755 E1.17127
G1 X149.002 Y146.751 E1.17617
G1 X148.711 Y146.754 E1.19465
G0 F6000 X148.887 Y145.679
G1 F900 X151.625 Y147.259 E1.39543
G1 X151.985 Y147.355 E1.4191
G1 X152.455 Y147.355 E1.44895
G1 X152.455 Y150.489 E1.648
G1 X152.514 Y150.773 E1.66642
G1 X152.671 Y151.138 E1.69166
G1 X152.838 Y151.378 E1.71023
G1 X153.12 Y151.644 E1.73485
G1 X152.825 Y151.644 E1.75359
G1 X152.465 Y151.74 E1.77725
G1 X148.887 Y153.805 E2.03964
G1 X145.319 Y151.747 E2.30125
G1 X145.319 Y147.356 E2.58015
G1 X145.788 Y147.356 E2.60993
G1 X146.148 Y147.26 E2.6336
G1 X148.887 Y145.679 E2.83446
G0 F6000 X148.887 Y145.124
G1 F900 X151.865 Y146.843 E3.05286
G1 X151.985 Y146.875 E3.06075
G1 X153.094 Y146.875 E3.13118
G1 X153.005 Y146.964 E3.13918
G1 X152.935 Y147.134 E3.15086
G1 X152.935 Y150.489 E3.36395
G1 X152.955 Y150.584 E3.37011
G1 X153.112 Y150.949 E3.39535
G1 X153.167 Y151.029 E3.40151
G1 X154.147 Y151.953 E3.48706
G1 X154.146 Y152.492 E3.5213
G1 X153.931 Y152.496 E3.53495
G1 X153.343 Y152.156 E3.5781
G1 X153.223 Y152.124 E3.58598
G1 X152.825 Y152.124 E3.61126
G1 X152.705 Y152.156 E3.61915
G1 X148.887 Y154.36 E3.89915
G1 X144.839 Y152.024 E4.196
G1 X144.839 Y147.142 E4.50607
G1 X144.769 Y146.972 E4.51775
G1 X144.672 Y146.875 E4.52646
G1 X145.788 Y146.876 E4.59734
G1 X145.908 Y146.844 E4.60523
G1 X148.887 Y145.124 E4.82371
G0 F6000 X146.031 Y147.804
G1 F900 X145.978 Y147.882 E4.8297
G1 X145.799 Y148.231 E4.85462
G1 X145.799 Y147.834 E4.87983
G1 X146.031 Y147.804 E4.89469
G0 F6000 X145.799 Y151.157
G1 F900 X145.828 Y151.22 E4.89909
G1 X145.996 Y151.507 E4.92022
G1 X146.08 Y151.632 E4.92978
G1 X145.799 Y151.47 E4.95038
G1 X145.799 Y151.157 E4.97026
G0 F6000 X148.615 Y153.095
G1 F900 X148.978 Y153.105 E4.99333
G1 X149.161 Y153.094 E5.00497
G1 X148.887 Y153.252 E5.02506
G1 X148.615 Y153.095 E5.04501
G0 F6000 X152.069 Y150.951
G1 F900 X152.228 Y151.324 E5.07076
G1 X151.688 Y151.635 E5.11034
G1 X151.802 Y151.462 E5.1235
G1 X152.011 Y151.094 E5.15038
G1 X152.069 Y150.951 E5.16018
G0 F6000 X151.766 Y147.806
G1 F900 X151.975 Y147.834 E5.17357
G1 X151.975 Y148.095 E5.19015
G1 X151.766 Y147.806 E5.2128
G1 F2400 E3.6128
G0 F6000 X155.048 Y153.403
G0 X155.048 Y273.968
G0 X154.522 Y274.497
G0 X152.967 Y274.501
G0 X148.887 Y273.013
G1 F2400 E5.2128
G1 F900 X152.888 Y275.322 E5.5062
G1 X153.021 Y275.354 E5.51489
G1 X153.128 Y275.322 E5.52199
G1 X153.473 Y275.122 E5.54731
G1 X153.567 Y275.022 E5.55603
G1 X153.593 Y274.877 E5.56539
G1 X153.977 Y274.876 E5.58978
G1 X154.147 Y274.88 E5.60058
G1 X154.147 Y275.419 E5.63481
G1 X153.005 Y276.561 E5.73739
G1 X152.935 Y276.731 E5.74907
G1 X152.935 Y280.229 E5.97124
G1 X153.005 Y280.399 E5.98292
G1 X153.104 Y280.498 E5.99181
G1 X151.986 Y280.496 E6.06282
G1 X151.866 Y280.528 E6.07071
G1 X148.887 Y282.249 E6.28922
G1 X145.909 Y280.529 E6.50765
G1 X145.789 Y280.497 E6.51553
G1 X144.653 Y280.497 E6.58769
G1 X144.668 Y280.475 E6.58938
G1 X144.821 Y280.107 E6.61469
G1 X144.839 Y280.015 E6.62064
G1 X144.84 Y275.347 E6.91713
G1 X148.887 Y273.013 E7.21385
G0 F6000 X148.886 Y273.567
G1 F900 X152.648 Y275.738 E7.48973
G1 X152.872 Y275.821 E7.5049
G1 X153.062 Y275.826 E7.51697
G1 X152.666 Y276.222 E7.55254
G1 X152.527 Y276.417 E7.56775
G1 X152.455 Y276.731 E7.58821
G1 X152.455 Y280.017 E7.79692
G1 X151.987 Y280.016 E7.82665
G1 X151.626 Y280.113 E7.85039
G1 X148.887 Y281.695 E8.05129
G1 X146.149 Y280.114 E8.2521
G1 X145.789 Y280.017 E8.27578
G1 X145.319 Y280.017 E8.30563
G1 X145.32 Y275.624 E8.58465
G1 X148.886 Y273.567 E8.84612
G0 F6000 X148.887 Y274.121
G1 F900 X149.165 Y274.282 E8.86652
G1 X148.9 Y274.257 E8.88343
G1 X148.631 Y274.269 E8.90053
G1 X148.887 Y274.121 E8.91931
G0 F6000 X148.855 Y274.735
G1 F900 X148.658 Y274.744 E8.93184
G1 X148.185 Y274.831 E8.96238
G1 X148.071 Y274.862 E8.96989
G1 X147.505 Y275.066 E9.0081
G1 X147.277 Y275.199 E9.02487
G1 X146.763 Y275.645 E9.06809
G1 X146.65 Y275.77 E9.07879
G1 X146.431 Y276.078 E9.10279
G1 X146.198 Y276.46 E9.13121
G1 X146.113 Y276.668 E9.14549
G1 X145.971 Y277.265 E9.18446
G1 X145.951 Y277.432 E9.19514
G1 X145.951 Y277.944 E9.22766
G1 X145.971 Y278.111 E9.23835
G1 X146.078 Y278.559 E9.2676
G1 X146.119 Y278.682 E9.27584
G1 X146.287 Y279.063 E9.30228
G1 X146.357 Y279.187 E9.31133
G1 X147.441 Y280.729 E9.43104
G1 X147.609 Y280.899 E9.44622
G1 X147.856 Y281.014 E9.46353
G1 X148.242 Y281.11 E9.48879
G1 X148.481 Y281.128 E9.50402
G1 X148.743 Y281.052 E9.52134
G1 X150.373 Y280.22 E9.63758
G1 X150.459 Y280.169 E9.64393
G1 X150.783 Y279.942 E9.66905
G1 X150.907 Y279.831 E9.67962
G1 X151.148 Y279.561 E9.70261
G1 X151.19 Y279.51 E9.70681
G1 X151.389 Y279.241 E9.72806
G1 X151.466 Y279.11 E9.73771
G1 X151.669 Y278.661 E9.76901
G1 X151.722 Y278.492 E9.78026
G1 X151.799 Y278.066 E9.80775
G1 X151.809 Y277.973 E9.81369
G1 X151.832 Y277.499 E9.84384
G1 X151.814 Y277.299 E9.85659
G1 X151.672 Y276.696 E9.89594
G1 X151.592 Y276.497 E9.90956
G1 X151.355 Y276.095 E9.9392
G1 X151.322 Y276.045 E9.943
G1 X151.125 Y275.772 E9.96439
G1 X151.023 Y275.658 E9.9741
G1 X150.646 Y275.318 E10.00635
G1 X150.497 Y275.215 E10.01785
G1 X150.133 Y275.025 E10.04393
G1 X150.049 Y274.987 E10.04979
G1 X149.625 Y274.831 E10.07848
G1 X149.443 Y274.79 E10.09033
G1 X148.855 Y274.735 E10.12784
G0 F6000 X146.08 Y275.74
G1 F900 X146.022 Y275.828 E10.13453
G1 X145.8 Y276.192 E10.16161
G1 X145.8 Y275.902 E10.18003
G1 X146.08 Y275.74 E10.20058
G0 F6000 X145.799 Y279.146
G1 F900 X145.964 Y279.463 E10.22328
G1 X146.04 Y279.57 E10.23161
G1 X145.799 Y279.538 E10.24705
G1 X145.799 Y279.146 E10.27195
G0 F6000 X151.975 Y279.148
G1 F900 X151.975 Y279.538 E10.29672
G1 X151.746 Y279.567 E10.31138
G1 X151.775 Y279.527 E10.31452
G1 X151.903 Y279.307 E10.33069
G1 X151.975 Y279.148 E10.34177
G0 F6000 X151.695 Y275.741
G1 F900 X152.207 Y276.037 E10.37933
G1 X152.045 Y276.349 E10.40166
G1 X152.007 Y276.255 E10.4081
G1 X151.766 Y275.847 E10.4382
G1 X151.695 Y275.741 E10.4463
G1 F2400 E8.8463
;MESH:bag_hook.3mf
G0 F6000 X153.081 Y273.343
G0 X152.987 Y267.723
G0 X152.767 Y265.715
G0 X152.33 Y263.749
G0 X151.692 Y261.859
G0 X150.854 Y260.047
G0 X149.811 Y258.31
G0 X148.586 Y256.697
G0 X147.196 Y255.23
G0 X145.669 Y253.933
G0 X144.029 Y252.817
G0 X142.555 Y252.034
G0 X139.437 Y250.648
;TYPE:WALL-INNER
G1 F2400 E10.4463
G1 F900 X140.385 Y250.94 E10.50441
G1 X141.375 Y251.304 E10.5662
G1 X142.282 Y251.695 E10.62406
G1 X143.202 Y252.153 E10.68427
G1 X144.117 Y252.671 E10.74586
G1 X144.936 Y253.195 E10.80282
G1 X145.768 Y253.793 E10.86284
G1 X146.572 Y254.441 E10.92334
G1 X147.318 Y255.111 E10.98207
G1 X148.056 Y255.85 E11.04326
G1 X148.72 Y256.591 E11.10154
G1 X149.356 Y257.383 E11.16105
G1 X149.955 Y258.219 E11.22129
G1 X150.501 Y259.075 E11.28077
G1 X151.002 Y259.962 E11.34045
G1 X151.453 Y260.87 E11.39984
G1 X151.848 Y261.79 E11.45849
G1 X152.217 Y262.796 E11.52127
G1 X152.496 Y263.708 E11.57714
G1 X152.754 Y264.747 E11.63985
G1 X152.936 Y265.693 E11.69628
G1 X153.081 Y266.767 E11.75977
G1 X153.158 Y267.719 E11.81572
G1 X153.187 Y268.756 E11.87649
G1 X153.187 Y272.135 E12.07444
G1 X153.187 Y272.136 E12.0745
G1 X153.187 Y272.549 E12.09869
G1 X152.829 Y272.343 E12.11242
G1 X148.887 Y270.068 E12.37904
G1 X144.515 Y272.59 E12.67471
G1 X144.435 Y272.636 E12.68012
G1 X144.064 Y272.636 E12.70185
G1 X144.064 Y272.543 E12.70677
G1 X144.064 Y270.736 E12.81263
G1 X144.037 Y269.967 E12.85771
G1 X144.024 Y269.812 E12.86682
G1 X143.956 Y269.165 E12.90493
G1 X143.82 Y268.38 E12.9516
G1 X143.63 Y267.605 E12.99835
G1 X143.391 Y266.846 E13.04496
G1 X143.101 Y266.113 E13.09114
G1 X143.036 Y265.971 E13.10029
G1 X142.754 Y265.383 E13.13849
G1 X142.364 Y264.688 E13.18518
G1 X141.926 Y264.022 E13.23187
G1 X141.445 Y263.388 E13.27849
G1 X140.922 Y262.787 E13.32516
G1 X140.358 Y262.222 E13.37193
G1 X139.757 Y261.698 E13.41864
G1 X139.12 Y261.217 E13.4654
G1 X138.455 Y260.78 E13.51201
G1 X137.759 Y260.388 E13.55881
G1 X137.038 Y260.046 E13.60556
G1 X136.297 Y259.754 E13.65221
G1 X135.543 Y259.513 E13.69859
G1 X135.393 Y259.475 E13.70765
G1 X134.761 Y259.324 E13.74572
G1 X133.978 Y259.187 E13.79228
G1 X133.183 Y259.106 E13.83909
G1 X132.407 Y259.08 E13.88458
G1 X119.431 Y259.079 E14.64473
G1 X118.749 Y259.055 E14.6847
G1 X118.16 Y258.987 E14.71944
G1 X117.533 Y258.869 E14.75681
G1 X116.92 Y258.705 E14.79399
G1 X116.353 Y258.507 E14.82917
G1 X115.775 Y258.253 E14.86615
G1 X115.222 Y257.963 E14.90273
G1 X114.698 Y257.632 E14.93904
G1 X114.205 Y257.269 E14.97491
G1 X113.732 Y256.861 E15.0115
G1 X113.289 Y256.42 E15.04812
G1 X112.879 Y255.943 E15.08496
G1 X112.516 Y255.455 E15.12059
G1 X112.479 Y255.393 E15.12482
G1 X112.183 Y254.924 E15.15731
G1 X111.886 Y254.361 E15.1946
G1 X111.635 Y253.785 E15.23141
G1 X111.439 Y253.226 E15.26611
G1 X111.27 Y252.597 E15.30426
G1 X111.155 Y251.98 E15.34103
G1 X111.088 Y251.396 E15.37547
G1 X111.063 Y250.72 E15.41509
G1 X111.064 Y176.66 E19.75361
G1 X111.088 Y175.979 E19.79353
G1 X111.156 Y175.39 E19.82826
G1 X111.275 Y174.758 E19.86593
G1 X111.438 Y174.15 E19.90281
G1 X111.636 Y173.583 E19.93799
G1 X111.894 Y172.995 E19.97561
G1 X112.181 Y172.45 E20.01169
G1 X112.507 Y171.933 E20.04749
G1 X112.88 Y171.426 E20.08437
G1 X113.29 Y170.951 E20.12113
G1 X113.722 Y170.519 E20.15691
G1 X114.197 Y170.109 E20.19367
G1 X114.692 Y169.743 E20.22974
G1 X115.237 Y169.402 E20.2674
G1 X115.775 Y169.117 E20.30306
G1 X116.344 Y168.87 E20.3394
G1 X116.924 Y168.667 E20.3754
G1 X117.533 Y168.504 E20.41233
G1 X118.16 Y168.386 E20.44971
G1 X118.748 Y168.318 E20.48438
G1 X119.432 Y168.293 E20.52448
G1 X132.407 Y168.294 E21.28457
G1 X133.184 Y168.267 E21.33011
G1 X133.978 Y168.186 E21.37687
G1 X134.763 Y168.049 E21.42355
G1 X135.535 Y167.861 E21.47009
G1 X136.298 Y167.62 E21.51697
G1 X137.032 Y167.33 E21.5632
G1 X137.174 Y167.262 E21.57242
G1 X137.76 Y166.983 E21.61044
G1 X138.455 Y166.593 E21.65713
G1 X139.12 Y166.156 E21.70375
G1 X139.757 Y165.675 E21.75051
G1 X140.358 Y165.151 E21.79722
G1 X140.922 Y164.587 E21.84394
G1 X141.445 Y163.986 E21.89061
G1 X141.926 Y163.351 E21.93728
G1 X142.364 Y162.683 E21.98407
G1 X142.755 Y161.988 E22.03079
G1 X143.096 Y161.269 E22.0774
G1 X143.391 Y160.527 E22.12418
G1 X143.63 Y159.767 E22.17085
G1 X143.82 Y158.993 E22.21754
G1 X143.956 Y158.205 E22.26438
G1 X144.037 Y157.413 E22.31102
G1 X144.063 Y156.636 E22.35656
G1 X144.063 Y154.828 E22.46248
G1 X144.063 Y154.736 E22.46787
G1 X144.435 Y154.735 E22.48966
G1 X144.514 Y154.781 E22.49449
G1 X148.887 Y157.305 E22.79028
G1 X152.829 Y155.03 E23.0569
G1 X153.187 Y154.824 E23.0811
G1 X153.187 Y155.237 E23.09482
G1 X153.187 Y155.238 E23.09488
G1 X153.187 Y158.596 E23.29159
G1 X153.157 Y159.672 E23.35465
G1 X153.078 Y160.63 E23.41096
G1 X152.934 Y161.69 E23.47363
G1 X152.752 Y162.638 E23.53018
G1 X152.494 Y163.671 E23.59255
G1 X152.195 Y164.644 E23.65218
G1 X151.856 Y165.565 E23.70967
G1 X151.445 Y166.519 E23.77053
G1 X150.989 Y167.436 E23.83052
G1 X150.483 Y168.33 E23.8907
G1 X149.948 Y169.165 E23.94879
G1 X149.35 Y169.997 E24.00882
G1 X148.703 Y170.8 E24.06923
G1 X148.032 Y171.547 E24.12805
G1 X147.299 Y172.279 E24.18873
G1 X146.537 Y172.963 E24.24872
G1 X145.768 Y173.58 E24.30647
G1 X144.924 Y174.184 E24.36727
G1 X144.068 Y174.731 E24.42678
G1 X143.158 Y175.246 E24.48804
G1 X142.29 Y175.674 E24.54473
G1 X141.337 Y176.083 E24.60548
G1 X140.376 Y176.437 E24.66548
G1 X139.411 Y176.73 E24.72456
G1 X138.393 Y176.984 E24.78602
G1 X137.441 Y177.166 E24.8428
G1 X136.377 Y177.31 E24.9057
G1 X135.42 Y177.387 E24.96194
G1 X134.354 Y177.416 E25.02441
G1 X126.348 Y177.416 E25.49341
G1 X125.731 Y177.45 E25.52961
G1 X125.092 Y177.552 E25.56752
G1 X124.462 Y177.721 E25.60573
G1 X123.858 Y177.955 E25.64367
G1 X123.281 Y178.249 E25.68161
G1 X122.735 Y178.605 E25.71979
G1 X122.233 Y179.013 E25.75769
G1 X121.773 Y179.473 E25.7958
G1 X121.367 Y179.978 E25.83376
G1 X121.014 Y180.522 E25.87175
G1 X120.719 Y181.102 E25.90987
G1 X120.488 Y181.707 E25.9478
G1 X120.321 Y182.335 E25.98587
G1 X120.318 Y182.359 E25.98729
G1 X120.22 Y182.975 E26.02383
G1 X120.187 Y183.583 E26.0595
G1 X120.187 Y243.795 E29.58678
G1 X120.221 Y244.413 E29.62304
G1 X120.323 Y245.054 E29.66106
G1 X120.492 Y245.679 E29.69899
G1 X120.725 Y246.286 E29.73708
G1 X121.02 Y246.864 E29.77509
G1 X121.376 Y247.408 E29.81318
G1 X121.784 Y247.911 E29.85112
G1 X122.244 Y248.369 E29.88915
G1 X122.748 Y248.777 E29.92713
G1 X123.293 Y249.131 E29.9652
G1 X123.873 Y249.425 E30.0033
G1 X124.478 Y249.655 E30.04121
G1 X125.104 Y249.823 E30.07918
G1 X125.746 Y249.924 E30.11725
G1 X126.355 Y249.956 E30.15298
G1 X134.367 Y249.956 E30.62233
G1 X135.443 Y249.986 E30.68539
G1 X136.401 Y250.065 E30.7417
G1 X137.458 Y250.208 E30.80418
G1 X138.431 Y250.398 E30.86226
G1 X139.437 Y250.648 E30.92298
G0 F6000 X139.565 Y250.185
G1 F900 X140.546 Y250.487 E30.98311
G1 X141.547 Y250.855 E31.04559
G1 X142.486 Y251.26 E31.1055
G1 X143.431 Y251.73 E31.16732
G1 X144.354 Y252.253 E31.22947
G1 X145.209 Y252.8 E31.28893
G1 X146.059 Y253.411 E31.35025
G1 X146.883 Y254.075 E31.41225
G1 X147.649 Y254.763 E31.47256
G1 X148.396 Y255.511 E31.53449
G1 X149.094 Y256.29 E31.59576
G1 X149.739 Y257.093 E31.6561
G1 X150.354 Y257.951 E31.71794
G1 X150.911 Y258.825 E31.77866
G1 X151.425 Y259.734 E31.83983
G1 X151.888 Y260.667 E31.90085
G1 X152.299 Y261.625 E31.96191
G1 X152.668 Y262.631 E32.02468
G1 X152.962 Y263.592 E32.08356
G1 X153.22 Y264.631 E32.14627
G1 X153.224 Y264.656 E32.14775
G1 X153.406 Y265.602 E32.20419
G1 X153.412 Y265.629 E32.20581
G1 X153.557 Y266.703 E32.2693
G1 X153.635 Y267.68 E32.32671
G1 X153.638 Y267.706 E32.32824
G1 X153.667 Y268.756 E32.38978
