;FLAVOR:Marlin
;TIME:9799
;Filament used: 12.0519m
;Layer height: 0.3
;MINX:93.584
;MINY:47.272
;MINZ:0.3
;MAXX:264.184
;MAXY:61.595
;MAXZ:45
;Generated with Cura_SteamEngine 4.10.0
M104 S228
M105
M109 S228
M82 ;absolute extrusion mode
G28 ; home all axes
 M117 Purge extruder
 G92 E0 ; reset extruder
 G1 Z1.0 F3000 ; move z up little to prevent scratching of surface
 G1 X2 Y20 Z0.3 F5000.0 ; move to start-line position
 G1 X2 Y200.0 Z0.3 F1500.0 E15 ; draw 1st line
 G1 X2 Y200.0 Z0.4 F5000.0 ; move to side a little
 G1 X2 Y20 Z0.4 F1500.0 E30 ; draw 2nd line
 G92 E0 ; reset extruder
 G1 Z1.0 F3000 ; move z up little to prevent scratching of surface
G92 E0
G92 E0
G1 F2400 E-1.6
;LAYER_COUNT:150
;LAYER:0
M106 S89.3
;MESH:Frame.3mf
G0 F6000 X96.941 Y58.904 Z0.3
;TYPE:WALL-INNER
G1 F2400 E0
G1 F900 X96.243 Y59.116 E0.04273
G1 X95.554 Y59.418 E0.0868
G1 X95.029 Y59.728 E0.12252
G1 X94.927 Y59.788 E0.12945
G1 X94.584 Y60.048 E0.15467
G1 X94.584 Y59.788 E0.1582
G1 X94.584 Y59.669 E0.16432
G1 X94.584 Y49.137 E0.78129
G1 X263.184 Y49.137 E10.65806
G1 X263.184 Y59.675 E11.27539
G1 X263.184 Y59.776 E11.28131
G1 X263.183 Y60.049 E11.2973
G1 X262.821 Y59.776 E11.31195
G1 X262.734 Y59.725 E11.31723
G1 X262.193 Y59.408 E11.35396
G1 X261.525 Y59.117 E11.39665
G1 X260.827 Y58.905 E11.43938
G1 X260.115 Y58.779 E11.48174
G1 X260.087 Y58.778 E11.48338
G1 X259.419 Y58.737 E11.52259
G1 X98.339 Y58.737 E20.95883
G1 X97.637 Y58.781 E21.00003
G1 X96.941 Y58.904 E21.04144
G0 F6000 X97.053 Y59.372
G1 F900 X96.41 Y59.567 E21.0808
G1 X95.773 Y59.846 E21.12154
G1 X95.195 Y60.187 E21.16085
G1 X94.66 Y60.593 E21.20019
G1 X94.528 Y60.72 E21.21092
G1 X94.236 Y61.001 E21.23466
G1 X94.126 Y61.049 E21.24169
G1 X94.104 Y60.984 E21.24207
G1 X94.104 Y60.578 E21.25797
G1 X94.104 Y48.657 E21.95631
G1 X263.425 Y48.657 E31.87532
G1 X263.664 Y48.657 E31.88932
G1 X263.664 Y48.896 E31.89838
G1 X263.663 Y60.567 E32.58208
G1 X263.663 Y60.965 E32.6054
G1 X263.625 Y61.045 E32.61059
G1 X263.619 Y61.057 E32.61137
G1 X263.609 Y61.051
G1 X263.524 Y60.997 E32.61378
G1 X263.239 Y60.72 E32.62951
G1 X263.109 Y60.594 E32.64012
G1 X262.554 Y60.176 E32.68082
G1 X261.975 Y59.837 E32.72012
G1 X261.359 Y59.568 E32.7595
G1 X260.715 Y59.373 E32.79892
G1 X260.058 Y59.256 E32.83801
G1 X259.405 Y59.217 E32.87633
G1 X98.354 Y59.217 E42.31087
G1 X97.694 Y59.258 E42.34961
G1 X97.053 Y59.372 E42.38775
G0 F6000 X97.165 Y59.84
;TYPE:WALL-OUTER
G1 F900 X96.576 Y60.018 E42.4238
G1 X95.992 Y60.274 E42.46115
G1 X95.463 Y60.586 E42.49713
G1 X94.973 Y60.958 E42.53317
G1 X94.536 Y61.379 E42.56872
G1 X94.305 Y61.53 E42.58488
G1 X94.042 Y61.544 E42.60031
G1 X93.799 Y61.421 E42.61627
G1 X93.656 Y61.211 E42.63115
G1 X93.624 Y61.026 E42.64215
G1 X93.624 Y48.177 E43.39486
G1 X264.144 Y48.177 E53.3841
G1 X264.143 Y61.029 E54.13698
G1 X264.069 Y61.3 E54.15344
G1 X263.891 Y61.479 E54.16823
G1 X263.625 Y61.554 E54.18442
G1 X263.37 Y61.49 E54.19982
G1 X263.209 Y61.36 E54.21194
G1 X262.796 Y60.959 E54.24567
G1 X262.288 Y60.576 E54.28294
G1 X261.757 Y60.266 E54.31895
G1 X261.193 Y60.019 E54.35502
G1 X260.603 Y59.841 E54.39113
G1 X260.001 Y59.733 E54.42695
G1 X259.391 Y59.697 E54.46275
G1 X98.369 Y59.697 E63.89559
G1 X97.751 Y59.735 E63.93186
G1 X97.165 Y59.84 E63.96674
G0 F6000 X97.042 Y59.327
G0 X96.831 Y58.446
;TYPE:SKIN
G1 F900 X96.08 Y58.674 E64.01272
G1 X95.339 Y58.999 E64.06012
G1 X95.054 Y59.167 E64.0795
G1 X95.054 Y49.607 E64.63953
G1 X262.714 Y49.607 E74.46124
G1 X262.713 Y59.169 E75.02139
G1 X262.407 Y58.989 E75.04219
G1 X261.688 Y58.675 E75.08815
G1 X260.937 Y58.447 E75.13412
G1 X260.17 Y58.311 E75.17976
G1 X259.433 Y58.267 E75.22301
G1 X98.324 Y58.267 E84.66095
G1 X97.582 Y58.313 E84.7045
G1 X96.831 Y58.446 E84.74918
G0 F6000 X96.915 Y58.796
G0 X94.777 Y59.66
G0 X94.694 Y58.449
G0 X95.493 Y58.449
G1 F900 X95.695 Y58.36 E84.76211
G1 X95.493 Y58.158 E84.77884
G0 F6000 X95.695 Y58.36
G1 F900 X95.927 Y58.259 E84.79366
G1 X96.192 Y58.178 E84.8099
G1 X95.493 Y57.479 E84.86781
G1 X95.493 Y56.8 E84.90758
G1 X96.713 Y58.02 E85.00866
G1 X96.727 Y58.017 E85.00949
G1 X97.288 Y57.916 E85.04289
G1 X95.493 Y56.121 E85.1916
G1 X95.493 Y55.442 E85.23137
G1 X97.901 Y57.851 E85.43091
G1 X98.31 Y57.827 E85.45491
G1 X98.555 Y57.826 E85.46926
G1 X95.493 Y54.764 E85.72294
G1 X95.493 Y54.085 E85.76271
G1 X99.234 Y57.826 E86.07264
G1 X99.913 Y57.826 E86.11242
G1 X95.493 Y53.406 E86.4786
G1 X95.493 Y52.727 E86.51837
G1 X100.592 Y57.826 E86.9408
G1 X101.271 Y57.826 E86.98058
G1 X95.493 Y52.048 E87.45927
G1 X95.493 Y51.369 E87.49904
G1 X101.949 Y57.826 E88.03394
G1 X102.628 Y57.826 E88.07372
G1 X95.493 Y50.691 E88.66482
G1 X95.493 Y50.047 E88.70255
G1 X95.528 Y50.047 E88.7046
G1 X103.307 Y57.826 E89.34906
G1 X103.986 Y57.826 E89.38884
G1 X96.207 Y50.047 E90.0333
G1 X96.886 Y50.047 E90.07307
G1 X104.665 Y57.826 E90.71753
G1 X105.344 Y57.826 E90.75731
G1 X97.565 Y50.047 E91.40177
G1 X98.244 Y50.047 E91.44155
G1 X106.022 Y57.826 E92.08597
G1 X106.701 Y57.826 E92.12574
G1 X98.922 Y50.047 E92.7702
G1 X99.601 Y50.047 E92.80998
G1 X107.38 Y57.826 E93.45444
G1 X108.059 Y57.826 E93.49422
G1 X100.28 Y50.047 E94.13868
G1 X100.959 Y50.047 E94.17845
G1 X108.738 Y57.826 E94.82291
G1 X109.416 Y57.826 E94.86263
G1 X101.638 Y50.047 E95.50705
G1 X102.316 Y50.047 E95.54677
G1 X110.095 Y57.826 E96.19123
G1 X110.774 Y57.826 E96.231
G1 X102.995 Y50.047 E96.87546
G1 X103.674 Y50.047 E96.91524
G1 X111.453 Y57.826 E97.5597
G1 X112.132 Y57.826 E97.59948
G1 X104.353 Y50.047 E98.24394
G1 X105.032 Y50.047 E98.28371
G1 X112.811 Y57.826 E98.92817
G1 X113.489 Y57.826 E98.96789
G1 X105.711 Y50.047 E99.61231
G1 X106.389 Y50.047 E99.65203
G1 X114.168 Y57.826 E100.29649
G1 X114.847 Y57.826 E100.33627
G1 X107.068 Y50.047 E100.98073
G1 X107.747 Y50.047 E101.0205
G1 X115.526 Y57.826 E101.66496
G1 X116.205 Y57.826 E101.70474
G1 X108.426 Y50.047 E102.3492
G1 X109.105 Y50.047 E102.38898
G1 X116.884 Y57.826 E103.03344
G1 X117.562 Y57.826 E103.07315
G1 X109.783 Y50.047 E103.71761
G1 X110.462 Y50.047 E103.75739
G1 X118.241 Y57.826 E104.40185
G1 X118.92 Y57.826 E104.44163
G1 X111.141 Y50.047 E105.08609
G1 X111.82 Y50.047 E105.12586
G1 X119.599 Y57.826 E105.77033
G1 X120.278 Y57.826 E105.8101
G1 X112.499 Y50.047 E106.45456
G1 X113.178 Y50.047 E106.49434
G1 X120.956 Y57.826 E107.13876
G1 X121.635 Y57.826 E107.17853
G1 X113.856 Y50.047 E107.82299
G1 X114.535 Y50.047 E107.86277
G1 X122.314 Y57.826 E108.50723
G1 X122.993 Y57.826 E108.54701
G1 X115.214 Y50.047 E109.19147
G1 X115.893 Y50.047 E109.23124
G1 X123.672 Y57.826 E109.8757
G1 X124.351 Y57.826 E109.91548
G1 X116.572 Y50.047 E110.55994
G1 X117.251 Y50.047 E110.59972
G1 X125.029 Y57.826 E111.24414
G1 X125.708 Y57.826 E111.28391
G1 X117.929 Y50.047 E111.92837
G1 X118.608 Y50.047 E111.96815
G1 X126.387 Y57.826 E112.61261
G1 X127.066 Y57.826 E112.65239
G1 X119.287 Y50.047 E113.29685
G1 X119.966 Y50.047 E113.33662
G1 X127.745 Y57.826 E113.98108
G1 X128.424 Y57.826 E114.02086
G1 X120.645 Y50.047 E114.66532
G1 X121.323 Y50.047 E114.70504
G1 X129.102 Y57.826 E115.3495
G1 X129.781 Y57.826 E115.38927
G1 X122.002 Y50.047 E116.03374
G1 X122.681 Y50.047 E116.07351
G1 X130.46 Y57.826 E116.71797
G1 X131.139 Y57.826 E116.75775
G1 X123.36 Y50.047 E117.40221
G1 X124.039 Y50.047 E117.44199
G1 X131.818 Y57.826 E118.08645
G1 X132.496 Y57.826 E118.12616
G1 X124.718 Y50.047 E118.77058
G1 X125.396 Y50.047 E118.8103
G1 X133.175 Y57.826 E119.45476
G1 X133.854 Y57.826 E119.49454
G1 X126.075 Y50.047 E120.139
G1 X126.754 Y50.047 E120.17877
G1 X134.533 Y57.826 E120.82323
G1 X135.212 Y57.826 E120.86301
G1 X127.433 Y50.047 E121.50747
G1 X128.112 Y50.047 E121.54725
G1 X135.891 Y57.826 E122.19171
G1 X136.569 Y57.826 E122.23143
G1 X128.791 Y50.047 E122.87584
G1 X129.469 Y50.047 E122.91556
G1 X137.248 Y57.826 E123.56002
G1 X137.927 Y57.826 E123.5998
G1 X130.148 Y50.047 E124.24426
G1 X130.827 Y50.047 E124.28404
G1 X138.606 Y57.826 E124.9285
G1 X139.285 Y57.826 E124.96827
G1 X131.506 Y50.047 E125.61273
G1 X132.185 Y50.047 E125.65251
G1 X139.964 Y57.826 E126.29697
G1 X140.642 Y57.826 E126.33669
G1 X132.863 Y50.047 E126.98115
G1 X133.542 Y50.047 E127.02092
G1 X141.321 Y57.826 E127.66538
G1 X142 Y57.826 E127.70516
G1 X134.221 Y50.047 E128.34962
G1 X134.9 Y50.047 E128.3894
G1 X142.679 Y57.826 E129.03386
G1 X143.358 Y57.826 E129.07363
G1 X135.579 Y50.047 E129.71809
G1 X136.258 Y50.047 E129.75787
G1 X144.036 Y57.826 E130.40229
G1 X144.715 Y57.826 E130.44207
G1 X136.936 Y50.047 E131.08653
G1 X137.615 Y50.047 E131.1263
G1 X145.394 Y57.826 E131.77076
G1 X146.073 Y57.826 E131.81054
G1 X138.294 Y50.047 E132.455
G1 X138.973 Y50.047 E132.49478
G1 X146.752 Y57.826 E133.13924
G1 X147.431 Y57.826 E133.17901
G1 X139.652 Y50.047 E133.82347
G1 X140.33 Y50.047 E133.86319
G1 X148.109 Y57.826 E134.50765
G1 X148.788 Y57.826 E134.54743
G1 X141.009 Y50.047 E135.19189
G1 X141.688 Y50.047 E135.23167
G1 X149.467 Y57.826 E135.87613
G1 X150.146 Y57.826 E135.9159
G1 X142.367 Y50.047 E136.56036
G1 X143.046 Y50.047 E136.60014
G1 X150.825 Y57.826 E137.2446
G1 X151.503 Y57.826 E137.28432
G1 X143.725 Y50.047 E137.92874
G1 X144.403 Y50.047 E137.96845
G1 X152.182 Y57.826 E138.61291
G1 X152.861 Y57.826 E138.65269
G1 X145.082 Y50.047 E139.29715
G1 X145.761 Y50.047 E139.33693
G1 X153.54 Y57.826 E139.98139
G1 X154.219 Y57.826 E140.02116
G1 X146.44 Y50.047 E140.66562
G1 X147.119 Y50.047 E140.7054
G1 X154.898 Y57.826 E141.34986
G1 X155.576 Y57.826 E141.38958
G1 X147.798 Y50.047 E142.034
G1 X148.476 Y50.047 E142.07372
G1 X156.255 Y57.826 E142.71818
G1 X156.934 Y57.826 E142.75795
G1 X149.155 Y50.047 E143.40241
G1 X149.834 Y50.047 E143.44219
G1 X157.613 Y57.826 E144.08665
G1 X158.292 Y57.826 E144.12643
G1 X150.513 Y50.047 E144.77089
G1 X151.192 Y50.047 E144.81066
G1 X158.971 Y57.826 E145.45512
G1 X159.649 Y57.826 E145.49484
G1 X151.87 Y50.047 E146.1393
G1 X152.549 Y50.047 E146.17908
G1 X160.328 Y57.826 E146.82354
G1 X161.007 Y57.826 E146.86331
G1 X153.228 Y50.047 E147.50777
G1 X153.907 Y50.047 E147.54755
G1 X161.686 Y57.826 E148.19201
G1 X162.365 Y57.826 E148.23179
G1 X154.586 Y50.047 E148.87625
G1 X155.265 Y50.047 E148.91602
G1 X163.043 Y57.826 E149.56044
G1 X163.722 Y57.826 E149.60022
G1 X155.943 Y50.047 E150.24468
G1 X156.622 Y50.047 E150.28446
G1 X164.401 Y57.826 E150.92892
G1 X165.08 Y57.826 E150.96869
G1 X157.301 Y50.047 E151.61315
G1 X157.98 Y50.047 E151.65293
G1 X165.759 Y57.826 E152.29739
G1 X166.438 Y57.826 E152.33717
G1 X158.659 Y50.047 E152.98163
G1 X159.338 Y50.047 E153.0214
G1 X167.116 Y57.826 E153.66582
G1 X167.795 Y57.826 E153.7056
G1 X160.016 Y50.047 E154.35006
G1 X160.695 Y50.047 E154.38984
G1 X168.474 Y57.826 E155.0343
G1 X169.153 Y57.826 E155.07407
G1 X161.374 Y50.047 E155.71853
G1 X162.053 Y50.047 E155.75831
G1 X169.832 Y57.826 E156.40277
G1 X170.511 Y57.826 E156.44255
G1 X162.732 Y50.047 E157.08701
G1 X163.41 Y50.047 E157.12672
G1 X171.189 Y57.826 E157.77118
G1 X171.868 Y57.826 E157.81096
G1 X164.089 Y50.047 E158.45542
G1 X164.768 Y50.047 E158.4952
G1 X172.547 Y57.826 E159.13966
G1 X173.226 Y57.826 E159.17944
G1 X165.447 Y50.047 E159.8239
G1 X166.126 Y50.047 E159.86367
G1 X173.905 Y57.826 E160.50813
G1 X174.583 Y57.826 E160.54785
G1 X166.805 Y50.047 E161.19227
G1 X167.483 Y50.047 E161.23199
G1 X175.262 Y57.826 E161.87645
G1 X175.941 Y57.826 E161.91622
G1 X168.162 Y50.047 E162.56068
G1 X168.841 Y50.047 E162.60046
G1 X176.62 Y57.826 E163.24492
G1 X177.299 Y57.826 E163.2847
G1 X169.52 Y50.047 E163.92916
G1 X170.199 Y50.047 E163.96893
G1 X177.978 Y57.826 E164.61339
G1 X178.656 Y57.826 E164.65311
G1 X170.878 Y50.047 E165.29753
G1 X171.556 Y50.047 E165.33725
G1 X179.335 Y57.826 E165.98171
G1 X180.014 Y57.826 E166.02149
G1 X172.235 Y50.047 E166.66595
G1 X172.914 Y50.047 E166.70572
G1 X180.693 Y57.826 E167.35018
G1 X181.372 Y57.826 E167.38996
G1 X173.593 Y50.047 E168.03442
G1 X174.272 Y50.047 E168.0742
G1 X182.051 Y57.826 E168.71866
G1 X182.729 Y57.826 E168.75837
G1 X174.95 Y50.047 E169.40283
G1 X175.629 Y50.047 E169.44261
G1 X183.408 Y57.826 E170.08707
G1 X184.087 Y57.826 E170.12685
G1 X176.308 Y50.047 E170.77131
G1 X176.987 Y50.047 E170.81108
G1 X184.766 Y57.826 E171.45554
G1 X185.445 Y57.826 E171.49532
G1 X177.666 Y50.047 E172.13978
G1 X178.345 Y50.047 E172.17956
G1 X186.123 Y57.826 E172.82398
G1 X186.802 Y57.826 E172.86375
G1 X179.023 Y50.047 E173.50821
G1 X179.702 Y50.047 E173.54799
G1 X187.481 Y57.826 E174.19245
G1 X188.16 Y57.826 E174.23223
G1 X180.381 Y50.047 E174.87669
G1 X181.06 Y50.047 E174.91646
G1 X188.839 Y57.826 E175.56092
G1 X189.518 Y57.826 E175.6007
G1 X181.739 Y50.047 E176.24516
G1 X182.417 Y50.047 E176.28488
G1 X190.196 Y57.826 E176.92934
G1 X190.875 Y57.826 E176.96912
G1 X183.096 Y50.047 E177.61358
G1 X183.775 Y50.047 E177.65335
G1 X191.554 Y57.826 E178.29781
G1 X192.233 Y57.826 E178.33759
G1 X184.454 Y50.047 E178.98205
G1 X185.133 Y50.047 E179.02183
G1 X192.912 Y57.826 E179.66629
G1 X193.59 Y57.826 E179.706
G1 X185.812 Y50.047 E180.35042
G1 X186.49 Y50.047 E180.39014
G1 X194.269 Y57.826 E181.0346
G1 X194.948 Y57.826 E181.07438
G1 X187.169 Y50.047 E181.71884
G1 X187.848 Y50.047 E181.75861
G1 X195.627 Y57.826 E182.40307
G1 X196.306 Y57.826 E182.44285
G1 X188.527 Y50.047 E183.08731
G1 X189.206 Y50.047 E183.12709
G1 X196.985 Y57.826 E183.77155
G1 X197.663 Y57.826 E183.81127
G1 X189.885 Y50.047 E184.45568
G1 X190.563 Y50.047 E184.4954
G1 X198.342 Y57.826 E185.13986
G1 X199.021 Y57.826 E185.17964
G1 X191.242 Y50.047 E185.8241
G1 X191.921 Y50.047 E185.86388
G1 X199.7 Y57.826 E186.50834
G1 X200.379 Y57.826 E186.54811
G1 X192.6 Y50.047 E187.19257
G1 X193.279 Y50.047 E187.23235
G1 X201.058 Y57.826 E187.87681
G1 X201.736 Y57.826 E187.91653
G1 X193.957 Y50.047 E188.56099
G1 X194.636 Y50.047 E188.60076
G1 X202.415 Y57.826 E189.24522
G1 X203.094 Y57.826 E189.285
G1 X195.315 Y50.047 E189.92946
G1 X195.994 Y50.047 E189.96924
G1 X203.773 Y57.826 E190.6137
G1 X204.452 Y57.826 E190.65347
G1 X196.673 Y50.047 E191.29794
G1 X197.352 Y50.047 E191.33771
G1 X205.13 Y57.826 E191.98213
G1 X205.809 Y57.826 E192.02191
G1 X198.03 Y50.047 E192.66637
G1 X198.709 Y50.047 E192.70614
G1 X206.488 Y57.826 E193.3506
G1 X207.167 Y57.826 E193.39038
G1 X199.388 Y50.047 E194.03484
G1 X200.067 Y50.047 E194.07462
G1 X207.846 Y57.826 E194.71908
G1 X208.525 Y57.826 E194.75885
G1 X200.746 Y50.047 E195.40331
G1 X201.425 Y50.047 E195.44309
G1 X209.203 Y57.826 E196.08751
G1 X209.882 Y57.826 E196.12729
G1 X202.103 Y50.047 E196.77175
G1 X202.782 Y50.047 E196.81152
G1 X210.561 Y57.826 E197.45598
G1 X211.24 Y57.826 E197.49576
G1 X203.461 Y50.047 E198.14022
G1 X204.14 Y50.047 E198.18
G1 X211.919 Y57.826 E198.82446
G1 X212.598 Y57.826 E198.86423
G1 X204.819 Y50.047 E199.50869
G1 X205.497 Y50.047 E199.54841
G1 X213.276 Y57.826 E200.19287
G1 X213.955 Y57.826 E200.23265
G1 X206.176 Y50.047 E200.87711
G1 X206.855 Y50.047 E200.91688
G1 X214.634 Y57.826 E201.56135
G1 X215.313 Y57.826 E201.60112
G1 X207.534 Y50.047 E202.24558
G1 X208.213 Y50.047 E202.28536
G1 X215.992 Y57.826 E202.92982
G1 X216.67 Y57.826 E202.96954
G1 X208.892 Y50.047 E203.61396
G1 X209.57 Y50.047 E203.65367
G1 X217.349 Y57.826 E204.29813
G1 X218.028 Y57.826 E204.33791
G1 X210.249 Y50.047 E204.98237
G1 X210.928 Y50.047 E205.02215
G1 X218.707 Y57.826 E205.66661
G1 X219.386 Y57.826 E205.70638
G1 X211.607 Y50.047 E206.35084
G1 X212.286 Y50.047 E206.39062
G1 X220.065 Y57.826 E207.03508
G1 X220.743 Y57.826 E207.0748
G1 X212.965 Y50.047 E207.71922
G1 X213.643 Y50.047 E207.75894
G1 X221.422 Y57.826 E208.4034
G1 X222.101 Y57.826 E208.44317
G1 X214.322 Y50.047 E209.08763
G1 X215.001 Y50.047 E209.12741
G1 X222.78 Y57.826 E209.77187
G1 X223.459 Y57.826 E209.81165
G1 X215.68 Y50.047 E210.45611
G1 X216.359 Y50.047 E210.49588
G1 X224.138 Y57.826 E211.14034
G1 X224.816 Y57.826 E211.18006
G1 X217.037 Y50.047 E211.82452
G1 X217.716 Y50.047 E211.8643
G1 X225.495 Y57.826 E212.50876
G1 X226.174 Y57.826 E212.54853
G1 X218.395 Y50.047 E213.19299
G1 X219.074 Y50.047 E213.23277
G1 X226.853 Y57.826 E213.87723
G1 X227.532 Y57.826 E213.91701
G1 X219.753 Y50.047 E214.56147
G1 X220.432 Y50.047 E214.60124
G1 X228.21 Y57.826 E215.24566
G1 X228.889 Y57.826 E215.28544
