;FLAVOR:Marlin
;TIME:1332
;Filament used: 1.30858m
;Layer height: 0.3
;MINX:13.5
;MINY:11.179
;MINZ:0.3
;MAXX:107.2
;MAXY:55.384
;MAXZ:2.1
;Generated with Cura_SteamEngine 4.10.0
M104 S210
M105
M109 S210
M82 ;absolute extrusion mode
G21 ;metric values
G90 ;absolute positioning
M82 ;set extruder to absolute mode
M107 ;start with the fan off
G28 X0 Y0 ;move X/Y to min endstops
G28 Z0 ;move Z to min endstops
M501
M420 S1 ;Marlin Bed-leveling on
G1 Z15.0 F180.0 ;move the platform down 15mm
G92 E0 ;zero the extruded length
G1 F200 E3 ;extrude 3mm of feed stock
G92 E0 ;zero the extruded length again
G1 F180.0
M117 Printing...
G5
G92 E0
G92 E0
;LAYER_COUNT:7
;LAYER:0
M107
M204 S3500
M205 X10 Y10
G0 F6171.4 X16.805 Y14.992 Z0.3
M204 S1800
M205 X8 Y8
;TYPE:SKIRT
G1 F1200 X17.206 Y14.583 E0.05641
G1 X17.633 Y14.194 E0.1133
G1 X17.975 Y13.904 E0.15746
G1 X18.575 Y13.448 E0.23167
G1 X19.257 Y13.038 E0.31004
G1 X19.331 Y12.999 E0.31828
G1 X20.015 Y12.684 E0.39244
G1 X20.729 Y12.442 E0.46669
G1 X21.464 Y12.278 E0.54085
G1 X22.212 Y12.193 E0.61499
G1 X22.966 Y12.187 E0.68925
G1 X23.386 Y12.219 E0.73074
G1 X24.359 Y12.323 E0.82711
G1 X25.15 Y12.418 E0.90557
G1 X27.75 Y12.656 E1.16269
G1 X30.392 Y12.823 E1.42341
G1 X33.023 Y12.915 E1.68267
G1 X35.665 Y12.932 E1.94287
G1 X38.266 Y12.876 E2.19909
G1 X40.901 Y12.745 E2.45891
G1 X43.494 Y12.542 E2.71506
G1 X46.128 Y12.26 E2.97595
G1 X48.744 Y11.905 E3.23594
G1 X51.336 Y11.479 E3.49463
G1 X51.733 Y11.404 E3.53442
G1 X52.38 Y11.293 E3.59907
G1 X53.373 Y11.194 E3.69735
G1 X53.922 Y11.181 E3.75143
G1 X82.526 Y11.179 E6.56845
G1 X83.567 Y11.183 E6.67097
G1 X83.805 Y11.181 E6.69441
G1 X85.754 Y11.183 E6.88635
G1 X86.005 Y11.181 E6.91107
G1 X87.788 Y11.183 E7.08667
G1 X88.513 Y11.181 E7.15807
G1 X89.58 Y11.183 E7.26315
G1 X90.136 Y11.179 E7.31791
G1 X91.167 Y11.183 E7.41945
G1 X91.405 Y11.181 E7.44289
G1 X94.499 Y11.182 E7.74759
G1 X95.194 Y11.196 E7.81605
G1 X95.959 Y11.232 E7.89148
G1 X96.541 Y11.283 E7.94901
G1 X96.864 Y11.325 E7.98109
G1 X97.429 Y11.422 E8.03755
G1 X97.879 Y11.518 E8.08286
G1 X98.497 Y11.679 E8.14576
G1 X99.411 Y11.99 E8.24084
G1 X99.977 Y12.219 E8.30097
G1 X100.83 Y12.64 E8.39465
G1 X101.373 Y12.947 E8.45608
G1 X101.795 Y13.22 E8.50558
G1 X102.161 Y13.472 E8.54934
G1 X102.635 Y13.828 E8.60772
G1 X103.057 Y14.184 E8.6621
G1 X103.384 Y14.479 E8.70547
G1 X103.821 Y14.909 E8.76585
G1 X104.174 Y15.299 E8.81765
G1 X104.47 Y15.647 E8.86265
G1 X104.834 Y16.113 E8.92088
G1 X105.125 Y16.532 E8.97112
G1 X105.374 Y16.916 E9.01619
G1 X105.676 Y17.426 E9.07456
G1 X105.928 Y17.914 E9.12865
G1 X106.111 Y18.297 E9.17046
G1 X106.336 Y18.821 E9.22662
G1 X106.537 Y19.374 E9.28457
G1 X106.678 Y19.811 E9.32979
G1 X106.84 Y20.397 E9.38966
G1 X106.947 Y20.892 E9.43954
G1 X107.026 Y21.315 E9.48192
G1 X107.109 Y21.885 E9.53865
G1 X107.157 Y22.45 E9.59449
G1 X107.179 Y22.957 E9.64447
G1 X107.2 Y24.204 E9.76729
G1 X107.199 Y41.95 E11.51498
G1 X107.19 Y42.661 E11.585
G1 X107.18 Y44.058 E11.72259
G1 X107.185 Y44.912 E11.8067
G1 X107.2 Y46.505 E11.96359
G1 X107.198 Y47.616 E12.073
G1 X107.189 Y48.256 E12.13604
G1 X107.139 Y49.008 E12.21026
G1 X107.009 Y49.75 E12.28445
G1 X106.801 Y50.474 E12.35863
G1 X106.479 Y51.254 E12.44174
G1 X106.431 Y51.353 E12.45257
G1 X106.066 Y52.012 E12.52676
G1 X105.634 Y52.629 E12.60094
G1 X105.139 Y53.197 E12.67514
G1 X104.587 Y53.71 E12.74936
G1 X103.984 Y54.16 E12.82345
G1 X103.336 Y54.545 E12.89769
G1 X102.651 Y54.858 E12.97186
G1 X101.936 Y55.098 E13.04613
G1 X101.075 Y55.279 E13.13278
G1 X100.939 Y55.299 E13.14632
G1 X99.992 Y55.374 E13.23987
G1 X99.418 Y55.381 E13.29641
G1 X97.539 Y55.384 E13.48146
G1 X96.732 Y55.381 E13.56093
G1 X96.286 Y55.384 E13.60486
G1 X93.835 Y55.377 E13.84624
G1 X93.396 Y55.38 E13.88948
G1 X91.694 Y55.375 E14.0571
G1 X90.82 Y55.381 E14.14317
G1 X88.065 Y55.38 E14.41449
G1 X83.898 Y55.368 E14.82488
G1 X75.849 Y55.323 E15.61758
G1 X68.621 Y55.272 E16.32943
G1 X56.912 Y55.175 E17.48261
G1 X36.441 Y54.985 E19.49875
G1 X22.19 Y54.837 E20.90231
G1 X21.604 Y54.822 E20.96004
G1 X20.498 Y54.706 E21.06956
G1 X20.189 Y54.649 E21.10051
G1 X19.456 Y54.473 E21.17475
G1 X18.747 Y54.221 E21.24885
G1 X18.067 Y53.895 E21.32312
G1 X17.588 Y53.607 E21.37816
G1 X17.42 Y53.497 E21.39794
G1 X16.812 Y53.051 E21.4722
G1 X16.255 Y52.544 E21.54638
G1 X15.755 Y51.98 E21.6206
G1 X15.318 Y51.367 E21.69474
G1 X15.002 Y50.826 E21.75645
G1 X14.669 Y50.15 E21.83066
G1 X14.41 Y49.443 E21.90481
G1 X14.243 Y48.788 E21.97138
G1 X14.2 Y48.579 E21.9924
G1 X14.061 Y47.468 E22.10267
G1 X14.037 Y46.919 E22.15678
G1 X14.021 Y46.428 E22.20517
G1 X14.011 Y45.901 E22.25708
G1 X13.92 Y43.64 E22.47993
G1 X13.923 Y43.354 E22.50809
G1 X13.886 Y42.38 E22.60409
G1 X13.705 Y36.448 E23.18856
G1 X13.606 Y32.796 E23.54835
G1 X13.554 Y30.535 E23.77108
G1 X13.511 Y28.16 E24.00502
G1 X13.5 Y26.825 E24.1365
G1 X13.501 Y23.883 E24.42624
G1 X13.515 Y23.18 E24.49548
G1 X13.551 Y22.42 E24.57042
G1 X13.603 Y21.838 E24.62796
G1 X13.645 Y21.516 E24.65994
G1 X13.744 Y20.94 E24.7175
G1 X13.84 Y20.494 E24.76243
G1 X13.996 Y19.897 E24.8232
G1 X14.308 Y18.974 E24.91915
G1 X14.533 Y18.418 E24.97822
G1 X14.942 Y17.582 E25.06988
G1 X15.207 Y17.107 E25.12345
G1 X15.555 Y16.561 E25.18721
G1 X15.818 Y16.183 E25.23256
G1 X16.175 Y15.713 E25.29069
G1 X16.513 Y15.315 E25.34211
G1 X16.805 Y14.992 E25.38499
M204 S3500
M205 X10 Y10
G0 F6171.4 X17.428 Y15.555
M204 S1800
M205 X8 Y8
G1 F1200 X17.782 Y15.194 E25.43479
G1 X18.176 Y14.834 E25.48735
G1 X18.518 Y14.544 E25.53151
G1 X19.083 Y14.118 E25.60119
G1 X19.648 Y13.781 E25.66598
G1 X19.722 Y13.742 E25.67422
G1 X20.366 Y13.448 E25.74394
G1 X21.038 Y13.229 E25.81355
G1 X21.731 Y13.086 E25.88323
G1 X22.436 Y13.023 E25.95294
G1 X23.298 Y13.055 E26.03789
G1 X24.259 Y13.157 E26.13307
G1 X25.046 Y13.251 E26.21112
G1 X27.725 Y13.497 E26.47607
G1 X30.345 Y13.663 E26.73461
G1 X32.988 Y13.754 E26.99506
G1 X35.642 Y13.772 E27.25644
G1 X38.326 Y13.714 E27.52083
G1 X40.939 Y13.584 E27.77849
G1 X43.615 Y13.374 E28.04284
G1 X46.222 Y13.095 E28.30105
G1 X48.85 Y12.739 E28.56223
G1 X51.48 Y12.307 E28.82471
G1 X51.875 Y12.232 E28.8643
G1 X52.522 Y12.121 E28.92895
G1 X53.398 Y12.034 E29.01565
G1 X53.922 Y12.021 E29.06727
G1 X82.523 Y12.019 E31.88399
G1 X83.571 Y12.023 E31.9872
G1 X83.812 Y12.021 E32.01094
G1 X85.759 Y12.023 E32.20268
G1 X86.012 Y12.021 E32.2276
G1 X87.788 Y12.023 E32.40251
G1 X88.511 Y12.021 E32.47371
G1 X89.581 Y12.023 E32.57909
G1 X90.133 Y12.019 E32.63345
G1 X91.171 Y12.023 E32.73568
G1 X91.412 Y12.021 E32.75941
G1 X94.487 Y12.022 E33.06225
G1 X95.154 Y12.035 E33.12795
G1 X95.919 Y12.071 E33.20337
G1 X96.432 Y12.116 E33.25409
G1 X96.755 Y12.158 E33.28617
G1 X97.254 Y12.244 E33.33604
G1 X97.704 Y12.34 E33.38135
G1 X98.248 Y12.482 E33.43672
G1 X99.129 Y12.781 E33.52835
G1 X99.628 Y12.983 E33.58136
G1 X100.448 Y13.388 E33.67143
G1 X100.927 Y13.659 E33.72563
G1 X101.685 Y14.164 E33.81533
G1 X102.102 Y14.478 E33.86674
G1 X102.494 Y14.808 E33.9172
G1 X102.821 Y15.103 E33.96058
G1 X103.206 Y15.482 E34.01378
G1 X103.83 Y16.191 E34.1068
G1 X104.151 Y16.602 E34.15816
G1 X104.669 Y17.373 E34.24963
G1 X104.935 Y17.823 E34.30111
G1 X105.17 Y18.276 E34.35137
G1 X105.353 Y18.659 E34.39318
G1 X105.552 Y19.121 E34.44272
G1 X105.738 Y19.632 E34.49627
G1 X105.879 Y20.069 E34.54149
G1 X106.021 Y20.586 E34.5943
G1 X106.201 Y21.469 E34.68304
G1 X106.274 Y21.972 E34.7331
G1 X106.318 Y22.492 E34.78449
G1 X106.339 Y22.972 E34.83181
G1 X106.36 Y24.204 E34.95316
G1 X106.359 Y41.939 E36.69976
G1 X106.35 Y42.655 E36.77028
G1 X106.34 Y44.052 E36.90787
G1 X106.345 Y44.92 E36.99335
G1 X106.36 Y46.504 E37.14936
G1 X106.358 Y47.604 E37.25769
G1 X106.349 Y48.244 E37.32072
G1 X106.299 Y48.95 E37.39043
G1 X106.17 Y49.645 E37.46004
G1 X105.963 Y50.322 E37.52976
G1 X105.723 Y50.887 E37.59022
G1 X105.675 Y50.986 E37.60105
G1 X105.331 Y51.604 E37.67071
G1 X104.919 Y52.179 E37.74037
G1 X104.445 Y52.705 E37.8101
G1 X103.915 Y53.173 E37.87974
G1 X103.336 Y53.579 E37.94938
G1 X102.714 Y53.916 E38.01905
G1 X102.058 Y54.181 E38.08873
G1 X101.377 Y54.371 E38.15836
G1 X100.817 Y54.468 E38.21433
G1 X99.982 Y54.535 E38.29683
G1 X99.417 Y54.541 E38.35247
G1 X97.542 Y54.544 E38.53713
G1 X96.728 Y54.541 E38.61729
G1 X96.289 Y54.544 E38.66053
G1 X93.832 Y54.537 E38.9025
G1 X93.398 Y54.54 E38.94525
G1 X91.69 Y54.535 E39.11346
G1 X90.821 Y54.541 E39.19904
G1 X88.068 Y54.54 E39.47016
G1 X83.903 Y54.528 E39.88035
G1 X75.855 Y54.483 E40.67295
G1 X68.628 Y54.432 E41.38471
G1 X56.92 Y54.335 E42.53779
G1 X36.449 Y54.145 E44.55393
G1 X22.212 Y53.997 E45.95611
G1 X21.626 Y53.982 E46.01384
G1 X20.65 Y53.88 E46.11049
G1 X20.341 Y53.823 E46.14143
G1 X19.654 Y53.656 E46.21106
G1 X18.99 Y53.412 E46.28073
G1 X18.358 Y53.095 E46.35036
G1 X17.88 Y52.794 E46.40599
G1 X17.311 Y52.374 E46.47564
G1 X16.793 Y51.892 E46.54532
G1 X16.333 Y51.355 E46.61496
G1 X15.847 Y50.616 E46.70207
G1 X15.735 Y50.416 E46.72464
G1 X15.425 Y49.78 E46.79432
G1 X15.188 Y49.113 E46.86403
G1 X15.065 Y48.619 E46.91417
G1 X15.022 Y48.41 E46.93518
G1 X14.9 Y47.43 E47.03244
G1 X14.876 Y46.891 E47.08558
G1 X14.861 Y46.412 E47.13277
G1 X14.851 Y45.898 E47.1834
G1 X14.759 Y43.606 E47.40931
G1 X14.763 Y43.354 E47.43413
G1 X14.726 Y42.355 E47.53258
G1 X14.544 Y36.425 E48.11686
G1 X14.446 Y32.776 E48.47636
G1 X14.394 Y30.52 E48.69859
G1 X14.351 Y28.154 E48.93164
G1 X14.34 Y26.819 E49.06312
G1 X14.341 Y23.895 E49.35109
G1 X14.354 Y23.22 E49.41758
G1 X14.39 Y22.46 E49.49251
G1 X14.436 Y21.946 E49.54333
G1 X14.478 Y21.624 E49.57531
G1 X14.565 Y21.117 E49.62597
G1 X14.661 Y20.671 E49.6709
G1 X14.799 Y20.145 E49.72446
G1 X15.1 Y19.256 E49.81689
G1 X15.298 Y18.765 E49.86903
G1 X15.69 Y17.963 E49.95694
G1 X16.038 Y17.358 E50.02568
G1 X16.507 Y16.663 E50.10825
G1 X16.822 Y16.248 E50.15956
G1 X17.428 Y15.555 E50.25022
M204 S3500
M205 X10 Y10
G0 F6171.4 X18.051 Y16.118
M204 S1800
M205 X8 Y8
G1 F1200 X18.51 Y15.662 E50.31394
G1 X19.062 Y15.185 E50.38579
G1 X19.589 Y14.791 E50.45059
G1 X20.04 Y14.524 E50.50221
G1 X20.114 Y14.485 E50.51045
G1 X20.714 Y14.214 E50.57529
G1 X21.342 Y14.018 E50.64008
G1 X21.989 Y13.899 E50.70486
G1 X22.646 Y13.86 E50.76968
G1 X23.21 Y13.89 E50.8253
G1 X24.159 Y13.991 E50.91929
G1 X24.978 Y14.089 E51.00052
G1 X27.63 Y14.332 E51.2628
G1 X30.298 Y14.501 E51.52608
G1 X32.989 Y14.595 E51.79126
G1 X35.655 Y14.612 E52.05382
G1 X38.351 Y14.554 E52.31939
G1 X41.012 Y14.421 E52.58178
G1 X43.662 Y14.214 E52.84356
G1 X46.32 Y13.929 E53.10683
G1 X48.99 Y13.567 E53.37218
G1 X51.616 Y13.135 E53.63428
G1 X52.018 Y13.06 E53.67455
G1 X52.665 Y12.949 E53.7392
G1 X53.422 Y12.873 E53.81413
G1 X53.922 Y12.861 E53.86338
G1 X82.52 Y12.859 E56.67981
G1 X83.574 Y12.863 E56.78361
G1 X83.818 Y12.861 E56.80764
G1 X85.764 Y12.863 E56.99929
G1 X86.018 Y12.861 E57.0243
G1 X87.79 Y12.863 E57.19881
G1 X88.51 Y12.861 E57.26972
G1 X89.584 Y12.863 E57.37549
G1 X90.13 Y12.859 E57.42927
G1 X91.174 Y12.863 E57.53208
G1 X91.418 Y12.861 E57.55612
G1 X94.474 Y12.862 E57.85708
G1 X95.115 Y12.874 E57.92022
G1 X95.88 Y12.91 E57.99564
G1 X96.647 Y12.991 E58.0716
G1 X97.529 Y13.161 E58.16006
G1 X98.181 Y13.34 E58.22665
G1 X98.847 Y13.572 E58.2961
G1 X99.417 Y13.81 E58.35693
G1 X100.067 Y14.136 E58.42855
G1 X100.647 Y14.475 E58.49471
G1 X101.209 Y14.856 E58.56158
G1 X101.736 Y15.263 E58.62715
G1 X102.259 Y15.727 E58.69601
G1 X102.73 Y16.203 E58.76196
G1 X103.191 Y16.735 E58.83129
G1 X103.574 Y17.239 E58.89363
G1 X103.965 Y17.83 E58.96342
G1 X104.3 Y18.416 E59.02989
G1 X104.595 Y19.021 E59.09618
G1 X104.842 Y19.617 E59.15972
G1 X105.079 Y20.327 E59.23343
G1 X105.25 Y20.978 E59.29972
G1 X105.375 Y21.623 E59.36442
G1 X105.457 Y22.241 E59.42582
G1 X105.493 Y22.816 E59.48256
G1 X105.499 Y22.987 E59.49941
G1 X105.52 Y24.204 E59.61928
G1 X105.52 Y41.928 E61.3648
G1 X105.51 Y42.682 E61.43906
G1 X105.5 Y44.046 E61.5734
G1 X105.505 Y44.928 E61.66026
G1 X105.52 Y46.503 E61.81538
G1 X105.518 Y47.592 E61.92263
G1 X105.509 Y48.232 E61.98566
G1 X105.46 Y48.889 E62.05054
G1 X105.332 Y49.534 E62.11531
G1 X105.126 Y50.159 E62.18011
G1 X104.919 Y50.62 E62.22988
G1 X104.596 Y51.193 E62.29466
G1 X104.207 Y51.724 E62.35949
G1 X103.756 Y52.203 E62.42428
G1 X103.25 Y52.624 E62.48911
G1 X102.696 Y52.981 E62.55401
G1 X102.104 Y53.267 E62.61876
G1 X101.481 Y53.48 E62.6836
G1 X100.831 Y53.617 E62.74902
G1 X100.695 Y53.637 E62.76256
G1 X99.972 Y53.695 E62.83399
G1 X99.417 Y53.701 E62.88865
G1 X97.545 Y53.704 E63.07302
G1 X96.725 Y53.701 E63.15377
G1 X96.291 Y53.704 E63.19652
G1 X93.827 Y53.697 E63.43918
G1 X93.401 Y53.7 E63.48113
G1 X91.687 Y53.695 E63.64994
G1 X90.821 Y53.701 E63.73522
G1 X88.07 Y53.7 E64.00615
G1 X83.908 Y53.688 E64.41604
G1 X75.861 Y53.643 E65.20855
G1 X68.635 Y53.592 E65.92021
G1 X56.928 Y53.495 E67.07319
G1 X36.458 Y53.305 E69.08923
G1 X22.233 Y53.157 E70.49023
G1 X21.647 Y53.142 E70.54796
G1 X20.803 Y53.054 E70.63153
G1 X20.494 Y52.997 E70.66247
G1 X19.855 Y52.839 E70.7273
G1 X19.24 Y52.604 E70.79214
G1 X18.508 Y52.201 E70.87443
G1 X18.34 Y52.091 E70.89421
G1 X17.812 Y51.698 E70.95903
G1 X17.336 Y51.244 E71.02381
G1 X16.919 Y50.735 E71.08861
G1 X16.58 Y50.205 E71.15057
G1 X16.468 Y50.005 E71.17315
G1 X16.182 Y49.412 E71.23799
G1 X15.97 Y48.789 E71.3028
G1 X15.845 Y48.24 E71.35825
G1 X15.739 Y47.392 E71.44241
G1 X15.716 Y46.863 E71.49456
G1 X15.691 Y45.897 E71.58972
G1 X15.598 Y43.573 E71.81878
G1 X15.603 Y43.327 E71.84301
G1 X15.566 Y42.329 E71.94137
G1 X15.384 Y36.403 E72.52525
G1 X15.285 Y32.757 E72.88446
G1 X15.234 Y30.505 E73.1063
G1 X15.191 Y28.147 E73.33856
G1 X15.18 Y26.812 E73.47004
G1 X15.181 Y23.908 E73.75604
G1 X15.193 Y23.26 E73.81986
G1 X15.229 Y22.5 E73.89479
G1 X15.311 Y21.733 E73.97076
G1 X15.482 Y20.847 E74.05963
G1 X15.658 Y20.207 E74.125
G1 X15.891 Y19.537 E74.19486
G1 X16.137 Y18.949 E74.25763
G1 X16.439 Y18.344 E74.32422
G1 X16.755 Y17.795 E74.38661
G1 X17.197 Y17.142 E74.46426
G1 X17.604 Y16.621 E74.52937
G1 X18.051 Y16.118 E74.59564
M204 S3500
M205 X10 Y10
;MESH:Configurable_Filament_Swatch_VW_owlsat_TPU_gelb_V1.stl
G0 F6171.4 X29.968 Y44.909
M204 S1800
M205 X8 Y8
;TYPE:WALL-INNER
G1 F1200 X29.6 Y45.009 E74.6332
G1 X29.546 Y44.995 E74.63869
G1 X29.241 Y44.912 E74.66982
G1 X29.083 Y44.792 E74.68936
G1 X28.898 Y44.469 E74.72602
G1 X28.898 Y44.093 E74.76305
G1 X29.083 Y43.77 E74.79971
G1 X29.415 Y43.578 E74.83748
G1 X29.6 Y43.553 E74.85586
G1 X29.968 Y43.653 E74.89342
G1 X30.23 Y43.916 E74.92998
G1 X30.328 Y44.281 E74.9672
G1 X30.244 Y44.592 E74.99893
G1 X30.23 Y44.646 E75.00442
G1 X29.968 Y44.909 E75.04098
M204 S3500
M205 X10 Y10
G0 F6171.4 X30.006 Y45.803
M204 S1800
M205 X8 Y8
;TYPE:WALL-OUTER
G1 F1200 X29.6 Y45.856 E75.0813
G1 X29.195 Y45.803 E75.12153
G1 X28.817 Y45.646 E75.16184
G1 X28.487 Y45.394 E75.20273
G1 X28.238 Y45.071 E75.2429
G1 X28.079 Y44.687 E75.28383
G1 X28.026 Y44.281 E75.32415
G1 X28.079 Y43.875 E75.36447
G1 X28.238 Y43.491 E75.40541
G1 X28.487 Y43.168 E75.44557
G1 X28.817 Y42.916 E75.48646
G1 X29.195 Y42.759 E75.52677
G1 X29.6 Y42.706 E75.567
G1 X30.006 Y42.759 E75.60732
G1 X30.389 Y42.918 E75.64816
G1 X30.711 Y43.164 E75.68807
G1 X30.963 Y43.491 E75.72873
G1 X31.122 Y43.875 E75.76966
G1 X31.175 Y44.281 E75.80998
G1 X31.122 Y44.687 E75.8503
G1 X30.963 Y45.071 E75.89124
G1 X30.711 Y45.398 E75.93189
G1 X30.389 Y45.644 E75.9718
G1 X30.006 Y45.803 E76.01264
M204 S3500
M205 X10 Y10
G0 F6171.4 X29.758 Y45.835
G0 X29.882 Y46.767
G0 X29.958 Y44.892
G0 X29.887 Y44.142
M204 S1800
M205 X8 Y8
;TYPE:SKIN
G1 F1200 X29.738 Y43.993 E76.03339
M204 S3500
M205 X10 Y10
G0 F6171.4 X29.545 Y44.153
G0 X27.304 Y46.15
G0 X27.136 Y46.392
M204 S1800
M205 X8 Y8
;TYPE:WALL-INNER
G1 F1200 X27.241 Y46.529 E76.05039
G1 X27.1 Y46.528 E76.05155
G1 X26.963 Y46.526 E76.05424
G1 X27.064 Y46.394 E76.05834
G1 X27.101 Y46.346
G1 X27.136 Y46.392
M204 S3500
M205 X10 Y10
G0 F6171.4 X29.6 Y47.303
G0 X32.145 Y46.405
M204 S1800
M205 X8 Y8
G1 F1200 X32.281 Y46.581 E76.08025
G1 X32.098 Y46.579 E76.08222
G1 X31.923 Y46.577 E76.08669
G1 X32.053 Y46.407 E76.09243
G1 X32.1 Y46.346
G1 X32.145 Y46.405
M204 S3500
M205 X10 Y10
G0 F6171.4 X34.292 Y47.168
G0 X37.14 Y46.394
M204 S1800
M205 X8 Y8
