;FLAVOR:Marlin
;TIME:2013
;Filament used: 2.21911m
;Layer height: 0.2
;MINX:215.754
;MINY:33.437
;MINZ:0.2
;MAXX:290.544
;MAXY:108.23
;MAXZ:8
;Generated with Cura_SteamEngine 4.10.0
M104 S225
M105
M109 S225
M82 ;absolute extrusion mode
G28 ; home all axes
 M117 Purge extruder
 G92 E0 ; reset extruder
 G1 Z1.0 F3000 ; move z up little to prevent scratching of surface
 G1 X2 Y20 Z0.3 F5000.0 ; move to start-line position
 G1 X2 Y200.0 Z0.3 F1500.0 E15 ; draw 1st line
 G1 X2 Y200.0 Z0.4 F5000.0 ; move to side a little
 G1 X2 Y20 Z0.4 F1500.0 E30 ; draw 2nd line
 G92 E0 ; reset extruder
 G1 Z1.0 F3000 ; move z up little to prevent scratching of surface
G92 E0
G92 E0
G1 F2400 E-1.7
;LAYER_COUNT:40
;LAYER:0
M107
G0 F6000 X217.147 Y60.71 Z0.2
;TYPE:SKIRT
G1 F2400 E0
G1 F1200 X217.247 Y60.361 E0.01377
G1 X217.476 Y59.605 E0.04372
G1 X217.591 Y59.244 E0.05808
G1 X217.865 Y58.435 E0.09047
G1 X217.999 Y58.061 E0.10553
G1 X218.315 Y57.223 E0.13949
G1 X218.461 Y56.855 E0.1545
G1 X218.757 Y56.144 E0.1837
G1 X218.897 Y55.823 E0.19698
G1 X219.278 Y54.98 E0.23206
G1 X219.448 Y54.62 E0.24715
G1 X219.76 Y53.988 E0.27388
G1 X219.937 Y53.643 E0.28858
G1 X220.32 Y52.928 E0.31933
G1 X220.484 Y52.633 E0.33213
G1 X221.019 Y51.7 E0.37291
G1 X221.238 Y51.334 E0.38908
G1 X221.633 Y50.7 E0.41741
G1 X221.83 Y50.394 E0.43121
G1 X222.269 Y49.736 E0.4612
G1 X222.488 Y49.419 E0.47581
G1 X222.977 Y48.736 E0.50766
G1 X223.202 Y48.432 E0.522
G1 X223.765 Y47.697 E0.5571
G1 X224.017 Y47.38 E0.57246
G1 X224.467 Y46.833 E0.59931
G1 X224.709 Y46.548 E0.61349
G1 X225.355 Y45.812 E0.65062
G1 X225.612 Y45.529 E0.66512
G1 X226.107 Y45.001 E0.69256
G1 X226.375 Y44.724 E0.70717
G1 X227.034 Y44.066 E0.74248
G1 X227.302 Y43.807 E0.75661
G1 X227.871 Y43.274 E0.78618
G1 X228.172 Y43.002 E0.80156
G1 X228.718 Y42.525 E0.82905
G1 X228.965 Y42.314 E0.84137
G1 X229.837 Y41.594 E0.88424
G1 X230.153 Y41.343 E0.89954
G1 X230.69 Y40.93 E0.92523
G1 X231.006 Y40.695 E0.94016
G1 X231.716 Y40.186 E0.97329
G1 X232.036 Y39.965 E0.98803
G1 X232.737 Y39.497 E1.01999
G1 X233.042 Y39.3 E1.03376
G1 X233.706 Y38.886 E1.06343
G1 X234.051 Y38.679 E1.07868
G1 X234.885 Y38.198 E1.11519
G1 X235.227 Y38.008 E1.13002
G1 X235.835 Y37.684 E1.15614
G1 X236.161 Y37.517 E1.17003
G1 X237.055 Y37.076 E1.20783
G1 X237.405 Y36.911 E1.2225
G1 X238.05 Y36.619 E1.24935
G1 X238.402 Y36.466 E1.2639
G1 X239.26 Y36.111 E1.29911
G1 X239.602 Y35.976 E1.31305
G1 X240.352 Y35.693 E1.34344
G1 X240.723 Y35.56 E1.35839
G1 X241.513 Y35.292 E1.39002
G1 X241.858 Y35.181 E1.40376
G1 X242.681 Y34.93 E1.43638
G1 X243.083 Y34.815 E1.45224
G1 X243.913 Y34.594 E1.4848
G1 X244.271 Y34.505 E1.49879
G1 X245.079 Y34.317 E1.53025
G1 X245.432 Y34.24 E1.54394
G1 X246.201 Y34.086 E1.57368
G1 X246.612 Y34.012 E1.58952
G1 X247.371 Y33.888 E1.61868
G1 X247.702 Y33.839 E1.63136
G1 X248.843 Y33.686 E1.67501
G1 X249.213 Y33.642 E1.68914
G1 X249.724 Y33.59 E1.70862
G1 X250.133 Y33.556 E1.72418
G1 X251.083 Y33.493 E1.76028
G1 X251.479 Y33.473 E1.77531
G1 X252.408 Y33.443 E1.81055
G1 X252.785 Y33.437 E1.82485
G1 X253.512 Y33.437 E1.85242
G1 X253.888 Y33.443 E1.86667
G1 X254.819 Y33.473 E1.90199
G1 X255.222 Y33.493 E1.91729
G1 X256.09 Y33.551 E1.95028
G1 X256.497 Y33.585 E1.96576
G1 X256.869 Y33.618 E1.97992
G1 X257.403 Y33.675 E2.00029
G1 X258.447 Y33.812 E2.04021
G1 X258.825 Y33.868 E2.0547
G1 X259.754 Y34.021 E2.0904
G1 X260.092 Y34.082 E2.10342
G1 X260.656 Y34.192 E2.12521
G1 X261.083 Y34.284 E2.14177
G1 X262.044 Y34.509 E2.17919
G1 X262.399 Y34.598 E2.19307
G1 X263.229 Y34.82 E2.22565
G1 X263.607 Y34.928 E2.24055
G1 X264.433 Y35.179 E2.27329
G1 X264.795 Y35.295 E2.2877
G1 X265.569 Y35.558 E2.3187
G1 X265.911 Y35.68 E2.33246
G1 X266.666 Y35.963 E2.36304
G1 X267.049 Y36.114 E2.37865
G1 X267.92 Y36.476 E2.41441
G1 X268.25 Y36.62 E2.42806
G1 X268.889 Y36.909 E2.45465
G1 X269.236 Y37.073 E2.46921
G1 X270.097 Y37.497 E2.5056
G1 X270.445 Y37.675 E2.52042
G1 X271.077 Y38.013 E2.54759
G1 X271.425 Y38.207 E2.5627
G1 X272.424 Y38.784 E2.60644
G1 X272.677 Y38.934 E2.61759
G1 X272.962 Y39.109 E2.63027
G1 X273.185 Y39.25 E2.64028
G1 X273.427 Y39.407 E2.65122
G1 X274.266 Y39.967 E2.68946
G1 X274.592 Y40.192 E2.70448
G1 X275.286 Y40.69 E2.73687
G1 X275.583 Y40.911 E2.75091
G1 X276.162 Y41.355 E2.77857
G1 X276.476 Y41.604 E2.79377
G1 X277.26 Y42.249 E2.83226
G1 X277.556 Y42.502 E2.84702
G1 X278.224 Y43.09 E2.88077
G1 X278.493 Y43.333 E2.89451
G1 X278.984 Y43.793 E2.92002
G1 X279.257 Y44.058 E2.93445
G1 X279.923 Y44.724 E2.97016
G1 X280.181 Y44.99 E2.98421
G1 X280.699 Y45.542 E3.01291
G1 X280.97 Y45.841 E3.02822
G1 X281.582 Y46.54 E3.06344
G1 X281.809 Y46.808 E3.07676
G1 X282.281 Y47.381 E3.10491
G1 X282.534 Y47.699 E3.12031
G1 X283.08 Y48.411 E3.15434
G1 X283.312 Y48.723 E3.16908
G1 X283.787 Y49.387 E3.20003
G1 X284.003 Y49.701 E3.21448
G1 X284.526 Y50.485 E3.25022
G1 X284.668 Y50.702 E3.26005
G1 X284.872 Y51.023 E3.27447
G1 X285.116 Y51.425 E3.2923
G1 X285.791 Y52.588 E3.34329
G1 X285.99 Y52.946 E3.35882
G1 X286.339 Y53.599 E3.38689
G1 X286.506 Y53.923 E3.40071
G1 X286.851 Y54.62 E3.4302
G1 X287.025 Y54.988 E3.44564
G1 X287.39 Y55.795 E3.47922
G1 X287.538 Y56.136 E3.49331
G1 X287.853 Y56.896 E3.52451
G1 X287.989 Y57.239 E3.5385
G1 X288.297 Y58.054 E3.57153
G1 X288.432 Y58.43 E3.58668
G1 X288.697 Y59.211 E3.61795
G1 X288.814 Y59.578 E3.63256
G1 X289.043 Y60.334 E3.66251
G1 X289.151 Y60.711 E3.67738
G1 X289.34 Y61.42 E3.7052
G1 X289.42 Y61.74 E3.71771
G1 X289.671 Y62.801 E3.75905
G1 X289.759 Y63.202 E3.77461
G1 X289.917 Y63.993 E3.8052
G1 X289.99 Y64.394 E3.82065
G1 X290.11 Y65.127 E3.84881
G1 X290.161 Y65.475 E3.86215
G1 X290.289 Y66.438 E3.89898
G1 X290.332 Y66.807 E3.91307
G1 X290.392 Y67.403 E3.93578
G1 X290.426 Y67.805 E3.95108
G1 X290.494 Y68.837 E3.99029
G1 X290.513 Y69.225 E4.00502
G1 X290.538 Y69.994 E4.0342
G1 X290.544 Y70.374 E4.04861
G1 X290.544 Y71.29 E4.08334
G1 X290.538 Y71.666 E4.0976
G1 X290.514 Y72.412 E4.1259
G1 X290.494 Y72.814 E4.14116
G1 X290.427 Y73.817 E4.17927
G1 X290.366 Y74.549 E4.20712
G1 X290.308 Y75.082 E4.22745
G1 X290.163 Y76.18 E4.26945
G1 X290.108 Y76.556 E4.28386
G1 X289.97 Y77.391 E4.31595
G1 X289.915 Y77.694 E4.32762
G1 X289.797 Y78.307 E4.35129
G1 X289.699 Y78.768 E4.36916
G1 X289.465 Y79.765 E4.40799
G1 X289.375 Y80.124 E4.42203
G1 X289.153 Y80.951 E4.45449
G1 X289.053 Y81.301 E4.46829
G1 X288.824 Y82.059 E4.49832
G1 X288.703 Y82.436 E4.51333
G1 X288.43 Y83.24 E4.54552
G1 X288.301 Y83.599 E4.55999
G1 X287.992 Y84.42 E4.59325
G1 X287.844 Y84.794 E4.6085
G1 X287.541 Y85.522 E4.6384
G1 X287.402 Y85.843 E4.65166
G1 X287.022 Y86.684 E4.68665
G1 X286.854 Y87.04 E4.70158
G1 X286.535 Y87.687 E4.72893
G1 X286.361 Y88.026 E4.74338
G1 X285.893 Y88.902 E4.78104
G1 X285.706 Y89.239 E4.79565
G1 X285.378 Y89.807 E4.82052
G1 X285.183 Y90.132 E4.83489
G1 X284.636 Y91.012 E4.87418
G1 X284.429 Y91.332 E4.88863
G1 X284.027 Y91.934 E4.91608
G1 X283.809 Y92.25 E4.93063
G1 X283.319 Y92.934 E4.96254
G1 X283.096 Y93.235 E4.97674
G1 X282.533 Y93.97 E5.01185
G1 X282.282 Y94.286 E5.02715
G1 X281.833 Y94.832 E5.05395
G1 X281.59 Y95.119 E5.06821
G1 X280.943 Y95.856 E5.10539
G1 X280.689 Y96.135 E5.1197
G1 X280.2 Y96.657 E5.14682
G1 X279.929 Y96.937 E5.16159
G1 X279.269 Y97.596 E5.19696
G1 X279.01 Y97.847 E5.21063
G1 X278.569 Y98.261 E5.23357
G1 X278.286 Y98.518 E5.24806
G1 X277.543 Y99.171 E5.28557
G1 X277.26 Y99.412 E5.29966
G1 X276.493 Y100.044 E5.33735
G1 X276.197 Y100.28 E5.3517
G1 X275.568 Y100.765 E5.38182
G1 X275.244 Y101.006 E5.39713
G1 X274.593 Y101.473 E5.42751
G1 X274.277 Y101.692 E5.44208
G1 X273.568 Y102.166 E5.47442
G1 X273.256 Y102.367 E5.48849
G1 X272.592 Y102.781 E5.51816
G1 X272.247 Y102.988 E5.53342
G1 X271.413 Y103.469 E5.56992
G1 X271.071 Y103.659 E5.58476
G1 X270.463 Y103.983 E5.61088
G1 X270.137 Y104.15 E5.62477
G1 X269.247 Y104.589 E5.66239
G1 X268.903 Y104.752 E5.67683
G1 X268.259 Y105.044 E5.70364
G1 X267.901 Y105.199 E5.71843
G1 X267.038 Y105.556 E5.75384
G1 X266.698 Y105.69 E5.7677
G1 X265.959 Y105.969 E5.79765
G1 X265.585 Y106.103 E5.81271
G1 X264.718 Y106.397 E5.84743
G1 X264.368 Y106.51 E5.86137
G1 X263.688 Y106.717 E5.88832
G1 X263.303 Y106.827 E5.9035
G1 X262.364 Y107.078 E5.94036
G1 X261.995 Y107.17 E5.95478
G1 X261.23 Y107.348 E5.98456
G1 X260.868 Y107.426 E5.9986
G1 X260.036 Y107.592 E6.03077
G1 X259.653 Y107.662 E6.04553
G1 X258.829 Y107.798 E6.0772
G1 X258.448 Y107.855 E6.0918
G1 X257.519 Y107.977 E6.12733
G1 X257.174 Y108.017 E6.1405
G1 X256.581 Y108.077 E6.1631
G1 X256.18 Y108.11 E6.17835
G1 X255.217 Y108.174 E6.21495
G1 X254.819 Y108.194 E6.23006
G1 X253.89 Y108.224 E6.2653
G1 X253.513 Y108.23 E6.2796
G1 X252.786 Y108.23 E6.30716
G1 X252.41 Y108.224 E6.32142
G1 X251.479 Y108.194 E6.35674
G1 X251.076 Y108.174 E6.37204
G1 X250.208 Y108.116 E6.40502
G1 X249.801 Y108.082 E6.42051
G1 X249.429 Y108.049 E6.43467
G1 X248.895 Y107.992 E6.45503
G1 X247.851 Y107.855 E6.49496
G1 X247.473 Y107.799 E6.50945
G1 X246.544 Y107.646 E6.54514
G1 X246.201 Y107.584 E6.55836
G1 X245.669 Y107.48 E6.57891
G1 X245.241 Y107.388 E6.59551
G1 X244.457 Y107.204 E6.62605
G1 X244.133 Y107.123 E6.63871
G1 X242.873 Y106.789 E6.68814
G1 X242.475 Y106.676 E6.70382
G1 X241.951 Y106.517 E6.72459
G1 X241.584 Y106.399 E6.7392
G1 X240.707 Y106.101 E6.77432
G1 X240.353 Y105.974 E6.78858
G1 X239.614 Y105.696 E6.81852
G1 X239.249 Y105.552 E6.8334
G1 X238.384 Y105.193 E6.86891
G1 X238.045 Y105.046 E6.88292
G1 X237.402 Y104.755 E6.90968
G1 X237.055 Y104.591 E6.92423
G1 X236.217 Y104.178 E6.95965
G1 X235.864 Y103.997 E6.9747
G1 X235.276 Y103.682 E6.99999
G1 X234.958 Y103.505 E7.01379
G1 X234.207 Y103.072 E7.04666
G1 X233.911 Y102.904 E7.05956
G1 X233.523 Y102.674 E7.07666
G1 X233.129 Y102.428 E7.09428
G1 X232.879 Y102.266 E7.10557
G1 X232.042 Y101.707 E7.14373
G1 X231.721 Y101.485 E7.15853
G1 X231.003 Y100.97 E7.19204
G1 X230.69 Y100.737 E7.20683
G1 X230.062 Y100.254 E7.23687
G1 X229.775 Y100.026 E7.25077
G1 X229.085 Y99.46 E7.28461
G1 X228.785 Y99.206 E7.29951
G1 X228.177 Y98.672 E7.33019
G1 X227.905 Y98.425 E7.34413
G1 X227.3 Y97.859 E7.37554
G1 X227.015 Y97.583 E7.39058
G1 X226.357 Y96.924 E7.42589
G1 X226.113 Y96.672 E7.43919
G1 X225.624 Y96.152 E7.46626
G1 X225.345 Y95.845 E7.48199
G1 X224.698 Y95.106 E7.51923
G1 X224.47 Y94.837 E7.5326
G1 X224.022 Y94.293 E7.55932
G1 X223.768 Y93.974 E7.57478
G1 X223.203 Y93.237 E7.60999
G1 X222.972 Y92.925 E7.62471
G1 X222.485 Y92.244 E7.65646
G1 X222.279 Y91.946 E7.67019
G1 X221.844 Y91.296 E7.69985
G1 X221.631 Y90.966 E7.71474
G1 X221.158 Y90.205 E7.74871
G1 X220.957 Y89.87 E7.76353
G1 X220.571 Y89.2 E7.79285
G1 X220.393 Y88.877 E7.80683
G1 X219.94 Y88.03 E7.84325
G1 X219.763 Y87.687 E7.85788
G1 X219.444 Y87.04 E7.88524
G1 X219.278 Y86.689 E7.89996
G1 X218.931 Y85.922 E7.93188
G1 X218.775 Y85.561 E7.94679
G1 X218.417 Y84.693 E7.98239
G1 X218.283 Y84.351 E7.99632
G1 X217.975 Y83.532 E8.02949
G1 X217.849 Y83.182 E8.0436
G1 X217.597 Y82.441 E8.07327
G1 X217.476 Y82.066 E8.08822
G1 X217.264 Y81.366 E8.11595
G1 X217.157 Y80.986 E8.13092
G1 X216.909 Y80.055 E8.16745
G1 X216.819 Y79.696 E8.18148
G1 X216.618 Y78.832 E8.21512
G1 X216.538 Y78.459 E8.22958
G1 X216.379 Y77.658 E8.26054
G1 X216.311 Y77.286 E8.27488
G1 X216.19 Y76.553 E8.30305
G1 X216.134 Y76.18 E8.31735
G1 X216.007 Y75.218 E8.35414
G1 X215.965 Y74.854 E8.36804
G1 X215.926 Y74.465 E8.38286
G1 X215.897 Y74.129 E8.39565
G1 X215.826 Y73.121 E8.43396
G1 X215.799 Y72.693 E8.45022
G1 X215.782 Y72.342 E8.46355
G1 X215.76 Y71.673 E8.48893
G1 X215.754 Y71.289 E8.50349
G1 X215.754 Y70.377 E8.53807
G1 X215.76 Y70.002 E8.55229
G1 X215.784 Y69.255 E8.58063
G1 X215.804 Y68.852 E8.59593
G1 X215.871 Y67.848 E8.63408
G1 X215.888 Y67.626 E8.64252
G1 X215.932 Y67.114 E8.66201
G1 X215.991 Y66.577 E8.68249
G1 X216.137 Y65.477 E8.72457
G1 X216.19 Y65.119 E8.73829
G1 X216.327 Y64.286 E8.7703
G1 X216.383 Y63.973 E8.78235
G1 X216.502 Y63.355 E8.80622
G1 X216.599 Y62.899 E8.82389
G1 X216.833 Y61.9 E8.8628
G1 X216.927 Y61.527 E8.87738
G1 X217.147 Y60.71 E8.90946
G0 F6000 X217.61 Y60.835
G1 F1200 X217.706 Y60.5 E8.92268
G1 X217.935 Y59.744 E8.95263
G1 X218.046 Y59.398 E8.9664
G1 X218.32 Y58.589 E8.99879
G1 X218.448 Y58.23 E9.01324
G1 X218.764 Y57.392 E9.0472
G1 X218.904 Y57.039 E9.0616
G1 X219.2 Y56.328 E9.0908
G1 X219.334 Y56.02 E9.10354
G1 X219.715 Y55.177 E9.13861
G1 X219.878 Y54.832 E9.15308
G1 X220.19 Y54.2 E9.1798
G1 X220.36 Y53.87 E9.19388
G1 X220.743 Y53.155 E9.22463
G1 X220.9 Y52.872 E9.23691
G1 X221.435 Y51.939 E9.27768
G1 X221.645 Y51.587 E9.29323
G1 X222.04 Y50.953 E9.32155
G1 X222.229 Y50.66 E9.33477
G1 X222.668 Y50.002 E9.36476
G1 X222.878 Y49.698 E9.37877
G1 X223.367 Y49.015 E9.41062
G1 X223.583 Y48.724 E9.42436
G1 X224.146 Y47.989 E9.45947
G1 X224.388 Y47.685 E9.4742
G1 X224.838 Y47.138 E9.50106
G1 X225.069 Y46.865 E9.51462
G1 X225.715 Y46.129 E9.55175
G1 X225.962 Y45.857 E9.56568
G1 X226.457 Y45.329 E9.59312
G1 X226.714 Y45.063 E9.60715
G1 X227.373 Y44.405 E9.64246
G1 X227.63 Y44.157 E9.656
G1 X228.199 Y43.624 E9.68556
G1 X228.487 Y43.363 E9.7003
G1 X229.033 Y42.886 E9.72779
G1 X229.271 Y42.685 E9.7396
G1 X230.143 Y41.965 E9.78247
G1 X230.446 Y41.723 E9.79718
G1 X230.983 Y41.31 E9.82286
G1 X231.285 Y41.085 E9.83714
G1 X231.995 Y40.576 E9.87027
G1 X232.302 Y40.364 E9.88441
G1 X233.003 Y39.896 E9.91637
G1 X233.296 Y39.707 E9.92959
G1 X233.96 Y39.293 E9.95926
G1 X234.29 Y39.095 E9.97385
G1 X235.124 Y38.614 E10.01036
G1 X235.453 Y38.432 E10.02462
G1 X236.061 Y38.108 E10.05074
G1 X236.373 Y37.948 E10.06403
G1 X237.267 Y37.507 E10.10183
G1 X237.603 Y37.348 E10.11592
G1 X238.248 Y37.056 E10.14277
G1 X238.585 Y36.91 E10.1567
G1 X239.443 Y36.555 E10.1919
G1 X239.771 Y36.425 E10.20528
G1 X240.521 Y36.142 E10.23567
G1 X240.877 Y36.015 E10.25001
G1 X241.667 Y35.747 E10.28164
G1 X241.998 Y35.64 E10.29483
G1 X242.821 Y35.389 E10.32745
G1 X243.206 Y35.279 E10.34263
G1 X244.036 Y35.058 E10.3752
G1 X244.38 Y34.972 E10.38865
G1 X245.188 Y34.784 E10.4201
G1 X245.527 Y34.711 E10.43325
G1 X246.296 Y34.557 E10.46299
G1 X246.689 Y34.486 E10.47813
G1 X247.448 Y34.362 E10.50729
G1 X247.765 Y34.314 E10.51944
G1 X248.906 Y34.161 E10.56309
G1 X249.261 Y34.12 E10.57664
G1 X249.772 Y34.068 E10.59612
G1 X250.165 Y34.035 E10.61107
G1 X251.115 Y33.972 E10.64717
G1 X251.495 Y33.953 E10.6616
G1 X252.424 Y33.923 E10.69684
G1 X252.785 Y33.917 E10.71053
G1 X253.512 Y33.917 E10.7381
G1 X253.873 Y33.923 E10.75179
G1 X254.804 Y33.953 E10.78711
G1 X255.19 Y33.972 E10.80176
G1 X256.058 Y34.03 E10.83474
G1 X256.828 Y34.096 E10.86405
G1 X257.34 Y34.151 E10.88357
G1 X258.384 Y34.288 E10.9235
G1 X258.747 Y34.342 E10.93741
G1 X259.676 Y34.495 E10.97311
G1 X260 Y34.553 E10.98559
G1 X260.564 Y34.663 E11.00738
G1 X260.973 Y34.751 E11.02324
G1 X261.934 Y34.976 E11.06066
G1 X262.275 Y35.061 E11.07399
G1 X263.105 Y35.283 E11.10657
G1 X263.467 Y35.387 E11.12085
G1 X264.293 Y35.638 E11.15358
G1 X264.64 Y35.749 E11.16739
G1 X265.414 Y36.012 E11.19839
G1 X265.742 Y36.13 E11.21161
G1 X266.497 Y36.413 E11.24218
G1 X266.864 Y36.558 E11.25714
G1 X267.735 Y36.92 E11.29291
G1 X268.052 Y37.057 E11.306
G1 X268.691 Y37.346 E11.33259
G1 X269.024 Y37.503 E11.34655
G1 X269.885 Y37.927 E11.38294
G1 X270.219 Y38.099 E11.39718
G1 X270.851 Y38.437 E11.42436
G1 X271.185 Y38.623 E11.43885
G1 X271.78 Y38.968 E11.46493
G1 X272.179 Y39.197 E11.48238
G1 X272.432 Y39.347 E11.49353
G1 X272.706 Y39.515 E11.50572
G1 X273.161 Y39.806 E11.52619
G1 X274 Y40.366 E11.56444
G1 X274.312 Y40.582 E11.57883
G1 X275.006 Y41.08 E11.61122
G1 X275.291 Y41.292 E11.62469
G1 X275.87 Y41.736 E11.65235
G1 X276.171 Y41.975 E11.66692
G1 X276.955 Y42.62 E11.70542
G1 X277.239 Y42.862 E11.71957
G1 X277.907 Y43.45 E11.75331
G1 X278.164 Y43.684 E11.76649
G1 X278.655 Y44.144 E11.792
G1 X278.918 Y44.397 E11.80583
G1 X279.584 Y45.063 E11.84155
G1 X279.831 Y45.319 E11.85504
G1 X280.349 Y45.871 E11.88374
G1 X280.609 Y46.157 E11.89839
G1 X281.221 Y46.856 E11.93362
G1 X281.439 Y47.113 E11.9464
G1 X281.911 Y47.686 E11.97455
G1 X282.154 Y47.992 E11.98936
G1 X282.7 Y48.704 E12.02338
G1 X282.921 Y49.003 E12.03748
G1 X283.396 Y49.667 E12.06844
