;FLAVOR:Marlin
;TIME:1569
;Filament used: 0.561326m
;Layer height: 0.12
;MINX:-25.696
;MINY:-57.241
;MINZ:0.2
;MAXX:39.359
;MAXY:-20.879
;MAXZ:22.76
;Generated with Cura_SteamEngine 4.10.0
M104 S205
M105
M109 S205
M82 ;absolute extrusion mode
G21        ;metric values
G90        ;absolute positioning
M107       ;start with the fan off
G28   ;move to endstops

;Z-Offset Reset und dann Z +0,1 für PLA
;MacroZOffset0
;MacroZOffsetPlus0100

G92 E0                  ;zero the extruded length
G1 F200 E3              ;extrude 3mm of feed stock
G92 E0                  ;zero the extruded length again
G1 F120
;Put printing message on LCD screen
M117 Printing...
G92 E0
G92 E0
G1 F2400 E-6
;LAYER_COUNT:190
;LAYER:0
M107
M204 S4000
G0 F1440 X-1.098 Y-22.235 Z0.2
M204 S1800
;TYPE:SKIRT
G1 F2400 E0
G1 F600 X-3.787 Y-22.072 E0.08512
G1 X-4.508 Y-22.008 E0.10799
G1 X-4.601 Y-22.007 E0.11093
G1 X-6.899 Y-21.818 E0.18379
G1 X-7.271 Y-21.8 E0.19555
G1 X-8.161 Y-21.785 E0.22368
G1 X-8.394 Y-21.791 E0.23104
G1 X-9.19 Y-21.828 E0.25622
G1 X-9.529 Y-21.855 E0.26697
G1 X-10.396 Y-21.952 E0.29453
G1 X-10.647 Y-21.989 E0.30255
G1 X-11.444 Y-22.13 E0.32812
G1 X-11.811 Y-22.207 E0.33997
G1 X-12.632 Y-22.409 E0.36669
G1 X-12.877 Y-22.479 E0.37474
G1 X-13.69 Y-22.734 E0.40166
G1 X-13.959 Y-22.829 E0.41067
G1 X-14.808 Y-23.157 E0.43943
G1 X-15.022 Y-23.25 E0.44681
G1 X-15.833 Y-23.625 E0.47504
G1 X-16.072 Y-23.747 E0.48352
G1 X-16.717 Y-24.095 E0.50667
G1 X-17.004 Y-24.261 E0.51715
G1 X-17.728 Y-24.714 E0.54414
G1 X-18.014 Y-24.906 E0.55502
G1 X-18.705 Y-25.405 E0.58195
G1 X-18.887 Y-25.548 E0.58926
G1 X-19.524 Y-26.071 E0.61531
G1 X-19.807 Y-26.319 E0.6272
G1 X-20.334 Y-26.81 E0.64996
G1 X-20.597 Y-27.073 E0.66171
G1 X-21.145 Y-27.654 E0.68694
G1 X-21.373 Y-27.913 E0.69785
G1 X-21.874 Y-28.518 E0.72267
G1 X-22.112 Y-28.826 E0.73496
G1 X-22.585 Y-29.481 E0.76049
G1 X-22.747 Y-29.722 E0.76967
G1 X-23.176 Y-30.402 E0.79507
G1 X-23.333 Y-30.67 E0.80489
G1 X-23.725 Y-31.388 E0.83073
G1 X-23.894 Y-31.724 E0.84262
G1 X-24.198 Y-32.381 E0.86549
G1 X-24.349 Y-32.735 E0.87765
G1 X-24.637 Y-33.475 E0.90274
G1 X-24.745 Y-33.781 E0.913
G1 X-24.981 Y-34.528 E0.93775
G1 X-25.087 Y-34.907 E0.95018
G1 X-25.29 Y-35.737 E0.97718
G1 X-25.334 Y-35.951 E0.98409
G1 X-25.487 Y-36.8 E1.01134
G1 X-25.532 Y-37.107 E1.02115
G1 X-25.621 Y-37.884 E1.04586
G1 X-25.651 Y-38.253 E1.05756
G1 X-25.694 Y-39.133 E1.0854
G1 X-25.696 Y-39.372 E1.09295
G1 X-25.685 Y-40.134 E1.11703
G1 X-25.667 Y-40.507 E1.12883
G1 X-25.607 Y-41.279 E1.15329
G1 X-25.565 Y-41.656 E1.16528
G1 X-25.455 Y-42.43 E1.18998
G1 X-25.416 Y-42.655 E1.1972
G1 X-25.23 Y-43.551 E1.22611
G1 X-25.147 Y-43.889 E1.23711
G1 X-24.908 Y-44.743 E1.26513
G1 X-24.835 Y-44.97 E1.27266
G1 X-24.549 Y-45.788 E1.30004
G1 X-24.451 Y-46.041 E1.30862
G1 X-24.149 Y-46.756 E1.33314
G1 X-23.996 Y-47.089 E1.34472
G1 X-23.614 Y-47.851 E1.37165
G1 X-23.488 Y-48.082 E1.37997
G1 X-23.081 Y-48.78 E1.4055
G1 X-22.916 Y-49.044 E1.41533
G1 X-22.452 Y-49.735 E1.44163
G1 X-22.249 Y-50.016 E1.45259
G1 X-21.735 Y-50.683 E1.47919
G1 X-21.543 Y-50.915 E1.48871
G1 X-20.99 Y-51.545 E1.5152
G1 X-20.821 Y-51.724 E1.52298
G1 X-20.17 Y-52.376 E1.55209
G1 X-20.002 Y-52.532 E1.55933
G1 X-19.396 Y-53.066 E1.58485
G1 X-19.141 Y-53.277 E1.59531
G1 X-18.506 Y-53.769 E1.62069
G1 X-18.217 Y-53.977 E1.63194
G1 X-17.501 Y-54.46 E1.65923
G1 X-17.243 Y-54.62 E1.66883
G1 X-16.549 Y-55.026 E1.69423
G1 X-16.312 Y-55.155 E1.70276
G1 X-15.573 Y-55.527 E1.7289
G1 X-15.26 Y-55.67 E1.73977
G1 X-14.452 Y-56.013 E1.76751
G1 X-14.218 Y-56.102 E1.77542
G1 X-13.412 Y-56.385 E1.80241
G1 X-13.14 Y-56.469 E1.8114
G1 X-12.369 Y-56.686 E1.83671
G1 X-12.152 Y-56.74 E1.84378
G1 X-11.275 Y-56.929 E1.87213
G1 X-10.944 Y-56.989 E1.88275
G1 X-10.072 Y-57.116 E1.9106
G1 X-9.806 Y-57.145 E1.91905
G1 X-9.041 Y-57.208 E1.94331
G1 X-8.668 Y-57.226 E1.95511
G1 X-7.778 Y-57.241 E1.98323
G1 X-7.543 Y-57.235 E1.99066
G1 X-6.749 Y-57.198 E2.01577
G1 X-6.409 Y-57.171 E2.02655
G1 X-5.521 Y-57.071 E2.05479
G1 X-4.356 Y-56.904 E2.09197
G1 X-3.648 Y-56.79 E2.11463
G1 X-.953 Y-56.434 E2.20053
G1 X1.769 Y-56.153 E2.28699
G1 X4.483 Y-55.951 E2.37298
G1 X7.216 Y-55.824 E2.45943
G1 X9.911 Y-55.775 E2.5446
G1 X12.675 Y-55.804 E2.63194
G1 X15.354 Y-55.907 E2.71665
G1 X19.166 Y-56.182 E2.83741
G1 X20.153 Y-56.273 E2.86873
G1 X20.834 Y-56.316 E2.89029
G1 X21.274 Y-56.33 E2.9042
G1 X21.924 Y-56.331 E2.92474
G1 X22.351 Y-56.319 E2.93823
G1 X23.02 Y-56.279 E2.95941
G1 X23.488 Y-56.236 E2.97426
G1 X24.163 Y-56.152 E2.99575
G1 X24.518 Y-56.096 E3.00711
G1 X25.155 Y-55.979 E3.02757
G1 X25.591 Y-55.885 E3.04167
G1 X26.289 Y-55.711 E3.0644
G1 X26.673 Y-55.601 E3.07702
G1 X27.313 Y-55.399 E3.09822
G1 X27.652 Y-55.279 E3.10959
G1 X28.353 Y-55.011 E3.1333
G1 X28.686 Y-54.869 E3.14474
G1 X29.317 Y-54.581 E3.16665
G1 X29.646 Y-54.418 E3.17825
G1 X30.21 Y-54.12 E3.19841
G1 X30.591 Y-53.902 E3.21228
G1 X31.202 Y-53.527 E3.23493
G1 X31.561 Y-53.291 E3.24851
G1 X32.062 Y-52.939 E3.26785
G1 X32.383 Y-52.7 E3.2805
G1 X32.882 Y-52.305 E3.30061
G1 X33.238 Y-52.005 E3.31532
G1 X33.701 Y-51.59 E3.33496
G1 X34.04 Y-51.266 E3.34978
G1 X34.522 Y-50.775 E3.37152
G1 X34.773 Y-50.503 E3.38322
G1 X35.238 Y-49.967 E3.40564
G1 X35.458 Y-49.698 E3.41662
G1 X35.865 Y-49.171 E3.43766
G1 X36.134 Y-48.799 E3.45216
G1 X36.478 Y-48.292 E3.47152
G1 X36.729 Y-47.896 E3.48633
G1 X37.069 Y-47.319 E3.5075
G1 X37.253 Y-46.984 E3.51957
G1 X37.6 Y-46.306 E3.54364
G1 X37.736 Y-46.015 E3.55379
G1 X38.026 Y-45.347 E3.5768
G1 X38.155 Y-45.025 E3.58776
G1 X38.373 Y-44.435 E3.60763
G1 X38.511 Y-44.019 E3.62148
G1 X38.712 Y-43.347 E3.64364
G1 X38.824 Y-42.927 E3.65738
G1 X38.975 Y-42.269 E3.67871
G1 X39.053 Y-41.884 E3.69112
G1 X39.156 Y-41.275 E3.71064
G1 X39.221 Y-40.81 E3.72547
G1 X39.284 Y-40.233 E3.74381
G1 X39.321 Y-39.745 E3.75928
G1 X39.351 Y-39.11 E3.77936
G1 X39.359 Y-38.661 E3.79355
G1 X39.347 Y-37.943 E3.81624
G1 X39.33 Y-37.601 E3.82706
G1 X39.282 Y-36.956 E3.8475
G1 X39.235 Y-36.513 E3.86157
G1 X39.152 Y-35.907 E3.8809
G1 X39.079 Y-35.474 E3.89478
G1 X38.949 Y-34.815 E3.916
G1 X38.843 Y-34.364 E3.93064
G1 X38.666 Y-33.696 E3.95247
G1 X38.568 Y-33.372 E3.96317
G1 X38.349 Y-32.71 E3.9852
G1 X38.205 Y-32.315 E3.99849
G1 X37.984 Y-31.761 E4.01733
G1 X37.796 Y-31.329 E4.03222
G1 X37.513 Y-30.728 E4.05321
G1 X37.329 Y-30.367 E4.06601
G1 X37.021 Y-29.806 E4.08623
G1 X36.773 Y-29.389 E4.10156
G1 X36.407 Y-28.811 E4.12318
G1 X36.185 Y-28.484 E4.13567
G1 X35.837 Y-28 E4.1545
G1 X35.57 Y-27.652 E4.16836
G1 X35.153 Y-27.142 E4.18918
G1 X34.826 Y-26.767 E4.2049
G1 X34.453 Y-26.362 E4.2223
G1 X34.119 Y-26.023 E4.23733
G1 X33.655 Y-25.578 E4.25765
G1 X33.362 Y-25.315 E4.27009
G1 X32.842 Y-24.874 E4.29163
G1 X32.491 Y-24.594 E4.30582
G1 X31.981 Y-24.213 E4.32593
G1 X31.596 Y-23.945 E4.34076
G1 X31.016 Y-23.566 E4.36265
G1 X30.728 Y-23.39 E4.37331
G1 X30.133 Y-23.05 E4.39497
G1 X29.748 Y-22.845 E4.40875
G1 X29.114 Y-22.534 E4.43106
G1 X28.784 Y-22.385 E4.4425
G1 X28.108 Y-22.103 E4.46564
G1 X27.812 Y-21.99 E4.47566
G1 X27.054 Y-21.726 E4.50102
G1 X26.748 Y-21.632 E4.51113
G1 X26.07 Y-21.442 E4.53338
G1 X25.711 Y-21.354 E4.54506
G1 X24.99 Y-21.199 E4.56836
G1 X24.668 Y-21.14 E4.57871
G1 X23.927 Y-21.027 E4.60239
G1 X23.552 Y-20.983 E4.61432
G1 X22.852 Y-20.919 E4.63653
G1 X22.521 Y-20.9 E4.64701
G1 X21.879 Y-20.879 E4.6673
G1 X21.421 Y-20.879 E4.68177
G1 X20.679 Y-20.902 E4.70523
G1 X20.335 Y-20.925 E4.71612
G1 X19.733 Y-20.979 E4.73522
G1 X19.257 Y-21.037 E4.75037
G1 X17.941 Y-21.238 E4.79244
G1 X15.258 Y-21.609 E4.87802
G1 X12.505 Y-21.91 E4.96552
G1 X9.82 Y-22.127 E5.05064
G1 X7.095 Y-22.27 E5.13686
G1 X4.363 Y-22.336 E5.22321
G1 X1.634 Y-22.324 E5.30944
G1 X-1.098 Y-22.235 E5.39581
M204 S4000
G0 F1440 X-1.101 Y-22.636
M204 S1800
G1 F600 X-3.843 Y-22.47 E5.4826
G1 X-4.543 Y-22.407 E5.50481
G1 X-4.626 Y-22.406 E5.50743
G1 X-6.931 Y-22.217 E5.58051
G1 X-7.279 Y-22.2 E5.59152
G1 X-8.155 Y-22.185 E5.6192
G1 X-8.376 Y-22.19 E5.62619
G1 X-9.172 Y-22.227 E5.65137
G1 X-9.485 Y-22.252 E5.66129
G1 X-10.342 Y-22.348 E5.68854
G1 X-10.577 Y-22.383 E5.69604
G1 X-11.471 Y-22.542 E5.72473
G1 X-11.716 Y-22.596 E5.73266
G1 X-12.526 Y-22.795 E5.75902
G1 X-12.758 Y-22.861 E5.76664
G1 X-13.561 Y-23.113 E5.79323
G1 X-13.816 Y-23.202 E5.80176
G1 X-14.557 Y-23.487 E5.82685
G1 X-14.855 Y-23.613 E5.83707
G1 X-15.561 Y-23.938 E5.86163
G1 X-15.882 Y-24.099 E5.87298
G1 X-16.527 Y-24.447 E5.89613
G1 X-16.791 Y-24.6 E5.90578
G1 X-17.593 Y-25.103 E5.93569
G1 X-17.781 Y-25.231 E5.94287
G1 X-18.462 Y-25.723 E5.96942
G1 X-18.634 Y-25.857 E5.97631
G1 X-19.271 Y-26.38 E6.00235
G1 X-19.534 Y-26.612 E6.01343
G1 X-20.061 Y-27.103 E6.03619
G1 X-20.306 Y-27.347 E6.04712
G1 X-20.854 Y-27.928 E6.07235
G1 X-21.065 Y-28.168 E6.08245
G1 X-21.566 Y-28.773 E6.10727
G1 X-21.788 Y-29.061 E6.11876
G1 X-22.255 Y-29.708 E6.14397
G1 X-22.408 Y-29.936 E6.15265
G1 X-22.837 Y-30.616 E6.17805
G1 X-22.982 Y-30.862 E6.18707
G1 X-23.423 Y-31.673 E6.21624
G1 X-23.531 Y-31.892 E6.22396
G1 X-23.835 Y-32.549 E6.24683
G1 X-23.976 Y-32.88 E6.2582
G1 X-24.3 Y-33.716 E6.28653
G1 X-24.363 Y-33.902 E6.29274
G1 X-24.628 Y-34.744 E6.32063
G1 X-24.699 Y-35.003 E6.32911
G1 X-24.877 Y-35.725 E6.35261
G1 X-24.94 Y-36.021 E6.36217
G1 X-25.093 Y-36.87 E6.38943
G1 X-25.134 Y-37.153 E6.39846
G1 X-25.232 Y-38.021 E6.42607
G1 X-25.252 Y-38.273 E6.43405
G1 X-25.29 Y-39.027 E6.45791
G1 X-25.296 Y-39.366 E6.46862
G1 X-25.285 Y-40.128 E6.4927
G1 X-25.268 Y-40.476 E6.50371
G1 X-25.208 Y-41.248 E6.52818
G1 X-25.169 Y-41.599 E6.53933
G1 X-25.059 Y-42.373 E6.56404
G1 X-25.024 Y-42.573 E6.57045
G1 X-24.838 Y-43.469 E6.59937
G1 X-24.762 Y-43.782 E6.60954
G1 X-24.556 Y-44.523 E6.63384
G1 X-24.457 Y-44.838 E6.64428
G1 X-24.174 Y-45.649 E6.67142
G1 X-24.083 Y-45.885 E6.67941
G1 X-23.74 Y-46.693 E6.70715
G1 X-23.638 Y-46.91 E6.71472
G1 X-23.261 Y-47.663 E6.74133
G1 X-23.142 Y-47.881 E6.74918
G1 X-22.735 Y-48.579 E6.77471
G1 X-22.584 Y-48.821 E6.78372
G1 X-22.12 Y-49.512 E6.81002
G1 X-21.932 Y-49.772 E6.82016
G1 X-21.424 Y-50.431 E6.84645
G1 X-21.242 Y-50.651 E6.85547
G1 X-20.695 Y-51.274 E6.88167
G1 X-20.538 Y-51.442 E6.88893
G1 X-19.953 Y-52.029 E6.91512
G1 X-19.738 Y-52.232 E6.92446
G1 X-19.132 Y-52.766 E6.94998
G1 X-18.896 Y-52.961 E6.95966
G1 X-18.261 Y-53.453 E6.98504
G1 X-17.993 Y-53.646 E6.99547
G1 X-17.287 Y-54.122 E7.02238
G1 X-17.041 Y-54.275 E7.03153
G1 X-16.355 Y-54.677 E7.05665
G1 X-16.132 Y-54.797 E7.06466
G1 X-15.393 Y-55.169 E7.0908
G1 X-15.103 Y-55.302 E7.10088
G1 X-14.307 Y-55.64 E7.1282
G1 X-14.085 Y-55.725 E7.13571
G1 X-13.29 Y-56.004 E7.16234
G1 X-13.032 Y-56.084 E7.17087
G1 X-12.261 Y-56.301 E7.19618
G1 X-12.068 Y-56.349 E7.20246
G1 X-11.191 Y-56.538 E7.23081
G1 X-10.885 Y-56.593 E7.24063
G1 X-10.111 Y-56.707 E7.26535
G1 X-9.774 Y-56.746 E7.27607
G1 X-9.009 Y-56.809 E7.30033
G1 X-8.66 Y-56.826 E7.31137
G1 X-7.785 Y-56.841 E7.33902
G1 X-7.562 Y-56.836 E7.34607
G1 X-6.768 Y-56.799 E7.37118
G1 X-6.454 Y-56.774 E7.38113
G1 X-5.678 Y-56.688 E7.4058
G1 X-4.478 Y-56.518 E7.4441
G1 X-3.727 Y-56.397 E7.46813
G1 X-.979 Y-56.035 E7.55571
G1 X1.732 Y-55.754 E7.64183
G1 X4.437 Y-55.553 E7.72754
G1 X7.225 Y-55.424 E7.81573
G1 X9.908 Y-55.375 E7.90051
G1 X12.66 Y-55.403 E7.98747
G1 X15.398 Y-55.509 E8.07405
G1 X19.177 Y-55.782 E8.19377
G1 X20.189 Y-55.875 E8.22588
G1 X20.858 Y-55.917 E8.24706
G1 X21.275 Y-55.93 E8.26024
G1 X22.023 Y-55.93 E8.28388
G1 X22.327 Y-55.919 E8.29349
G1 X23.09 Y-55.872 E8.31764
G1 X23.44 Y-55.839 E8.32875
G1 X24.103 Y-55.757 E8.34986
G1 X24.446 Y-55.702 E8.36084
G1 X25.178 Y-55.566 E8.38436
G1 X25.495 Y-55.497 E8.39461
G1 X26.181 Y-55.326 E8.41695
G1 X26.553 Y-55.22 E8.42917
G1 X27.089 Y-55.052 E8.44692
G1 X27.51 Y-54.906 E8.461
G1 X28.101 Y-54.681 E8.48098
G1 X28.52 Y-54.505 E8.49534
G1 X29.141 Y-54.222 E8.5169
G1 X29.459 Y-54.064 E8.52812
G1 X30.116 Y-53.715 E8.55163
G1 X30.382 Y-53.561 E8.56134
G1 X30.983 Y-53.191 E8.58364
G1 X31.331 Y-52.963 E8.59679
G1 X31.825 Y-52.616 E8.61586
G1 X32.135 Y-52.386 E8.62806
G1 X32.634 Y-51.991 E8.64817
G1 X32.971 Y-51.707 E8.66209
G1 X33.508 Y-51.224 E8.68492
G1 X33.755 Y-50.985 E8.69578
G1 X34.23 Y-50.501 E8.7172
G1 X34.472 Y-50.24 E8.72845
G1 X34.93 Y-49.712 E8.75053
G1 X35.142 Y-49.454 E8.76109
G1 X35.549 Y-48.927 E8.78213
G1 X35.803 Y-48.575 E8.79584
G1 X36.205 Y-47.98 E8.81853
G1 X36.385 Y-47.692 E8.82926
G1 X36.72 Y-47.124 E8.8501
G1 X36.897 Y-46.801 E8.86173
G1 X37.239 Y-46.134 E8.88542
G1 X37.37 Y-45.855 E8.89516
G1 X37.655 Y-45.197 E8.91782
G1 X37.78 Y-44.886 E8.92841
G1 X37.998 Y-44.296 E8.94828
G1 X38.128 Y-43.904 E8.96133
G1 X38.329 Y-43.232 E8.98349
G1 X38.434 Y-42.838 E8.99638
G1 X38.583 Y-42.187 E9.01748
G1 X38.658 Y-41.818 E9.02938
G1 X38.775 Y-41.121 E9.05171
G1 X38.823 Y-40.766 E9.06303
G1 X38.886 Y-40.189 E9.08137
G1 X38.921 Y-39.726 E9.09604
G1 X38.954 Y-38.997 E9.11909
G1 X38.959 Y-38.667 E9.12952
G1 X38.95 Y-38.052 E9.14896
G1 X38.931 Y-37.631 E9.16227
G1 X38.883 Y-36.986 E9.18271
G1 X38.838 Y-36.568 E9.19599
G1 X38.74 Y-35.863 E9.21848
G1 X38.686 Y-35.552 E9.22846
G1 X38.556 Y-34.893 E9.24968
G1 X38.456 Y-34.466 E9.26354
G1 X38.282 Y-33.81 E9.28498
G1 X38.188 Y-33.498 E9.29528
G1 X37.969 Y-32.836 E9.31731
G1 X37.833 Y-32.463 E9.32986
G1 X37.574 Y-31.818 E9.35182
G1 X37.434 Y-31.5 E9.3628
G1 X37.104 Y-30.803 E9.38716
G1 X36.978 Y-30.56 E9.39581
G1 X36.67 Y-29.999 E9.41603
G1 X36.435 Y-29.602 E9.43061
G1 X36.075 Y-29.034 E9.45186
G1 X35.86 Y-28.718 E9.46394
G1 X35.454 Y-28.156 E9.48584
G1 X35.26 Y-27.905 E9.49587
G1 X34.843 Y-27.395 E9.51668
G1 X34.532 Y-27.038 E9.53164
G1 X34.159 Y-26.633 E9.54904
G1 X33.842 Y-26.311 E9.56332
G1 X33.378 Y-25.866 E9.58363
G1 X33.104 Y-25.62 E9.59526
G1 X32.51 Y-25.118 E9.61984
G1 X32.251 Y-24.914 E9.63026
G1 X31.741 Y-24.533 E9.65037
G1 X31.376 Y-24.279 E9.66442
G1 X30.806 Y-23.906 E9.68595
G1 X30.53 Y-23.738 E9.69615
G1 X29.86 Y-23.356 E9.72052
G1 X29.571 Y-23.203 E9.73086
G1 X29.036 Y-22.939 E9.74971
G1 X28.629 Y-22.754 E9.76383
G1 X27.963 Y-22.476 E9.78664
G1 X27.68 Y-22.367 E9.79622
G1 X27.028 Y-22.139 E9.81804
G1 X26.64 Y-22.017 E9.83089
G1 X25.972 Y-21.83 E9.85281
G1 X25.626 Y-21.745 E9.86407
G1 X24.915 Y-21.592 E9.88705
G1 X24.607 Y-21.535 E9.89695
G1 X23.878 Y-21.424 E9.92025
G1 X23.515 Y-21.381 E9.9318
G1 X22.827 Y-21.318 E9.95363
G1 X22.508 Y-21.3 E9.96372
G1 X21.761 Y-21.277 E9.98734
G1 X21.433 Y-21.278 E9.9977
G1 X20.815 Y-21.296 E10.01724
G1 X20.371 Y-21.324 E10.03129
G1 X19.769 Y-21.378 E10.05039
G1 X19.318 Y-21.433 E10.06475
G1 X18.047 Y-21.627 E10.10537
G1 X15.285 Y-22.008 E10.19347
G1 X12.583 Y-22.304 E10.27936
G1 X9.837 Y-22.527 E10.36641
G1 X7.09 Y-22.67 E10.45332
G1 X4.371 Y-22.736 E10.53926
G1 X1.619 Y-22.724 E10.62622
G1 X-1.101 Y-22.636 E10.71221
M204 S4000
G1 F2400 E4.71221
;MESH:fs_diy_top_v1.stl
G0 F1440 X-4.626 Y-25.093
G0 X-4.952 Y-26.334
G0 X-6.679 Y-26.135
G0 X-6.67 Y-26.036
M204 S1800
;TYPE:WALL-INNER
G1 F2400 E10.71221
G1 F600 X-7.539 Y-25.98 E10.73972
G1 X-8.4 Y-25.98 E10.76693
G1 X-9.269 Y-26.036 E10.79444
G1 X-10.128 Y-26.146 E10.8218
G1 X-10.991 Y-26.315 E10.84959
G1 X-11.81 Y-26.53 E10.87634
G1 X-12.654 Y-26.81 E10.90444
G1 X-13.451 Y-27.132 E10.9316
G1 X-14.232 Y-27.509 E10.959
G1 X-14.99 Y-27.936 E10.98649
G1 X-15.714 Y-28.408 E11.0138
G1 X-16.414 Y-28.929 E11.04137
G1 X-17.08 Y-29.497 E11.06903
G1 X-17.696 Y-30.094 E11.09614
G1 X-18.276 Y-30.733 E11.1234
G1 X-18.816 Y-31.41 E11.15077
G1 X-19.323 Y-32.136 E11.17875
G1 X-19.766 Y-32.867 E11.20575
G1 X-20.166 Y-33.634 E11.23309
G1 X-20.524 Y-34.442 E11.26101
G1 X-20.817 Y-35.24 E11.28787
G1 X-21.071 Y-36.097 E11.31611
G1 X-21.261 Y-36.929 E11.34308
G1 X-21.399 Y-37.789 E11.3706
G1 X-21.48 Y-38.636 E11.39749
G1 X-21.509 Y-39.507 E11.42502
G1 X-21.48 Y-40.392 E11.453
G1 X-21.398 Y-41.247 E11.48014
G1 X-21.261 Y-42.096 E11.50731
G1 X-21.071 Y-42.929 E11.53431
G1 X-20.817 Y-43.786 E11.56255
G1 X-20.522 Y-44.588 E11.58955
G1 X-20.166 Y-45.392 E11.61734
G1 X-19.764 Y-46.163 E11.64481
G1 X-19.323 Y-46.89 E11.67168
G1 X-18.816 Y-47.616 E11.69966
G1 X-18.275 Y-48.295 E11.72709
G1 X-17.696 Y-48.932 E11.75429
G1 X-17.078 Y-49.532 E11.7815
