;FLAVOR:Marlin
;TIME:4329
;Filament used: 2.58671m
;Layer height: 0.2
;MINX:126.829
;MINY:126.761
;MINZ:0.2
;MAXX:173.171
;MAXY:173.171
;MAXZ:23.4
;Generated with Cura_SteamEngine 4.10.0
M104 S210
M105
M109 S210
M82 ;absolute extrusion mode
G28 ; home all axes
 M117 Purge extruder
 G92 E0 ; reset extruder
 G1 Z1.0 F3000 ; move z up little to prevent scratching of surface
 G1 X2 Y20 Z0.3 F5000.0 ; move to start-line position
 G1 X2 Y200.0 Z0.3 F1500.0 E15 ; draw 1st line
 G1 X2 Y200.0 Z0.4 F5000.0 ; move to side a little
 G1 X2 Y20 Z0.4 F1500.0 E30 ; draw 2nd line
 G92 E0 ; reset extruder
 G1 Z1.0 F3000 ; move z up little to prevent scratching of surface
G92 E0
G92 E0
;LAYER_COUNT:117
;LAYER:0
M107
G0 F6000 X130.901 Y130.404 Z0.2
;TYPE:SKIRT
G1 F1200 X131.613 Y129.768 E0.02858
G1 X132.376 Y129.193 E0.05718
G1 X133.183 Y128.684 E0.08574
G1 X134.031 Y128.245 E0.11432
G1 X134.913 Y127.878 E0.14292
G1 X135.822 Y127.586 E0.1715
G1 X136.896 Y127.346 E0.20444
G1 X137.436 Y127.253 E0.22084
G1 X139.605 Y126.91 E0.28658
G1 X140.554 Y126.8 E0.31517
G1 X141.064 Y126.775 E0.33046
G1 X141.383 Y126.766 E0.34001
G1 X141.705 Y126.761 E0.34965
G1 X143.704 Y126.762 E0.40949
G1 X144.41 Y126.772 E0.43062
G1 X144.728 Y126.781 E0.44015
G1 X145.585 Y126.818 E0.46583
G1 X146.859 Y126.89 E0.50402
G1 X149.318 Y126.96 E0.57766
G1 X151.855 Y126.96 E0.6536
G1 X154.371 Y126.889 E0.72895
G1 X155.173 Y126.851 E0.75298
G1 X155.737 Y126.834 E0.76987
G1 X156.08 Y126.829 E0.78014
G1 X158.091 Y126.83 E0.84034
G1 X158.814 Y126.841 E0.86198
G1 X159.443 Y126.868 E0.88083
G1 X160.525 Y126.944 E0.9133
G1 X161.591 Y127.006 E0.94526
G1 X162.497 Y127.07 E0.97245
G1 X163.446 Y127.177 E1.00104
G1 X164.383 Y127.364 E1.02964
G1 X165.3 Y127.627 E1.05819
G1 X166.192 Y127.967 E1.08677
G1 X167.053 Y128.38 E1.11535
G1 X167.876 Y128.864 E1.14393
G1 X168.656 Y129.415 E1.17252
G1 X169.387 Y130.029 E1.2011
G1 X170.064 Y130.702 E1.22967
G1 X170.682 Y131.43 E1.25826
G1 X171.238 Y132.207 E1.28686
G1 X171.726 Y133.027 E1.31542
G1 X172.144 Y133.886 E1.34402
G1 X172.488 Y134.776 E1.37258
G1 X172.757 Y135.692 E1.40116
G1 X172.949 Y136.628 E1.42976
G1 X173.061 Y137.576 E1.45833
G1 X173.089 Y138.122 E1.4747
G1 X173.098 Y138.442 E1.48428
G1 X173.103 Y138.762 E1.49386
G1 X173.102 Y140.83 E1.55577
G1 X173.082 Y142.239 E1.59795
G1 X173.044 Y143.596 E1.63858
G1 X173.042 Y146.1 E1.71354
G1 X173.114 Y148.671 E1.79053
G1 X173.14 Y149.193 E1.80618
G1 X173.149 Y149.42 E1.81298
G1 X173.166 Y149.99 E1.83005
G1 X173.171 Y150.33 E1.84022
G1 X173.17 Y152.331 E1.90012
G1 X173.137 Y154.554 E1.96667
G1 X173.133 Y154.693 E1.97084
G1 X173.166 Y158.624 E2.08851
G1 X173.171 Y158.957 E2.09848
G1 X173.17 Y160.973 E2.15883
G1 X173.161 Y161.7 E2.18059
G1 X173.109 Y162.653 E2.20916
G1 X172.978 Y163.599 E2.23775
G1 X172.768 Y164.531 E2.26635
G1 X172.481 Y165.441 E2.29491
G1 X172.118 Y166.324 E2.32349
G1 X171.683 Y167.174 E2.35207
G1 X171.178 Y167.985 E2.38067
G1 X170.608 Y168.75 E2.40923
G1 X169.975 Y169.465 E2.43781
G1 X169.285 Y170.125 E2.46639
G1 X168.541 Y170.724 E2.49499
G1 X167.751 Y171.259 E2.52355
G1 X166.918 Y171.726 E2.55213
G1 X166.049 Y172.122 E2.58072
G1 X165.15 Y172.444 E2.6093
G1 X164.227 Y172.689 E2.63789
G1 X163.287 Y172.856 E2.66647
G1 X162.082 Y172.955 E2.70266
G1 X161.761 Y172.964 E2.71227
G1 X161.441 Y172.968 E2.72185
G1 X159.153 Y172.967 E2.79034
G1 X158.804 Y172.962 E2.80079
G1 X156.209 Y172.96 E2.87847
G1 X155.942 Y172.965 E2.88646
G1 X155.517 Y172.968 E2.89918
G1 X153.417 Y172.967 E2.96205
G1 X151.813 Y172.943 E3.01007
G1 X150.599 Y172.909 E3.04642
G1 X149.308 Y172.9 E3.08507
G1 X148.793 Y172.9 E3.10048
G1 X146.202 Y172.937 E3.17805
G1 X143.681 Y173.044 E3.25358
G1 X143.387 Y173.064 E3.2624
G1 X142.026 Y173.143 E3.30321
G1 X141.685 Y173.157 E3.31343
G1 X141.365 Y173.166 E3.32301
G1 X141.045 Y173.171 E3.33259
G1 X138.773 Y173.17 E3.4006
G1 X138.075 Y173.16 E3.4215
G1 X137.121 Y173.106 E3.4501
G1 X136.176 Y172.973 E3.47867
G1 X135.245 Y172.761 E3.50725
G1 X134.335 Y172.472 E3.53583
G1 X133.452 Y172.108 E3.56442
G1 X132.603 Y171.671 E3.593
G1 X131.794 Y171.165 E3.62157
G1 X131.03 Y170.593 E3.65013
G1 X130.316 Y169.959 E3.67872
G1 X129.658 Y169.267 E3.7073
G1 X129.06 Y168.523 E3.73587
G1 X128.526 Y167.731 E3.76447
G1 X128.061 Y166.897 E3.79305
G1 X127.666 Y166.028 E3.82162
G1 X127.347 Y165.128 E3.85021
G1 X127.103 Y164.205 E3.87879
G1 X126.938 Y163.264 E3.90738
G1 X126.842 Y162.07 E3.94324
G1 X126.833 Y161.738 E3.95318
G1 X126.829 Y161.429 E3.96243
G1 X126.83 Y159.167 E4.03014
G1 X126.854 Y157.562 E4.07819
G1 X126.888 Y156.349 E4.11452
G1 X126.897 Y155.058 E4.15316
G1 X126.898 Y153.42 E4.2022
G1 X126.918 Y152.01 E4.24441
G1 X126.956 Y150.654 E4.28501
G1 X126.958 Y148.15 E4.35997
G1 X126.886 Y145.581 E4.4369
G1 X126.86 Y145.057 E4.4526
G1 X126.851 Y144.83 E4.4594
G1 X126.834 Y144.26 E4.47647
G1 X126.829 Y143.92 E4.48665
G1 X126.83 Y141.906 E4.54694
G1 X126.841 Y141.199 E4.56811
G1 X126.896 Y140.245 E4.59671
G1 X127.094 Y138.982 E4.63498
G1 X127.39 Y137.611 E4.67697
G1 X127.455 Y137.327 E4.68569
G1 X127.706 Y136.168 E4.72118
G1 X127.947 Y135.244 E4.74977
G1 X128.264 Y134.344 E4.77833
G1 X128.656 Y133.473 E4.80692
G1 X129.118 Y132.638 E4.83549
G1 X129.65 Y131.844 E4.8641
G1 X130.245 Y131.098 E4.89266
G1 X130.901 Y130.404 E4.92125
G0 F6000 X131.264 Y130.61
G1 F1200 X131.97 Y129.993 E4.94932
G1 X132.726 Y129.438 E4.97739
G1 X133.527 Y128.95 E5.00547
G1 X134.366 Y128.532 E5.03352
G1 X135.238 Y128.186 E5.06161
G1 X136.137 Y127.917 E5.0897
G1 X136.964 Y127.74 E5.11501
G1 X137.499 Y127.648 E5.13126
G1 X139.668 Y127.305 E5.197
G1 X140.6 Y127.198 E5.22508
G1 X141.076 Y127.174 E5.23935
G1 X141.395 Y127.165 E5.2489
G1 X141.705 Y127.161 E5.25818
G1 X143.699 Y127.162 E5.31787
G1 X144.405 Y127.172 E5.339
G1 X144.712 Y127.181 E5.3482
G1 X145.562 Y127.218 E5.37366
G1 X146.789 Y127.288 E5.41045
G1 X149.343 Y127.36 E5.48694
G1 X151.831 Y127.36 E5.56141
G1 X154.402 Y127.287 E5.6384
G1 X154.974 Y127.259 E5.65555
G1 X155.749 Y127.234 E5.67876
G1 X156.08 Y127.229 E5.68867
G1 X158.085 Y127.23 E5.74868
G1 X158.808 Y127.241 E5.77033
G1 X159.415 Y127.267 E5.78852
G1 X160.475 Y127.342 E5.82033
G1 X161.563 Y127.405 E5.85295
G1 X162.469 Y127.469 E5.88014
G1 X163.401 Y127.575 E5.90821
G1 X164.32 Y127.76 E5.93628
G1 X165.221 Y128.023 E5.96437
G1 X166.096 Y128.361 E5.99245
G1 X166.938 Y128.773 E6.02051
G1 X167.743 Y129.254 E6.04858
G1 X168.504 Y129.803 E6.07667
G1 X169.215 Y130.415 E6.10475
G1 X169.871 Y131.084 E6.1328
G1 X170.468 Y131.808 E6.16089
G1 X171.001 Y132.579 E6.18895
G1 X171.467 Y133.393 E6.21702
G1 X171.862 Y134.244 E6.24511
G1 X172.182 Y135.126 E6.27319
G1 X172.427 Y136.031 E6.30126
G1 X172.593 Y136.954 E6.32933
G1 X172.69 Y138.133 E6.36474
G1 X172.699 Y138.453 E6.37433
G1 X172.703 Y138.762 E6.38358
G1 X172.702 Y140.824 E6.4453
G1 X172.679 Y142.391 E6.49221
G1 X172.644 Y143.619 E6.52899
G1 X172.642 Y146.111 E6.60358
G1 X172.715 Y148.701 E6.68114
G1 X172.749 Y149.432 E6.70305
G1 X172.766 Y150.002 E6.72012
G1 X172.771 Y150.33 E6.72994
G1 X172.77 Y152.326 E6.78969
G1 X172.737 Y154.544 E6.85609
G1 X172.733 Y154.686 E6.86034
G1 X172.766 Y158.635 E6.97855
G1 X172.771 Y158.957 E6.98819
G1 X172.77 Y160.968 E7.04839
G1 X172.761 Y161.695 E7.07015
G1 X172.71 Y162.632 E7.09824
G1 X172.578 Y163.56 E7.1263
G1 X172.369 Y164.474 E7.15437
G1 X172.082 Y165.367 E7.18245
G1 X171.72 Y166.233 E7.21054
G1 X171.286 Y167.064 E7.23861
G1 X170.782 Y167.855 E7.26668
G1 X170.213 Y168.6 E7.29474
G1 X169.582 Y169.295 E7.32284
G1 X168.895 Y169.933 E7.35091
G1 X168.156 Y170.51 E7.37897
G1 X167.37 Y171.022 E7.40705
G1 X166.544 Y171.465 E7.43511
G1 X165.682 Y171.837 E7.46321
G1 X164.793 Y172.133 E7.49126
G1 X163.881 Y172.353 E7.51935
G1 X162.954 Y172.494 E7.54741
G1 X162.07 Y172.555 E7.57394
G1 X161.749 Y172.564 E7.58355
G1 X161.441 Y172.568 E7.59277
G1 X159.159 Y172.567 E7.66108
G1 X158.811 Y172.562 E7.6715
G1 X156.2 Y172.56 E7.74966
G1 X155.94 Y172.565 E7.75744
G1 X155.515 Y172.568 E7.77016
G1 X153.423 Y172.567 E7.83279
G1 X151.824 Y172.543 E7.88066
G1 X150.613 Y172.509 E7.91692
G1 X149.31 Y172.5 E7.95593
G1 X148.788 Y172.5 E7.97155
G1 X146.18 Y172.537 E8.04963
G1 X143.668 Y172.644 E8.12489
G1 X143.363 Y172.665 E8.13404
G1 X142.002 Y172.744 E8.17485
G1 X141.674 Y172.758 E8.18468
G1 X141.354 Y172.767 E8.19426
G1 X141.045 Y172.771 E8.20351
G1 X138.778 Y172.77 E8.27137
G1 X138.08 Y172.76 E8.29227
G1 X137.144 Y172.706 E8.32033
G1 X136.216 Y172.574 E8.34839
G1 X135.302 Y172.362 E8.37648
G1 X134.41 Y172.073 E8.40454
G1 X133.545 Y171.71 E8.43263
G1 X132.715 Y171.274 E8.46069
G1 X131.924 Y170.769 E8.48878
G1 X131.18 Y170.198 E8.51686
G1 X130.487 Y169.566 E8.54493
G1 X129.85 Y168.878 E8.573
G1 X129.275 Y168.137 E8.60107
G1 X128.764 Y167.351 E8.62914
G1 X128.322 Y166.523 E8.65723
G1 X127.953 Y165.661 E8.6853
G1 X127.658 Y164.771 E8.71337
G1 X127.44 Y163.859 E8.74144
G1 X127.3 Y162.931 E8.76953
G1 X127.242 Y162.059 E8.79569
G1 X127.233 Y161.727 E8.80563
G1 X127.229 Y161.429 E8.81455
G1 X127.23 Y159.173 E8.88208
G1 X127.254 Y157.573 E8.92998
G1 X127.288 Y156.363 E8.96622
G1 X127.297 Y155.06 E9.00522
G1 X127.298 Y153.426 E9.05414
G1 X127.318 Y152.016 E9.09635
G1 X127.356 Y150.665 E9.1368
G1 X127.358 Y148.14 E9.21239
G1 X127.285 Y145.549 E9.28998
G1 X127.251 Y144.818 E9.31188
G1 X127.234 Y144.248 E9.32895
G1 X127.229 Y143.92 E9.33877
G1 X127.23 Y141.912 E9.39888
G1 X127.241 Y141.205 E9.42005
G1 X127.296 Y140.269 E9.44811
G1 X127.485 Y139.066 E9.48457
G1 X127.744 Y137.86 E9.52149
G1 X127.844 Y137.422 E9.53494
G1 X128.097 Y136.253 E9.57074
G1 X128.334 Y135.345 E9.59883
G1 X128.648 Y134.461 E9.62691
G1 X129.036 Y133.607 E9.65499
G1 X129.495 Y132.789 E9.68307
G1 X130.022 Y132.014 E9.71112
G1 X130.613 Y131.285 E9.73922
G1 X131.264 Y130.61 E9.76729
G0 F6000 X131.626 Y130.819
G1 F1200 X132.326 Y130.222 E9.79483
G1 X133.076 Y129.687 E9.82241
G1 X133.869 Y129.22 E9.84995
G1 X134.7 Y128.823 E9.87752
G1 X135.562 Y128.5 E9.90508
G1 X136.449 Y128.252 E9.93265
G1 X137.033 Y128.134 E9.95048
G1 X137.561 Y128.043 E9.96652
G1 X139.73 Y127.7 E10.03225
G1 X141.087 Y127.574 E10.07305
G1 X141.406 Y127.565 E10.0826
G1 X141.705 Y127.561 E10.09155
G1 X143.693 Y127.562 E10.15106
G1 X144.399 Y127.572 E10.1722
G1 X144.695 Y127.58 E10.18106
G1 X145.54 Y127.617 E10.20638
G1 X146.791 Y127.688 E10.24389
G1 X149.332 Y127.76 E10.31998
G1 X151.842 Y127.76 E10.39512
G1 X154.434 Y127.687 E10.47274
G1 X154.994 Y127.659 E10.48952
G1 X155.761 Y127.634 E10.51249
G1 X156.08 Y127.629 E10.52204
G1 X158.079 Y127.63 E10.58188
G1 X158.802 Y127.641 E10.60352
G1 X159.387 Y127.666 E10.62105
G1 X160.425 Y127.739 E10.6522
G1 X161.535 Y127.804 E10.68548
G1 X162.441 Y127.868 E10.71267
G1 X163.356 Y127.973 E10.74024
G1 X164.258 Y128.157 E10.7678
G1 X165.141 Y128.418 E10.79536
G1 X165.997 Y128.755 E10.8229
G1 X166.822 Y129.165 E10.85048
G1 X167.607 Y129.645 E10.87802
G1 X168.348 Y130.191 E10.90557
G1 X169.039 Y130.8 E10.93314
G1 X169.675 Y131.466 E10.96071
G1 X170.25 Y132.185 E10.98827
G1 X170.761 Y132.951 E11.01583
G1 X171.203 Y133.758 E11.04337
G1 X171.574 Y134.601 E11.07094
G1 X171.87 Y135.473 E11.09851
G1 X172.089 Y136.367 E11.12606
G1 X172.23 Y137.277 E11.15363
G1 X172.29 Y138.144 E11.17964
G1 X172.299 Y138.464 E11.18922
G1 X172.303 Y138.762 E11.19815
G1 X172.302 Y140.818 E11.25969
G1 X172.279 Y142.38 E11.30645
G1 X172.244 Y143.608 E11.34323
G1 X172.242 Y146.122 E11.41848
G1 X172.314 Y148.687 E11.49529
G1 X172.341 Y149.233 E11.51166
G1 X172.366 Y150.014 E11.53505
G1 X172.371 Y150.33 E11.54451
G1 X172.37 Y152.32 E11.60408
G1 X172.337 Y154.533 E11.67033
G1 X172.333 Y154.679 E11.6747
G1 X172.366 Y158.647 E11.79348
G1 X172.371 Y158.957 E11.80276
G1 X172.37 Y160.963 E11.86281
G1 X172.361 Y161.69 E11.88457
G1 X172.31 Y162.609 E11.91213
G1 X172.179 Y163.521 E11.93971
G1 X171.969 Y164.417 E11.96725
G1 X171.683 Y165.292 E11.99481
G1 X171.322 Y166.139 E12.02237
G1 X170.888 Y166.951 E12.04993
G1 X170.386 Y167.723 E12.0775
G1 X169.818 Y168.448 E12.10507
G1 X169.19 Y169.121 E12.13262
G1 X168.506 Y169.737 E12.16017
G1 X167.771 Y170.291 E12.18773
G1 X166.991 Y170.78 E12.21528
G1 X166.171 Y171.199 E12.24285
G1 X165.318 Y171.545 E12.2704
G1 X164.438 Y171.816 E12.29797
G1 X163.538 Y172.009 E12.32552
G1 X162.624 Y172.124 E12.35309
G1 X162.059 Y172.155 E12.37003
G1 X161.738 Y172.164 E12.37965
G1 X161.441 Y172.168 E12.38854
G1 X159.165 Y172.167 E12.45667
G1 X158.817 Y172.162 E12.46708
G1 X156.19 Y172.16 E12.54572
G1 X155.937 Y172.165 E12.5533
G1 X155.512 Y172.168 E12.56602
G1 X153.429 Y172.167 E12.62837
G1 X151.835 Y172.143 E12.67609
G1 X150.627 Y172.109 E12.71227
G1 X149.313 Y172.1 E12.7516
G1 X148.782 Y172.1 E12.7675
G1 X146.158 Y172.137 E12.84605
G1 X143.658 Y172.243 E12.92095
G1 X143.34 Y172.265 E12.9305
G1 X141.979 Y172.344 E12.9713
G1 X141.663 Y172.358 E12.98077
G1 X141.343 Y172.367 E12.99036
G1 X141.045 Y172.371 E12.99928
G1 X138.784 Y172.37 E13.06696
G1 X138.086 Y172.36 E13.08785
G1 X137.167 Y172.307 E13.11541
G1 X136.256 Y172.174 E13.14297
G1 X135.36 Y171.963 E13.17052
G1 X134.486 Y171.675 E13.19807
G1 X133.639 Y171.312 E13.22565
G1 X132.828 Y170.877 E13.2532
G1 X132.058 Y170.373 E13.28075
G1 X131.334 Y169.804 E13.30831
G1 X130.662 Y169.174 E13.33589
G1 X130.047 Y168.489 E13.36344
G1 X129.494 Y167.753 E13.391
G1 X129.007 Y166.972 E13.41855
G1 X128.59 Y166.151 E13.44612
G1 X128.245 Y165.297 E13.47369
G1 X127.976 Y164.417 E13.50123
G1 X127.784 Y163.516 E13.52881
G1 X127.671 Y162.603 E13.55635
G1 X127.642 Y162.048 E13.57298
G1 X127.633 Y161.716 E13.58293
G1 X127.629 Y161.429 E13.59152
G1 X127.63 Y159.179 E13.65887
G1 X127.654 Y157.584 E13.70662
G1 X127.688 Y156.377 E13.74276
G1 X127.697 Y155.063 E13.7821
G1 X127.698 Y153.432 E13.83092
G1 X127.721 Y151.869 E13.87771
G1 X127.756 Y150.642 E13.91446
G1 X127.758 Y148.129 E13.98968
G1 X127.686 Y145.563 E14.06652
G1 X127.659 Y145.017 E14.08289
G1 X127.634 Y144.236 E14.10628
G1 X127.629 Y143.92 E14.11574
G1 X127.63 Y141.918 E14.17567
G1 X127.641 Y141.211 E14.19683
G1 X127.696 Y140.292 E14.22439
G1 X127.876 Y139.15 E14.259
G1 X128.135 Y137.944 E14.29592
G1 X128.233 Y137.517 E14.30904
G1 X128.488 Y136.337 E14.34517
G1 X128.722 Y135.447 E14.37272
G1 X129.032 Y134.58 E14.40028
G1 X129.416 Y133.743 E14.42785
G1 X129.871 Y132.942 E14.45542
G1 X130.393 Y132.185 E14.48295
G1 X130.98 Y131.475 E14.51052
G1 X131.626 Y130.819 E14.53808
G0 F6000 X131.987 Y131.03
G1 F1200 X132.682 Y130.453 E14.56512
G1 X133.424 Y129.939 E14.59214
G1 X134.21 Y129.493 E14.6192
G1 X135.031 Y129.118 E14.64621
G1 X135.883 Y128.818 E14.67325
G1 X137.101 Y128.528 E14.71073
G1 X137.624 Y128.438 E14.72662
G1 X139.793 Y128.095 E14.79235
G1 X141.098 Y127.974 E14.83158
G1 X141.417 Y127.965 E14.84114
G1 X141.705 Y127.961 E14.84976
G1 X143.687 Y127.962 E14.90909
G1 X144.393 Y127.972 E14.93022
G1 X144.678 Y127.98 E14.93876
G1 X145.517 Y128.016 E14.96389
G1 X146.792 Y128.089 E15.00212
G1 X149.32 Y128.16 E15.07783
G1 X151.853 Y128.16 E15.15365
G1 X154.416 Y128.087 E15.2304
G1 X155.013 Y128.058 E15.24829
G1 X155.773 Y128.034 E15.27105
G1 X156.08 Y128.029 E15.28025
G1 X158.073 Y128.03 E15.3399
G1 X158.796 Y128.041 E15.36155
G1 X159.359 Y128.065 E15.37842
G1 X160.452 Y128.142 E15.41122
G1 X161.507 Y128.203 E15.44285
G1 X162.413 Y128.267 E15.47004
G1 X163.31 Y128.371 E15.49707
G1 X164.194 Y128.553 E15.52409
G1 X165.059 Y128.813 E15.55112
G1 X165.898 Y129.149 E15.57818
G1 X166.703 Y129.557 E15.60519
G1 X167.47 Y130.035 E15.63225
G1 X168.191 Y130.579 E15.65928
G1 X168.861 Y131.184 E15.6863
G1 X169.475 Y131.846 E15.71333
G1 X170.028 Y132.56 E15.74037
G1 X170.515 Y133.321 E15.76741
G1 X170.934 Y134.121 E15.79444
G1 X171.28 Y134.955 E15.82147
G1 X171.55 Y135.817 E15.84851
G1 X171.744 Y136.699 E15.87554
G1 X171.859 Y137.595 E15.90259
G1 X171.89 Y138.155 E15.91937
G1 X171.899 Y138.475 E15.92896
G1 X171.903 Y138.762 E15.93755
G1 X171.902 Y140.813 E15.99894
G1 X171.879 Y142.369 E16.04553
G1 X171.844 Y143.597 E16.0823
G1 X171.842 Y146.133 E16.15821
G1 X171.914 Y148.718 E16.23562
G1 X171.941 Y149.253 E16.25166
G1 X171.949 Y149.456 E16.25774
G1 X171.966 Y150.026 E16.27481
G1 X171.971 Y150.33 E16.28391
