; generated by PrusaSlicer 2.8.1+win64 on 2025-02-27 at 12:08:12 UTC


;
;
; 

; external perimeters extrusion width = 0.40mm
; perimeters extrusion width = 0.40mm
; infill extrusion width = 0.40mm
; solid infill extrusion width = 0.40mm
; top infill extrusion width = 0.40mm
; support material extrusion width = 0.44mm
; first layer extrusion width = 0.44mm

M73 P0 R31
;TYPE:Custom
G90 ; use absolute coordinates
M83 ; extruder relative mode
M140 S0 ; set bed temp
M190 S0 ; wait for bed temp
M104 S205 ; set extruder temp
M109 S205 ; wait for extruder temp
G28                                        ; move X/Y/Z to min endstops
G1 Z0.28                                   ; lift nozzle a bit 
G92 E0 
G1 Y3 F2400                                    ; zero the extruded length 
G1 X180  E40 F500                       ; Extrude 25mm of filament in a 5cm line. 
G92 E0                                     ; zero the extruded length again 
G1 E-0.2 F3000                                ; Retract a little 
M73 P1 R31
G1 X181 F4000                              ; Quickly wipe away from the filament line
M117
G21 ; set units to millimeters
G90 ; use absolute coordinates
M82 ; use absolute distances for extrusion
G92 E0
; Filament gcode
M107
;LAYER_CHANGE
;Z:0.2
;HEIGHT:0.2
G1 E-2 F2400
G92 E0
G1 Z.5 F12000
G1 X52.024 Y64.696
G1 Z.2
G1 E2 F2400
M204 S5000
;TYPE:Skirt/Brim
;WIDTH:0.44
G1 F1800
G1 X52.964 Y63.94 E2.03784
G1 X53.988 Y63.275 E2.07614
G1 X55.057 Y62.699 E2.11423
G1 X56.523 Y62.09 E2.16402
G1 X58.024 Y61.649 E2.21309
G1 X59.221 Y61.422 E2.2513
G1 X60.439 Y61.296 E2.28971
G1 X167.405 Y61.295 E5.64485
G1 X168.905 Y61.487 E5.69228
G1 X170.359 Y61.876 E5.73949
G1 X172.131 Y62.656 E5.80022
G1 X173.76 Y63.735 E5.86151
G1 X175.184 Y65.083 E5.92301
G1 X176.471 Y66.853 E5.99165
G1 X177.318 Y68.622 E6.05317
G1 X177.822 Y70.381 E6.11056
G1 X178.018 Y72.042 E6.16302
G1 X178.851 Y72.371 E6.19111
G1 X180.796 Y73.66 E6.2643
G1 X182.405 Y75.421 E6.33912
G1 X183.591 Y77.571 E6.41614
G1 X184.279 Y80.574 E6.51277
G1 X184.128 Y85.82 E6.67739
G1 X183.481 Y87.917 E6.74622
G1 X182.295 Y89.981 E6.82089
G1 X180.668 Y91.671 E6.89447
G1 X178.667 Y92.948 E6.96893
G1 X176.438 Y93.711 E7.04283
G1 X175.062 Y93.896 E7.08638
G1 X173.831 Y93.959 E7.12504
G1 X167.074 Y93.877 E7.337
G1 X164.287 Y93.053 E7.42816
G1 X160.403 Y90.759 E7.56965
G1 X158.861 Y90.044 E7.62296
G1 X157.109 Y88.922 E7.68822
G1 X155.479 Y87.529 E7.75547
G1 X153.812 Y85.139 E7.84687
G1 X153.394 Y83.96 E7.88611
G1 X78.084 Y83.96 E10.24832
G1 X127.092 Y157.592 E13.02269
G1 X127.631 Y159.136 E13.07399
G1 X127.928 Y160.772 E13.12614
G1 X127.76 Y163.557 E13.21365
G1 X126.668 Y166.524 E13.31282
G1 X124.717 Y168.966 E13.41086
G1 X119.428 Y172.563 E13.61149
G1 X118.492 Y172.974 E13.64355
G1 X114.867 Y173.751 E13.75984
G1 X112.831 Y173.515 E13.82413
M73 P1 R30
G1 X110.539 Y172.775 E13.89968
G1 X108.734 Y171.646 E13.96646
G1 X106.971 Y169.915 E14.04396
G1 X53.066 Y89.121 E17.09045
G1 X51.962 Y87.81 E17.14421
M73 P2 R30
G1 X51.226 Y86.717 E17.18554
G1 X50.243 Y84.726 E17.25519
G1 X49.611 Y83.931 E17.28705
G1 X48.913 Y82.848 E17.32746
G1 X48.255 Y81.582 E17.37221
G1 X47.702 Y80.182 E17.41942
G1 X47.342 Y78.925 E17.46043
G1 X47.096 Y77.619 E17.50211
G1 X46.964 Y76.1 E17.54994
G1 X46.981 Y74.762 E17.59191
G1 X47.125 Y73.418 E17.63431
G1 X47.445 Y71.899 E17.683
G1 X47.865 Y70.59 E17.72612
G1 X48.414 Y69.314 E17.76969
G1 X49.086 Y68.093 E17.81341
G1 X49.794 Y67.05 E17.85295
G1 X50.59 Y66.071 E17.89253
G1 X51.716 Y64.944 E17.9425
G1 X51.977 Y64.734 E17.95301
M204 S20000
G1 X51.977 Y64.734 F12000
G1 X52.225 Y65.042
M204 S5000
G1 F1800
G1 X53.189 Y64.267 E17.99181
G1 X54.183 Y63.621 E18.02899
G1 X55.236 Y63.054 E18.0665
G1 X56.646 Y62.468 E18.11439
G1 X58.108 Y62.037 E18.1622
G1 X59.286 Y61.814 E18.19981
G1 X60.469 Y61.692 E18.23711
G1 X167.393 Y61.692 E21.59094
G1 X168.841 Y61.879 E21.63674
G1 X170.241 Y62.255 E21.68221
G1 X171.955 Y63.012 E21.74098
G1 X173.525 Y64.056 E21.80012
G1 X174.897 Y65.359 E21.85947
G1 X176.138 Y67.071 E21.92579
G1 X176.952 Y68.777 E21.98508
G1 X177.436 Y70.474 E22.04043
G1 X177.652 Y72.326 E22.09891
G1 X178.65 Y72.714 E22.1325
G1 X180.52 Y73.947 E22.20276
G1 X182.07 Y75.635 E22.27464
G1 X183.21 Y77.688 E22.3483
G1 X183.881 Y80.588 E22.44167
G1 X183.732 Y85.781 E22.60462
G1 X183.125 Y87.739 E22.66892
G1 X181.991 Y89.724 E22.74063
G1 X180.434 Y91.349 E22.81122
G1 X178.515 Y92.58 E22.88273
G1 X176.328 Y93.329 E22.95524
G1 X175.018 Y93.502 E22.99669
G1 X173.829 Y93.562 E23.03403
G1 X167.107 Y93.48 E23.24489
G1 X164.424 Y92.679 E23.33272
G1 X160.588 Y90.407 E23.47256
G1 X159.063 Y89.702 E23.52526
G1 X157.355 Y88.611 E23.58883
G1 X155.79 Y87.281 E23.65325
G1 X154.154 Y84.935 E23.74296
G1 X153.678 Y83.563 E23.78851
G1 X77.342 Y83.563 E26.1829
G1 X126.725 Y157.747 E28.9782
G1 X127.25 Y159.252 E29.0282
G1 X127.533 Y160.819 E29.07815
G1 X127.377 Y163.448 E29.16076
G1 X126.337 Y166.302 E29.25604
G1 X124.469 Y168.655 E29.35028
G1 X119.219 Y172.224 E29.5494
G1 X118.388 Y172.591 E29.57789
G1 X114.879 Y173.353 E29.69052
G1 X112.933 Y173.131 E29.75195
G1 X110.728 Y172.425 E29.82457
G1 X108.995 Y171.347 E29.88859
G1 X107.29 Y169.677 E29.96345
G1 X53.392 Y88.894 E33.00953
G1 X52.284 Y87.578 E33.06349
G1 X51.562 Y86.506 E33.10403
G1 X50.595 Y84.531 E33.17301
G1 X49.94 Y83.707 E33.20603
G1 X49.252 Y82.641 E33.24583
G1 X48.621 Y81.426 E33.28877
G1 X48.081 Y80.063 E33.33476
G1 X47.727 Y78.824 E33.37518
G1 X47.488 Y77.556 E33.41565
G1 X47.361 Y76.095 E33.46165
G1 X47.378 Y74.776 E33.50303
G1 X47.519 Y73.47 E33.54423
G1 X47.826 Y72.01 E33.59103
G1 X48.234 Y70.737 E33.63296
G1 X48.767 Y69.496 E33.67532
G1 X49.419 Y68.308 E33.71783
G1 X50.107 Y67.294 E33.75627
G1 X50.892 Y66.33 E33.79526
G1 X51.989 Y65.232 E33.84394
G1 X52.178 Y65.08 E33.85155
M204 S20000
G1 X52.178 Y65.08 F12000
G1 X52.427 Y65.389
M204 S5000
G1 F1800
G1 X53.414 Y64.595 E33.89128
G1 X54.393 Y63.958 E33.92792
G1 X55.416 Y63.408 E33.96435
G1 X56.788 Y62.838 E34.01095
G1 X58.192 Y62.425 E34.05685
G1 X59.335 Y62.208 E34.09334
G1 X60.5 Y62.088 E34.13008
G1 X167.355 Y62.088 E37.48174
M73 P3 R30
G1 X168.751 Y62.266 E37.52588
G1 X170.123 Y62.635 E37.57044
G1 X171.779 Y63.368 E37.62724
G1 X173.29 Y64.377 E37.68423
G1 X174.61 Y65.633 E37.74138
G1 X175.806 Y67.289 E37.80545
G1 X176.586 Y68.933 E37.86253
G1 X177.043 Y70.537 E37.91484
G1 X177.244 Y72.595 E37.9797
G1 X178.451 Y73.058 E38.02025
G1 X180.245 Y74.234 E38.08753
G1 X181.735 Y75.85 E38.15648
G1 X182.83 Y77.806 E38.22679
G1 X183.484 Y80.603 E38.31689
G1 X183.336 Y85.743 E38.47818
G1 X182.77 Y87.561 E38.5379
G1 X181.659 Y89.505 E38.60813
G1 X180.165 Y91.057 E38.6757
G1 X178.322 Y92.232 E38.74426
G1 X176.219 Y92.947 E38.81393
G1 X173.828 Y93.165 E38.88924
G1 X167.14 Y93.084 E39.09903
G1 X164.563 Y92.306 E39.18346
G1 X160.773 Y90.055 E39.32173
G1 X159.265 Y89.36 E39.37381
G1 X157.601 Y88.299 E39.43571
G1 X156.101 Y87.032 E39.4973
G1 X154.496 Y84.731 E39.5853
G1 X153.963 Y83.166 E39.63716
G1 X76.601 Y83.166 E42.06373
G1 X126.359 Y157.902 E44.87996
G1 X126.862 Y159.338 E44.92769
G1 X127.138 Y160.866 E44.97639
G1 X126.983 Y163.395 E45.05586
G1 X126.006 Y166.082 E45.14554
G1 X124.22 Y168.344 E45.23594
G1 X119.011 Y171.886 E45.43352
G1 X118.283 Y172.207 E45.45848
G1 X114.891 Y172.954 E45.56742
G1 X113.034 Y172.747 E45.62603
G1 X110.915 Y172.074 E45.69577
G1 X109.257 Y171.047 E45.75694
G1 X107.608 Y169.439 E45.82918
G1 X53.718 Y88.667 E48.87484
G1 X52.607 Y87.346 E48.92898
G1 X51.899 Y86.294 E48.96875
G1 X50.948 Y84.336 E49.03703
G1 X50.268 Y83.483 E49.07125
G1 X49.59 Y82.433 E49.11045
G1 X48.986 Y81.27 E49.15156
G1 X48.46 Y79.944 E49.1963
G1 X48.115 Y78.742 E49.23552
G1 X47.88 Y77.492 E49.27541
G1 X47.758 Y76.09 E49.31955
G1 X47.774 Y74.809 E49.35973
G1 X47.91 Y73.542 E49.3997
G1 X48.208 Y72.121 E49.44524
G1 X48.602 Y70.885 E49.48593
G1 X49.119 Y69.679 E49.52709
G1 X49.753 Y68.523 E49.56844
G1 X50.431 Y67.524 E49.60631
G1 X51.193 Y66.588 E49.64417
G1 X52.246 Y65.534 E49.6909
G1 X52.38 Y65.427 E49.69628
M204 S20000
G1 X52.38 Y65.427 F12000
G1 X52.629 Y65.735
M204 S5000
G1 F1800
G1 X53.639 Y64.922 E49.73695
G1 X55.595 Y63.763 E49.80826
G1 X56.911 Y63.216 E49.85296
G1 X58.276 Y62.813 E49.8976
G1 X59.401 Y62.6 E49.93351
G1 X60.53 Y62.484 E49.96911
G1 X167.317 Y62.483 E53.31864
G1 X168.687 Y62.658 E53.36196
M73 P4 R30
G1 X170.005 Y63.014 E53.40478
G1 X171.602 Y63.724 E53.4596
G1 X173.055 Y64.697 E53.51445
G1 X174.322 Y65.907 E53.5694
G1 X175.473 Y67.506 E53.6312
G1 X176.22 Y69.087 E53.68605
G1 X176.651 Y70.6 E53.7354
G1 X176.844 Y72.222 E53.78664
G1 X176.849 Y72.871 E53.807
G1 X178.253 Y73.403 E53.85409
G1 X179.971 Y74.523 E53.91842
G1 X181.401 Y76.065 E53.98438
G1 X182.45 Y77.925 E54.05136
G1 X183.086 Y80.617 E54.13812
G1 X182.939 Y85.703 E54.29772
G1 X182.398 Y87.42 E54.35419
G1 X181.327 Y89.286 E54.42168
G1 X179.896 Y90.763 E54.48619
G1 X178.13 Y91.884 E54.5518
G1 X176.112 Y92.564 E54.61859
G1 X173.826 Y92.768 E54.69058
G1 X167.173 Y92.687 E54.89928
G1 X164.702 Y91.934 E54.98031
G1 X160.958 Y89.703 E55.11701
G1 X159.467 Y89.018 E55.16848
G1 X157.847 Y87.987 E55.22871
G1 X156.377 Y86.746 E55.28905
G1 X154.838 Y84.528 E55.37373
G1 X154.25 Y82.769 E55.4319
G1 X75.859 Y82.769 E57.89075
G1 X125.992 Y158.057 E60.72791
G1 X126.482 Y159.454 E60.77435
G1 X126.743 Y160.912 E60.82081
G1 X126.588 Y163.341 E60.89715
G1 X125.644 Y165.915 E60.98315
G1 X123.972 Y168.032 E61.06777
G1 X118.802 Y171.547 E61.26386
G1 X118.177 Y171.824 E61.2853
G1 X114.901 Y172.556 E61.39059
G1 X113.134 Y172.362 E61.44635
G1 X111.102 Y171.723 E61.51316
G1 X109.518 Y170.747 E61.57152
G1 X107.927 Y169.201 E61.6411
G1 X54.044 Y88.441 E64.68632
G1 X52.914 Y87.095 E64.74144
G1 X52.235 Y86.083 E64.77967
G1 X51.302 Y84.143 E64.84719
G1 X50.596 Y83.259 E64.88268
G1 X49.929 Y82.226 E64.92125
G1 X49.351 Y81.114 E64.96056
G1 X48.839 Y79.825 E65.00406
G1 X48.5 Y78.642 E65.04266
G1 X48.273 Y77.429 E65.08137
G1 X48.155 Y76.085 E65.12369
G1 X48.17 Y74.842 E65.16268
G1 X48.3 Y73.613 E65.20144
G1 X48.589 Y72.232 E65.2457
G1 X48.971 Y71.032 E65.2852
G1 X49.472 Y69.861 E65.32515
G1 X50.088 Y68.738 E65.36533
G1 X50.744 Y67.768 E65.40206
G1 X51.495 Y66.847 E65.43934
G1 X52.519 Y65.823 E65.48476
G1 X52.582 Y65.773 E65.48728
M204 S20000
G1 X52.582 Y65.773 F12000
G1 X52.831 Y66.082
M204 S5000
G1 F1800
G1 X53.864 Y65.249 E65.5289
G1 X55.774 Y64.117 E65.59854
G1 X57.053 Y63.587 E65.64197
G1 X58.36 Y63.202 E65.68471
G1 X60.561 Y62.88 E65.75448
G1 X167.304 Y62.88 E69.10263
G1 X168.623 Y63.05 E69.14434
G1 X169.886 Y63.393 E69.18539
G1 X171.424 Y64.079 E69.23821
G1 X172.819 Y65.017 E69.29094
G1 X174.034 Y66.181 E69.34372
G1 X175.139 Y67.723 E69.40322
G1 X175.843 Y69.212 E69.45488
G1 X176.258 Y70.662 E69.50219
G1 X176.448 Y72.258 E69.5526
G1 X176.453 Y73.147 E69.58049
G1 X178.055 Y73.748 E69.63416
G1 X179.697 Y74.812 E69.69553
G1 X181.067 Y76.282 E69.75856
G1 X182.071 Y78.045 E69.8222
M73 P5 R30
G1 X182.688 Y80.632 E69.90562
G1 X182.543 Y85.663 E70.06349
G1 X182.027 Y87.279 E70.1167
G1 X180.996 Y89.066 E70.18141
G1 X179.628 Y90.469 E70.24287
M73 P5 R29
G1 X177.939 Y91.535 E70.30552
G1 X176.006 Y92.181 E70.36945
G1 X173.825 Y92.371 E70.43812
G1 X167.207 Y92.29 E70.64572
G1 X164.842 Y91.562 E70.72334
G1 X161.143 Y89.351 E70.85851
G1 X159.668 Y88.676 E70.90939
G1 X158.093 Y87.675 E70.96793
G1 X156.654 Y86.46 E71.027
G1 X155.182 Y84.327 E71.10829
G1 X154.538 Y82.372 E71.17285
G1 X75.118 Y82.372 E73.66397
G1 X125.626 Y158.212 E76.52206
G1 X126.094 Y159.54 E76.56623
G1 X126.348 Y160.957 E76.61138
G1 X126.194 Y163.286 E76.68459
G1 X125.312 Y165.695 E76.76506
G1 X123.723 Y167.721 E76.84582
G1 X118.594 Y171.209 E77.04037
G1 X118.07 Y171.441 E77.05834
G1 X114.91 Y172.158 E77.15998
G1 X113.233 Y171.977 E77.21289
G1 X111.288 Y171.371 E77.27679
G1 X109.778 Y170.446 E77.33233
G1 X108.245 Y168.963 E77.39923
G1 X54.37 Y88.214 E80.44402
G1 X53.237 Y86.863 E80.49933
G1 X52.572 Y85.872 E80.53676
G1 X51.656 Y83.951 E80.60351
G1 X50.924 Y83.036 E80.64026
G1 X50.268 Y82.018 E80.67825
G1 X49.717 Y80.958 E80.71572
G1 X49.218 Y79.706 E80.75799
G1 X48.884 Y78.541 E80.796
G1 X48.665 Y77.365 E80.83352
G1 X48.552 Y76.08 E80.87398
G1 X48.565 Y74.874 E80.91181
G1 X48.691 Y73.684 E80.94934
G1 X48.971 Y72.342 E80.99234
G1 X49.34 Y71.179 E81.03061
G1 X49.825 Y70.043 E81.06935
G1 X50.422 Y68.953 E81.10833
G1 X51.068 Y67.998 E81.14449
G1 X51.796 Y67.106 E81.1806
G1 X52.777 Y66.125 E81.22412
G1 X52.784 Y66.119 E81.22441
M204 S20000
G1 X52.784 Y66.119 F12000
G1 X53.05 Y66.414
M204 S5000
G1 F1800
G1 X54.089 Y65.576 E81.26628
G1 X55.953 Y64.472 E81.33423
G1 X57.176 Y63.965 E81.37576
G1 X58.444 Y63.59 E81.41724
G1 X60.591 Y63.276 E81.4853
G1 X167.267 Y63.276 E84.83135
G1 X168.532 Y63.437 E84.87135
G1 X169.767 Y63.772 E84.91149
G1 X171.246 Y64.434 E84.96232
G1 X172.582 Y65.336 E85.01288
G1 X173.745 Y66.454 E85.06348
G1 X174.806 Y67.939 E85.12073
G1 X175.466 Y69.338 E85.16925
G1 X175.866 Y70.725 E85.21453
G1 X176.052 Y72.293 E85.26406
G1 X176.057 Y73.494 E85.30173
G1 X176.429 Y73.562 E85.31359
G1 X177.859 Y74.094 E85.36145
G1 X179.425 Y75.101 E85.41985
G1 X180.735 Y76.501 E85.47999
G1 X181.692 Y78.167 E85.54025
G1 X182.291 Y80.648 E85.62031
G1 X182.147 Y85.623 E85.77642
G1 X181.656 Y87.135 E85.82628
G1 X180.665 Y88.844 E85.88825
G1 X179.361 Y90.175 E85.9467
G1 X177.791 Y91.166 E86.00494
G1 X175.899 Y91.798 E86.06751
G1 X173.824 Y91.974 E86.13283
G1 X167.24 Y91.894 E86.33936
G1 X165.025 Y91.209 E86.41208
G1 X161.328 Y88.999 E86.54718
G1 X159.869 Y88.333 E86.59749
G1 X158.317 Y87.347 E86.65516
G1 X156.931 Y86.174 E86.71211
G1 X155.526 Y84.126 E86.79001
G1 X154.917 Y82.251 E86.85185
G1 X154.885 Y81.975 E86.86057
G1 X74.376 Y81.975 E89.38585
G1 X125.26 Y158.368 E92.26492
M73 P6 R29
G1 X125.714 Y159.656 E92.30776
G1 X125.952 Y161.002 E92.35063
G1 X125.8 Y163.23 E92.42068
G1 X124.951 Y165.528 E92.49752
G1 X123.474 Y167.41 E92.57256
G1 X118.385 Y170.871 E92.7656
G1 X117.962 Y171.059 E92.78012
G1 X114.919 Y171.76 E92.87807
G1 X113.331 Y171.592 E92.92816
G1 X111.473 Y171.019 E92.98915
G1 X110.037 Y170.144 E93.0419
G1 X108.564 Y168.725 E93.10605
G1 X54.697 Y87.988 E96.15039
G1 X53.56 Y86.631 E96.20592
G1 X52.908 Y85.661 E96.24258
G1 X52.012 Y83.759 E96.30853
G1 X51.252 Y82.811 E96.34664
G1 X50.616 Y81.827 E96.38339
G1 X50.082 Y80.801 E96.41967
G1 X49.597 Y79.587 E96.46068
G1 X49.268 Y78.441 E96.49808
G1 X49.057 Y77.303 E96.53438
G1 X48.95 Y76.074 E96.57308
G1 X48.961 Y74.906 E96.60972
G1 X49.082 Y73.755 E96.64602
G1 X49.352 Y72.452 E96.68776
G1 X49.709 Y71.326 E96.72481
G1 X50.179 Y70.225 E96.76236
G1 X50.756 Y69.167 E96.80016
G1 X51.381 Y68.242 E96.83518
G1 X52.097 Y67.365 E96.87069
G1 X53.007 Y66.456 E96.91103
M204 S20000
G1 X53.007 Y66.456 F12000
G1 X53.287 Y66.736
M204 S5000
G1 F1800
G1 X53.308 Y66.716 E96.91194
G1 X54.314 Y65.903 E96.95251
G1 X56.132 Y64.827 E97.01877
G1 X57.318 Y64.336 E97.05903
G1 X58.528 Y63.978 E97.09861
G1 X60.621 Y63.672 E97.16496
G1 X167.23 Y63.671 E100.5089
G1 X168.441 Y63.824 E100.54719
G1 X169.647 Y64.151 E100.58638
G1 X171.067 Y64.789 E100.63521
G1 X172.32 Y65.634 E100.68261
G1 X173.457 Y66.728 E100.7321
G1 X174.472 Y68.154 E100.787
G1 X175.089 Y69.464 E100.83242
G1 X175.474 Y70.789 E100.8757
G1 X175.657 Y72.329 E100.92434
G1 X175.66 Y73.833 E100.97152
G1 X176.31 Y73.941 E100.99219
G1 X177.701 Y74.459 E101.03875
G1 X179.152 Y75.391 E101.09284
G1 X180.403 Y76.72 E101.15009
G1 X181.313 Y78.289 E101.20698
G1 X181.893 Y80.664 E101.28366
G1 X181.761 Y85.529 E101.43631
G1 X181.301 Y86.956 E101.48334
G1 X180.363 Y88.586 E101.54233
G1 X179.128 Y89.852 E101.5978
G1 X177.641 Y90.798 E101.65308
G1 X175.832 Y91.406 E101.71294
G1 X173.822 Y91.577 E101.77621
G1 X167.275 Y91.497 E101.98158
G1 X165.167 Y90.837 E102.05087
G1 X161.513 Y88.647 E102.18449
G1 X160.07 Y87.99 E102.23422
G1 X158.563 Y87.035 E102.29018
G1 X157.208 Y85.888 E102.34586
G1 X155.87 Y83.927 E102.42032
G1 X155.304 Y82.159 E102.47855
G1 X155.267 Y81.578 E102.49681
G1 X73.634 Y81.578 E105.05735
G1 X124.894 Y158.523 E107.95737
G1 X125.334 Y159.773 E107.99894
M73 P7 R29
G1 X125.557 Y161.046 E108.03948
