; generated by PrusaSlicer 2.7.1+win64 on 2024-03-29 at 08:45:18 UTC


;
;
; 

; external perimeters extrusion width = 0.40mm
; perimeters extrusion width = 0.40mm
; infill extrusion width = 0.40mm
; solid infill extrusion width = 0.40mm
; top infill extrusion width = 0.40mm
; first layer extrusion width = 0.44mm

;TYPE:Custom
G90 ; use absolute coordinates
M83 ; extruder relative mode
M140 S60 ; set bed temp
M190 S60 ; wait for bed temp
M104 S200 ; set extruder temp
M109 S200 ; wait for extruder temp
G28                                        ; move X/Y/Z to min endstops
G1 Z0.28                                   ; lift nozzle a bit 
G92 E0 
G1 Y3 F2400                                    ; zero the extruded length 
G1 X180  E40 F500                       ; Extrude 25mm of filament in a 5cm line. 
G92 E0                                     ; zero the extruded length again 
G1 E-0.2 F3000                                ; Retract a little 
G1 X181 F4000                              ; Quickly wipe away from the filament line
M117
G21 ; set units to millimeters
G90 ; use absolute coordinates
M82 ; use absolute distances for extrusion
G92 E0
; Filament gcode
M107
;LAYER_CHANGE
;Z:0.2
;HEIGHT:0.2
; BEFORE_LAYER_CHANGE 0 @ 0.2mm
G1 E-2.5 F4800
G92 E0
G1 Z-1.48 F18000
; AFTER_LAYER_CHANGE 0 @ 0.2mm
G1 X81.635 Y119.958
G1 E2.5 F4800
M204 S5000
;TYPE:External perimeter
;WIDTH:0.572947
G1 X82.036 Y119.39 E2.52758
;WIDTH:0.561586
G1 X82.619 Y118.652 E2.56408
;WIDTH:0.559269
G1 X83.255 Y117.97 E2.60011
;WIDTH:0.551878
G1 X83.65 Y117.585 E2.62112
G1 X84.174 Y117.125 E2.64768
;WIDTH:0.549405
G1 X84.999 Y116.491 E2.68712
;WIDTH:0.542632
G1 X85.156 Y116.379 E2.69433
;WIDTH:0.564708
G1 X85.935 Y115.877 E2.73052
;WIDTH:0.523139
G1 X86.126 Y115.743 E2.7389
;WIDTH:0.481569
G1 X86.317 Y115.609 E2.74656
;WIDTH:0.477707
G1 X86.484 Y115.544 E2.75239
;WIDTH:0.515415
G1 X86.65 Y115.479 E2.75869
;WIDTH:0.553123
G1 X87.508 Y115.078 E2.79485
;WIDTH:0.515793
G1 X88.221 Y114.798 E2.82196
;WIDTH:0.508571
G1 X88.697 Y114.638 E2.83946
;WIDTH:0.505793
G1 X89.311 Y114.456 E2.86164
;WIDTH:0.498671
G1 X90.151 Y114.262 E2.89104
;WIDTH:0.489592
G1 X91.067 Y114.115 E2.92205
;WIDTH:0.481247
G1 X91.993 Y114.035 E2.95254
;WIDTH:0.470764
G1 X92.897 Y114.011 E2.98149
;WIDTH:0.466159
G1 X93.85 Y114.051 E3.0117
;WIDTH:0.464232
G1 X94.474 Y114.113 E3.03147
;WIDTH:0.470548
G1 X95.217 Y114.215 E3.05547
;WIDTH:0.475413
G1 X95.928 Y114.351 E3.0789
G1 X96.558 Y114.515 E3.09997
;WIDTH:0.485278
G1 X97.05 Y114.651 E3.11687
;WIDTH:0.491807
G1 X97.762 Y114.898 E3.14219
;WIDTH:0.500708
G1 X98.433 Y115.174 E3.16705
;WIDTH:0.50294
G1 X99.444 Y115.657 E3.20562
;WIDTH:0.47147
G1 X99.672 Y115.763 E3.21368
;WIDTH:0.484533
G1 X99.994 Y115.984 E3.22659
;WIDTH:0.529067
G1 X100.74 Y116.483 E3.25924
;WIDTH:0.527918
G1 X101.204 Y116.819 E3.28003
;WIDTH:0.525975
G1 X101.643 Y117.173 E3.30042
;WIDTH:0.531921
G1 X102.195 Y117.665 E3.32748
;WIDTH:0.536502
G1 X102.718 Y118.185 E3.35472
;WIDTH:0.539616
G1 X103.215 Y118.736 E3.3823
;WIDTH:0.552439
G1 X103.909 Y119.626 E3.42533
;WIDTH:0.560645
G1 X104.329 Y120.251 E3.4545
;WIDTH:0.562933
G1 X104.72 Y120.904 E3.48412
G1 X104.994 Y121.437 E3.50744
;WIDTH:0.57211
G1 X105.237 Y121.93 E3.52921
;WIDTH:0.578054
G1 X105.53 Y122.633 E3.55971
G1 X105.716 Y123.171 E3.58251
;WIDTH:0.586958
G1 X105.897 Y123.724 E3.6062
;WIDTH:0.593113
G1 X106.086 Y124.45 E3.63709
G1 X106.189 Y124.95 E3.65811
;WIDTH:0.591127
G1 X106.226 Y125.049 E3.66245
;WIDTH:0.553345
G1 X106.263 Y125.148 E3.66649
;WIDTH:0.515563
G1 X106.3 Y125.248 E3.67026
;WIDTH:0.477781
G1 X106.337 Y125.347 E3.6737
;WIDTH:0.439999
G1 X106.426 Y125.977 E3.69261
G1 X106.509 Y127.104 E3.72619
G1 X106.512 Y127.814 E3.74729
G1 X106.478 Y128.536 E3.76877
G1 X106.34 Y129.703 E3.80369
G1 X106.207 Y130.407 E3.82498
G1 X106.016 Y131.183 E3.84873
G1 X105.81 Y131.855 E3.86962
G1 X105.642 Y132.33 E3.88459
G1 X105.374 Y132.991 E3.90579
G1 X105.06 Y133.659 E3.92772
G1 X104.823 Y134.112 E3.94291
G1 X104.455 Y134.74 E3.96454
G1 X103.802 Y135.698 E3.99899
G1 X103.329 Y136.298 E4.02169
G1 X102.826 Y136.866 E4.04424
G1 X102.296 Y137.404 E4.06668
G1 X101.732 Y137.915 E4.0893
G1 X100.821 Y138.633 E4.12377
G1 X100.298 Y138.99 E4.14259
G1 X99.282 Y139.593 E4.1777
G1 X98.504 Y139.971 E4.2034
G1 X97.594 Y140.346 E4.23265
G1 X96.995 Y140.55 E4.25145
G1 X95.824 Y140.857 E4.28742
G1 X94.732 Y141.047 E4.32036
G1 X93.906 Y141.132 E4.34503
G1 X93.257 Y141.164 E4.36434
G1 X92.506 Y141.163 E4.38666
G1 X92.002 Y141.139 E4.40165
G1 X91.35 Y141.081 E4.4211
G1 X90.604 Y140.976 E4.44349
G1 X89.82 Y140.821 E4.46724
G1 X89.164 Y140.654 E4.48736
G1 X88.683 Y140.51 E4.50228
G1 X87.944 Y140.251 E4.52555
G1 X87.216 Y139.948 E4.54898
G1 X86.529 Y139.615 E4.57167
G1 X85.716 Y139.147 E4.59955
G1 X85.259 Y138.863 E4.61554
G1 X84.528 Y138.342 E4.64221
G1 X83.633 Y137.578 E4.67718
G1 X83.077 Y137.031 E4.70036
G1 X82.587 Y136.493 E4.72198
G1 X81.848 Y135.558 E4.75739
G1 X81.404 Y134.905 E4.78085
G1 X81.018 Y134.262 E4.80314
G1 X80.716 Y133.694 E4.82226
G1 X80.466 Y133.172 E4.83946
G1 X80.166 Y132.456 E4.86253
G1 X79.966 Y131.9 E4.88009
G1 X79.777 Y131.293 E4.89898
G1 X79.588 Y130.556 E4.92159
G1 X79.377 Y129.4 E4.95651
G1 X79.292 Y128.632 E4.97947
G1 X79.251 Y127.866 E5.00226
G1 X79.253 Y127.107 E5.02481
G1 X79.297 Y126.347 E5.04743
G1 X79.446 Y125.199 E5.08183
G1 X79.6 Y124.44 E5.10484
G1 X79.798 Y123.688 E5.12795
G1 X80.147 Y122.664 E5.1601
;WIDTH:0.478164
G1 X80.215 Y122.548 E5.16448
;WIDTH:0.516329
G1 X80.283 Y122.433 E5.16921
;WIDTH:0.554494
G1 X80.351 Y122.317 E5.17436
;WIDTH:0.592659
G1 X80.419 Y122.201 E5.17989
G1 X80.593 Y121.803 E5.19776
;WIDTH:0.586062
G1 X81.086 Y120.836 E5.24188
;WIDTH:0.581779
G1 X81.495 Y120.158 E5.27381
;WIDTH:0.572947
G1 X81.601 Y120.007 E5.28113
M204 S20000
;WIPE_START
G1 F14400
G1 X81.635 Y119.958 E5.26224
G1 X82.036 Y119.39 E5.04207
;WIPE_END
G1 E2.78113 F4800
G92 E0
G1 Z-1.08 F18000
G1 X97.838 Y119.915
G1 Z-1.48
G1 E2.5 F4800
M204 S5000
;WIDTH:0.353304
G1 X97.661 Y119.788 E2.50506
;WIDTH:0.395614
G1 X97.604 Y119.753 E2.50683
;WIDTH:0.438929
G1 X97.547 Y119.719 E2.5088
;WIDTH:0.482244
G1 X97.49 Y119.684 E2.511
G1 X98.343 Y118.207 E2.56708
G1 X98.517 Y118.318 E2.57387
;WIDTH:0.439562
G1 X98.692 Y118.43 E2.58004
;WIDTH:0.396807
G1 X98.866 Y118.541 E2.58551
;WIDTH:0.360106
G1 X99.456 Y118.984 E2.60302
G1 X100.014 Y119.454 E2.62034
;WIDTH:0.359696
G1 X100.557 Y119.968 E2.63806
;WIDTH:0.360001
G1 X101.036 Y120.516 E2.65533
G1 X101.49 Y121.091 E2.67271
;WIDTH:0.356823
G1 X101.899 Y121.698 E2.6899
G1 X102.434 Y122.653 E2.71561
;WIDTH:0.353713
G1 X102.439 Y122.661 E2.71583
G1 X102.733 Y123.32 E2.73261
;WIDTH:0.353467
G1 X102.982 Y124.006 E2.74957
;WIDTH:0.350609
G1 X103.187 Y124.707 E2.76639
G1 X103.343 Y125.42 E2.7832
G1 X103.449 Y126.143 E2.80003
;WIDTH:0.353173
G1 X103.514 Y126.998 E2.81994
;WIDTH:0.396192
G1 X103.514 Y127.053 E2.82139
;WIDTH:0.439211
G1 X103.514 Y127.109 E2.82305
;WIDTH:0.482229
G1 X103.514 Y127.165 E2.82489
G1 X101.809 Y127.165 E2.88094
G1 X101.799 Y126.978 E2.8871
;WIDTH:0.441311
G1 X101.789 Y126.791 E2.89268
;WIDTH:0.400385
G1 X101.779 Y126.604 E2.89769
;WIDTH:0.359458
G1 X101.713 Y126.004 E2.91199
;WIDTH:0.354585
G1 X101.591 Y125.387 E2.92666
;WIDTH:0.348976
G1 X101.439 Y124.801 E2.94053
;WIDTH:0.353983
G1 X101.262 Y124.241 E2.9542
G1 X101.034 Y123.681 E2.96828
G1 X100.77 Y123.142 E2.98225
;WIDTH:0.353865
G1 X100.471 Y122.622 E2.99621
;WIDTH:0.353764
G1 X100.137 Y122.123 E3.01018
;WIDTH:0.358516
G1 X99.753 Y121.629 E3.02496
;WIDTH:0.358833
G1 X99.35 Y121.176 E3.03929
G1 X98.95 Y120.78 E3.0526
;WIDTH:0.353414
G1 X98.491 Y120.384 E3.06669
;WIDTH:0.353304
G1 X97.886 Y119.95 E3.08398
M204 S20000
;WIPE_START
G1 F14400
G1 X97.838 Y119.915 E3.06517
G1 X97.661 Y119.788 E2.99618
;WIPE_END
G1 E.58398 F4800
G92 E0
G1 Z-1.08 F18000
G1 X96.69 Y121.943
G1 Z-1.48
G1 E2.5 F4800
M204 S5000
;WIDTH:0.39357
G1 X96.754 Y121.986 E2.50202
;WIDTH:0.35014
G1 X97.269 Y122.398 E2.51718
;WIDTH:0.350242
G1 X97.744 Y122.864 E2.53248
G1 X98.419 Y123.736 E2.55784
;WIDTH:0.348208
G1 X98.851 Y124.513 E2.57815
;WIDTH:0.359711
G1 X98.947 Y124.737 E2.58393
G1 X99.178 Y125.34 E2.59924
;WIDTH:0.353273
G1 X99.387 Y126.198 E2.61975
;WIDTH:0.352511
G1 X99.479 Y126.992 E2.63827
;WIDTH:0.395911
G1 X99.48 Y127.049 E2.63978
;WIDTH:0.439311
G1 X99.48 Y127.107 E2.6415
;WIDTH:0.482711
G1 X99.481 Y127.165 E2.64341
;WIDTH:0.483276
G1 X97.775 Y127.165 E2.69963
G1 X97.749 Y126.919 E2.70778
;WIDTH:0.44103
G1 X97.723 Y126.674 E2.71512
;WIDTH:0.398783
G1 X97.697 Y126.429 E2.72168
;WIDTH:0.359508
G1 X97.579 Y125.942 E2.73355
G1 X97.354 Y125.329 E2.74902
G1 X97.125 Y124.882 E2.76092
;WIDTH:0.361289
G1 X96.85 Y124.461 E2.7729
G1 X96.512 Y124.046 E2.78565
;WIDTH:0.356862
G1 X96.084 Y123.624 E2.79977
G1 X95.655 Y123.292 E2.81251
;WIDTH:0.396213
G1 X95.595 Y123.254 E2.81439
;WIDTH:0.439739
G1 X95.534 Y123.216 E2.81652
;WIDTH:0.483264
G1 X95.473 Y123.178 E2.81889
G1 X95.731 Y122.73 E2.83593
;WIDTH:0.439996
G1 X95.989 Y122.283 E2.85127
;WIDTH:0.396728
G1 X96.248 Y121.835 E2.86497
;WIDTH:0.396543
G1 X96.274 Y121.79 E2.86635
;WIDTH:0.439627
G1 X96.3 Y121.746 E2.86787
;WIDTH:0.48271
G1 X96.326 Y121.701 E2.86958
G1 X96.469 Y121.796 E2.87523
;WIDTH:0.43814
G1 X96.612 Y121.891 E2.88031
;WIDTH:0.39357
G1 X96.64 Y121.91 E2.8812
M204 S20000
;WIPE_START
G1 F14400
G1 X96.69 Y121.943 E2.86223
G1 X96.754 Y121.986 E2.83781
;WIPE_END
G1 E.3812 F4800
G92 E0
G1 Z-1.08 F18000
G1 X97.55 Y128.782
G1 Z-1.48
G1 E2.5 F4800
M204 S5000
;WIDTH:0.353091
G1 X97.675 Y128.315 E2.51122
G1 X97.766 Y127.695 E2.52577
;WIDTH:0.396106
G1 X97.769 Y127.622 E2.5277
;WIDTH:0.439692
G1 X97.772 Y127.549 E2.52987
;WIDTH:0.483277
G1 X97.775 Y127.475 E2.53231
G1 X97.827 Y127.475 E2.53402
;WIDTH:0.440013
G1 X97.879 Y127.475 E2.53557
;WIDTH:0.396748
G1 X97.931 Y127.475 E2.53695
;WIDTH:0.396559
G1 X98.448 Y127.475 E2.55063
;WIDTH:0.439635
G1 X98.964 Y127.475 E2.56595
;WIDTH:0.482711
G1 X99.481 Y127.475 E2.58297
G1 X99.446 Y127.78 E2.59307
;WIDTH:0.444098
G1 X99.412 Y128.085 E2.60228
;WIDTH:0.405484
G1 X99.377 Y128.39 E2.61061
;WIDTH:0.36687
G1 X99.248 Y129.041 E2.6267
;WIDTH:0.358839
G1 X99.035 Y129.701 E2.6431
;WIDTH:0.350255
G1 X98.763 Y130.311 E2.65846
G1 X98.429 Y130.886 E2.67375
G1 X97.903 Y131.596 E2.69407
G1 X97.443 Y132.079 E2.70941
;WIDTH:0.350647
G1 X96.94 Y132.515 E2.72474
;WIDTH:0.352743
G1 X96.473 Y132.853 E2.73811
;WIDTH:0.396108
G1 X96.424 Y132.882 E2.73961
;WIDTH:0.439473
G1 X96.375 Y132.911 E2.7413
;WIDTH:0.482837
G1 X96.326 Y132.94 E2.74317
G1 X96.067 Y132.492 E2.76021
;WIDTH:0.439702
G1 X95.809 Y132.045 E2.77554
;WIDTH:0.396567
G1 X95.551 Y131.597 E2.78922
;WIDTH:0.396673
G1 X95.525 Y131.552 E2.7906
;WIDTH:0.439913
G1 X95.499 Y131.507 E2.79214
;WIDTH:0.483153
G1 X95.473 Y131.462 E2.79385
G1 X95.672 Y131.317 E2.80196
;WIDTH:0.440949
G1 X95.872 Y131.172 E2.80932
;WIDTH:0.398745
G1 X96.071 Y131.027 E2.81588
;WIDTH:0.365861
G1 X96.433 Y130.678 E2.82803
G1 X96.767 Y130.294 E2.84033
G1 X97.118 Y129.763 E2.85571
G1 X97.351 Y129.32 E2.86781
;WIDTH:0.356733
G1 X97.531 Y128.839 E2.87987
M204 S20000
;WIPE_START
G1 F14400
G1 X97.55 Y128.782 E2.86084
G1 X97.675 Y128.315 E2.70775
G1 X97.766 Y127.695 E2.50931
;WIPE_END
G1 E.37987 F4800
G92 E0
G1 Z-1.08 F18000
G1 X95.508 Y128.477
G1 Z-1.48
G1 E2.5 F4800
M204 S5000
;WIDTH:0.357635
G1 X95.597 Y128.289 E2.5049
G1 X95.731 Y127.739 E2.51823
;WIDTH:0.394757
G1 X95.74 Y127.651 E2.52056
;WIDTH:0.439913
G1 X95.748 Y127.563 E2.52319
;WIDTH:0.485068
G1 X95.756 Y127.475 E2.52611
G1 X95.809 Y127.475 E2.52786
;WIDTH:0.441207
G1 X95.861 Y127.475 E2.52941
;WIDTH:0.397346
G1 X95.914 Y127.475 E2.53082
;WIDTH:0.396749
G1 X96.43 Y127.475 E2.54448
;WIDTH:0.440013
G1 X96.946 Y127.475 E2.55981
;WIDTH:0.483277
G1 X97.463 Y127.475 E2.57685
G1 X97.437 Y127.706 E2.58451
;WIDTH:0.44103
G1 X97.412 Y127.937 E2.59143
;WIDTH:0.398783
G1 X97.386 Y128.168 E2.59762
;WIDTH:0.356536
G1 X97.26 Y128.678 E2.60995
;WIDTH:0.356733
G1 X97.061 Y129.2 E2.62307
G1 X96.567 Y130.04 E2.64596
;WIDTH:0.365861
G1 X96.197 Y130.458 E2.65945
G1 X95.879 Y130.78 E2.67039
;WIDTH:0.35654
G1 X95.467 Y131.102 E2.68266
;WIDTH:0.396071
G1 X95.417 Y131.132 E2.6842
;WIDTH:0.439612
G1 X95.367 Y131.162 E2.68593
;WIDTH:0.483153
G1 X95.317 Y131.192 E2.68785
G1 X95.058 Y130.745 E2.70487
;WIDTH:0.439926
G1 X94.8 Y130.297 E2.72023
;WIDTH:0.396698
G1 X94.542 Y129.85 E2.73389
;WIDTH:0.397259
G1 X94.516 Y129.805 E2.73527
;WIDTH:0.441048
G1 X94.49 Y129.759 E2.73684
;WIDTH:0.484837
G1 X94.464 Y129.714 E2.73856
G1 X94.535 Y129.664 E2.74143
;WIDTH:0.440093
G1 X94.607 Y129.614 E2.74404
;WIDTH:0.395349
G1 X94.679 Y129.563 E2.74637
;WIDTH:0.353759
G1 X95.071 Y129.183 E2.75907
;WIDTH:0.35657
G1 X95.372 Y128.767 E2.77112
;WIDTH:0.357635
G1 X95.483 Y128.531 E2.77726
M204 S20000
;WIPE_START
G1 F14400
G1 X95.508 Y128.477 E2.75842
G1 X95.597 Y128.289 E2.69255
G1 X95.731 Y127.739 E2.51329
;WIPE_END
G1 E.27726 F4800
G92 E0
G1 Z-1.08 F18000
G1 X94.02 Y125.693
G1 Z-1.48
G1 E2.5 F4800
M204 S5000
;WIDTH:0.353463
G1 X94.227 Y125.335 E2.50961
;WIDTH:0.397297
G1 X94.254 Y125.289 E2.51102
;WIDTH:0.441131
G1 X94.28 Y125.244 E2.51257
;WIDTH:0.484964
G1 X94.306 Y125.199 E2.51429
G1 X94.36 Y125.232 E2.51638
;WIDTH:0.440237
G1 X94.413 Y125.266 E2.51825
;WIDTH:0.39551
G1 X94.467 Y125.3 E2.51993
;WIDTH:0.357561
G1 X94.775 Y125.589 E2.52987
;WIDTH:0.359055
G1 X95.085 Y126.007 E2.54218
;WIDTH:0.359833
G1 X95.305 Y126.476 E2.55447
G1 X95.433 Y126.974 E2.56666
;WIDTH:0.394877
G1 X95.436 Y127.038 E2.56835
;WIDTH:0.439972
G1 X95.439 Y127.101 E2.57022
;WIDTH:0.485067
G1 X95.441 Y127.165 E2.57234
G1 X95.389 Y127.165 E2.57406
;WIDTH:0.441206
G1 X95.336 Y127.165 E2.57564
;WIDTH:0.397345
G1 X95.284 Y127.165 E2.57702
;WIDTH:0.354669
G1 X93.426 Y127.165 E2.62037
;WIDTH:0.397334
G1 X93.347 Y127.137 E2.62259
;WIDTH:0.439999
G1 X93.268 Y127.109 E2.62508
G1 X93.287 Y127.02 E2.62778
;WIDTH:0.396729
G1 X93.305 Y126.932 E2.63016
;WIDTH:0.353463
G1 X93.99 Y125.745 E2.66201
M204 S20000
;WIPE_START
G1 F14400
G1 X94.02 Y125.693 E2.643
G1 X94.227 Y125.335 E2.51205
;WIPE_END
G1 E.16201 F4800
G92 E0
G1 Z-1.08 F18000
G1 X93.722 Y128.429
G1 Z-1.48
G1 E2.5 F4800
M204 S5000
;WIDTH:0.441044
G1 X93.639 Y128.286 E2.50493
;WIDTH:0.397251
G1 X93.305 Y127.708 E2.52263
;WIDTH:0.396728
G1 X93.287 Y127.62 E2.52501
;WIDTH:0.439999
G1 X93.268 Y127.531 E2.52771
G1 X93.347 Y127.503 E2.5302
;WIDTH:0.397334
G1 X93.426 Y127.475 E2.53242
;WIDTH:0.354669
G1 X95.284 Y127.475 E2.57577
;WIDTH:0.397346
G1 X95.337 Y127.475 E2.57718
;WIDTH:0.441207
G1 X95.389 Y127.475 E2.57873
;WIDTH:0.485068
G1 X95.442 Y127.475 E2.58048
G1 X95.439 Y127.539 E2.5826
;WIDTH:0.439913
G1 X95.436 Y127.603 E2.5845
;WIDTH:0.394757
G1 X95.433 Y127.667 E2.58619
;WIDTH:0.357635
G1 X95.311 Y128.157 E2.59808
;WIDTH:0.357874
G1 X95.095 Y128.621 E2.61014
G1 X94.788 Y129.036 E2.62231
;WIDTH:0.364551
G1 X94.412 Y129.381 E2.63459
;WIDTH:0.404647
G1 X94.376 Y129.401 E2.6357
;WIDTH:0.444742
G1 X94.341 Y129.421 E2.63691
;WIDTH:0.484837
G1 X94.306 Y129.442 E2.63826
G1 X93.973 Y128.864 E2.66032
;WIDTH:0.441044
G1 X93.752 Y128.481 E2.67349
M204 S20000
;WIPE_START
G1 F14400
G1 X93.722 Y128.429 E2.65448
G1 X93.639 Y128.286 E2.60212
;WIPE_END
G1 E.17349 F4800
G92 E0
G1 Z-1.08 F18000
G1 X92.749 Y127.853
G1 Z-1.48
G1 E2.5 F4800
M204 S5000
;WIDTH:0.439999
G1 X92.73 Y127.842 E2.50065
G1 X92.902 Y127.742 E2.50656
G1 X92.969 Y127.803 E2.50925
;WIDTH:0.396728
G1 X93.036 Y127.863 E2.51163
;WIDTH:0.397251
G1 X93.37 Y128.441 E2.52933
;WIDTH:0.441044
G1 X93.704 Y129.019 E2.54922
;WIDTH:0.484837
G1 X94.037 Y129.597 E2.57128
G1 X93.98 Y129.626 E2.57339
;WIDTH:0.439667
G1 X93.923 Y129.656 E2.5753
;WIDTH:0.394497
G1 X93.866 Y129.686 E2.57699
;WIDTH:0.357623
G1 X93.381 Y129.825 E2.58887
;WIDTH:0.357852
G1 X92.872 Y129.87 E2.60091
G1 X92.359 Y129.811 E2.61308
;WIDTH:0.364539
G1 X91.872 Y129.658 E2.62537
;WIDTH:0.404661
G1 X91.837 Y129.637 E2.62647
;WIDTH:0.444783
G1 X91.802 Y129.617 E2.62768
;WIDTH:0.484905
G1 X91.767 Y129.597 E2.62901
G1 X92.1 Y129.019 E2.65107
;WIDTH:0.441089
G1 X92.434 Y128.441 E2.67096
;WIDTH:0.397273
