; generated by PrusaSlicer 2.7.1+win64 on 2024-03-24 at 19:26:51 UTC


;
;
; 

; external perimeters extrusion width = 0.40mm
; perimeters extrusion width = 0.40mm
; infill extrusion width = 0.40mm
; solid infill extrusion width = 0.40mm
; top infill extrusion width = 0.40mm
; first layer extrusion width = 0.44mm

;TYPE:Custom
G90 ; use absolute coordinates
M83 ; extruder relative mode
M140 S60 ; set bed temp
M190 S60 ; wait for bed temp
M104 S200 ; set extruder temp
M109 S200 ; wait for extruder temp
G28                                        ; move X/Y/Z to min endstops
G1 Z0.28                                   ; lift nozzle a bit 
G92 E0 
G1 Y3 F2400                                    ; zero the extruded length 
G1 X180  E40 F500                       ; Extrude 25mm of filament in a 5cm line. 
G92 E0                                     ; zero the extruded length again 
G1 E-0.2 F3000                                ; Retract a little 
G1 X181 F4000                              ; Quickly wipe away from the filament line
M117
G21 ; set units to millimeters
G90 ; use absolute coordinates
M82 ; use absolute distances for extrusion
G92 E0
; Filament gcode
M107
;LAYER_CHANGE
;Z:0.2
;HEIGHT:0.2
; BEFORE_LAYER_CHANGE 0 @ 0.2mm
G1 E-2.5 F4800
G92 E0
G1 Z-1.48 F18000
; AFTER_LAYER_CHANGE 0 @ 0.2mm
G1 X92.868 Y14.396
G1 E2.5 F4800
M204 S5000
;TYPE:External perimeter
;WIDTH:0.58959
G1 X93.309 Y13.746 E2.53213
;WIDTH:0.585734
G1 X93.899 Y13.182 E2.56529
M204 S20000
;WIPE_START
G1 F14400
G1 X93.309 Y13.746 E2.30682
;WIPE_END
G1 E.06529 F4800
G92 E0
G1 Z-1.08 F18000
G1 X78.09 Y127.12
G1 Z-1.48
G1 E2.5 F4800
M204 S5000
;WIDTH:0.439999
G1 X115.181 Y83.731 E4.19622
G1 X115.218 Y83.664 E4.19849
G1 X115.204 Y83.508 E4.20314
G1 X113.397 Y80.315 E4.31216
G1 X111.936 Y77.201 E4.41437
G1 X110.745 Y73.978 E4.51647
G1 X109.832 Y70.665 E4.61859
G1 X109.203 Y67.286 E4.72072
G1 X108.863 Y63.866 E4.82285
G1 X108.815 Y60.43 E4.92496
G1 X109.058 Y57.002 E5.02708
G1 X109.59 Y53.607 E5.1292
G1 X110.409 Y50.27 E5.2313
G1 X111.508 Y47.014 E5.33342
G1 X112.883 Y43.851 E5.43591
G1 X113.591 Y42.346 E5.48533
G1 X113.523 Y42.195 E5.49025
G1 X111.893 Y40.762 E5.55474
G1 X94.388 Y25.791 E6.2392
G1 X93.336 Y24.72 E6.28381
G1 X92.499 Y23.5 E6.32777
G1 X91.887 Y22.154 E6.37171
G1 X91.517 Y20.722 E6.41566
G1 X91.402 Y19.248 E6.45959
G1 X91.545 Y17.774 E6.5036
G1 X91.936 Y16.307 E6.54871
;WIDTH:0.470092
G1 X92.098 Y15.83 E6.56481
G1 X92.263 Y15.246 E6.58421
;WIDTH:0.444307
G1 X92.409 Y14.891 E6.59574
;WIDTH:0.460932
G1 X92.524 Y14.767 E6.60103
;WIDTH:0.503818
G1 X92.639 Y14.643 E6.60686
;WIDTH:0.546704
G1 X92.753 Y14.52 E6.61318
;WIDTH:0.58959
G1 X92.868 Y14.396 E6.6201
G1 X92.862 Y14.432 E6.62159
;WIDTH:0.573918
G1 X92.792 Y14.737 E6.63403
;WIDTH:0.530715
G1 X92.721 Y15.042 E6.64546
;WIDTH:0.487511
G1 X92.651 Y15.347 E6.65587
;WIDTH:0.470092
G1 X92.511 Y15.937 E6.67525
G1 X92.565 Y16.364 E6.68901
;WIDTH:0.439999
G1 X92.635 Y16.863 E6.70398
G1 X93.024 Y17.625 E6.7294
G1 X93.6 Y18.255 E6.75477
G1 X94.319 Y18.715 E6.78013
G1 X95.133 Y18.973 E6.8055
G1 X95.935 Y19.016 E6.82937
G1 X96.821 Y18.828 E6.85628
G1 X97.579 Y18.435 E6.88165
G1 X98.209 Y17.859 E6.90702
G1 X98.669 Y17.139 E6.93241
G1 X98.927 Y16.325 E6.95778
G1 X98.965 Y15.472 E6.98315
G1 X98.754 Y14.583 E7.0103
G1 X98.389 Y13.88 E7.03384
G1 X97.813 Y13.25 E7.05921
G1 X97.078 Y12.785 E7.08505
G1 X96.259 Y12.537 E7.11048
;WIDTH:0.462702
G1 X95.395 Y12.571 E7.13764
G1 X94.565 Y12.927 E7.16601
;WIDTH:0.4606
G1 X94.398 Y12.991 E7.1716
;WIDTH:0.502311
G1 X94.232 Y13.055 E7.17772
;WIDTH:0.544023
G1 X94.066 Y13.118 E7.18438
;WIDTH:0.585734
G1 X93.899 Y13.182 E7.19164
G1 X93.94 Y13.121 E7.19463
;WIDTH:0.555728
G1 X94.076 Y12.956 E7.20284
;WIDTH:0.510115
G1 X94.212 Y12.791 E7.21032
;WIDTH:0.464502
G1 X94.348 Y12.625 E7.21709
;WIDTH:0.434631
G1 X94.562 Y12.487 E7.22455
;WIDTH:0.462702
G1 X95.229 Y12.185 E7.24755
G1 X95.68 Y11.937 E7.26372
;WIDTH:0.439999
G1 X97.058 Y11.328 E7.30849
G1 X98.491 Y10.958 E7.35247
G1 X99.966 Y10.843 E7.39643
G1 X101.438 Y10.986 E7.44038
G1 X102.863 Y11.382 E7.48433
G1 X104.197 Y12.02 E7.52827
G1 X105.419 Y12.893 E7.5729
G1 X124.591 Y29.251 E8.3218
G1 X124.666 Y29.291 E8.32433
G1 X124.831 Y29.264 E8.3293
G1 X126.129 Y28.363 E8.37625
G1 X129.04 Y26.514 E8.47873
G1 X132.086 Y24.923 E8.58085
G1 X135.257 Y23.597 E8.68298
G1 X138.528 Y22.544 E8.78509
G1 X141.877 Y21.772 E8.88722
G1 X145.279 Y21.287 E8.98933
G1 X148.71 Y21.093 E9.09145
G1 X152.145 Y21.19 E9.19356
G1 X155.559 Y21.578 E9.29566
G1 X158.929 Y22.254 E9.3978
G1 X162.231 Y23.214 E9.49998
G1 X165.663 Y24.503 E9.60892
G1 X165.734 Y24.516 E9.61106
G1 X165.882 Y24.448 E9.6159
G1 X167.709 Y22.359 E9.69837
G1 X172.714 Y16.505 E9.92724
G1 X190.173 Y31.437 E10.60991
G1 X185.551 Y36.84 E10.82119
G1 X183.353 Y39.476 E10.92318
G1 X183.364 Y39.641 E10.92809
G1 X185.172 Y42.834 E11.03713
G1 X186.633 Y45.947 E11.13932
G1 X187.823 Y49.171 E11.24144
G1 X188.736 Y52.484 E11.34356
G1 X189.365 Y55.863 E11.44569
G1 X189.705 Y59.282 E11.54779
G1 X189.754 Y62.719 E11.64993
G1 X189.511 Y66.146 E11.75202
G1 X188.978 Y69.542 E11.85417
G1 X188.16 Y72.879 E11.95627
G1 X187.061 Y76.135 E12.05839
G1 X185.685 Y79.298 E12.16089
G1 X184.978 Y80.803 E12.2103
G1 X185.045 Y80.954 E12.21521
G1 X186.675 Y82.386 E12.27968
G1 X204.181 Y97.357 E12.96416
G1 X205.233 Y98.429 E13.00879
G1 X206.07 Y99.649 E13.05275
G1 X206.682 Y100.995 E13.09669
G1 X206.921 Y101.923 E13.12517
G1 X207.064 Y102.594 E13.14556
G1 X207.166 Y103.901 E13.18452
G1 X207.024 Y105.374 E13.22849
G1 X206.633 Y106.842 E13.27363
;WIDTH:0.470091
G1 X206.471 Y107.319 E13.28973
G1 X206.305 Y107.903 E13.30914
;WIDTH:0.444319
G1 X206.159 Y108.258 E13.32067
;WIDTH:0.460917
G1 X206.045 Y108.382 E13.32594
;WIDTH:0.503788
G1 X205.93 Y108.505 E13.33175
;WIDTH:0.546659
G1 X205.816 Y108.629 E13.3381
;WIDTH:0.58953
G1 X205.701 Y108.752 E13.34499
G1 X205.707 Y108.716 E13.34648
;WIDTH:0.573811
G1 X205.777 Y108.411 E13.35891
;WIDTH:0.530647
G1 X205.847 Y108.107 E13.3703
;WIDTH:0.487483
G1 X205.917 Y107.802 E13.38071
;WIDTH:0.470091
G1 X206.058 Y107.211 E13.40013
G1 X206.004 Y106.785 E13.41386
;WIDTH:0.439999
G1 X205.933 Y106.286 E13.42884
G1 X205.545 Y105.524 E13.45425
G1 X204.969 Y104.894 E13.47962
G1 X204.249 Y104.434 E13.50501
G1 X203.435 Y104.176 E13.53038
G1 X202.634 Y104.133 E13.55422
G1 X201.748 Y104.321 E13.58113
G1 X200.99 Y104.714 E13.6065
G1 X200.36 Y105.29 E13.63187
G1 X199.9 Y106.01 E13.65726
G1 X199.642 Y106.824 E13.68263
G1 X199.603 Y107.677 E13.708
G1 X199.815 Y108.566 E13.73516
G1 X200.18 Y109.269 E13.7587
G1 X200.756 Y109.899 E13.78407
G1 X201.49 Y110.364 E13.80989
G1 X202.309 Y110.612 E13.83532
;WIDTH:0.462959
G1 X203.174 Y110.578 E13.86253
G1 X204.009 Y110.219 E13.8911
;WIDTH:0.459987
G1 X204.174 Y110.156 E13.89661
;WIDTH:0.501906
G1 X204.339 Y110.093 E13.90268
;WIDTH:0.543825
G1 X204.504 Y110.029 E13.90931
;WIDTH:0.585744
G1 X204.669 Y109.966 E13.91648
G1 X204.629 Y110.028 E13.91948
;WIDTH:0.555467
G1 X204.494 Y110.192 E13.92763
;WIDTH:0.509668
G1 X204.36 Y110.356 E13.93503
;WIDTH:0.463868
G1 X204.225 Y110.52 E13.94172
;WIDTH:0.443853
G1 X203.896 Y110.719 E13.95326
;WIDTH:0.462959
G1 X203.337 Y110.965 E13.97246
G1 X202.889 Y111.212 E13.98854
;WIDTH:0.439999
G1 X201.51 Y111.821 E14.03334
G1 X200.077 Y112.19 E14.07731
G1 X198.603 Y112.305 E14.12124
G1 X197.131 Y112.163 E14.16518
G1 X195.706 Y111.767 E14.20913
G1 X194.371 Y111.129 E14.2531
G1 X193.15 Y110.256 E14.2977
G1 X173.978 Y93.898 E15.0466
G1 X173.902 Y93.858 E15.04915
G1 X173.738 Y93.885 E15.05409
G1 X172.439 Y94.786 E15.10107
G1 X169.529 Y96.635 E15.20352
G1 X166.482 Y98.226 E15.30566
G1 X163.312 Y99.552 E15.40777
G1 X160.041 Y100.605 E15.50988
G1 X156.692 Y101.377 E15.61201
G1 X153.29 Y101.862 E15.71412
G1 X149.859 Y102.056 E15.81624
G1 X146.424 Y101.959 E15.91835
G1 X143.009 Y101.571 E16.02048
G1 X139.64 Y100.895 E16.12259
G1 X136.338 Y99.934 E16.22478
G1 X132.906 Y98.645 E16.33372
G1 X132.836 Y98.633 E16.33583
G1 X132.685 Y98.702 E16.34076
G1 X39.727 Y207.347 E20.58966
G1 X39.131 Y207.994 E20.6158
G1 X37.79 Y209.146 E20.66833
G1 X36.297 Y210.075 E20.72058
G1 X34.68 Y210.766 E20.77283
G1 X32.977 Y211.201 E20.82506
G1 X31.227 Y211.372 E20.87731
G1 X29.471 Y211.273 E20.92957
G1 X27.751 Y210.907 E20.98183
G1 X26.107 Y210.283 E21.03408
G1 X24.578 Y209.416 E21.08631
G1 X23.199 Y208.325 E21.13856
G1 X22.002 Y207.037 E21.19081
G1 X21.017 Y205.58 E21.24307
G1 X20.265 Y203.991 E21.29531
G1 X19.765 Y202.305 E21.34757
G1 X19.527 Y200.563 E21.39982
G1 X19.559 Y198.805 E21.45207
G1 X19.858 Y197.073 E21.5043
G1 X20.419 Y195.406 E21.55657
G1 X21.227 Y193.845 E21.6088
G1 X22.276 Y192.408 E21.66167
G1 X78.051 Y127.165 E24.21228
M204 S20000
;WIPE_START
G1 F14400
G1 X78.09 Y127.12 E24.19342
G1 X83.181 Y121.164 E21.71228
;WIPE_END
G92 E0
G1 Z-1.08 F18000
G1 X205.701 Y108.752
G1 Z-1.48
G1 E2.5 F4800
M204 S5000
;WIDTH:0.58953
G1 X205.259 Y109.402 E2.53215
;WIDTH:0.585744
G1 X204.669 Y109.966 E2.56531
M204 S20000
;WIPE_START
G1 F14400
G1 X205.259 Y109.402 E2.30684
;WIPE_END
G1 E.06531 F4800
G92 E0
G1 Z-1.08 F18000
G1 X22.963 Y204.806
G1 Z-1.48
G1 E2.5 F4800
M204 S5000
;WIDTH:0.439999
G1 X23.149 Y204.221 E2.51824
G1 X23.608 Y203.501 E2.54361
G1 X24.239 Y202.925 E2.569
G1 X24.997 Y202.532 E2.59437
G1 X25.831 Y202.348 E2.61975
G1 X26.684 Y202.387 E2.64512
G1 X27.498 Y202.645 E2.67049
G1 X28.218 Y203.105 E2.69588
G1 X28.794 Y203.735 E2.72125
G1 X29.187 Y204.493 E2.74662
G1 X29.37 Y205.327 E2.77199
G1 X29.332 Y206.18 E2.79736
G1 X29.052 Y207.041 E2.82426
G1 X28.614 Y207.714 E2.84812
G1 X27.984 Y208.29 E2.87349
G1 X27.177 Y208.7 E2.90039
G1 X26.392 Y208.867 E2.92424
G1 X25.538 Y208.828 E2.94964
G1 X24.678 Y208.548 E2.97652
G1 X24.005 Y208.11 E3.00038
G1 X23.429 Y207.48 E3.02575
G1 X23.036 Y206.722 E3.05112
G1 X22.852 Y205.888 E3.0765
G1 X22.891 Y205.035 E3.10187
G1 X22.945 Y204.863 E3.10723
M204 S20000
;WIPE_START
G1 F14400
G1 X22.963 Y204.806 E3.0883
G1 X23.149 Y204.221 E2.89391
G1 X23.608 Y203.501 E2.62352
G1 X24.239 Y202.925 E2.35297
G1 X24.997 Y202.532 E2.08259
G1 X25.831 Y202.348 E1.81214
G1 X26.684 Y202.387 E1.54174
G1 X27.498 Y202.645 E1.27134
G1 X28.218 Y203.105 E1.00078
G1 X28.794 Y203.735 E.73047
G1 X28.973 Y204.081 E.60723
;WIPE_END
G92 E0
G1 Z-1.08 F18000
G1 X24.513 Y208.886
G1 Z-1.48
G1 E2.5 F4800
M204 S5000
;TYPE:Perimeter
;WIDTH:0.396142
G1 X24.168 Y208.639 E2.51122
;WIDTH:0.355865
G1 X23.822 Y208.391 E2.52119
;WIDTH:0.348986
G1 X23.636 Y208.222 E2.52695
;WIDTH:0.382384
G1 X23.45 Y208.054 E2.53332
;WIDTH:0.411632
G1 X23.058 Y207.611 E2.54964
M204 S20000
;WIPE_START
G1 F14400
G1 X23.45 Y208.054 E2.36232
;WIPE_END
G1 E.04964 F4800
G92 E0
G1 Z-1.08 F18000
G1 X78.391 Y127.378
G1 Z-1.48
G1 E2.5 F4800
M204 S5000
;WIDTH:0.439999
G1 X115.482 Y83.99 E4.1962
G1 X115.569 Y83.855 E4.20097
G1 X115.625 Y83.589 E4.20905
G1 X115.55 Y83.313 E4.21755
G1 X113.75 Y80.132 E4.32616
G1 X112.303 Y77.048 E4.42739
G1 X111.124 Y73.856 E4.52851
G1 X110.22 Y70.575 E4.62964
G1 X109.597 Y67.23 E4.73075
G1 X109.26 Y63.844 E4.83186
G1 X109.212 Y60.442 E4.93296
G1 X109.452 Y57.047 E5.0341
G1 X109.98 Y53.686 E5.1352
G1 X110.79 Y50.381 E5.23632
G1 X111.878 Y47.157 E5.33743
G1 X113.244 Y44.017 E5.43918
G1 X113.928 Y42.604 E5.48583
G1 X113.983 Y42.424 E5.49142
G1 X113.951 Y42.137 E5.5
G1 X113.786 Y41.897 E5.50865
G1 X112.149 Y40.459 E5.5734
G1 X94.659 Y25.501 E6.25727
G1 X93.644 Y24.466 E6.30035
G1 X92.846 Y23.304 E6.34224
G1 X92.262 Y22.021 E6.38413
G1 X91.91 Y20.656 E6.42602
G1 X91.801 Y19.251 E6.4679
G1 X91.937 Y17.845 E6.50988
G1 X92.204 Y16.843 E6.54069
G1 X92.28 Y17.04 E6.54696
G1 X92.729 Y17.89 E6.57553
G1 X93.383 Y18.588 E6.60395
G1 X94.197 Y19.093 E6.63242
G1 X95.112 Y19.37 E6.66083
G1 X95.914 Y19.412 E6.68469
G1 X96.375 Y19.335 E6.69858
G1 X97.001 Y19.182 E6.71773
G1 X97.844 Y18.73 E6.74615
G1 X98.542 Y18.075 E6.77459
G1 X99.047 Y17.262 E6.80303
G1 X99.323 Y16.346 E6.83146
G1 X99.354 Y15.39 E6.85988
G1 X99.223 Y14.773 E6.87862
G1 X99.108 Y14.403 E6.89013
G1 X98.684 Y13.615 E6.91672
G1 X98.029 Y12.917 E6.94516
G1 X97.212 Y12.411 E6.97372
G1 X96.447 Y12.168 E6.99757
G1 X96.198 Y12.142 E7.00501
G1 X97.189 Y11.704 E7.03721
G1 X98.557 Y11.352 E7.07918
G1 X99.962 Y11.242 E7.12106
G1 X101.365 Y11.378 E7.16295
G1 X102.723 Y11.756 E7.20484
G1 X103.995 Y12.363 E7.24672
G1 X105.174 Y13.206 E7.28979
G1 X124.333 Y29.553 E8.03818
G1 X124.516 Y29.659 E8.04446
G1 X124.794 Y29.691 E8.05278
G1 X125.056 Y29.591 E8.06111
G1 X126.349 Y28.694 E8.10787
G1 X129.239 Y26.858 E8.20961
G1 X132.255 Y25.283 E8.31072
G1 X135.394 Y23.969 E8.41184
G1 X138.633 Y22.927 E8.51295
G1 X141.949 Y22.163 E8.61407
G1 X145.318 Y21.683 E8.71519
G1 X148.715 Y21.49 E8.8163
G1 X152.117 Y21.586 E8.91743
G1 X155.498 Y21.971 E9.01855
G1 X158.834 Y22.64 E9.11965
G1 X162.105 Y23.591 E9.22087
G1 X165.523 Y24.875 E9.32937
G1 X165.651 Y24.908 E9.3333
G1 X165.939 Y24.876 E9.34191
G1 X166.181 Y24.71 E9.35063
G1 X168.008 Y22.62 E9.43312
G1 X172.758 Y17.065 E9.65031
G1 X189.613 Y31.48 E10.30935
G1 X185.249 Y36.582 E10.50885
G1 X183.083 Y39.163 E10.60897
G1 X182.996 Y39.302 E10.61384
G1 X182.943 Y39.559 E10.62164
G1 X183.018 Y39.836 E10.63017
G1 X184.819 Y43.017 E10.73879
G1 X186.266 Y46.101 E10.84002
G1 X187.445 Y49.293 E10.94114
G1 X188.349 Y52.573 E11.04224
G1 X188.972 Y55.919 E11.14338
G1 X189.308 Y59.305 E11.24449
G1 X189.357 Y62.707 E11.34559
G1 X189.116 Y66.102 E11.44673
G1 X188.589 Y69.463 E11.54782
G1 X187.778 Y72.768 E11.64894
G1 X186.69 Y75.992 E11.75005
G1 X185.324 Y79.132 E11.8518
G1 X184.64 Y80.545 E11.89845
G1 X184.586 Y80.725 E11.90403
G1 X184.618 Y81.012 E11.91261
G1 X184.783 Y81.252 E11.92126
G1 X186.419 Y82.69 E11.98598
G1 X203.91 Y97.647 E12.66985
G1 X204.925 Y98.682 E12.71293
G1 X205.723 Y99.845 E12.75484
G1 X206.306 Y101.128 E12.79672
G1 X206.537 Y102.022 E12.82416
G1 X206.668 Y102.625 E12.8425
G1 X206.768 Y103.898 E12.88044
G1 X206.631 Y105.304 E12.92242
G1 X206.364 Y106.306 E12.95323
G1 X206.288 Y106.108 E12.95953
G1 X205.84 Y105.259 E12.98806
G1 X205.185 Y104.561 E13.0165
G1 X204.372 Y104.056 E13.04494
G1 X203.456 Y103.779 E13.07338
G1 X202.655 Y103.737 E13.09721
G1 X202.193 Y103.814 E13.11113
G1 X201.568 Y103.967 E13.13025
G1 X200.724 Y104.419 E13.1587
G1 X200.027 Y105.073 E13.1871
G1 X199.522 Y105.887 E13.21557
G1 X199.245 Y106.802 E13.24398
G1 X199.215 Y107.759 E13.27243
G1 X199.345 Y108.376 E13.29117
G1 X199.461 Y108.746 E13.30269
G1 X199.885 Y109.534 E13.32928
G1 X200.539 Y110.232 E13.3577
G1 X201.357 Y110.738 E13.38628
G1 X202.121 Y110.981 E13.4101
G1 X202.371 Y111.007 E13.41757
G1 X201.38 Y111.444 E13.44975
G1 X200.012 Y111.797 E13.49173
G1 X198.606 Y111.907 E13.53364
G1 X197.204 Y111.771 E13.5755
G1 X195.846 Y111.393 E13.61739
G1 X194.574 Y110.786 E13.65927
G1 X193.394 Y109.943 E13.70236
G1 X174.235 Y93.596 E14.45075
G1 X174.052 Y93.49 E14.45703
G1 X173.775 Y93.458 E14.46532
G1 X173.512 Y93.558 E14.47368
G1 X172.22 Y94.455 E14.52042
G1 X169.33 Y96.291 E14.62216
G1 X166.313 Y97.866 E14.72329
G1 X163.174 Y99.179 E14.8244
G1 X159.935 Y100.222 E14.92552
G1 X156.619 Y100.986 E15.02664
G1 X153.25 Y101.466 E15.12776
G1 X149.853 Y101.659 E15.22887
G1 X146.452 Y101.563 E15.32997
G1 X143.071 Y101.178 E15.43109
G1 X139.734 Y100.509 E15.53222
G1 X136.463 Y99.557 E15.63345
G1 X133.046 Y98.274 E15.74191
G1 X132.91 Y98.24 E15.74608
G1 X132.627 Y98.274 E15.75455
G1 X132.384 Y98.444 E15.76336
G1 X39.43 Y207.083 E20.01204
G1 X38.854 Y207.708 E20.0373
G1 X37.554 Y208.825 E20.08823
G1 X36.113 Y209.722 E20.13867
G1 X34.552 Y210.389 E20.18911
G1 X32.908 Y210.809 E20.23953
G1 X31.218 Y210.973 E20.28999
G1 X29.524 Y210.878 E20.34041
G1 X27.864 Y210.525 E20.39084
G1 X26.277 Y209.923 E20.44128
G1 X25.291 Y209.364 E20.47496
G1 X24.599 Y208.947 E20.49897
;WIDTH:0.434627
G1 X24.832 Y209.02 E20.50613
;WIDTH:0.439999
G1 X25.517 Y209.225 E20.52738
G1 X26.474 Y209.255 E20.55583
G1 X27.259 Y209.089 E20.57967
G1 X27.712 Y208.881 E20.59448
G1 X28.249 Y208.585 E20.6127
G1 X28.947 Y207.93 E20.64114
G1 X29.384 Y207.258 E20.66496
G1 X29.522 Y206.901 E20.67633
G1 X29.728 Y206.201 E20.69801
G1 X29.771 Y205.4 E20.72185
