;FLAVOR:Marlin
;TIME:6663
;Filament used: 9.76655m
;Layer height: 0.3
;MINX:97.337
;MINY:23.048
;MINZ:0.3
;MAXX:174.397
;MAXY:152.608
;MAXZ:20.1
;Generated with Cura_SteamEngine 4.10.0
M104 S230
M105
M109 S230
M82 ;absolute extrusion mode
G28 ; home all axes
 M117 Purge extruder
 G92 E0 ; reset extruder
 G1 Z1.0 F3000 ; move z up little to prevent scratching of surface
 G1 X2 Y20 Z0.3 F5000.0 ; move to start-line position
 G1 X2 Y200.0 Z0.3 F1500.0 E15 ; draw 1st line
 G1 X2 Y200.0 Z0.4 F5000.0 ; move to side a little
 G1 X2 Y20 Z0.4 F1500.0 E30 ; draw 2nd line
 G92 E0 ; reset extruder
 G1 Z1.0 F3000 ; move z up little to prevent scratching of surface
G92 E0
G92 E0
G1 F1500 E-2
;LAYER_COUNT:67
;LAYER:0
M107
;MESH:Soap_Tray_Base.stl
G0 F9000 X120.377 Y38.053 Z0.3
;TYPE:WALL-INNER
G1 F1500 E0
G1 F1800 X120.619 Y37.757 E0.02644
G1 X120.844 Y37.447 E0.05292
G1 X121.047 Y37.12 E0.07954
G1 X121.229 Y36.782 E0.10608
G1 X121.387 Y36.433 E0.13257
G1 X121.523 Y36.075 E0.15905
G1 X121.636 Y35.708 E0.18561
G1 X121.725 Y35.335 E0.21212
G1 X121.789 Y34.955 E0.23877
G1 X121.827 Y34.573 E0.26532
G1 X121.841 Y34.193 E0.29161
G1 X121.831 Y33.808 E0.31824
G1 X121.796 Y33.428 E0.34463
G1 X121.742 Y33.08 E0.36898
G1 X121.659 Y32.707 E0.3954
G1 X121.566 Y32.385 E0.41858
G1 X121.536 Y32.294 E0.4252
G1 X121.407 Y31.947 E0.4508
G1 X121.25 Y31.595 E0.47745
G1 X121.072 Y31.256 E0.50393
G1 X120.871 Y30.928 E0.53053
G1 X120.649 Y30.615 E0.55706
G1 X120.408 Y30.317 E0.58357
G1 X120.148 Y30.035 E0.61009
G1 X119.87 Y29.771 E0.6366
G1 X119.577 Y29.526 E0.66301
G1 X119.288 Y29.314 E0.68779
G1 X118.851 Y29.043 E0.72335
G1 X118.417 Y28.819 E0.75712
G1 X117.965 Y28.633 E0.79092
G1 X117.502 Y28.487 E0.82449
G1 X117.028 Y28.379 E0.8581
G1 X116.546 Y28.31 E0.89177
G1 X116.062 Y28.282 E0.9253
G1 X115.572 Y28.292 E0.95919
G1 X115.013 Y28.356 E0.99809
G1 X114.458 Y28.474 E1.03733
G1 X113.921 Y28.643 E1.07625
G1 X113.465 Y28.834 E1.11044
G1 X113.385 Y28.871 E1.11653
G1 X112.901 Y29.134 E1.15462
G1 X112.429 Y29.452 E1.19398
G1 X111.994 Y29.813 E1.23307
G1 X111.594 Y30.212 E1.27213
G1 X111.236 Y30.65 E1.31125
G1 X110.959 Y31.06 E1.34546
G1 X110.912 Y31.135 E1.35158
G1 X110.65 Y31.617 E1.38952
G1 X110.429 Y32.138 E1.42865
G1 X110.261 Y32.679 E1.46782
G1 X110.144 Y33.232 E1.50691
G1 X110.08 Y33.796 E1.54616
G1 X110.073 Y34.359 E1.58509
G1 X110.106 Y34.796 E1.6154
G1 X110.121 Y34.932 E1.62486
G1 X110.218 Y35.479 E1.66327
G1 X110.335 Y35.903 E1.69368
G1 X110.373 Y36.032 E1.70298
G1 X110.547 Y36.486 E1.7366
G1 X110.582 Y36.569 E1.74283
G1 X110.83 Y37.06 E1.78087
G1 X111.131 Y37.538 E1.81993
G1 X111.476 Y37.987 E1.85908
G1 X111.864 Y38.399 E1.89822
G1 X112.288 Y38.771 E1.93722
G1 X112.747 Y39.101 E1.97631
G1 X113.236 Y39.386 E2.01545
G1 X113.749 Y39.625 E2.05458
G1 X114.286 Y39.811 E2.09388
G1 X114.835 Y39.945 E2.13295
G1 X115.391 Y40.026 E2.17181
G1 X115.74 Y40.047 E2.19598
G1 X115.96 Y40.052 E2.2112
G1 X116.297 Y40.043 E2.23451
G1 X116.634 Y40.013 E2.2579
G1 X116.963 Y39.965 E2.2809
G1 X117.235 Y39.911 E2.30007
G1 X117.561 Y39.83 E2.3233
G1 X117.882 Y39.728 E2.34659
G1 X118.194 Y39.61 E2.36965
G1 X118.505 Y39.473 E2.39315
G1 X118.899 Y39.265 E2.42396
G1 X119.223 Y39.064 E2.45033
G1 X119.513 Y38.858 E2.47492
G1 X119.833 Y38.596 E2.50352
G1 X120.113 Y38.333 E2.53008
G1 X120.377 Y38.053 E2.55669
G0 F9000 X119.914 Y37.646
;TYPE:WALL-OUTER
G1 F1800 X120.131 Y37.381 E2.58038
G1 X120.332 Y37.103 E2.6041
G1 X120.514 Y36.811 E2.62789
G1 X120.676 Y36.509 E2.65159
G1 X120.818 Y36.196 E2.67535
G1 X120.94 Y35.875 E2.6991
G1 X121.041 Y35.546 E2.7229
G1 X121.121 Y35.212 E2.74665
G1 X121.178 Y34.873 E2.77042
G1 X121.212 Y34.531 E2.79418
G1 X121.225 Y34.189 E2.81785
G1 X121.216 Y33.845 E2.84164
G1 X121.184 Y33.504 E2.86533
G1 X121.136 Y33.194 E2.88702
G1 X121.062 Y32.86 E2.91067
G1 X120.977 Y32.567 E2.93177
G1 X120.954 Y32.497 E2.93686
G1 X120.836 Y32.179 E2.96032
G1 X120.696 Y31.864 E2.98415
G1 X120.536 Y31.561 E3.00785
G1 X120.356 Y31.267 E3.03168
G1 X120.158 Y30.987 E3.0554
G1 X119.942 Y30.72 E3.07914
G1 X119.709 Y30.468 E3.10288
G1 X119.46 Y30.231 E3.12665
G1 X119.197 Y30.011 E3.15036
G1 X118.943 Y29.825 E3.17213
G1 X118.547 Y29.579 E3.20436
G1 X118.158 Y29.379 E3.23461
G1 X117.755 Y29.213 E3.26474
G1 X117.34 Y29.082 E3.29484
G1 X116.915 Y28.985 E3.32498
G1 X116.484 Y28.923 E3.35509
G1 X116.051 Y28.898 E3.38508
G1 X115.614 Y28.907 E3.4153
G1 X115.112 Y28.965 E3.45025
G1 X114.615 Y29.07 E3.48537
G1 X114.133 Y29.222 E3.52032
G1 X113.713 Y29.398 E3.55181
G1 X113.661 Y29.422 E3.55577
G1 X113.221 Y29.661 E3.59039
G1 X112.799 Y29.946 E3.6256
G1 X112.409 Y30.269 E3.66062
G1 X112.051 Y30.626 E3.69558
G1 X111.731 Y31.018 E3.73057
G1 X111.476 Y31.395 E3.76204
G1 X111.445 Y31.445 E3.76611
G1 X111.205 Y31.885 E3.80077
G1 X111.008 Y32.35 E3.83569
G1 X110.858 Y32.834 E3.87073
G1 X110.753 Y33.331 E3.90585
G1 X110.696 Y33.835 E3.94092
G1 X110.689 Y34.339 E3.97578
G1 X110.72 Y34.74 E4.00359
G1 X110.731 Y34.846 E4.01096
G1 X110.819 Y35.343 E4.04586
G1 X110.927 Y35.733 E4.07384
G1 X110.957 Y35.834 E4.08113
G1 X111.118 Y36.255 E4.11229
G1 X111.141 Y36.309 E4.11635
G1 X111.367 Y36.756 E4.15099
G1 X111.637 Y37.185 E4.18604
G1 X111.946 Y37.587 E4.2211
G1 X112.292 Y37.955 E4.25603
G1 X112.672 Y38.288 E4.29096
G1 X113.083 Y38.584 E4.32599
G1 X113.521 Y38.839 E4.36103
G1 X113.981 Y39.053 E4.39611
G1 X114.461 Y39.22 E4.43126
G1 X114.953 Y39.34 E4.46627
G1 X115.453 Y39.413 E4.50121
G1 X115.766 Y39.431 E4.52289
G1 X115.96 Y39.436 E4.53631
G1 X116.261 Y39.428 E4.55713
G1 X116.562 Y39.401 E4.57803
G1 X116.859 Y39.358 E4.59878
G1 X117.1 Y39.31 E4.61577
G1 X117.393 Y39.237 E4.63665
G1 X117.68 Y39.146 E4.65747
G1 X117.96 Y39.04 E4.67818
G1 X118.236 Y38.918 E4.69904
G1 X118.592 Y38.73 E4.72688
G1 X118.882 Y38.55 E4.75048
G1 X119.139 Y38.368 E4.77226
G1 X119.427 Y38.132 E4.798
G1 X119.678 Y37.897 E4.82178
G1 X119.914 Y37.646 E4.8456
G0 F9000 X120.422 Y38.092
G1 F1500 E2.8456
G0 F9000 X120.452 Y38.118
G0 X161.052 Y39.722
G0 X161.087 Y39.629
;TYPE:WALL-INNER
G1 F1500 E4.8456
G1 F1800 X161.608 Y39.811 E4.88376
G1 X162.157 Y39.945 E4.92284
G1 X162.714 Y40.026 E4.96176
G1 X163.062 Y40.047 E4.98587
G1 X163.282 Y40.052 E5.00108
G1 X163.619 Y40.043 E5.0244
G1 X163.956 Y40.013 E5.04779
G1 X164.286 Y39.965 E5.07085
G1 X164.558 Y39.911 E5.09002
G1 X164.883 Y39.83 E5.11319
G1 X165.204 Y39.728 E5.13648
G1 X165.516 Y39.61 E5.15954
G1 X165.827 Y39.473 E5.18304
G1 X166.221 Y39.265 E5.21385
G1 X166.545 Y39.064 E5.24021
G1 X166.834 Y38.858 E5.26475
G1 X167.156 Y38.596 E5.29346
G1 X167.437 Y38.333 E5.32007
G1 X167.698 Y38.054 E5.34649
G1 X167.942 Y37.758 E5.37301
G1 X168.147 Y37.472 E5.39735
G1 X168.326 Y37.193 E5.42027
G1 X168.374 Y37.11 E5.4269
G1 X168.55 Y36.783 E5.45258
G1 X168.71 Y36.434 E5.47912
G1 X168.846 Y36.075 E5.50567
G1 X168.959 Y35.706 E5.53236
G1 X169.047 Y35.333 E5.55886
G1 X169.111 Y34.957 E5.58523
G1 X169.15 Y34.574 E5.61185
G1 X169.164 Y34.193 E5.63821
G1 X169.154 Y33.807 E5.66491
G1 X169.117 Y33.427 E5.69131
G1 X169.064 Y33.08 E5.71559
G1 X168.991 Y32.752 E5.73882
G1 X168.874 Y32.336 E5.7687
G1 X168.729 Y31.946 E5.79747
G1 X168.573 Y31.597 E5.82391
G1 X168.41 Y31.283 E5.84837
G1 X168.195 Y30.93 E5.87695
G1 X167.973 Y30.615 E5.9036
G1 X167.73 Y30.315 E5.93029
G1 X167.469 Y30.035 E5.95676
G1 X167.194 Y29.772 E5.98307
G1 X166.9 Y29.525 E6.00963
G1 X166.61 Y29.314 E6.03443
G1 X166.174 Y29.043 E6.06992
G1 X165.739 Y28.819 E6.10376
G1 X165.287 Y28.633 E6.13755
G1 X164.824 Y28.487 E6.17112
G1 X164.35 Y28.379 E6.20474
G1 X163.869 Y28.31 E6.23834
G1 X163.384 Y28.282 E6.27193
G1 X162.894 Y28.292 E6.30582
G1 X162.335 Y28.356 E6.34473
G1 X161.78 Y28.474 E6.38396
G1 X161.243 Y28.643 E6.42289
G1 X160.787 Y28.834 E6.45708
G1 X160.707 Y28.871 E6.46317
G1 X160.223 Y29.134 E6.50126
G1 X159.752 Y29.452 E6.54056
G1 X159.314 Y29.813 E6.57981
G1 X158.919 Y30.211 E6.61858
G1 X158.638 Y30.55 E6.64903
G1 X158.553 Y30.658 E6.65853
G1 X158.242 Y31.12 E6.69704
G1 X157.971 Y31.618 E6.73624
G1 X157.752 Y32.138 E6.77526
G1 X157.583 Y32.679 E6.81445
G1 X157.467 Y33.232 E6.85352
G1 X157.403 Y33.793 E6.89257
G1 X157.394 Y34.287 E6.92673
G1 X157.395 Y34.374 E6.93275
G1 X157.433 Y34.853 E6.96597
G1 X157.444 Y34.942 E6.97217
G1 X157.541 Y35.481 E7.01004
G1 X157.695 Y36.031 E7.04954
G1 X157.896 Y36.553 E7.08822
G1 X158.151 Y37.058 E7.12734
G1 X158.384 Y37.43 E7.15769
G1 X158.458 Y37.543 E7.16703
G1 X158.798 Y37.987 E7.2057
G1 X159.186 Y38.399 E7.24483
G1 X159.611 Y38.771 E7.28389
G1 X160.069 Y39.101 E7.32292
G1 X160.557 Y39.385 E7.36196
G1 X161.003 Y39.594 E7.39602
G1 X161.087 Y39.629 E7.40231
G0 F9000 X161.308 Y39.054
;TYPE:WALL-OUTER
G1 F1800 X161.783 Y39.22 E7.43711
G1 X162.275 Y39.34 E7.47212
G1 X162.776 Y39.413 E7.50713
G1 X163.088 Y39.431 E7.52874
G1 X163.282 Y39.436 E7.54216
G1 X163.583 Y39.428 E7.56298
G1 X163.884 Y39.401 E7.58388
G1 X164.182 Y39.358 E7.6047
G1 X164.423 Y39.31 E7.62169
G1 X164.715 Y39.237 E7.6425
G1 X165.002 Y39.146 E7.66332
G1 X165.282 Y39.04 E7.68403
G1 X165.558 Y38.918 E7.70489
G1 X165.914 Y38.73 E7.73273
G1 X166.204 Y38.55 E7.75633
G1 X166.461 Y38.368 E7.77811
G1 X166.75 Y38.132 E7.80391
G1 X167.001 Y37.897 E7.82768
G1 X167.235 Y37.647 E7.85136
G1 X167.454 Y37.382 E7.87513
G1 X167.637 Y37.127 E7.89684
G1 X167.8 Y36.871 E7.91782
G1 X167.837 Y36.808 E7.92287
G1 X167.998 Y36.509 E7.94636
G1 X168.141 Y36.196 E7.97015
G1 X168.263 Y35.875 E7.9939
G1 X168.364 Y35.545 E8.01776
G1 X168.443 Y35.211 E8.04149
G1 X168.5 Y34.874 E8.06513
G1 X168.535 Y34.531 E8.08897
G1 X168.548 Y34.189 E8.11263
G1 X168.539 Y33.845 E8.13643
G1 X168.506 Y33.504 E8.16012
G1 X168.458 Y33.194 E8.18181
G1 X168.392 Y32.897 E8.20285
G1 X168.374 Y32.828 E8.20778
G1 X168.288 Y32.529 E8.22929
G1 X168.158 Y32.179 E8.25511
G1 X168.018 Y31.865 E8.27888
G1 X167.873 Y31.586 E8.30062
G1 X167.679 Y31.268 E8.32638
G1 X167.481 Y30.986 E8.35021
G1 X167.265 Y30.719 E8.37396
G1 X167.031 Y30.468 E8.39768
G1 X166.783 Y30.231 E8.4214
G1 X166.52 Y30.011 E8.44511
G1 X166.265 Y29.825 E8.46694
G1 X165.87 Y29.579 E8.49912
G1 X165.481 Y29.379 E8.52936
G1 X165.077 Y29.213 E8.55956
G1 X164.662 Y29.082 E8.58966
G1 X164.237 Y28.985 E8.6198
G1 X163.807 Y28.923 E8.64984
G1 X163.373 Y28.898 E8.6799
G1 X162.936 Y28.907 E8.71012
G1 X162.434 Y28.965 E8.74507
G1 X161.937 Y29.07 E8.78019
G1 X161.455 Y29.222 E8.81514
G1 X161.035 Y29.398 E8.84663
G1 X160.983 Y29.422 E8.85059
G1 X160.543 Y29.661 E8.88521
G1 X160.121 Y29.946 E8.92042
G1 X159.73 Y30.269 E8.95549
G1 X159.375 Y30.626 E8.99031
G1 X159.117 Y30.937 E9.01825
G1 X159.051 Y31.021 E9.02563
G1 X158.769 Y31.44 E9.06056
G1 X158.527 Y31.885 E9.09558
G1 X158.331 Y32.35 E9.13048
G1 X158.18 Y32.834 E9.16554
G1 X158.076 Y33.331 E9.20065
G1 X158.018 Y33.834 E9.23566
G1 X158.01 Y34.287 E9.26699
G1 X158.011 Y34.345 E9.271
G1 X158.046 Y34.792 E9.302
G1 X158.053 Y34.85 E9.30604
G1 X158.142 Y35.343 E9.34068
G1 X158.28 Y35.837 E9.37615
G1 X158.46 Y36.303 E9.41069
G1 X158.688 Y36.755 E9.4457
G1 X158.903 Y37.098 E9.47369
G1 X158.961 Y37.187 E9.48104
G1 X159.268 Y37.587 E9.5159
G1 X159.614 Y37.955 E9.55083
G1 X159.995 Y38.288 E9.58582
G1 X160.405 Y38.584 E9.62079
G1 X160.843 Y38.839 E9.65583
G1 X161.253 Y39.031 E9.68714
G1 X161.308 Y39.054 E9.69126
G0 F9000 X161.066 Y39.686
G1 F1500 E7.69126
G0 F9000 X161.052 Y39.722
G0 X157.593 Y141.405
G0 X157.743 Y142.534
G0 X158.105 Y143.615
G0 X158.671 Y144.606
G0 X159.257 Y145.294
G0 X160.271 Y146.225
G0 X160.323 Y146.14
;TYPE:WALL-INNER
G1 F1500 E9.69126
G1 F1800 X160.794 Y146.415 E9.72897
G1 X161.308 Y146.655 E9.7682
G1 X161.845 Y146.841 E9.8075
G1 X162.394 Y146.975 E9.84657
G1 X162.955 Y147.057 E9.88578
G1 X163.51 Y147.082 E9.92419
G1 X163.853 Y147.073 E9.94792
G1 X164.165 Y147.047 E9.96957
G1 X164.525 Y146.995 E9.99472
G1 X164.826 Y146.934 E10.01596
G1 X165.12 Y146.859 E10.03694
G1 X165.44 Y146.759 E10.06012
G1 X165.756 Y146.639 E10.08349
G1 X166.12 Y146.474 E10.11113
G1 X166.456 Y146.295 E10.13745
G1 X166.782 Y146.093 E10.16397
G1 X167.033 Y145.915 E10.18525
G1 X167.106 Y145.859 E10.19161
G1 X167.391 Y145.626 E10.21707
G1 X167.672 Y145.363 E10.24368
G1 X167.935 Y145.084 E10.27019
G1 X168.179 Y144.788 E10.29672
G1 X168.403 Y144.475 E10.32333
G1 X168.606 Y144.149 E10.34989
G1 X168.787 Y143.811 E10.3764
G1 X168.946 Y143.463 E10.40286
G1 X169.082 Y143.105 E10.42934
G1 X169.195 Y142.738 E10.45589
G1 X169.284 Y142.365 E10.48241
G1 X169.348 Y141.985 E10.50905
G1 X169.386 Y141.603 E10.5356
G1 X169.4 Y141.223 E10.56189
G1 X169.39 Y140.838 E10.58852
G1 X169.355 Y140.458 E10.61491
G1 X169.301 Y140.11 E10.63926
G1 X169.228 Y139.783 E10.66243
G1 X169.205 Y139.692 E10.66892
G1 X169.099 Y139.336 E10.6946
G1 X168.966 Y138.977 E10.72108
G1 X168.81 Y138.627 E10.74757
G1 X168.647 Y138.315 E10.77191
G1 X168.432 Y137.96 E10.80061
G1 X168.227 Y137.669 E10.82523
G1 X167.968 Y137.348 E10.85375
G1 X167.709 Y137.067 E10.88017
G1 X167.453 Y136.82 E10.90477
G1 X167.133 Y136.555 E10.9335
G1 X166.82 Y136.327 E10.96028
G1 X166.409 Y136.072 E10.99372
G1 X165.975 Y135.849 E11.02746
G1 X165.523 Y135.663 E11.06126
G1 X165.061 Y135.517 E11.09476
G1 X164.587 Y135.409 E11.12838
G1 X164.105 Y135.34 E11.16205
G1 X163.621 Y135.312 E11.19557
G1 X163.131 Y135.322 E11.22946
G1 X162.571 Y135.386 E11.26844
G1 X162.017 Y135.504 E11.3076
G1 X161.48 Y135.673 E11.34653
G1 X161.024 Y135.864 E11.38072
G1 X160.944 Y135.901 E11.38681
G1 X160.46 Y136.164 E11.4249
G1 X159.989 Y136.482 E11.4642
G1 X159.553 Y136.842 E11.50329
G1 X159.153 Y137.242 E11.54241
G1 X158.794 Y137.681 E11.58162
G1 X158.479 Y138.149 E11.62063
G1 X158.208 Y138.647 E11.65984
G1 X157.988 Y139.168 E11.69894
G1 X157.82 Y139.709 E11.73811
G1 X157.703 Y140.262 E11.7772
G1 X157.64 Y140.824 E11.8163
G1 X157.631 Y141.317 E11.8504
G1 X157.632 Y141.404 E11.85642
G1 X157.665 Y141.826 E11.88569
G1 X157.68 Y141.961 E11.89508
G1 X157.763 Y142.44 E11.92869
G1 X157.781 Y142.525 E11.9347
G1 X157.909 Y142.987 E11.96785
G1 X157.935 Y143.069 E11.9738
G1 X158.106 Y143.516 E12.00689
G1 X158.141 Y143.599 E12.01312
G1 X158.388 Y144.088 E12.051
G1 X158.653 Y144.513 E12.08564
G1 X158.703 Y144.583 E12.09158
G1 X159.035 Y145.016 E12.12931
G1 X159.423 Y145.429 E12.1685
G1 X159.846 Y145.8 E12.2074
G1 X160.249 Y146.092 E12.24182
G1 X160.323 Y146.14 E12.24792
G0 F9000 X160.647 Y145.616
;TYPE:WALL-OUTER
G1 F1800 X161.08 Y145.869 E12.28259
G1 X161.54 Y146.083 E12.31767
G1 X162.02 Y146.25 E12.35282
G1 X162.512 Y146.37 E12.38783
G1 X163.014 Y146.443 E12.42291
G1 X163.516 Y146.466 E12.45766
G1 X163.819 Y146.458 E12.47862
G1 X164.095 Y146.435 E12.49777
G1 X164.419 Y146.388 E12.52041
G1 X164.688 Y146.333 E12.53939
G1 X164.952 Y146.266 E12.55823
G1 X165.239 Y146.176 E12.57903
G1 X165.52 Y146.07 E12.59979
G1 X165.848 Y145.921 E12.6247
G1 X166.149 Y145.761 E12.64828
G1 X166.441 Y145.58 E12.67203
G1 X166.666 Y145.42 E12.69112
G1 X166.723 Y145.376 E12.6961
G1 X166.986 Y145.162 E12.71955
G1 X167.237 Y144.927 E12.74332
G1 X167.472 Y144.677 E12.76705
G1 X167.69 Y144.412 E12.79078
G1 X167.891 Y144.132 E12.81461
G1 X168.073 Y143.84 E12.8384
G1 X168.235 Y143.538 E12.8621
G1 X168.377 Y143.226 E12.8858
G1 X168.499 Y142.905 E12.90955
G1 X168.6 Y142.576 E12.93335
G1 X168.68 Y142.242 E12.95709
G1 X168.737 Y141.903 E12.98086
G1 X168.771 Y141.561 E13.00463
G1 X168.784 Y141.219 E13.02829
G1 X168.775 Y140.875 E13.05209
G1 X168.743 Y140.534 E13.07577
G1 X168.695 Y140.224 E13.09746
G1 X168.629 Y139.927 E13.1185
G1 X168.611 Y139.857 E13.1235
G1 X168.514 Y139.531 E13.14702
G1 X168.395 Y139.209 E13.17076
G1 X168.255 Y138.895 E13.19453
G1 X168.11 Y138.617 E13.21621
G1 X167.916 Y138.297 E13.24209
G1 X167.735 Y138.04 E13.26382
G1 X167.501 Y137.75 E13.28959
G1 X167.269 Y137.498 E13.31327
G1 X167.042 Y137.28 E13.33504
G1 X166.754 Y137.041 E13.36092
G1 X166.476 Y136.838 E13.38472
G1 X166.106 Y136.609 E13.41481
G1 X165.717 Y136.409 E13.44505
G1 X165.313 Y136.243 E13.47525
G1 X164.899 Y136.112 E13.50528
G1 X164.474 Y136.015 E13.53542
G1 X164.043 Y135.953 E13.56553
G1 X163.61 Y135.928 E13.59552
G1 X163.173 Y135.937 E13.62575
G1 X162.67 Y135.995 E13.66076
G1 X162.174 Y136.1 E13.69582
G1 X161.692 Y136.252 E13.73076
G1 X161.272 Y136.428 E13.76225
