;FLAVOR:Marlin
;TIME:1628
;Filament used: 1.98871m
;Layer height: 0.3
;MINX:95.986
;MINY:35.964
;MINZ:0.3
;MAXX:160.546
;MAXY:160.524
;MAXZ:3
;Generated with Cura_SteamEngine 4.10.0
M104 S230
M105
M109 S230
M82 ;absolute extrusion mode
G28 ; home all axes
 M117 Purge extruder
 G92 E0 ; reset extruder
 G1 Z1.0 F3000 ; move z up little to prevent scratching of surface
 G1 X2 Y20 Z0.3 F5000.0 ; move to start-line position
 G1 X2 Y200.0 Z0.3 F1500.0 E15 ; draw 1st line
 G1 X2 Y200.0 Z0.4 F5000.0 ; move to side a little
 G1 X2 Y20 Z0.4 F1500.0 E30 ; draw 2nd line
 G92 E0 ; reset extruder
 G1 Z1.0 F3000 ; move z up little to prevent scratching of surface
G92 E0
G92 E0
G1 F1500 E-2
;LAYER_COUNT:10
;LAYER:0
M107
;MESH:Soap_Tray_2.stl
G0 F9000 X104.412 Y40.384 Z0.3
;TYPE:WALL-INNER
G1 F1500 E0
G1 F1800 X100.305 Y47.503 E0.56831
G1 X98.897 Y49.956 E0.76388
G1 X98.634 Y50.415 E0.80046
G1 X99.163 Y50.415 E0.82122
G1 X99.164 Y50.415 E0.82129
G1 X113.576 Y50.415 E1.81785
G1 X120.648 Y38.163 E2.79605
G1 X120.913 Y37.703 E2.83276
G1 X120.383 Y37.703 E2.85354
G1 X120.381 Y37.703 E2.85368
G1 X108.297 Y37.703 E3.68926
G1 X108.25 Y37.703 E3.69251
G1 X107.577 Y37.726 E3.73908
G1 X106.891 Y37.793 E3.78674
G1 X106.191 Y37.908 E3.83579
G1 X105.809 Y37.972 E3.86257
G1 X105.807 Y37.976 E3.86288
G1 X104.412 Y40.384 E4.05531
G0 F9000 X104.945 Y40.692
;TYPE:WALL-OUTER
G1 F1800 X100.839 Y47.81 E4.62353
G1 X99.698 Y49.799 E4.78208
G1 X113.22 Y49.799 E5.7171
G1 X119.846 Y38.319 E6.63365
G1 X108.261 Y38.319 E7.43473
G1 X107.617 Y38.341 E7.47929
G1 X106.971 Y38.404 E7.52417
G1 X106.196 Y38.532 E7.57849
G1 X104.945 Y40.692 E7.75109
G0 F9000 X104.359 Y40.354
G0 X104.326 Y40.334
G0 X98.6 Y50.435
G0 X113.631 Y52.954
G0 X113.581 Y53.04
;TYPE:WALL-INNER
G1 F1800 X99.163 Y53.04 E8.74806
G1 X99.161 Y53.04 E8.7482
G1 X98.631 Y53.04 E8.78485
G1 X98.896 Y53.5 E8.80566
G1 X104.416 Y63.07 E9.5696
G1 X106.105 Y65.987 E9.80267
G1 X119.988 Y65.988 E10.76265
G1 X120.522 Y65.064 E10.83645
G1 X113.581 Y53.04 E11.79647
G0 F9000 X113.225 Y53.656
;TYPE:WALL-OUTER
G1 F1800 X99.697 Y53.656 E12.7319
G1 X104.949 Y62.762 E13.45878
G1 X106.46 Y65.371 E13.66726
G1 X119.633 Y65.372 E14.57814
G1 X119.811 Y65.064 E14.60274
G1 X113.225 Y53.656 E15.5136
G0 F9000 X113.225 Y52.94
G0 X98.597 Y53.02
G0 X99.451 Y60.46
G0 X99.537 Y60.511
;TYPE:WALL-INNER
G1 F1800 X97.776 Y63.501 E15.75355
G1 X97.725 Y63.588 E15.76052
G1 X97.725 Y70.876 E16.26447
G1 X97.776 Y70.963 E16.27144
G1 X99.537 Y73.952 E16.51133
G1 X99.804 Y74.407 E16.54781
G1 X100.067 Y73.95 E16.56849
G1 X102.256 Y70.15 E16.87173
G1 X103.946 Y67.232 E17.10491
G1 X102.256 Y64.314 E17.33808
G1 X100.067 Y60.513 E17.64138
G1 X99.804 Y60.056 E17.67784
G1 X99.537 Y60.511 E17.69853
G0 F9000 X99.798 Y61.28
;TYPE:WALL-OUTER
G1 F1800 X98.341 Y63.756 E17.89719
G1 X98.341 Y70.708 E18.3779
G1 X99.798 Y73.183 E18.5765
G1 X101.723 Y69.841 E18.84318
G1 X103.234 Y67.232 E19.05166
G1 X101.723 Y64.623 E19.26014
G1 X99.798 Y61.28 E19.52689
G1 F1500 E17.52689
G0 F9000 X99.182 Y60.917
G0 X99.804 Y60.016
G0 X103.986 Y67.232
G0 X98.6 Y81.444
G0 X113.626 Y81.51
G0 X113.576 Y81.424
;TYPE:WALL-INNER
G1 F1500 E19.52689
G1 F1800 X120.784 Y68.936 E20.52392
G1 X121.049 Y68.476 E20.56063
G1 X120.519 Y68.476 E20.58141
G1 X120.517 Y68.476 E20.58155
G1 X106.101 Y68.476 E21.57838
G1 X104.412 Y71.393 E21.81146
G1 X100.305 Y78.512 E22.37977
G1 X98.897 Y80.965 E22.57534
G1 X98.634 Y81.424 E22.61192
G1 X99.163 Y81.424 E22.63268
G1 X99.164 Y81.424 E22.63275
G1 X113.576 Y81.424 E23.62931
G0 F9000 X113.22 Y80.808
;TYPE:WALL-OUTER
G1 F1800 X119.982 Y69.092 E24.5647
G1 X106.456 Y69.092 E25.49999
G1 X104.945 Y71.701 E25.70847
G1 X100.839 Y78.819 E26.27668
G1 X99.698 Y80.808 E26.43524
G1 X113.22 Y80.808 E27.37026
G0 F9000 X113.22 Y81.524
G0 X113.596 Y81.458
G0 X122.974 Y70.372
G0 X123.726 Y70.372
G0 X127.563 Y76.888
G0 X127.477 Y76.937
;TYPE:WALL-INNER
G1 F1800 X123.706 Y70.406 E27.89174
G1 X122.994 Y70.406 E27.94097
G1 X115.875 Y82.736 E28.92547
G1 X122.816 Y94.76 E29.88549
G1 X123.884 Y94.76 E29.95934
G1 X129.138 Y85.653 E30.68635
G1 X130.825 Y82.735 E30.91942
G1 X129.137 Y79.819 E31.1524
G1 X127.477 Y76.937 E31.38238
G0 F9000 X126.943 Y77.244
;TYPE:WALL-OUTER
G1 F1800 X123.35 Y71.022 E31.8792
G1 X116.586 Y82.736 E32.81454
G1 X123.172 Y94.144 E33.72539
G1 X123.528 Y94.144 E33.75001
G1 X128.604 Y85.345 E34.45243
G1 X130.114 Y82.736 E34.66087
G1 X128.604 Y80.128 E34.86925
G1 X126.943 Y77.244 E35.09939
G0 F9000 X127.529 Y76.906
G0 X127.563 Y76.888
G0 X130.865 Y82.735
G0 X131.207 Y86.847
G0 X131.293 Y86.897
;TYPE:WALL-INNER
G1 F1800 X126.038 Y96.004 E35.82643
G1 X126.572 Y96.928 E35.90023
G1 X140.456 Y96.928 E36.86028
G1 X147.665 Y84.44 E37.85735
G1 X147.93 Y83.98 E37.89406
G1 X147.4 Y83.98 E37.91484
G1 X147.398 Y83.98 E37.91497
G1 X132.981 Y83.98 E38.91188
G1 X131.293 Y86.897 E39.14492
G1 F1500 E37.14492
G0 F9000 X131.207 Y86.847
G0 X129.134 Y90.441
G0 X129.754 Y90.799
;TYPE:WALL-OUTER
G1 F1500 E39.14492
G1 F1800 X126.749 Y96.004 E39.56051
G1 X126.927 Y96.312 E39.58511
G1 X140.1 Y96.312 E40.49599
G1 X146.863 Y84.596 E41.43141
G1 X133.336 Y84.596 E42.36678
G1 X131.826 Y87.205 E42.57522
G1 X129.754 Y90.799 E42.86208
G0 F9000 X129.168 Y90.461
G0 X129.134 Y90.441
G0 X125.998 Y96.004
G0 X125.938 Y100.477
G0 X126.038 Y100.477
;TYPE:WALL-INNER
G1 F1800 X131.296 Y109.583 E43.58917
G1 X132.983 Y112.5 E43.82218
G1 X146.864 Y112.501 E44.78202
G1 X147.398 Y111.577 E44.85581
G1 X140.457 Y99.553 E45.81583
G1 X126.572 Y99.553 E46.77595
G1 X126.038 Y100.477 E46.84975
G0 F9000 X126.749 Y100.477
;TYPE:WALL-OUTER
G1 F1800 X131.829 Y109.275 E47.55224
G1 X133.339 Y111.884 E47.76068
G1 X146.509 Y111.885 E48.67136
G1 X146.687 Y111.577 E48.69596
G1 X140.101 Y100.169 E49.60682
G1 X126.927 Y100.169 E50.51777
G1 X126.749 Y100.477 E50.54237
G0 F9000 X126.131 Y100.118
G0 X123.702 Y101.209
G0 X123.615 Y101.258
;TYPE:WALL-INNER
G1 F1800 X123.35 Y100.798 E50.57908
G1 X123.085 Y101.257 E50.59984
G1 X123.084 Y101.258 E50.59994
G1 X115.875 Y113.745 E51.59695
G1 X122.816 Y125.769 E52.55697
G1 X123.884 Y125.769 E52.63082
G1 X129.138 Y116.662 E53.35783
G1 X130.825 Y113.745 E53.59084
G1 X128.478 Y109.685 E53.91511
G1 X123.615 Y101.258 E54.58788
G0 F9000 X123.35 Y102.029
;TYPE:WALL-OUTER
G1 F1800 X116.586 Y113.745 E55.52334
G1 X123.172 Y125.153 E56.4342
G1 X123.528 Y125.153 E56.45881
G1 X128.604 Y116.354 E57.16123
G1 X130.114 Y113.745 E57.36967
G1 X127.945 Y109.993 E57.66935
G1 X123.35 Y102.029 E58.30513
G0 F9000 X123.969 Y101.673
G0 X123.412 Y100.85
G0 X120.037 Y97.083
G0 X119.988 Y96.997
;TYPE:WALL-INNER
G1 F1800 X120.522 Y96.073 E58.37892
G1 X113.581 Y84.049 E59.33894
G1 X99.163 Y84.049 E60.33592
G1 X99.161 Y84.049 E60.33606
G1 X98.631 Y84.049 E60.3727
G1 X98.896 Y84.509 E60.39352
G1 X104.416 Y94.079 E61.15745
G1 X106.105 Y96.996 E61.39053
G1 X119.988 Y96.997 E62.35051
G0 F9000 X119.633 Y96.381
;TYPE:WALL-OUTER
G1 F1800 X119.811 Y96.073 E62.37511
G1 X113.225 Y84.665 E63.28596
G1 X99.697 Y84.665 E64.2214
G1 X104.949 Y93.771 E64.94828
G1 X106.46 Y96.38 E65.15676
G1 X119.633 Y96.381 E66.06764
G0 F9000 X119.632 Y97.096
G0 X104.046 Y98.241
G0 X103.946 Y98.241
;TYPE:WALL-INNER
G1 F1800 X102.256 Y95.323 E66.30081
G1 X100.067 Y91.522 E66.60411
G1 X99.804 Y91.065 E66.64057
G1 X99.537 Y91.52 E66.66127
G1 X97.725 Y94.597 E66.90819
G1 X97.725 Y101.884 E67.41207
G1 X99.537 Y104.961 E67.65899
G1 X99.804 Y105.416 E67.69547
G1 X100.067 Y104.959 E67.71615
G1 X102.256 Y101.159 E68.0194
G1 X103.946 Y98.241 E68.25257
G0 F9000 X103.234 Y98.241
;TYPE:WALL-OUTER
G1 F1800 X101.723 Y95.632 E68.46104
G1 X99.798 Y92.289 E68.72779
G1 X98.341 Y94.765 E68.92644
G1 X98.341 Y101.716 E69.40709
G1 X99.798 Y104.192 E69.60574
G1 X101.723 Y100.85 E69.87243
G1 X103.234 Y98.241 E70.08091
G0 F9000 X103.853 Y98.6
G0 X100.219 Y109.472
G0 X100.305 Y109.521
;TYPE:WALL-INNER
G1 F1800 X98.897 Y111.974 E70.27648
G1 X98.634 Y112.433 E70.31306
G1 X99.163 Y112.433 E70.33383
G1 X99.164 Y112.433 E70.33389
G1 X113.576 Y112.433 E71.33045
G1 X120.784 Y99.945 E72.32749
G1 X121.049 Y99.485 E72.3642
G1 X120.519 Y99.485 E72.38498
G1 X120.517 Y99.485 E72.38512
G1 X106.101 Y99.485 E73.38195
G1 X104.412 Y102.402 E73.61503
G1 X100.305 Y109.521 E74.18334
G0 F9000 X100.839 Y109.828
;TYPE:WALL-OUTER
G1 F1800 X99.698 Y111.817 E74.34189
G1 X113.22 Y111.817 E75.27691
G1 X119.982 Y100.101 E76.2123
G1 X106.456 Y100.101 E77.14759
G1 X104.945 Y102.71 E77.35607
G1 X100.839 Y109.828 E77.92428
G0 F9000 X100.253 Y109.491
G0 X100.219 Y109.472
G0 X98.6 Y112.453
G0 X113.631 Y114.972
G0 X113.581 Y115.058
;TYPE:WALL-INNER
G1 F1800 X99.163 Y115.058 E78.92126
G1 X99.161 Y115.058 E78.92139
G1 X98.631 Y115.058 E78.95804
G1 X98.896 Y115.518 E78.97886
G1 X104.416 Y125.087 E79.74273
G1 X106.105 Y128.004 E79.97581
G1 X119.988 Y128.006 E80.93579
G1 X120.522 Y127.082 E81.00958
G1 X113.581 Y115.058 E81.9696
G0 F9000 X113.225 Y115.674
;TYPE:WALL-OUTER
G1 F1800 X99.697 Y115.674 E82.90503
G1 X104.949 Y124.779 E83.63186
G1 X106.46 Y127.388 E83.84034
G1 X119.633 Y127.39 E84.75122
G1 X119.811 Y127.082 E84.77582
G1 X113.225 Y115.674 E85.68668
G0 F9000 X113.225 Y114.958
G0 X98.597 Y115.038
G0 X97.629 Y125.58
G0 X97.725 Y125.606
;TYPE:WALL-INNER
G1 F1800 X97.725 Y132.893 E86.19056
G1 X97.776 Y132.98 E86.19753
G1 X99.537 Y135.97 E86.43748
G1 X99.804 Y136.424 E86.4739
G1 X100.067 Y135.968 E86.49455
G1 X102.256 Y132.168 E86.79779
G1 X103.946 Y129.25 E87.03096
G1 X102.256 Y126.332 E87.26413
G1 X100.067 Y122.531 E87.56744
G1 X99.804 Y122.074 E87.6039
G1 X99.537 Y122.529 E87.62459
G1 X97.725 Y125.606 E87.87151
G0 F9000 X98.341 Y125.774
;TYPE:WALL-OUTER
G1 F1800 X98.341 Y132.725 E88.35216
G1 X99.798 Y135.2 E88.55075
G1 X101.723 Y131.859 E88.81738
G1 X103.234 Y129.25 E89.02586
G1 X101.723 Y126.641 E89.23433
G1 X99.798 Y123.298 E89.50108
G1 X98.341 Y125.774 E89.69973
G0 F9000 X97.688 Y125.597
G1 F1500 E87.69973
G0 F9000 X97.629 Y125.58
G0 X99.804 Y122.034
G0 X103.986 Y129.25
G0 X98.601 Y143.462
G0 X113.626 Y143.528
G0 X113.576 Y143.442
;TYPE:WALL-INNER
G1 F1500 E89.69973
G1 F1800 X120.784 Y130.954 E90.69677
G1 X121.049 Y130.494 E90.73348
G1 X120.519 Y130.494 E90.75426
G1 X120.517 Y130.494 E90.7544
G1 X106.101 Y130.494 E91.75123
G1 X104.412 Y133.411 E91.98431
G1 X100.305 Y140.529 E92.55256
G1 X98.898 Y142.983 E92.74816
G1 X98.635 Y143.442 E92.78474
G1 X99.164 Y143.442 E92.8055
G1 X99.165 Y143.442 E92.80557
G1 X113.576 Y143.442 E93.80206
G0 F9000 X113.22 Y142.826
;TYPE:WALL-OUTER
G1 F1800 X119.982 Y131.11 E94.73744
G1 X106.456 Y131.11 E95.67274
G1 X104.945 Y133.719 E95.88122
G1 X100.839 Y140.836 E96.44937
G1 X99.698 Y142.826 E96.60799
G1 X113.22 Y142.826 E97.543
G0 F9000 X113.22 Y143.542
G0 X113.596 Y143.476
G0 X123.349 Y131.767
G0 X123.701 Y132.218
G0 X123.615 Y132.267
G0 X123.614 Y132.266
;TYPE:WALL-INNER
G1 F1800 X123.349 Y131.807 E97.57965
G1 X123.084 Y132.267 E97.60045
G1 X115.875 Y144.754 E98.59746
G1 X122.816 Y156.778 E99.55748
G1 X123.884 Y156.778 E99.63133
G1 X129.138 Y147.671 E100.35834
G1 X130.825 Y144.754 E100.59135
G1 X128.478 Y140.694 E100.91562
G1 X127.477 Y138.953 E101.05449
G1 X126.696 Y137.604 E101.16228
G1 X123.615 Y132.267 E101.5884
G1 X123.614 Y132.266 E101.5885
G0 F9000 X123.35 Y133.038
;TYPE:WALL-OUTER
G1 F1800 X116.586 Y144.754 E102.52395
G1 X123.172 Y156.162 E103.43481
G1 X123.528 Y156.162 E103.45943
G1 X128.604 Y147.363 E104.16184
G1 X130.114 Y144.754 E104.37028
G1 X127.945 Y141.002 E104.66996
G1 X126.943 Y139.261 E104.80886
G1 X126.163 Y137.913 E104.91655
G1 X123.35 Y133.038 E105.30574
G0 F9000 X123.969 Y132.681
G0 X125.997 Y127.013
G0 X131.207 Y117.855
G0 X131.293 Y117.905
;TYPE:WALL-INNER
G1 F1800 X126.037 Y127.013 E106.03288
G1 X126.572 Y127.937 E106.10671
G1 X140.456 Y127.937 E107.06676
G1 X147.665 Y115.449 E108.06383
G1 X147.93 Y114.989 E108.10054
G1 X147.4 Y114.989 E108.12132
G1 X147.398 Y114.989 E108.12146
G1 X132.981 Y114.989 E109.11836
G1 X131.293 Y117.905 E109.35134
G0 F9000 X131.826 Y118.214
;TYPE:WALL-OUTER
G1 F1800 X126.749 Y127.013 E110.05379
G1 X126.927 Y127.321 E110.07839
G1 X140.1 Y127.321 E110.98928
G1 X146.863 Y115.605 E111.9247
G1 X133.336 Y115.605 E112.86006
G1 X131.826 Y118.214 E113.0685
G0 F9000 X131.24 Y117.876
G0 X131.207 Y117.855
G0 X132.962 Y114.955
G0 X147.964 Y114.969
G0 X150.232 Y116.263
G0 X150.584 Y116.714
G0 X150.497 Y116.763
;TYPE:WALL-INNER
G1 F1800 X150.232 Y116.303 E113.10521
G1 X149.967 Y116.762 E113.12597
G1 X149.966 Y116.763 E113.12607
G1 X142.755 Y129.25 E114.12315
G1 X149.698 Y141.274 E115.08324
G1 X150.766 Y141.274 E115.15709
G1 X155.242 Y133.513 E115.7766
G1 X157.706 Y129.25 E116.11708
G1 X155.241 Y124.986 E116.45765
G1 X150.497 Y116.763 E117.11409
G0 F9000 X150.232 Y117.534
;TYPE:WALL-OUTER
G1 F1800 X143.466 Y129.25 E118.04961
G1 X150.054 Y140.658 E118.96054
G1 X150.41 Y140.658 E118.98516
G1 X154.708 Y133.205 E119.58007
G1 X156.995 Y129.25 E119.89598
G1 X154.708 Y125.294 E120.21195
G1 X150.232 Y117.534 E120.8314
G0 F9000 X150.851 Y117.178
G0 X152.82 Y115.982
G0 X152.92 Y115.982
;TYPE:WALL-INNER
G1 F1800 X156.002 Y121.316 E121.25738
G1 X158.779 Y121.296 E121.44941
G1 X158.806 Y121.296 E121.45128
G1 X158.806 Y115.058 E121.88262
G1 X153.454 Y115.058 E122.2527
G1 X152.92 Y115.982 E122.32649
G0 F9000 X153.631 Y115.982
;TYPE:WALL-OUTER
G1 F1800 X156.356 Y120.697 E122.70306
G1 X158.19 Y120.684 E122.82988
G1 X158.19 Y115.674 E123.17631
G1 X153.809 Y115.674 E123.47925
G1 X153.631 Y115.982 E123.50385
G0 F9000 X153.013 Y115.623
G0 X152.88 Y111.509
G0 X155.953 Y106.079
G0 X156.002 Y106.165
;TYPE:WALL-INNER
G1 F1800 X154.843 Y108.169 E123.66392
G1 X154.184 Y109.317 E123.75546
G1 X152.92 Y111.509 E123.93042
G1 X153.454 Y112.433 E124.00422
G1 X158.806 Y112.433 E124.3743
G1 X158.806 Y106.188 E124.80612
G1 X158.779 Y106.188 E124.80799
G1 X156.002 Y106.165 E125.00002
G0 F9000 X156.356 Y106.784
;TYPE:WALL-OUTER
G1 F1800 X155.377 Y108.477 E125.13525
G1 X154.718 Y109.625 E125.22678
G1 X153.631 Y111.509 E125.37719
G1 X153.809 Y111.817 E125.40178
G1 X158.19 Y111.817 E125.70472
G1 X158.19 Y106.799 E126.05171
G1 X156.356 Y106.784 E126.17853
G0 F9000 X156.362 Y106.068
G0 X157.806 Y98.241
G0 X157.706 Y98.241
;TYPE:WALL-INNER
G1 F1800 X155.241 Y93.978 E126.51904
G1 X150.497 Y85.754 E127.17554
G1 X150.232 Y85.294 E127.21225
G1 X149.967 Y85.753 E127.23301
G1 X149.966 Y85.754 E127.23311
G1 X142.755 Y98.241 E128.23019
G1 X149.698 Y110.265 E129.19028
G1 X150.766 Y110.265 E129.26413
G1 X156.019 Y101.158 E129.99111
G1 X157.706 Y98.241 E130.22411
G0 F9000 X156.995 Y98.241
;TYPE:WALL-OUTER
G1 F1800 X154.708 Y94.286 E130.54002
G1 X150.232 Y86.525 E131.15953
G1 X143.466 Y98.241 E132.09506
G1 X150.054 Y109.649 E133.00599
G1 X150.41 Y109.649 E133.0306
G1 X155.485 Y100.85 E133.73298
G1 X156.995 Y98.241 E133.94143
G0 F9000 X157.613 Y98.6
G0 X158.779 Y90.389
G0 X158.779 Y90.288
;TYPE:WALL-INNER
G1 F1800 X158.806 Y90.288 E133.94329
G1 X158.806 Y84.049 E134.37471
G1 X153.454 Y84.049 E134.74479
G1 X152.92 Y84.973 E134.81858
G1 X156.002 Y90.306 E135.2445
G1 X158.779 Y90.288 E135.43653
G0 F9000 X158.19 Y89.676
;TYPE:WALL-OUTER
G1 F1800 X158.19 Y84.665 E135.78303
G1 X153.809 Y84.665 E136.08596
G1 X153.631 Y84.973 E136.11056
G1 X156.356 Y89.688 E136.48713
G1 X158.19 Y89.676 E136.61395
G0 F9000 X158.906 Y89.676
G0 X158.876 Y81.494
G0 X158.806 Y81.424
;TYPE:WALL-INNER
G1 F1800 X158.806 Y75.179 E137.04577
G1 X158.779 Y75.179 E137.04764
G1 X156.002 Y75.156 E137.23967
G1 X152.653 Y80.964 E137.70326
G1 X152.388 Y81.424 E137.73997
G1 X152.918 Y81.424 E137.76075
G1 X152.92 Y81.424 E137.76089
G1 X158.806 Y81.424 E138.16789
G0 F9000 X158.19 Y80.808
;TYPE:WALL-OUTER
G1 F1800 X158.19 Y75.79 E138.51488
G1 X156.356 Y75.775 E138.6417
G1 X153.454 Y80.808 E139.04343
G1 X158.19 Y80.808 E139.37091
G0 F9000 X158.906 Y80.808
G0 X158.834 Y81.452
G0 X152.354 Y81.444
G0 X147.498 Y80.568
G0 X147.398 Y80.568
;TYPE:WALL-INNER
G1 F1800 X140.457 Y68.545 E140.33087
G1 X126.572 Y68.545 E141.29099
G1 X126.038 Y69.469 E141.36478
G1 X131.296 Y78.574 E142.09182
G1 X132.983 Y81.491 E142.32482
G1 X146.864 Y81.492 E143.28466
G1 X147.398 Y80.568 E143.35846
G0 F9000 X146.687 Y80.568
;TYPE:WALL-OUTER
