;FLAVOR:Marlin
;TIME:5624
;Filament used: 17.8044m
;Layer height: 0.3
;MINX:61.738
;MINY:62.238
;MINZ:0.3
;MAXX:172.154
;MAXY:166.654
;MAXZ:54.9
;TARGET_MACHINE.NAME:ELEGOO NEPTUNE 4 Pro
;Generated with Cura_SteamEngine 5.8.1
M82 ;absolute extrusion mode
;ELEGOO NEPTUNE 4 / 4 PRO
M220 S100 ;Set the feed speed to 100%
M221 S100 ;Set the flow rate to 100%
M104 S140 ;Start heating extruder
M190 S30 ;Wait for the bed to reach print temp
G90
G28 ;home
G1 Z10 F300
G1 X67.5 Y0 F6000
G1 Z0 F300
M109 S225.0 ;Wait for extruder to reach print temp
G92 E0 ;Reset Extruder
G1 X67.5 Y0 Z0.4 F300 ;Move to start position
G1 X167.5 E30 F400 ;Draw the first line
G1 Z0.6 F120.0 ;Move to side a little
G1 X162.5 F3000
G92 E0 ;Reset Extruder
G92 E0
G92 E0
G1 F2700 E-0.5
;LAYER_COUNT:183
;LAYER:0
M107
M204 S500
G0 F7200 X62.733 Y63.173 Z0.3
;TYPE:SKIRT
G1 F2700 E0
G1 F3600 X63.126 Y62.846 E0.03348
G1 X63.564 Y62.585 E0.06686
G1 X64.038 Y62.395 E0.1003
G1 X64.536 Y62.282 E0.13374
G1 X65.019 Y62.239 E0.16549
G1 X89.34 Y62.238 E1.75805
G1 X90.041 Y62.248 E1.80396
G1 X90.549 Y62.296 E1.83737
G1 X91.043 Y62.421 E1.87074
G1 X91.512 Y62.623 E1.90418
G1 X91.944 Y62.895 E1.93761
G1 X92.328 Y63.231 E1.97102
G1 X92.655 Y63.624 E2.00449
G1 X92.901 Y64.03 E2.03558
G1 X93.913 Y66.018 E2.18165
G1 X95.235 Y68.461 E2.36354
G1 X96.595 Y70.813 E2.54145
G1 X98.028 Y73.137 E2.72023
G1 X99.497 Y75.377 E2.89563
G1 X101.097 Y77.671 E3.07877
G1 X102.73 Y79.876 E3.25844
G1 X104.426 Y82.038 E3.43837
G1 X106.148 Y84.107 E3.61464
G1 X107.976 Y86.182 E3.79572
G1 X109.815 Y88.155 E3.97233
G1 X111.776 Y90.142 E4.15513
G1 X113.739 Y92.021 E4.33307
G1 X115.757 Y93.847 E4.51128
G1 X117.853 Y95.637 E4.69176
G1 X119.977 Y97.352 E4.87052
G1 X122.15 Y99.005 E5.0493
G1 X124.373 Y100.6 E5.22846
G1 X126.643 Y102.133 E5.40782
G1 X128.939 Y103.592 E5.58595
G1 X131.303 Y104.999 E5.76609
G1 X133.712 Y106.345 E5.94679
G1 X136.11 Y107.596 E6.12389
G1 X138.559 Y108.787 E6.30221
G1 X141.087 Y109.929 E6.48386
G1 X143.58 Y110.972 E6.66081
G1 X146.187 Y111.977 E6.84377
G1 X148.736 Y112.875 E7.02073
G1 X151.321 Y113.706 E7.19853
G1 X153.952 Y114.472 E7.37796
G1 X156.594 Y115.159 E7.55672
G1 X159.294 Y115.781 E7.73815
G1 X161.981 Y116.32 E7.9176
G1 X164.656 Y116.778 E8.09531
G1 X167.353 Y117.162 E8.27369
G1 X168.138 Y117.252 E8.32543
G1 X169.15 Y117.382 E8.39224
G1 X169.649 Y117.486 E8.42562
G1 X170.127 Y117.667 E8.45909
G1 X170.57 Y117.921 E8.49253
G1 X171.107 Y118.364 E8.53811
G1 X171.513 Y118.836 E8.57888
G1 X171.781 Y119.27 E8.61228
G1 X171.979 Y119.74 E8.64567
G1 X172.1 Y120.236 E8.67911
G1 X172.151 Y120.745 E8.7126
G1 X172.154 Y122.684 E8.83957
G1 X172.144 Y123.355 E8.88351
G1 X172.096 Y123.863 E8.91692
G1 X171.973 Y124.349 E8.94975
G1 X171.735 Y125.054 E8.99848
G1 X171.329 Y126.197 E9.0779
G1 X171.003 Y127.077 E9.13935
G1 X170.497 Y128.01 E9.20885
G1 X150.085 Y164.297 E11.93509
G1 X149.736 Y164.896 E11.98048
G1 X149.446 Y165.316 E12.0139
G1 X149.093 Y165.685 E12.04734
G1 X148.465 Y166.141 E12.09816
G1 X147.875 Y166.424 E12.14101
G1 X147.386 Y166.57 E12.17443
G1 X146.703 Y166.653 E12.21948
G1 X126.923 Y166.654 E13.51469
G1 X126.213 Y166.644 E13.56119
G1 X125.705 Y166.597 E13.59459
G1 X125.14 Y166.453 E13.63277
G1 X123.469 Y165.724 E13.75215
G1 X120.894 Y164.654 E13.93474
G1 X118.371 Y163.687 E14.11167
G1 X115.773 Y162.775 E14.29197
G1 X113.19 Y161.949 E14.46954
G1 X110.542 Y161.185 E14.65001
G1 X107.909 Y160.505 E14.82807
G1 X105.233 Y159.894 E15.00781
G1 X102.534 Y159.358 E15.18799
G1 X99.856 Y158.904 E15.36585
G1 X97.156 Y158.524 E15.5444
G1 X94.431 Y158.22 E15.72394
G1 X91.686 Y157.991 E15.90431
G1 X88.973 Y157.843 E16.08222
G1 X85.02 Y157.762 E16.34112
G1 X80.66 Y157.762 E16.62662
G1 X79.959 Y157.752 E16.67252
G1 X79.451 Y157.704 E16.70594
G1 X78.957 Y157.579 E16.7393
G1 X78.488 Y157.377 E16.77274
G1 X78.056 Y157.105 E16.80617
G1 X77.547 Y156.656 E16.85061
G1 X63.139 Y142.251 E18.18471
G1 X62.668 Y141.765 E18.22903
G1 X62.342 Y141.372 E18.26247
G1 X62.082 Y140.933 E18.29587
G1 X61.893 Y140.458 E18.32935
G1 X61.754 Y139.84 E18.37083
G1 X61.738 Y138.938 E18.4299
G1 X61.738 Y66.125 E23.19776
G1 X61.748 Y65.46 E23.24131
G1 X61.796 Y64.952 E23.27472
G1 X61.922 Y64.457 E23.30817
G1 X62.124 Y63.988 E23.34161
G1 X62.397 Y63.557 E23.37502
G1 X62.733 Y63.173 E23.40843
G1 F2700 E22.90843
;MESH:neptune_webcam_mount.stl
G0 F7200 X69.054 Y70.505
G0 X69.557 Y77.675
G0 X69.745 Y78.044
;TYPE:WALL-INNER
G1 F2700 E23.40843
G1 F3600 X69.46 Y77.87 E23.43029
G1 X69.333 Y77.715 E23.44341
G1 X69.245 Y77.518 E23.45754
G1 X69.213 Y77.296 E23.47223
G1 X69.213 Y70.5 E23.91724
G1 X69.242 Y70.286 E23.93138
G1 X69.324 Y70.096 E23.94493
G1 X69.596 Y69.824 E23.97012
G1 X69.786 Y69.742 E23.98367
G1 X70 Y69.713 E23.99781
G1 X73.876 Y69.713 E24.25161
G1 X74.09 Y69.742 E24.26575
G1 X74.34 Y69.85 E24.28359
G1 X75.988 Y71.498 E24.4362
G1 X76.14 Y71.808 E24.4588
G1 X76.163 Y71.999 E24.4714
G1 X76.124 Y72.248 E24.48791
G1 X75.934 Y72.556 E24.5116
G1 X70.613 Y77.877 E25.00435
G1 X70.321 Y78.062 E25.02698
G1 X70.007 Y78.106 E25.04774
G1 X69.745 Y78.044 E25.06537
G1 F2700 E24.56537
G0 F7200 X69.713 Y78.114
G0 X70.373 Y78.21
G0 X71.222 Y79.06
G0 X69.554 Y81.436
G0 X69.554 Y82.564
G0 X77.227 Y90.695
G0 X77.499 Y90.663
G1 F2700 E25.06537
G1 F3600 X77.25 Y90.623 E25.08189
G1 X76.993 Y90.479 E25.10118
G1 X69.35 Y82.84 E25.80877
G1 X69.213 Y82.523 E25.83138
G1 X69.213 Y81.473 E25.90013
G1 X69.35 Y81.156 E25.92275
G1 X76.943 Y73.563 E26.62589
G1 X77.25 Y73.373 E26.64953
G1 X77.499 Y73.333 E26.66604
G1 X77.749 Y73.373 E26.68262
G1 X78.057 Y73.563 E26.70632
G1 X85.651 Y81.157 E27.40955
G1 X85.787 Y81.473 E27.43208
G1 X85.787 Y82.523 E27.50083
G1 X85.65 Y82.84 E27.52345
G1 X78.006 Y90.48 E28.23113
G1 X77.749 Y90.623 E28.25039
G1 X77.499 Y90.663 E28.26696
G1 F2700 E27.76696
G0 F7200 X77.227 Y90.695
G0 X78.113 Y90.597
G0 X78.9 Y91.386
G0 X79.001 Y92
G0 X84.897 Y97.902
G0 X85.233 Y98.051
G1 F2700 E28.26696
G1 F3600 X84.823 Y98.099 E28.29399
G1 X84.46 Y97.954 E28.31959
G1 X79.063 Y92.557 E28.81937
G1 X78.873 Y92.249 E28.84307
G1 X78.833 Y91.999 E28.85965
G1 X78.873 Y91.75 E28.87616
G1 X79.017 Y91.493 E28.89545
G1 X84.383 Y86.119 E29.39274
G1 X84.823 Y85.897 E29.42501
G1 X85.233 Y85.945 E29.45204
G1 X85.54 Y86.126 E29.47537
G1 X85.667 Y86.281 E29.4885
G1 X85.756 Y86.477 E29.50259
G1 X85.787 Y86.7 E29.51733
G1 X85.787 Y97.296 E30.21117
G1 X85.756 Y97.519 E30.22591
G1 X85.667 Y97.715 E30.24001
G1 X85.54 Y97.87 E30.25313
G1 X85.233 Y98.051 E30.27647
G1 F2700 E29.77647
G0 F7200 X85.26 Y98.122
G0 X84.357 Y98.076
G0 X83.575 Y98.857
G0 X85.446 Y101.436
G0 X85.446 Y102.564
G0 X77.5 Y110.499
G0 X77.499 Y110.663
G1 F2700 E30.27647
G1 F3600 X77.25 Y110.623 E30.29298
G1 X76.993 Y110.479 E30.31227
G1 X69.35 Y102.84 E31.01986
G1 X69.213 Y102.523 E31.04247
G1 X69.213 Y101.473 E31.11122
G1 X69.35 Y101.156 E31.13384
G1 X76.943 Y93.563 E31.83698
G1 X77.25 Y93.373 E31.86062
G1 X77.499 Y93.333 E31.87713
G1 X77.749 Y93.373 E31.89371
G1 X78.057 Y93.563 E31.91741
G1 X85.651 Y101.157 E32.62064
G1 X85.787 Y101.473 E32.64317
G1 X85.787 Y102.523 E32.71193
G1 X85.65 Y102.84 E32.73454
G1 X78.006 Y110.48 E33.44222
G1 X77.749 Y110.623 E33.46148
G1 X77.499 Y110.663 E33.47806
G1 F2700 E32.97806
G0 F7200 X77.227 Y110.695
G0 X78.113 Y110.597
G0 X78.9 Y111.386
G0 X79.001 Y112
G0 X84.897 Y117.902
G0 X85.233 Y118.051
G1 F2700 E33.47806
G1 F3600 X84.823 Y118.099 E33.50509
G1 X84.46 Y117.954 E33.53068
G1 X79.063 Y112.557 E34.03046
G1 X78.873 Y112.249 E34.05416
G1 X78.833 Y111.999 E34.07074
G1 X78.873 Y111.75 E34.08725
G1 X79.017 Y111.493 E34.10654
G1 X84.383 Y106.119 E34.60383
G1 X84.823 Y105.897 E34.6361
G1 X85.233 Y105.945 E34.66313
G1 X85.54 Y106.126 E34.68647
G1 X85.667 Y106.281 E34.69959
G1 X85.756 Y106.477 E34.71368
G1 X85.787 Y106.7 E34.72843
G1 X85.787 Y117.296 E35.42226
G1 X85.756 Y117.519 E35.437
G1 X85.667 Y117.715 E35.4511
G1 X85.54 Y117.87 E35.46422
G1 X85.233 Y118.051 E35.48756
G1 F2700 E34.98756
G0 F7200 X85.26 Y118.122
G0 X84.357 Y118.076
G0 X83.575 Y118.857
G0 X85.446 Y121.436
G0 X85.446 Y122.564
G0 X77.5 Y130.499
G0 X77.499 Y130.663
G1 F2700 E35.48756
G1 F3600 X77.25 Y130.623 E35.50407
G1 X76.993 Y130.479 E35.52336
G1 X69.35 Y122.84 E36.23095
G1 X69.213 Y122.523 E36.25356
G1 X69.213 Y121.473 E36.32232
G1 X69.35 Y121.156 E36.34493
G1 X76.943 Y113.563 E37.04807
G1 X77.25 Y113.373 E37.07171
G1 X77.499 Y113.333 E37.08823
G1 X77.749 Y113.373 E37.1048
G1 X78.057 Y113.563 E37.1285
G1 X85.651 Y121.157 E37.83173
G1 X85.787 Y121.474 E37.85432
G1 X85.785 Y122.445 E37.9179
G1 X85.738 Y122.652 E37.9318
G1 X85.557 Y122.933 E37.95369
G1 X78.006 Y130.48 E38.65276
G1 X77.749 Y130.623 E38.67202
G1 X77.499 Y130.663 E38.68859
G1 F2700 E38.18859
G0 F7200 X77.227 Y130.695
G0 X76.096 Y131.387
G0 X75.999 Y132
G0 X71.224 Y136.781
G0 X69.814 Y138.139
G0 X69.852 Y138.081
G1 F2700 E38.68859
G1 F3600 X69.547 Y137.941 E38.71057
G1 X69.355 Y137.749 E38.72835
G1 X69.213 Y137.397 E38.7532
G1 X69.213 Y126.7 E39.45365
G1 X69.245 Y126.477 E39.4684
G1 X69.333 Y126.281 E39.48247
G1 X69.46 Y126.126 E39.49559
G1 X69.745 Y125.952 E39.51746
G1 X70.006 Y125.89 E39.53503
G1 X70.32 Y125.934 E39.55579
G1 X70.543 Y126.049 E39.57222
G1 X75.979 Y131.493 E40.07598
G1 X76.123 Y131.75 E40.09527
G1 X76.163 Y131.999 E40.11179
G1 X76.124 Y132.248 E40.12829
G1 X75.934 Y132.556 E40.15199
G1 X70.552 Y137.938 E40.65038
G1 X70.311 Y138.065 E40.66822
G1 X70.104 Y138.106 E40.68204
G1 X69.852 Y138.081 E40.69862
G1 F2700 E40.19862
G0 F7200 X69.814 Y138.139
G0 X70.361 Y138.216
G0 X71.205 Y139.156
G0 X79.939 Y148.059
G0 X80.071 Y148.212
G1 F2700 E40.69862
G1 F3600 X79.818 Y148.215 E40.71519
G1 X79.587 Y148.142 E40.73105
G1 X79.379 Y147.993 E40.74781
G1 X71.503 Y140.117 E41.47715
G1 X71.354 Y139.91 E41.49385
G1 X71.281 Y139.678 E41.50978
G1 X71.284 Y139.425 E41.52635
G1 X71.348 Y139.224 E41.54016
G1 X71.486 Y139.02 E41.55629
G1 X76.943 Y133.563 E42.06163
G1 X77.25 Y133.373 E42.08527
G1 X77.499 Y133.333 E42.10178
G1 X77.749 Y133.373 E42.11836
G1 X78.057 Y133.563 E42.14206
G1 X85.979 Y141.493 E42.87604
G1 X86.123 Y141.75 E42.89533
G1 X86.163 Y141.999 E42.91184
G1 X86.124 Y142.248 E42.92835
G1 X85.934 Y142.556 E42.95204
G1 X80.475 Y148.01 E43.45734
G1 X80.272 Y148.149 E43.47345
G1 X80.071 Y148.212 E43.48724
G1 F2700 E42.98724
G0 F7200 X80.31 Y148.214
G0 X86.272 Y141.7
G0 X86.892 Y140.598
G0 X87.499 Y140.663
G1 F2700 E43.48724
G1 F3600 X87.25 Y140.623 E43.50375
G1 X86.993 Y140.479 E43.52304
G1 X79.063 Y132.557 E44.25702
G1 X78.873 Y132.249 E44.28072
G1 X78.833 Y131.999 E44.2973
G1 X78.873 Y131.75 E44.31381
G1 X79.017 Y131.493 E44.3331
G1 X85.503 Y125.003 E44.93392
G1 X85.83 Y124.807 E44.95888
G1 X86.173 Y124.78 E44.98141
G1 X86.363 Y124.833 E44.99433
G1 X86.617 Y125.003 E45.01434
G1 X94.551 Y132.944 E45.74938
G1 X94.664 Y133.135 E45.76392
G1 X94.715 Y133.325 E45.7768
G1 X94.689 Y133.666 E45.79919
G1 X94.566 Y133.92 E45.81767
G1 X88.006 Y140.48 E46.42515
G1 X87.749 Y140.623 E46.44441
G1 X87.499 Y140.663 E46.46099
G1 F2700 E45.96099
G0 F7200 X87.227 Y140.695
G0 X88.113 Y140.597
G0 X88.178 Y143.459
G0 X93.37 Y150.04
G1 F2700 E46.46099
G1 F3600 X93.215 Y150.167 E46.47411
G1 X93.018 Y150.255 E46.48824
G1 X92.796 Y150.287 E46.50293
G1 X82.2 Y150.287 E47.19676
G1 X81.865 Y150.213 E47.21923
G1 X81.555 Y149.953 E47.24572
G1 X81.395 Y149.542 E47.2746
G1 X81.43 Y149.185 E47.29809
G1 X81.56 Y148.942 E47.31613
G1 X86.943 Y143.563 E47.81444
G1 X87.25 Y143.373 E47.83808
G1 X87.499 Y143.333 E47.85459
G1 X87.749 Y143.373 E47.87117
G1 X88.057 Y143.563 E47.89487
G1 X93.377 Y148.883 E48.38752
G1 X93.599 Y149.323 E48.41979
G1 X93.551 Y149.733 E48.44682
G1 X93.37 Y150.04 E48.47016
G1 F2700 E47.97016
G0 F7200 X93.452 Y150.045
G0 X93.476 Y148.757
G0 X94.258 Y147.976
G0 X96.936 Y149.946
G0 X98.064 Y149.946
G0 X105.999 Y142
G0 X106.163 Y141.999
G1 F2700 E48.47016
G1 F3600 X106.124 Y142.248 E48.48666
G1 X105.934 Y142.556 E48.51036
G1 X98.34 Y150.15 E49.21359
G1 X98.023 Y150.287 E49.23621
G1 X96.973 Y150.287 E49.30496
G1 X96.656 Y150.15 E49.32757
G1 X89.063 Y142.557 E50.03072
G1 X88.873 Y142.249 E50.05441
G1 X88.833 Y141.999 E50.07099
G1 X88.873 Y141.75 E50.0875
G1 X89.017 Y141.493 E50.10679
G1 X96.563 Y133.943 E50.80577
G1 X96.844 Y133.762 E50.82766
G1 X97.051 Y133.715 E50.84156
G1 X98.022 Y133.713 E50.90514
G1 X98.34 Y133.85 E50.92781
G1 X105.979 Y141.493 E51.6354
G1 X106.123 Y141.75 E51.65469
G1 X106.163 Y141.999 E51.6712
G1 F2700 E51.1712
G0 F7200 X106.194 Y141.726
G0 X106.887 Y140.596
G0 X107.5 Y140.499
G0 X113.402 Y134.603
G0 X113.544 Y134.245
G1 F2700 E51.6712
G1 F3600 X113.606 Y134.506 E51.68877
G1 X113.562 Y134.82 E51.70953
G1 X113.447 Y135.043 E51.72596
G1 X108.006 Y140.48 E52.22963
G1 X107.749 Y140.623 E52.24889
G1 X107.499 Y140.663 E52.26547
G1 X107.25 Y140.623 E52.28198
G1 X106.993 Y140.479 E52.30127
G1 X101.619 Y135.113 E52.79856
G1 X101.434 Y134.821 E52.82119
G1 X101.39 Y134.507 E52.84195
G1 X101.476 Y134.19 E52.86346
G1 X101.626 Y133.96 E52.88144
G1 X101.781 Y133.833 E52.89456
G1 X101.978 Y133.745 E52.90869
G1 X102.2 Y133.713 E52.92338
G1 X112.796 Y133.713 E53.61721
G1 X113.019 Y133.745 E53.63197
G1 X113.215 Y133.833 E53.64603
G1 X113.37 Y133.96 E53.65916
G1 X113.544 Y134.245 E53.68102
G1 F2700 E53.18102
G0 F7200 X113.602 Y134.201
G0 X111.782 Y136.902
G0 X123.707 Y137.397
G0 X125.01 Y138.311
G0 X126.391 Y139.222
G0 X126.341 Y139.159
G1 F2700 E53.68102
G1 F3600 X125.931 Y139.207 E53.70805
G1 X125.568 Y139.062 E53.73365
G1 X121.619 Y135.113 E54.09934
G1 X121.434 Y134.821 E54.12197
G1 X121.39 Y134.507 E54.14274
G1 X121.476 Y134.19 E54.16424
G1 X121.626 Y133.96 E54.18222
G1 X121.781 Y133.833 E54.19535
G1 X121.978 Y133.745 E54.20947
G1 X122.2 Y133.713 E54.22416
G1 X126.108 Y133.713 E54.48006
G1 X126.347 Y133.749 E54.49589
G1 X126.53 Y133.835 E54.50913
G1 X126.727 Y134.013 E54.52651
G1 X126.894 Y134.348 E54.55102
G1 X126.895 Y138.552 E54.82631
G1 X126.758 Y138.85 E54.84778
G1 X126.57 Y139.042 E54.86538
G1 X126.341 Y139.159 E54.88222
G1 F2700 E54.38222
G0 F7200 X126.391 Y139.222
G0 X125.906 Y139.361
G0 X124.99 Y140.276
G0 X126.191 Y142.277
G0 X126.148 Y142.156
G1 F2700 E54.88222
G1 F3600 X126.028 Y142.463 E54.9038
G1 X118.34 Y150.15 E55.61569
G1 X118.023 Y150.287 E55.63831
G1 X116.973 Y150.287 E55.70706
G1 X116.656 Y150.15 E55.72967
G1 X109.063 Y142.557 E56.43282
G1 X108.873 Y142.249 E56.45651
G1 X108.833 Y141.999 E56.47309
G1 X108.873 Y141.75 E56.48961
G1 X109.017 Y141.493 E56.5089
G1 X116.656 Y133.85 E57.21648
G1 X116.973 Y133.713 E57.2391
G1 X118.023 Y133.713 E57.30785
G1 X118.34 Y133.85 E57.33046
G1 X126.034 Y141.544 E58.04296
G1 X126.16 Y141.92 E58.06892
G1 X126.148 Y142.156 E58.0844
G1 F2700 E57.5844
G0 F7200 X126.191 Y142.277
G0 X125.211 Y143.503
G0 X125.8 Y144.675
G0 X126.588 Y144.882
G0 X126.57 Y144.958
G1 F2700 E58.0844
G1 F3600 X126.722 Y145.102 E58.09811
G1 X126.894 Y145.44 E58.12294
G1 X126.894 Y149.548 E58.39194
G1 X126.841 Y149.789 E58.4081
G1 X126.651 Y150.07 E58.43031
G1 X126.347 Y150.251 E58.45347
G1 X126.108 Y150.287 E58.4693
G1 X122.2 Y150.287 E58.7252
G1 X121.977 Y150.255 E58.73995
G1 X121.781 Y150.167 E58.75402
G1 X121.626 Y150.04 E58.76714
G1 X121.445 Y149.733 E58.79048
G1 X121.397 Y149.323 E58.81751
G1 X121.542 Y148.96 E58.8431
G1 X125.491 Y145.014 E59.20866
G1 X125.931 Y144.793 E59.2409
G1 X126.341 Y144.841 E59.26793
G1 X126.57 Y144.958 E59.28477
G1 F2700 E58.78477
G0 F7200 X126.588 Y144.882
G0 X126.528 Y150.349
G0 X126.528 Y153.651
G0 X126.889 Y154.152
G0 X126.727 Y154.013
G1 F2700 E59.28477
G1 F3600 X126.893 Y154.346 E59.30913
G1 X126.895 Y162.604 E59.84988
G1 X146.388 Y162.601 E61.12629
G1 X167.312 Y125.409 E63.92062
G1 X168.105 Y123.173 E64.07597
G1 X168.102 Y121.395 E64.19239
G1 X126.895 Y121.395 E66.89066
G1 X126.893 Y129.563 E67.42551
G1 X126.841 Y129.789 E67.4407
G1 X126.651 Y130.07 E67.46291
G1 X126.347 Y130.251 E67.48608
G1 X126.108 Y130.287 E67.5019
G1 X97.051 Y130.285 E69.40458
G1 X96.844 Y130.238 E69.41848
G1 X96.632 Y130.126 E69.43418
G1 X89.365 Y122.855 E70.10732
G1 X89.262 Y122.652 E70.12222
G1 X89.215 Y122.445 E70.13612
G1 X89.213 Y66.287 E73.8134
G1 X65.787 Y66.287 E75.34735
