; generated by PrusaSlicer 2.8.1+win64 on 2025-02-27 at 12:43:21 UTC

; 

; external perimeters extrusion width = 0.44mm
; perimeters extrusion width = 0.44mm
; infill extrusion width = 0.44mm
; solid infill extrusion width = 0.44mm
; top infill extrusion width = 0.40mm
; support material extrusion width = 0.44mm
; first layer extrusion width = 0.44mm

; external perimeters extrusion width = 0.44mm
; perimeters extrusion width = 0.44mm
; infill extrusion width = 0.44mm
; solid infill extrusion width = 0.44mm
; top infill extrusion width = 0.40mm
; support material extrusion width = 0.44mm
; first layer extrusion width = 0.44mm

M73 P0 R50
;TYPE:Custom
;G28 ; home all axes
;G1 Z5 F5000 ; lift nozzle
M109 S205
G28 ;home
G92 E0 ;Reset Extruder
G1 Z4.0 F3000 ;Move Z Axis up
G92 E0 ;Reset Extruder
G1 X3.1 Y20 Z0.28 F5000.0 ;Move to start position
G1 X3.1 Y80.0 Z0.28 F1500.0 E10 ;Draw the first line
G1 X3.4 Y80.0 Z0.28 F5000.0 ;Move to side a little
G1 X3.4 Y20 Z0.28 F1500.0 E20 ;Draw the second line
G92 E0 ;Reset Extruder
G1 Z2.0 F3000 ;Move Z Axis up
G21 ; set units to millimeters
G90 ; use absolute coordinates
M82 ; use absolute distances for extrusion
G92 E0
; Filament gcode
M107
;LAYER_CHANGE
;Z:0.2
;HEIGHT:0.2
G1 E-2 F2400
G1 Z.6 F12000
G1 X107.838 Y52.907
G1 Z.2
G1 E0 F2400
;TYPE:Skirt/Brim
;WIDTH:0.44
G1 F1800
G1 X108.578 Y51.507 E.04967
G1 X109.49 Y50.206 E.09951
G1 X110.423 Y49.16 E.14347
G1 X119.482 Y40.133 E.54461
G1 X121.308 Y38.874 E.61418
G1 X122.73 Y38.428 E.66093
G1 X129.653 Y37.277 E.88106
G1 X131.869 Y37.35 E.95061
G1 X133.471 Y37.937 E1.00413
G1 X194.454 Y70.387 E3.1709
G1 X196.794 Y72.567 E3.27121
G1 X198.994 Y76.077 E3.40114
G1 X199.816 Y78.137 E3.47071
G1 X199.786 Y80.743 E3.55246
G1 X183.884 Y150.705 E5.80289
G1 X182.771 Y154.81 E5.9363
G1 X181.823 Y157.272 E6.01905
G1 X181.115 Y158.626 E6.06698
G1 X180.645 Y159.329 E6.0935
G1 X178.918 Y161.477 E6.17995
G1 X177.79 Y162.508 E6.22788
G1 X175.547 Y164.11 E6.31434
G1 X174.183 Y164.798 E6.36226
G1 X172.399 Y165.487 E6.42225
G1 X170.926 Y165.894 E6.47018
G1 X168.189 Y166.214 E6.55661
G1 X166.661 Y166.208 E6.60454
G1 X163.939 Y165.778 E6.69098
G1 X163.119 Y165.573 E6.71749
G1 X161.684 Y165.046 E6.76544
G1 X159.229 Y163.794 E6.85188
G1 X157.989 Y162.9 E6.89983
G1 X156.181 Y161.273 E6.97612
G1 X119.899 Y123.327 E8.62287
G1 X118.887 Y122.085 E8.67312
G1 X117.977 Y120.698 E8.72515
G1 X117.178 Y119.131 E8.78032
G1 X116.607 Y117.634 E8.83058
G1 X116.06 Y115.405 E8.90257
G1 X106.784 Y60.532 E10.64816
G1 X106.686 Y59.585 E10.67802
G1 X106.671 Y58.189 E10.72181
G1 X106.751 Y56.939 E10.7611
G1 X106.917 Y55.824 E10.79646
G1 X107.308 Y54.283 E10.84633
G1 X107.816 Y52.963 E10.89069
G1 E8.89069 F2400
G92 E0
G1 X107.816 Y52.963 Z.6 F12000
G1 X113.841 Y55.729
G1 Z.2
G1 E2 F2400
G1 F1800
G1 X114.423 Y54.68 E2.03763
G1 X115.1 Y53.864 E2.07089
G1 X115.903 Y53.18 E2.10398
G1 X116.887 Y52.61 E2.13965
G1 X118.191 Y52.184 E2.18268
G1 X122.297 Y51.492 E2.31329
G1 X122.089 Y50.216 E2.35384
G1 X122.006 Y48.78 E2.39896
G1 X122.151 Y47.877 E2.42765
G1 X122.604 Y46.812 E2.46395
G1 X123.785 Y45.444 E2.52064
G1 X124.543 Y44.977 E2.54857
G1 X125.339 Y44.683 E2.57519
G1 X129.105 Y44.056 E2.69494
G1 X129.967 Y44.055 E2.72198
G1 X131.185 Y44.369 E2.76143
G1 X132.266 Y44.993 E2.80058
G1 X133.121 Y45.845 E2.83844
G1 X133.699 Y46.874 E2.87546
G1 X134.139 Y48.561 E2.93015
G1 X135.073 Y54.303 E3.11262
G1 X134.836 Y56.011 E3.16671
G1 X133.177 Y59.761 E3.29533
G1 X132.862 Y60.798 E3.32932
G1 X132.315 Y62.005 E3.37089
G1 X131.613 Y63.212 E3.41469
G1 X130.754 Y64.081 E3.45302
G1 X129.645 Y64.67 E3.49241
G1 X128.38 Y64.909 E3.53279
G1 X126.681 Y64.674 E3.58659
G1 X131.792 Y95.409 E4.56388
G1 X132.11 Y95.426 E4.57387
G1 X141.875 Y59.961 E5.72768
G1 X142.367 Y59.043 E5.76035
G1 X143.079 Y58.256 E5.79364
G1 X144.516 Y57.402 E5.84607
G1 X145.573 Y57.136 E5.88026
G1 X146.789 Y57.159 E5.91841
G1 X151.869 Y58.575 E6.08383
G1 X152.771 Y59.095 E6.11649
G1 X153.577 Y59.878 E6.15174
G1 X154.35 Y61.259 E6.20138
G1 X154.595 Y62.388 E6.23762
G1 X154.562 Y63.363 E6.26822
G1 X152.786 Y69.886 E6.48027
G1 X155.111 Y69.5 E6.5542
G1 X154.913 Y68.257 E6.59368
G1 X154.877 Y66.893 E6.63648
G1 X155.044 Y66.004 E6.66485
G1 X155.525 Y64.945 E6.70133
G1 X156.315 Y63.975 E6.74057
G1 X157.461 Y63.184 E6.78425
G1 X158.224 Y62.913 E6.80965
G1 X161.935 Y62.29 E6.92768
G1 X162.971 Y62.312 E6.96018
G1 X164.114 Y62.643 E6.9975
G1 X165.172 Y63.286 E7.03633
G1 X165.956 Y64.075 E7.07122
G1 X166.522 Y65.059 E7.10683
G1 X166.928 Y66.45 E7.15228
G1 X167.885 Y72.668 E7.34961
G1 X167.61 Y74.137 E7.39649
G1 X165.988 Y77.769 E7.52126
G1 X165.673 Y78.805 E7.55522
G1 X165.117 Y80.03 E7.59742
G1 X164.425 Y81.217 E7.64052
G1 X163.601 Y82.061 E7.67752
G1 X162.384 Y82.702 E7.72066
G1 X161.007 Y82.917 E7.76437
G1 X159.499 Y82.717 E7.81208
G1 X167.564 Y131.224 E9.35446
G1 X167.89 Y131.234 E9.36469
G1 X180.264 Y77.513 E11.09385
G1 X180.62 Y76.849 E11.11748
G1 X181.098 Y76.231 E11.14199
G1 X182.334 Y75.313 E11.19028
G1 X183.597 Y74.849 E11.23248
G1 X184.903 Y74.793 E11.27348
G1 X190.448 Y76.142 E11.45248
G1 X191.18 Y76.595 E11.47948
G1 X191.826 Y77.2 E11.50724
G1 X192.741 Y78.735 E11.56329
G1 X192.982 Y79.779 E11.5969
G1 X192.951 Y80.872 E11.6312
G1 X177.873 Y146.578 E13.74573
G1 X177.425 Y149.201 E13.8292
M73 P1 R50
G1 X176.923 Y150.653 E13.87739
G1 X176.668 Y151.061 E13.89248
G1 X176.376 Y153.025 E13.95476
G1 X175.45 Y155.167 E14.02796
G1 X174.034 Y156.978 E14.10007
G1 X172.063 Y158.456 E14.17734
G1 X169.954 Y159.306 E14.24866
G1 X167.482 Y159.601 E14.32675
G1 X165.018 Y159.213 E14.40499
G1 X162.653 Y158.104 E14.48692
G1 X160.919 Y156.62 E14.55851
G1 X159.599 Y154.728 E14.63087
G1 X158.768 Y152.381 E14.70897
G1 X148.072 Y88.191 E16.75014
G1 X147.753 Y88.175 E16.76016
G1 X142.048 Y108.896 E17.43429
G1 X141.494 Y111.475 E17.51703
G1 X141.002 Y112.747 E17.55981
G1 X140.606 Y113.375 E17.5831
G1 X140.418 Y114.777 E17.62747
G1 X140.101 Y115.865 E17.66302
G1 X139.681 Y116.847 E17.69652
G1 X139.253 Y117.608 E17.72391
G1 X138.752 Y118.33 E17.75147
G1 X138.013 Y119.175 E17.78668
G1 X136.671 Y120.293 E17.84147
G1 X135.689 Y120.875 E17.87728
G1 X134.016 Y121.531 E17.93365
G1 X132.906 Y121.769 E17.96926
G1 X131.751 Y121.869 E18.00562
G1 X130.321 Y121.786 E18.05055
G1 X129.538 Y121.643 E18.07552
G1 X128.762 Y121.429 E18.10077
G1 X127.368 Y120.847 E18.14815
G1 X126.726 Y120.48 E18.17135
G1 X125.452 Y119.514 E18.2215
G1 X124.907 Y118.975 E18.24554
G1 X124.005 Y117.834 E18.29116
G1 X123.528 Y117.037 E18.32029
G1 X122.974 Y115.763 E18.36387
G1 X122.603 Y114.32 E18.4106
G1 X114.42 Y65.113 E19.97524
G1 X114.054 Y63.762 E20.01914
G1 X113.312 Y59.239 E20.16291
G1 X113.348 Y57.628 E20.21345
G1 X113.525 Y56.656 E20.24444
G1 X113.822 Y55.786 E20.27328
G1 X113.822 Y55.786 F12000
G1 X114.197 Y55.915
G1 F1800
G1 X114.21 Y55.875 E20.2746
G1 X114.761 Y54.89 E20.31
G1 X115.371 Y54.154 E20.33998
G1 X116.12 Y53.514 E20.37088
G1 X117.031 Y52.981 E20.40399
G1 X118.3 Y52.566 E20.44587
G1 X122.753 Y51.818 E20.5875
G1 X122.485 Y50.183 E20.63947
G1 X122.404 Y48.78 E20.68355
G1 X122.539 Y47.965 E20.70946
G1 X122.927 Y47.046 E20.74075
G1 X124.021 Y45.764 E20.79361
G1 X124.702 Y45.342 E20.81874
G1 X125.423 Y45.072 E20.84289
G1 X129.154 Y44.451 E20.96153
G1 X129.94 Y44.452 E20.98618
G1 X131.057 Y44.746 E21.02241
G1 X132.043 Y45.322 E21.05823
G1 X132.82 Y46.104 E21.09281
G1 X133.34 Y47.046 E21.12656
G1 X133.596 Y47.914 E21.15495
G1 X134.677 Y54.337 E21.35925
G1 X134.462 Y55.876 E21.40799
G1 X132.804 Y59.623 E21.53651
G1 X132.495 Y60.646 E21.57003
G1 X131.966 Y61.816 E21.61031
G1 X131.31 Y62.954 E21.65151
G1 X130.538 Y63.747 E21.68622
G1 X129.537 Y64.287 E21.7219
G1 X128.401 Y64.511 E21.75822
G1 X126.201 Y64.206 E21.82789
G1 X131.696 Y97.253 E22.87869
G1 X132.014 Y97.27 E22.88868
G1 X142.251 Y60.089 E24.09831
G1 X142.704 Y59.254 E24.12811
G1 X143.352 Y58.546 E24.15821
G1 X144.643 Y57.779 E24.20531
G1 X145.595 Y57.533 E24.23615
G1 X146.707 Y57.549 E24.27103
G1 X151.738 Y58.95 E24.43484
G1 X152.549 Y59.425 E24.46432
G1 X153.278 Y60.141 E24.49637
G1 X153.968 Y61.372 E24.54063
G1 X154.201 Y62.447 E24.57513
G1 X154.166 Y63.324 E24.60266
G1 X152.24 Y70.38 E24.83208
G1 X155.566 Y69.827 E24.93784
G1 X155.309 Y68.233 E24.98848
G1 X155.272 Y66.943 E25.02896
G1 X155.416 Y66.145 E25.05439
G1 X155.876 Y65.132 E25.08929
G1 X156.564 Y64.286 E25.12349
G1 X157.664 Y63.527 E25.16541
G1 X158.337 Y63.294 E25.18775
G1 X161.983 Y62.684 E25.3037
G1 X162.886 Y62.701 E25.33203
G1 X163.977 Y63.017 E25.36766
G1 X164.944 Y63.611 E25.40326
G1 X165.624 Y64.295 E25.43351
G1 X166.166 Y65.236 E25.46757
G1 X166.538 Y66.523 E25.50959
G1 X167.487 Y72.695 E25.70546
G1 X167.238 Y73.996 E25.74701
G1 X165.615 Y77.63 E25.87185
G1 X165.306 Y78.653 E25.90537
G1 X164.768 Y79.84 E25.94625
G1 X164.122 Y80.961 E25.98683
G1 X163.387 Y81.725 E26.02008
G1 X162.23 Y82.335 E26.06111
G1 X160.978 Y82.52 E26.10081
G1 X159.509 Y82.316 E26.14733
G1 X158.994 Y82.101 E26.16483
G1 X167.501 Y133.267 E27.79176
G1 X167.827 Y133.277 E27.80199
G1 X180.626 Y77.678 E29.59154
G1 X180.962 Y77.052 E29.61383
G1 X181.394 Y76.498 E29.63587
G1 X182.546 Y75.65 E29.68074
G1 X183.647 Y75.244 E29.71755
G1 X184.838 Y75.186 E29.75495
G1 X190.266 Y76.497 E29.9301
G1 X190.954 Y76.922 E29.95547
G1 X191.533 Y77.47 E29.98048
G1 X192.362 Y78.855 E30.03111
G1 X192.589 Y79.843 E30.06291
G1 X192.56 Y80.802 E30.093
G1 X177.485 Y146.494 E32.20708
G1 X177.04 Y149.103 E32.2901
G1 X176.556 Y150.5 E32.33647
G1 X176.288 Y150.918 E32.35204
G1 X176.001 Y152.893 E32.41464
G1 X175.121 Y154.943 E32.48462
G1 X173.737 Y156.712 E32.55507
G1 X171.847 Y158.122 E32.62903
G1 X169.831 Y158.927 E32.69712
G1 X167.464 Y159.203 E32.77187
G1 X165.109 Y158.826 E32.84668
G1 X162.848 Y157.757 E32.92513
G1 X161.198 Y156.335 E32.99345
G1 X159.941 Y154.525 E33.06257
G1 X159.148 Y152.266 E33.13767
G1 X148.168 Y86.348 E35.23377
G1 X147.849 Y86.332 E35.24379
G1 X141.664 Y108.795 E35.97459
G1 X141.114 Y111.361 E36.0569
G1 X140.639 Y112.585 E36.09808
G1 X140.215 Y113.25 E36.12282
G1 X140.033 Y114.677 E36.16794
G1 X139.723 Y115.743 E36.20276
G1 X139.321 Y116.68 E36.23474
G1 X138.432 Y118.094 E36.28713
G1 X137.722 Y118.905 E36.32094
G1 X136.441 Y119.97 E36.37319
G1 X134.786 Y120.85 E36.43198
G1 X133.899 Y121.151 E36.46136
G1 X132.859 Y121.375 E36.49473
G1 X131.748 Y121.472 E36.52971
G1 X130.368 Y121.392 E36.57307
G1 X129.618 Y121.254 E36.59699
M73 P1 R49
G1 X128.189 Y120.794 E36.64408
G1 X126.945 Y120.149 E36.68803
G1 X126.251 Y119.665 E36.71457
G1 X125.203 Y118.71 E36.75904
G1 X124.331 Y117.608 E36.80312
G1 X123.882 Y116.857 E36.83057
G1 X123.352 Y115.64 E36.87221
G1 X122.994 Y114.251 E36.9172
G1 X114.811 Y65.04 E38.48197
G1 X114.444 Y63.684 E38.52603
G1 X113.707 Y59.193 E38.66878
G1 X113.744 Y57.654 E38.71707
G1 X113.912 Y56.743 E38.74613
G1 X114.177 Y55.972 E38.7717
G1 X114.177 Y55.972 F12000
G1 X114.552 Y56.101
G1 F1800
G1 X114.58 Y56.023 E38.7743
G1 X115.098 Y55.101 E38.80747
G1 X115.665 Y54.421 E38.83524
G1 X116.337 Y53.847 E38.86296
G1 X117.176 Y53.351 E38.89353
G1 X118.41 Y52.948 E38.93425
G1 X123.209 Y52.144 E39.08688
G1 X122.878 Y50.129 E39.15093
G1 X122.801 Y48.781 E39.19328
G1 X122.927 Y48.055 E39.21639
G1 X123.25 Y47.278 E39.24278
G1 X124.259 Y46.084 E39.29181
G1 X124.862 Y45.706 E39.31413
G1 X125.508 Y45.46 E39.33581
G1 X129.202 Y44.845 E39.45327
G1 X129.912 Y44.848 E39.47554
G1 X130.926 Y45.122 E39.50849
G1 X131.817 Y45.65 E39.54098
G1 X132.516 Y46.362 E39.57228
G1 X132.981 Y47.216 E39.60278
G1 X133.357 Y48.698 E39.65074
G1 X134.28 Y54.371 E39.83102
G1 X134.088 Y55.74 E39.87438
G1 X132.431 Y59.485 E40.00283
G1 X132.127 Y60.495 E40.03591
G1 X131.616 Y61.628 E40.0749
G1 X131.006 Y62.698 E40.11353
G1 X130.319 Y63.414 E40.14465
G1 X129.426 Y63.905 E40.17662
G1 X128.421 Y64.113 E40.20881
G1 X126.591 Y63.86 E40.26676
G1 X125.662 Y63.385 E40.29949
G1 X131.6 Y99.097 E41.43503
G1 X131.918 Y99.114 E41.44502
G1 X142.628 Y60.217 E42.71048
G1 X143.04 Y59.467 E42.73732
M73 P2 R49
G1 X143.623 Y58.837 E42.76424
G1 X144.772 Y58.155 E42.80615
G1 X145.62 Y57.931 E42.83366
G1 X146.627 Y57.939 E42.86525
G1 X151.605 Y59.326 E43.02734
G1 X152.324 Y59.753 E43.05357
G1 X152.979 Y60.403 E43.08251
G1 X153.586 Y61.486 E43.12145
G1 X153.808 Y62.505 E43.15416
G1 X153.771 Y63.282 E43.17856
G1 X151.693 Y70.873 E43.42542
G1 X156.021 Y70.154 E43.56303
G1 X155.706 Y68.208 E43.62486
G1 X155.669 Y66.951 E43.6643
G1 X155.789 Y66.284 E43.68556
G1 X156.201 Y65.362 E43.71724
G1 X156.854 Y64.559 E43.7497
G1 X157.821 Y63.893 E43.78653
G1 X158.42 Y63.683 E43.80644
G1 X162.031 Y63.079 E43.92128
G1 X162.804 Y63.09 E43.94553
G1 X163.793 Y63.369 E43.97776
G1 X164.716 Y63.937 E44.01175
G1 X165.294 Y64.517 E44.03743
G1 X165.791 Y65.371 E44.06842
G1 X166.147 Y66.596 E44.10843
G1 X167.089 Y72.721 E44.30281
G1 X166.867 Y73.854 E44.33902
G1 X165.242 Y77.491 E44.46397
G1 X164.939 Y78.501 E44.49704
G1 X164.41 Y79.667 E44.5372
G1 X163.791 Y80.74 E44.57606
G1 X163.125 Y81.424 E44.606
G1 X162.079 Y81.966 E44.64295
G1 X160.952 Y82.123 E44.67864
G1 X159.598 Y81.928 E44.72155
G1 X158.477 Y81.412 E44.76026
G1 X167.439 Y135.31 E46.47406
G1 X167.765 Y135.32 E46.48429
G1 X180.989 Y77.84 E48.33433
G1 X181.286 Y77.282 E48.35416
G1 X181.689 Y76.764 E48.37475
G1 X182.756 Y75.988 E48.41613
G1 X183.752 Y75.628 E48.44935
G1 X184.826 Y75.584 E48.48307
G1 X190.086 Y76.852 E48.65278
G1 X190.696 Y77.225 E48.67521
G1 X191.241 Y77.74 E48.69873
G1 X191.983 Y78.976 E48.74395
G1 X192.191 Y79.859 E48.7724
G1 X192.169 Y80.733 E48.79982
G1 X177.096 Y146.411 E50.91346
G1 X176.655 Y149.004 E50.99596
G1 X176.189 Y150.345 E51.04049
G1 X175.908 Y150.772 E51.05652
G1 X175.612 Y152.809 E51.12108
G1 X174.767 Y154.761 E51.1878
G1 X173.442 Y156.445 E51.25501
G1 X171.632 Y157.787 E51.32569
G1 X169.71 Y158.548 E51.39053
G1 X167.447 Y158.806 E51.46197
G1 X165.202 Y158.439 E51.53332
G1 X163.043 Y157.41 E51.60834
G1 X161.478 Y156.052 E51.67333
G1 X160.283 Y154.322 E51.73928
G1 X159.529 Y152.152 E51.81134
G1 X148.263 Y84.505 E53.96241
G1 X147.945 Y84.488 E53.9724
G1 X141.28 Y108.695 E54.75994
G1 X140.733 Y111.248 E54.84184
G1 X140.275 Y112.424 E54.88143
G1 X139.825 Y113.069 E54.9061
G1 X139.643 Y114.601 E54.95449
G1 X139.353 Y115.597 E54.98703
G1 X138.969 Y116.495 E55.01766
G1 X138.126 Y117.841 E55.06748
G1 X137.445 Y118.62 E55.09993
G1 X136.21 Y119.646 E55.15029
G1 X134.631 Y120.484 E55.20636
G1 X133.804 Y120.765 E55.23376
G1 X132.812 Y120.98 E55.2656
G1 X131.744 Y121.075 E55.29923
G1 X130.431 Y120.999 E55.34048
G1 X129.714 Y120.869 E55.36334
G1 X128.35 Y120.431 E55.40828
G1 X127.15 Y119.809 E55.45068
G1 X126.499 Y119.355 E55.47557
G1 X125.498 Y118.445 E55.518
G1 X124.658 Y117.382 E55.5605
G1 X124.236 Y116.676 E55.5863
G1 X123.725 Y115.503 E55.62643
G1 X123.385 Y114.181 E55.66925
G1 X115.201 Y64.966 E57.23415
G1 X114.833 Y63.605 E57.27837
G1 X114.102 Y59.148 E57.42004
G1 X114.141 Y57.68 E57.4661
G1 X114.3 Y56.831 E57.49319
G1 X114.533 Y56.158 E57.51553
G1 X114.533 Y56.158 F12000
G1 X114.907 Y56.289
G1 F1800
G1 X114.949 Y56.171 E57.51946
G1 X115.434 Y55.313 E57.55037
G1 X115.936 Y54.712 E57.57493
G1 X116.556 Y54.178 E57.6006
G1 X117.32 Y53.722 E57.62851
G1 X118.519 Y53.33 E57.66808
G1 X123.665 Y52.471 E57.83173
G1 X123.274 Y50.096 E57.90723
G1 X123.199 Y48.782 E57.94851
G1 X123.313 Y48.146 E57.96878
G1 X123.575 Y47.508 E57.99041
G1 X124.498 Y46.402 E58.03559
G1 X125.024 Y46.069 E58.05512
G1 X125.594 Y45.848 E58.0743
G1 X129.252 Y45.24 E58.19061
G1 X129.837 Y45.239 E58.20896
G1 X130.748 Y45.478 E58.2385
G1 X131.591 Y45.978 E58.26924
G1 X132.212 Y46.618 E58.29721
G1 X132.605 Y47.346 E58.32316
G1 X132.966 Y48.766 E58.36912
G1 X133.883 Y54.404 E58.54829
G1 X133.699 Y55.655 E58.58795
G1 X132.058 Y59.347 E58.71468
G1 X131.76 Y60.344 E58.74732
G1 X131.258 Y61.455 E58.78556
G1 X130.674 Y62.478 E58.82251
G1 X130.056 Y63.115 E58.85035
G1 X129.266 Y63.541 E58.8785
G1 X128.378 Y63.717 E58.9069
G1 X126.684 Y63.472 E58.96059
G1 X126.02 Y63.119 E58.98418
G1 X125.39 Y62.536 E59.0111
G1 X125.14 Y62.671 E59.02001
G1 X131.504 Y100.942 E60.23692
G1 X131.823 Y100.958 E60.24694
