;FLAVOR:Marlin
;TIME:1324
;Filament used: 1.0616m
;Layer height: 0.2
;MINX:63.95
;MINY:93.999
;MINZ:0.3
;MAXX:236.05
;MAXY:128.099
;MAXZ:1.9
;Generated with Cura_SteamEngine 4.10.0
M140 S40
M105
M190 S40
M104 S225
M105
M109 S225
M82 ;absolute extrusion mode
G28 ; home all axes
 M117 Purge extruder
 G92 E0 ; reset extruder
 G1 Z1.0 F3000 ; move z up little to prevent scratching of surface
 G1 X2 Y20 Z0.3 F5000.0 ; move to start-line position
 G1 X2 Y200.0 Z0.3 F1500.0 E15 ; draw 1st line
 G1 X2 Y200.0 Z0.4 F5000.0 ; move to side a little
 G1 X2 Y20 Z0.4 F1500.0 E30 ; draw 2nd line
 G92 E0 ; reset extruder
 G1 Z1.0 F3000 ; move z up little to prevent scratching of surface
G92 E0
G92 E0
G1 F1500 E-2
;LAYER_COUNT:10
;LAYER:0
M107
G0 F6000 X68.577 Y96.073 Z0.3
;TYPE:SKIRT
G1 F1500 E0
G1 F1200 X69.364 Y95.558 E0.03167
G1 X70.192 Y95.113 E0.06333
G1 X71.055 Y94.74 E0.09499
G1 X71.946 Y94.441 E0.12664
G1 X72.86 Y94.219 E0.15831
G1 X73.789 Y94.076 E0.18997
G1 X74.699 Y94.012 E0.22069
G1 X75.02 Y94.003 E0.2315
G1 X75.33 Y93.999 E0.24194
G1 X224.293 Y93.999 E5.2584
G1 X225.149 Y94.01 E5.28723
G1 X226.088 Y94.064 E5.31891
G1 X227.018 Y94.197 E5.35054
G1 X227.934 Y94.408 E5.3822
G1 X228.829 Y94.697 E5.41387
G1 X229.696 Y95.061 E5.44554
G1 X230.528 Y95.497 E5.47717
G1 X231.321 Y96.002 E5.50883
G1 X232.068 Y96.573 E5.54049
G1 X232.764 Y97.205 E5.57215
G1 X233.403 Y97.894 E5.6038
G1 X233.982 Y98.635 E5.63547
G1 X234.495 Y99.422 E5.6671
G1 X234.94 Y100.25 E5.69876
G1 X235.312 Y101.113 E5.7304
G1 X235.61 Y102.005 E5.76208
G1 X235.832 Y102.918 E5.79372
G1 X235.974 Y103.847 E5.82537
G1 X236.037 Y104.748 E5.85578
G1 X236.046 Y105.068 E5.86656
G1 X236.05 Y105.379 E5.87704
G1 X236.049 Y116.45 E6.24986
G1 X236.04 Y117.177 E6.27435
G1 X235.989 Y118.115 E6.30598
G1 X235.857 Y119.046 E6.33765
G1 X235.648 Y119.962 E6.36929
G1 X235.361 Y120.858 E6.40097
G1 X234.999 Y121.725 E6.43261
G1 X234.564 Y122.559 E6.46429
G1 X234.061 Y123.352 E6.49591
G1 X233.491 Y124.1 E6.52758
G1 X232.86 Y124.797 E6.55924
G1 X232.173 Y125.438 E6.59088
G1 X231.433 Y126.018 E6.62255
G1 X230.647 Y126.533 E6.65419
G1 X229.819 Y126.979 E6.68586
G1 X228.957 Y127.354 E6.71752
G1 X228.066 Y127.653 E6.74917
G1 X227.153 Y127.876 E6.78082
G1 X226.224 Y128.021 E6.81248
G1 X225.301 Y128.086 E6.84364
G1 X224.98 Y128.095 E6.85446
G1 X224.67 Y128.099 E6.8649
G1 X75.565 Y128.098 E11.88614
G1 X74.867 Y128.089 E11.90965
G1 X73.928 Y128.037 E11.94132
G1 X72.997 Y127.905 E11.97298
G1 X72.081 Y127.695 E12.00463
G1 X71.186 Y127.408 E12.03628
G1 X70.319 Y127.045 E12.06794
G1 X69.485 Y126.61 E12.09961
G1 X68.692 Y126.106 E12.13125
G1 X67.944 Y125.537 E12.1629
G1 X67.248 Y124.905 E12.19456
G1 X66.607 Y124.217 E12.22623
G1 X66.028 Y123.477 E12.25787
G1 X65.513 Y122.691 E12.28952
G1 X65.067 Y121.863 E12.32119
G1 X64.693 Y121.001 E12.35283
G1 X64.394 Y120.11 E12.38448
G1 X64.171 Y119.196 E12.41616
G1 X64.027 Y118.267 E12.44782
G1 X63.963 Y117.339 E12.47915
G1 X63.954 Y117.006 E12.49037
G1 X63.95 Y116.707 E12.50044
G1 X63.951 Y105.573 E12.87538
G1 X63.96 Y104.908 E12.89778
G1 X64.013 Y103.97 E12.92942
G1 X64.145 Y103.039 E12.96108
G1 X64.356 Y102.123 E12.99274
G1 X64.644 Y101.228 E13.0244
G1 X65.007 Y100.361 E13.05605
G1 X65.442 Y99.528 E13.0877
G1 X65.947 Y98.735 E13.11936
G1 X66.517 Y97.988 E13.151
G1 X67.149 Y97.292 E13.18266
G1 X67.837 Y96.652 E13.21431
G1 X68.577 Y96.073 E13.24595
G0 F6000 X68.866 Y96.236
G1 F1200 X69.649 Y95.74 E13.27716
G1 X70.472 Y95.312 E13.3084
G1 X71.328 Y94.958 E13.3396
G1 X72.212 Y94.678 E13.37082
G1 X73.117 Y94.476 E13.40205
G1 X74.036 Y94.352 E13.43328
G1 X74.708 Y94.312 E13.45595
G1 X75.029 Y94.303 E13.46676
G1 X75.33 Y94.299 E13.4769
G1 X224.293 Y94.299 E18.49336
G1 X225.145 Y94.31 E18.52205
G1 X226.071 Y94.363 E18.55329
G1 X226.988 Y94.496 E18.58449
G1 X227.891 Y94.708 E18.61573
G1 X228.772 Y94.996 E18.64694
G1 X229.625 Y95.359 E18.67816
G1 X230.444 Y95.795 E18.70941
G1 X231.222 Y96.299 E18.74062
G1 X231.953 Y96.868 E18.77182
G1 X232.633 Y97.499 E18.80306
G1 X233.256 Y98.185 E18.83427
G1 X233.818 Y98.923 E18.8655
G1 X234.314 Y99.706 E18.89672
G1 X234.74 Y100.53 E18.92796
G1 X235.094 Y101.386 E18.95915
G1 X235.373 Y102.271 E18.9904
G1 X235.575 Y103.176 E19.02163
G1 X235.698 Y104.095 E19.05285
G1 X235.737 Y104.757 E19.07518
G1 X235.746 Y105.077 E19.08596
G1 X235.75 Y105.379 E19.09613
G1 X235.749 Y116.446 E19.46883
G1 X235.74 Y117.173 E19.49331
G1 X235.689 Y118.099 E19.52454
G1 X235.558 Y119.017 E19.55577
G1 X235.348 Y119.92 E19.58699
G1 X235.061 Y120.801 E19.61819
G1 X234.7 Y121.655 E19.64942
G1 X234.266 Y122.475 E19.68066
G1 X233.763 Y123.254 E19.71189
G1 X233.195 Y123.986 E19.74309
G1 X232.566 Y124.667 E19.77431
G1 X231.881 Y125.292 E19.80553
G1 X231.144 Y125.855 E19.83677
G1 X230.362 Y126.352 E19.86797
G1 X229.539 Y126.78 E19.89921
G1 X228.683 Y127.136 E19.93043
G1 X227.8 Y127.417 E19.96163
G1 X226.895 Y127.62 E19.99287
G1 X225.976 Y127.745 E20.0241
G1 X225.292 Y127.786 E20.04718
G1 X224.971 Y127.795 E20.05799
G1 X224.67 Y127.799 E20.06813
G1 X75.568 Y127.798 E25.08927
G1 X74.87 Y127.789 E25.11278
G1 X73.945 Y127.737 E25.14398
G1 X73.027 Y127.606 E25.1752
G1 X72.124 Y127.396 E25.20642
G1 X71.242 Y127.109 E25.23766
G1 X70.389 Y126.746 E25.26888
G1 X69.57 Y126.312 E25.30009
G1 X68.791 Y125.809 E25.33132
G1 X68.058 Y125.241 E25.36255
G1 X67.378 Y124.611 E25.39376
G1 X66.754 Y123.926 E25.42497
G1 X66.191 Y123.189 E25.4562
G1 X65.694 Y122.406 E25.48743
G1 X65.266 Y121.583 E25.51867
G1 X64.911 Y120.727 E25.54988
G1 X64.631 Y119.843 E25.58111
G1 X64.428 Y118.939 E25.61231
G1 X64.304 Y118.02 E25.64354
G1 X64.263 Y117.33 E25.66681
G1 X64.254 Y116.997 E25.67803
G1 X64.25 Y116.707 E25.6878
G1 X64.251 Y105.578 E26.06258
G1 X64.26 Y104.913 E26.08497
G1 X64.312 Y103.987 E26.11621
G1 X64.445 Y103.069 E26.14744
G1 X64.655 Y102.166 E26.17866
G1 X64.943 Y101.285 E26.20988
G1 X65.305 Y100.432 E26.24108
G1 X65.74 Y99.613 E26.27231
G1 X66.244 Y98.834 E26.30356
G1 X66.813 Y98.102 E26.33478
G1 X67.443 Y97.422 E26.366
G1 X68.129 Y96.798 E26.39723
G1 X68.866 Y96.236 E26.42844
G0 F6000 X69.154 Y96.402
G1 F1200 X69.933 Y95.924 E26.45922
G1 X70.75 Y95.515 E26.48998
G1 X71.601 Y95.179 E26.5208
G1 X72.477 Y94.919 E26.55157
G1 X73.373 Y94.737 E26.58236
G1 X74.716 Y94.612 E26.62778
G1 X75.037 Y94.603 E26.63859
G1 X75.33 Y94.599 E26.64846
G1 X224.293 Y94.599 E31.66492
G1 X225.141 Y94.61 E31.69348
G1 X226.053 Y94.663 E31.72425
G1 X226.958 Y94.796 E31.75505
G1 X227.847 Y95.007 E31.78582
G1 X228.715 Y95.295 E31.81662
G1 X229.554 Y95.658 E31.8474
G1 X230.358 Y96.092 E31.87817
G1 X231.121 Y96.596 E31.90897
G1 X231.837 Y97.164 E31.93974
G1 X232.501 Y97.792 E31.97052
G1 X233.107 Y98.476 E32.0013
G1 X233.651 Y99.211 E32.03209
G1 X234.129 Y99.99 E32.06287
G1 X234.537 Y100.808 E32.09365
G1 X234.872 Y101.659 E32.12445
G1 X235.132 Y102.535 E32.15522
G1 X235.313 Y103.431 E32.186
G1 X235.437 Y104.765 E32.23112
G1 X235.446 Y105.085 E32.2419
G1 X235.45 Y105.379 E32.2518
G1 X235.449 Y116.442 E32.62436
G1 X235.44 Y117.169 E32.64884
G1 X235.389 Y118.082 E32.67964
G1 X235.258 Y118.987 E32.71043
G1 X235.049 Y119.877 E32.74122
G1 X234.762 Y120.745 E32.77201
G1 X234.401 Y121.584 E32.80277
G1 X233.968 Y122.389 E32.83355
G1 X233.466 Y123.153 E32.86433
G1 X232.9 Y123.871 E32.89512
G1 X232.272 Y124.536 E32.92592
G1 X231.589 Y125.143 E32.95669
G1 X230.856 Y125.689 E32.98747
G1 X230.078 Y126.168 E33.01824
G1 X229.261 Y126.578 E33.04903
G1 X228.411 Y126.915 E33.07982
G1 X227.535 Y127.176 E33.1106
G1 X226.639 Y127.359 E33.1414
G1 X225.284 Y127.486 E33.18723
G1 X224.963 Y127.495 E33.19804
G1 X224.67 Y127.499 E33.20791
G1 X75.572 Y127.498 E38.22892
G1 X74.874 Y127.489 E38.25242
G1 X73.962 Y127.437 E38.28319
G1 X73.057 Y127.306 E38.31398
G1 X72.167 Y127.096 E38.34477
G1 X71.299 Y126.809 E38.37556
G1 X70.46 Y126.448 E38.40632
G1 X69.655 Y126.014 E38.43712
G1 X68.891 Y125.512 E38.4679
G1 X68.174 Y124.945 E38.49869
G1 X67.51 Y124.317 E38.52946
G1 X66.902 Y123.634 E38.56026
G1 X66.357 Y122.901 E38.59102
G1 X65.878 Y122.122 E38.62181
G1 X65.469 Y121.305 E38.65258
G1 X65.133 Y120.455 E38.68336
G1 X64.872 Y119.578 E38.71418
G1 X64.689 Y118.683 E38.74494
G1 X64.563 Y117.322 E38.79097
G1 X64.554 Y116.989 E38.80219
G1 X64.55 Y116.707 E38.81168
G1 X64.551 Y105.582 E39.18633
G1 X64.56 Y104.917 E39.20872
G1 X64.612 Y104.004 E39.23952
G1 X64.744 Y103.099 E39.27032
G1 X64.955 Y102.21 E39.30109
G1 X65.242 Y101.342 E39.33188
G1 X65.604 Y100.503 E39.36265
G1 X66.038 Y99.698 E39.39345
G1 X66.541 Y98.935 E39.42422
G1 X67.108 Y98.218 E39.45501
G1 X67.736 Y97.554 E39.48578
G1 X68.42 Y96.947 E39.51658
G1 X69.154 Y96.402 E39.54737
G0 F6000 X69.441 Y96.571
G1 F1200 X70.216 Y96.111 E39.57772
G1 X71.028 Y95.721 E39.60805
G1 X71.872 Y95.405 E39.6384
G1 X72.74 Y95.165 E39.66873
G1 X73.626 Y95.003 E39.69906
G1 X74.725 Y94.912 E39.7362
G1 X75.046 Y94.903 E39.74701
G1 X75.33 Y94.899 E39.75658
G1 X224.293 Y94.899 E44.77304
G1 X225.136 Y94.91 E44.80143
G1 X226.036 Y94.963 E44.83179
G1 X226.927 Y95.095 E44.86212
G1 X227.803 Y95.306 E44.89246
G1 X228.656 Y95.594 E44.92278
G1 X229.481 Y95.956 E44.95312
G1 X230.271 Y96.39 E44.98348
G1 X231.019 Y96.893 E45.01383
G1 X231.719 Y97.459 E45.04415
G1 X232.366 Y98.086 E45.07449
G1 X232.956 Y98.767 E45.10483
G1 X233.482 Y99.498 E45.13516
G1 X233.942 Y100.273 E45.16551
G1 X234.331 Y101.085 E45.19583
G1 X234.646 Y101.929 E45.22617
G1 X234.886 Y102.798 E45.25653
G1 X235.047 Y103.684 E45.28685
G1 X235.137 Y104.774 E45.32368
G1 X235.146 Y105.094 E45.33446
G1 X235.15 Y105.379 E45.34406
G1 X235.149 Y116.439 E45.71652
G1 X235.14 Y117.166 E45.741
G1 X235.089 Y118.065 E45.77133
G1 X234.958 Y118.956 E45.80165
G1 X234.749 Y119.833 E45.83201
G1 X234.463 Y120.687 E45.86234
G1 X234.102 Y121.513 E45.8927
G1 X233.67 Y122.303 E45.92302
G1 X233.169 Y123.052 E45.95337
G1 X232.604 Y123.753 E45.98369
G1 X231.979 Y124.402 E46.01403
G1 X231.298 Y124.992 E46.04437
G1 X230.568 Y125.52 E46.07471
G1 X229.794 Y125.981 E46.10505
G1 X228.983 Y126.372 E46.13537
G1 X228.14 Y126.689 E46.1657
G1 X227.272 Y126.93 E46.19604
G1 X226.386 Y127.094 E46.22638
G1 X225.275 Y127.186 E46.26392
G1 X224.954 Y127.195 E46.27474
G1 X224.67 Y127.199 E46.2843
G1 X75.576 Y127.198 E51.30517
G1 X74.878 Y127.189 E51.32868
G1 X73.979 Y127.138 E51.35901
G1 X73.087 Y127.006 E51.38937
G1 X72.211 Y126.797 E51.4197
G1 X71.357 Y126.51 E51.45004
G1 X70.532 Y126.149 E51.48037
G1 X69.742 Y125.716 E51.5107
G1 X68.993 Y125.215 E51.54105
G1 X68.292 Y124.649 E51.57139
G1 X67.644 Y124.024 E51.60171
G1 X67.053 Y123.343 E51.63207
G1 X66.526 Y122.613 E51.66239
G1 X66.065 Y121.839 E51.69273
G1 X65.675 Y121.027 E51.72307
G1 X65.358 Y120.184 E51.7534
G1 X65.117 Y119.315 E51.78377
G1 X64.955 Y118.429 E51.8141
G1 X64.863 Y117.314 E51.85177
G1 X64.854 Y116.981 E51.86299
G1 X64.85 Y116.707 E51.87222
G1 X64.851 Y105.586 E52.24673
G1 X64.86 Y104.921 E52.26913
G1 X64.912 Y104.021 E52.29948
G1 X65.044 Y103.13 E52.32982
G1 X65.254 Y102.254 E52.36015
G1 X65.541 Y101.4 E52.39049
G1 X65.903 Y100.575 E52.42083
G1 X66.336 Y99.785 E52.45117
G1 X66.838 Y99.037 E52.48151
G1 X67.404 Y98.336 E52.51185
G1 X68.03 Y97.688 E52.54219
G1 X68.711 Y97.098 E52.57253
G1 X69.441 Y96.571 E52.60285
G1 F1500 E50.60285
;MESH:boxster_halterSonnenblende_TPU.stl
G0 F6000 X224.55 Y104.384
G0 X224.55 Y105.499
;TYPE:WALL-INNER
G1 F1500 E52.60285
G1 F1200 X224.55 Y116.599 E52.97666
G1 X75.45 Y116.599 E57.99773
G1 X75.45 Y105.499 E58.37153
G1 X224.55 Y105.499 E63.39261
G0 F6000 X224.8 Y105.249
;TYPE:WALL-OUTER
G1 F1200 X224.8 Y116.849 E63.78325
G1 X75.2 Y116.849 E68.82116
G1 X75.2 Y105.249 E69.2118
G1 X224.8 Y105.249 E74.24971
G0 F6000 X224.26 Y105.789
;TYPE:SKIN
G1 F1200 X224.26 Y116.309 E74.62366
G1 X75.74 Y116.309 E79.90307
G1 X75.74 Y105.789 E80.27702
G1 X224.26 Y105.789 E85.55643
G0 F6000 X223.988 Y106.467
G1 F1200 X223.58 Y106.058 E85.57696
G1 X223.988 Y106.058 E85.59147
G0 F6000 X223.58 Y106.058
G1 F1200 X223.155 Y106.058 E85.60658
G1 X223.988 Y106.891 E85.64845
G1 X223.988 Y107.316 E85.66356
G1 X222.731 Y106.058 E85.72677
G1 X222.307 Y106.058 E85.74185
G1 X223.988 Y107.74 E85.82638
G1 X223.988 Y108.164 E85.84145
G1 X221.883 Y106.058 E85.94729
G1 X221.458 Y106.058 E85.9624
G1 X223.988 Y108.588 E86.08958
G1 X223.988 Y109.013 E86.10469
G1 X221.034 Y106.058 E86.25322
G1 X220.61 Y106.058 E86.26829
G1 X223.988 Y109.437 E86.43813
G1 X223.988 Y109.861 E86.4532
G1 X220.185 Y106.058 E86.64438
G1 X219.761 Y106.058 E86.65945
G1 X223.988 Y110.286 E86.87197
G1 X223.988 Y110.71 E86.88704
G1 X219.337 Y106.058 E87.12088
G1 X218.913 Y106.058 E87.13595
G1 X223.988 Y111.134 E87.3911
G1 X223.988 Y111.558 E87.40617
G1 X218.488 Y106.058 E87.68266
G1 X218.064 Y106.058 E87.69773
G1 X223.988 Y111.983 E87.99556
G1 X223.988 Y112.407 E88.01063
G1 X217.64 Y106.058 E88.32978
G1 X217.216 Y106.058 E88.34485
G1 X223.988 Y112.831 E88.68531
G1 X223.988 Y113.255 E88.70038
G1 X216.791 Y106.058 E89.06218
G1 X216.367 Y106.058 E89.07725
G1 X223.988 Y113.68 E89.46039
G1 X223.988 Y114.104 E89.47546
G1 X215.943 Y106.058 E89.87991
G1 X215.519 Y106.058 E89.89498
G1 X223.988 Y114.528 E90.32075
G1 X223.988 Y114.952 E90.33582
G1 X215.094 Y106.058 E90.78293
G1 X214.67 Y106.058 E90.798
G1 X223.988 Y115.377 E91.26645
G1 X223.988 Y115.801 E91.28152
G1 X214.246 Y106.058 E91.77128
G1 X213.822 Y106.058 E91.78636
G1 X223.801 Y116.038 E92.28803
G1 X223.377 Y116.038 E92.3031
G1 X213.397 Y106.058 E92.80481
G1 X212.973 Y106.058 E92.81988
G1 X222.952 Y116.038 E93.32155
G1 X222.528 Y116.038 E93.33663
G1 X212.549 Y106.058 E93.8383
G1 X212.124 Y106.058 E93.85341
G1 X222.104 Y116.038 E94.35511
G1 X221.68 Y116.038 E94.37018
G1 X211.7 Y106.058 E94.87189
G1 X211.276 Y106.058 E94.88696
G1 X221.255 Y116.038 E95.38863
G1 X220.831 Y116.038 E95.40371
G1 X210.852 Y106.058 E95.90538
G1 X210.427 Y106.058 E95.92049
G1 X220.407 Y116.038 E96.42219
G1 X219.983 Y116.038 E96.43726
G1 X210.003 Y106.058 E96.93897
G1 X209.579 Y106.058 E96.95404
G1 X219.558 Y116.038 E97.45571
G1 X219.134 Y116.038 E97.47079
G1 X209.155 Y106.058 E97.97246
G1 X208.73 Y106.058 E97.98757
G1 X218.71 Y116.038 E98.48927
G1 X218.285 Y116.038 E98.50438
G1 X208.306 Y106.058 E99.00606
G1 X207.882 Y106.058 E99.02113
G1 X217.861 Y116.038 E99.5228
G1 X217.437 Y116.038 E99.53788
G1 X207.458 Y106.058 E100.03955
G1 X207.033 Y106.058 E100.05466
G1 X217.013 Y116.038 E100.55636
G1 X216.588 Y116.038 E100.57147
G1 X206.609 Y106.058 E101.07315
G1 X206.185 Y106.058 E101.08822
G1 X216.164 Y116.038 E101.5899
G1 X215.74 Y116.038 E101.60497
G1 X205.761 Y106.058 E102.10664
G1 X205.336 Y106.058 E102.12175
G1 X215.316 Y116.038 E102.62345
G1 X214.891 Y116.038 E102.63856
G1 X204.912 Y106.058 E103.14024
G1 X204.488 Y106.058 E103.15531
G1 X214.467 Y116.038 E103.65699
G1 X214.043 Y116.038 E103.67206
G1 X204.063 Y106.058 E104.17376
G1 X203.639 Y106.058 E104.18883
G1 X213.619 Y116.038 E104.69053
G1 X213.194 Y116.038 E104.70564
G1 X203.215 Y106.058 E105.20732
G1 X202.791 Y106.058 E105.22239
G1 X212.77 Y116.038 E105.72407
G1 X212.346 Y116.038 E105.73914
G1 X202.366 Y106.058 E106.24084
G1 X201.942 Y106.058 E106.25591
G1 X211.922 Y116.038 E106.75761
G1 X211.497 Y116.038 E106.77272
G1 X201.518 Y106.058 E107.2744
G1 X201.094 Y106.058 E107.28947
G1 X211.073 Y116.038 E107.79115
G1 X210.649 Y116.038 E107.80622
G1 X200.669 Y106.058 E108.30792
G1 X200.245 Y106.058 E108.32299
G1 X210.224 Y116.038 E108.82467
G1 X209.8 Y116.038 E108.83974
G1 X199.821 Y106.058 E109.34142
G1 X199.397 Y106.058 E109.35649
G1 X209.376 Y116.038 E109.85816
G1 X208.952 Y116.038 E109.87324
G1 X198.972 Y106.058 E110.37494
G1 X198.548 Y106.058 E110.39001
G1 X208.527 Y116.038 E110.89169
G1 X208.103 Y116.038 E110.90676
G1 X198.124 Y106.058 E111.40844
G1 X197.699 Y106.058 E111.42354
G1 X207.679 Y116.038 E111.92524
G1 X207.255 Y116.038 E111.94032
G1 X197.275 Y106.058 E112.44202
G1 X196.851 Y106.058 E112.45709
G1 X206.83 Y116.038 E112.95877
G1 X206.406 Y116.038 E112.97384
G1 X196.427 Y106.058 E113.47551
G1 X196.002 Y106.058 E113.49062
G1 X205.982 Y116.038 E113.99232
G1 X205.558 Y116.038 E114.0074
G1 X195.578 Y106.058 E114.5091
G1 X195.154 Y106.058 E114.52417
G1 X205.133 Y116.038 E115.02585
