;FLAVOR:Marlin
;TIME:9988
;Filament used: 7.12801m
;Layer height: 0.2
;MINX:40.389
;MINY:110.496
;MINZ:0.2
;MAXX:259.614
;MAXY:192.251
;MAXZ:6.2
;POSTPROCESSED
;Generated with Cura_SteamEngine 4.10.0
M140 S60
M105
M190 S60
M104 S228
M105
M109 S228
M82 ;absolute extrusion mode
G28 ; home all axes
 M117 Purge extruder
 G92 E0 ; reset extruder
 G1 Z1.0 F3000 ; move z up little to prevent scratching of surface
 G1 X2 Y20 Z0.3 F5000.0 ; move to start-line position
 G1 X2 Y200.0 Z0.3 F1500.0 E15 ; draw 1st line
 G1 X2 Y200.0 Z0.4 F5000.0 ; move to side a little
 G1 X2 Y20 Z0.4 F1500.0 E30 ; draw 2nd line
 G92 E0 ; reset extruder
 G1 Z1.0 F3000 ; move z up little to prevent scratching of surface
G92 E0
G92 E0
G1 F2400 E-1.6
;LAYER_COUNT:31
;LAYER:0
M106 S127.5
M204 S2000
G0 F6000 X61.899 Y127.657 Z0.2
M204 S1500
;TYPE:SKIRT
G1 F2400 E0
G1 F600 X62.664 Y127.299 E0.0298
G1 X62.903 Y127.191 E0.03906
G1 X63.818 Y126.79 E0.07431
G1 X65.532 Y126.02 E0.14061
G1 X67.812 Y124.929 E0.2298
G1 X70.041 Y123.782 E0.31825
G1 X72.286 Y122.548 E0.40865
G1 X74.448 Y121.275 E0.49718
G1 X76.618 Y119.917 E0.5875
G1 X78.694 Y118.533 E0.67554
G1 X80.772 Y117.062 E0.76538
G1 X82.79 Y115.545 E0.85446
G1 X84.785 Y113.955 E0.94448
G1 X85.707 Y113.182 E0.98693
G1 X86.103 Y112.86 E1.00494
G1 X86.844 Y112.313 E1.03744
G1 X87.629 Y111.833 E1.06991
G1 X88.453 Y111.422 E1.1024
G1 X89.31 Y111.085 E1.13489
G1 X90.193 Y110.823 E1.16739
G1 X91.095 Y110.639 E1.19988
G1 X92.419 Y110.513 E1.24681
G1 X92.728 Y110.503 E1.25772
G1 X93.071 Y110.497 E1.26982
G1 X206.55 Y110.496 E5.274
G1 X207.405 Y110.507 E5.30418
G1 X208.324 Y110.56 E5.33666
G1 X209.236 Y110.693 E5.36918
G1 X210.132 Y110.904 E5.40166
G1 X211.006 Y111.192 E5.43413
G1 X211.852 Y111.555 E5.46661
G1 X212.664 Y111.99 E5.49912
G1 X213.434 Y112.493 E5.53157
G1 X214.026 Y112.95 E5.55796
G1 X214.841 Y113.627 E5.59535
G1 X216.864 Y115.257 E5.68702
G1 X218.853 Y116.77 E5.7752
G1 X220.925 Y118.255 E5.86515
G1 X223.006 Y119.659 E5.95373
G1 X225.163 Y121.027 E6.04385
G1 X227.32 Y122.31 E6.13241
G1 X229.536 Y123.547 E6.22196
G1 X231.769 Y124.71 E6.3108
G1 X234.039 Y125.812 E6.39984
G1 X235.577 Y126.501 E6.45931
G1 X235.781 Y126.603 E6.46735
G1 X238.071 Y127.633 E6.55596
G1 X238.895 Y128.017 E6.58803
G1 X239.394 Y128.261 E6.60763
G1 X241.166 Y129.161 E6.67776
G1 X242.375 Y129.8 E6.72601
G1 X242.633 Y129.941 E6.73639
G1 X243.375 Y130.361 E6.76647
G1 X244.267 Y130.885 E6.80298
G1 X245.07 Y131.37 E6.83608
G1 X245.292 Y131.507 E6.84528
G1 X245.688 Y131.761 E6.86188
G1 X246.474 Y132.273 E6.89498
G1 X247.076 Y132.677 E6.92057
G1 X247.325 Y132.85 E6.93127
G1 X247.964 Y133.307 E6.95899
G1 X248.552 Y133.739 E6.98473
G1 X249.016 Y134.09 E7.00526
G1 X249.265 Y134.285 E7.01642
G1 X250.068 Y134.931 E7.05279
G1 X250.242 Y135.074 E7.06073
G1 X250.587 Y135.364 E7.07664
G1 X251.145 Y135.844 E7.10261
G1 X251.384 Y136.056 E7.11388
G1 X251.71 Y136.357 E7.12954
G1 X251.933 Y136.571 E7.14044
G1 X252.56 Y137.185 E7.17141
G1 X252.856 Y137.482 E7.1862
G1 X253.103 Y137.739 E7.19878
G1 X253.718 Y138.399 E7.23061
G1 X254.184 Y138.934 E7.25565
G1 X254.901 Y139.815 E7.29573
G1 X255.14 Y140.119 E7.30937
G1 X255.368 Y140.421 E7.32273
G1 X255.732 Y140.935 E7.34495
G1 X256.337 Y141.844 E7.38348
G1 X256.565 Y142.202 E7.39846
G1 X256.827 Y142.632 E7.41622
G1 X257.073 Y143.058 E7.43358
G1 X257.154 Y143.206 E7.43954
G1 X257.31 Y143.501 E7.45131
G1 X257.558 Y143.995 E7.47082
G1 X257.833 Y144.569 E7.49327
G1 X258.188 Y145.4 E7.52516
G1 X258.416 Y146.003 E7.54791
G1 X258.52 Y146.291 E7.55871
G1 X258.7 Y146.812 E7.57816
G1 X258.966 Y147.709 E7.61118
G1 X259.059 Y148.082 E7.62474
G1 X259.149 Y148.472 E7.63886
G1 X259.312 Y149.25 E7.66691
G1 X259.434 Y149.952 E7.69205
G1 X259.457 Y150.116 E7.6979
G1 X259.503 Y150.486 E7.71105
G1 X259.542 Y150.859 E7.72429
G1 X259.589 Y151.51 E7.74732
G1 X259.606 Y151.955 E7.76303
G1 X259.611 Y152.175 E7.7708
G1 X259.614 Y152.462 E7.78092
G1 X259.611 Y153.158 E7.80548
G1 X259.538 Y154.356 E7.84783
G1 X259.467 Y154.957 E7.86919
G1 X259.43 Y155.239 E7.87922
G1 X259.352 Y155.775 E7.89833
G1 X259.25 Y156.357 E7.91918
G1 X259.209 Y156.559 E7.92646
G1 X259.077 Y157.13 E7.94714
G1 X258.966 Y157.555 E7.96264
G1 X258.807 Y158.103 E7.98277
G1 X258.659 Y158.556 E7.99959
G1 X258.473 Y159.087 E8.01944
G1 X258.214 Y159.785 E8.04571
G1 X257.858 Y160.631 E8.0781
G1 X257.717 Y160.929 E8.08973
G1 X257.595 Y161.178 E8.09951
G1 X257.459 Y161.447 E8.11015
G1 X257.078 Y162.172 E8.13905
G1 X256.766 Y162.725 E8.16145
G1 X256.45 Y163.247 E8.18298
G1 X256.287 Y163.507 E8.19381
G1 X256.154 Y163.713 E8.20246
G1 X255.772 Y164.266 E8.22618
G1 X255.125 Y165.141 E8.26458
G1 X254.932 Y165.394 E8.27581
G1 X254.474 Y165.976 E8.30194
G1 X254.087 Y166.44 E8.32326
G1 X253.92 Y166.629 E8.33216
G1 X253.712 Y166.858 E8.34308
G1 X252.98 Y167.637 E8.38079
G1 X252.512 Y168.12 E8.40453
G1 X252.093 Y168.529 E8.42519
G1 X251.345 Y169.218 E8.46107
G1 X250.84 Y169.667 E8.48491
G1 X250.398 Y170.05 E8.50555
G1 X249.99 Y170.385 E8.52418
G1 X248.717 Y171.38 E8.58119
G1 X248.233 Y171.744 E8.60256
G1 X247.745 Y172.099 E8.62385
G1 X247.472 Y172.291 E8.63563
G1 X246.432 Y172.996 E8.67996
G1 X245.516 Y173.593 E8.71854
G1 X245.376 Y173.683 E8.72442
G1 X244.874 Y173.998 E8.74533
G1 X244.593 Y174.168 E8.75692
G1 X243.488 Y174.813 E8.80207
G1 X242.032 Y175.629 E8.86096
G1 X241.364 Y175.993 E8.8878
G1 X241.076 Y176.144 E8.89928
G1 X240.331 Y176.52 E8.92872
G1 X238.342 Y177.49 E9.00681
G1 X237.57 Y177.854 E9.03692
G1 X237.324 Y177.966 E9.04646
G1 X236.868 Y178.166 E9.06403
G1 X234.474 Y179.19 E9.15591
G1 X233.421 Y179.624 E9.1961
G1 X233.169 Y179.724 E9.20566
G1 X232.11 Y180.129 E9.24567
G1 X229.704 Y181.013 E9.33612
G1 X227.622 Y181.732 E9.41384
G1 X227.425 Y181.798 E9.42117
G1 X224.882 Y182.619 E9.51546
G1 X224.696 Y182.677 E9.52234
G1 X222.719 Y183.274 E9.59521
G1 X219.622 Y184.151 E9.70878
G1 X217.825 Y184.628 E9.77439
G1 X217.653 Y184.672 E9.78065
G1 X213.816 Y185.618 E9.9201
G1 X212.28 Y185.971 E9.97571
G1 X207.3 Y187.032 E10.15538
G1 X205.848 Y187.317 E10.20759
G1 X200.542 Y188.274 E10.39784
G1 X198.999 Y188.528 E10.45301
G1 X193.594 Y189.343 E10.64589
G1 X192.077 Y189.552 E10.69992
G1 X186.324 Y190.263 E10.90447
G1 X184.894 Y190.42 E10.95523
G1 X179.06 Y190.993 E11.16207
G1 X177.856 Y191.097 E11.20472
G1 X171.273 Y191.581 E11.43763
G1 X169.978 Y191.66 E11.48341
G1 X163.458 Y191.983 E11.71375
G1 X162.209 Y192.03 E11.75786
G1 X155.402 Y192.207 E11.99813
G1 X154.363 Y192.223 E12.03479
G1 X150.472 Y192.251 E12.17209
G1 X149.465 Y192.249 E12.20763
G1 X143.225 Y192.182 E12.42782
G1 X142.061 Y192.156 E12.46891
G1 X136.13 Y191.967 E12.67829
G1 X134.823 Y191.911 E12.72445
G1 X128.967 Y191.597 E12.93138
G1 X127.727 Y191.516 E12.97523
G1 X121.903 Y191.076 E13.18132
G1 X120.692 Y190.969 E13.22422
G1 X114.992 Y190.407 E13.42632
G1 X113.667 Y190.26 E13.47336
G1 X108.241 Y189.592 E13.66627
G1 X106.771 Y189.393 E13.71861
G1 X101.288 Y188.576 E13.91422
G1 X100.306 Y188.421 E13.9493
G1 X99.687 Y188.318 E13.97144
G1 X98.707 Y188.147 E14.00654
G1 X94.613 Y187.405 E14.15335
G1 X93.162 Y187.123 E14.20551
G1 X89.431 Y186.351 E14.33995
G1 X87.905 Y186.014 E14.39509
G1 X84.338 Y185.174 E14.5244
G1 X82.776 Y184.781 E14.58123
G1 X79.622 Y183.941 E14.6964
G1 X79.458 Y183.896 E14.70241
G1 X77.699 Y183.393 E14.76696
G1 X74.469 Y182.415 E14.88604
G1 X73.144 Y181.996 E14.93508
G1 X72.701 Y181.849 E14.95155
G1 X71.458 Y181.423 E14.99791
G1 X69.473 Y180.716 E15.07226
G1 X67.614 Y180.016 E15.14236
G1 X67.441 Y179.949 E15.1489
G1 X66.011 Y179.381 E15.2032
G1 X65.805 Y179.297 E15.21105
G1 X63.908 Y178.497 E15.28369
G1 X63.701 Y178.407 E15.29166
G1 X62.07 Y177.677 E15.35471
G1 X61.239 Y177.291 E15.38704
G1 X60.804 Y177.08 E15.4041
G1 X58.936 Y176.137 E15.47794
G1 X58.064 Y175.683 E15.51263
G1 X57.838 Y175.561 E15.52169
G1 X57.383 Y175.309 E15.54004
G1 X56.279 Y174.679 E15.58489
G1 X55.498 Y174.22 E15.61686
G1 X55.264 Y174.078 E15.62652
G1 X54.834 Y173.809 E15.64441
G1 X53.808 Y173.152 E15.6874
G1 X53.287 Y172.809 E15.70941
G1 X53.011 Y172.621 E15.7212
G1 X52.314 Y172.13 E15.75128
G1 X51.574 Y171.592 E15.78356
G1 X51.045 Y171.196 E15.80688
G1 X50.77 Y170.982 E15.81918
G1 X49.871 Y170.258 E15.85991
G1 X49.543 Y169.986 E15.87494
G1 X48.927 Y169.458 E15.90357
G1 X48.694 Y169.252 E15.91454
G1 X48.45 Y169.03 E15.92618
G1 X48.213 Y168.808 E15.93764
G1 X47.654 Y168.266 E15.96512
G1 X47.104 Y167.72 E15.99246
G1 X46.691 Y167.286 E16.0136
G1 X46.152 Y166.685 E16.04209
G1 X45.819 Y166.302 E16.06
G1 X45.412 Y165.821 E16.08223
G1 X45.153 Y165.503 E16.0967
G1 X44.938 Y165.228 E16.10902
G1 X44.705 Y164.918 E16.1227
G1 X44.342 Y164.417 E16.14453
G1 X44.142 Y164.131 E16.15685
G1 X43.922 Y163.8 E16.17087
G1 X43.655 Y163.383 E16.18834
G1 X43.517 Y163.162 E16.19754
G1 X43.143 Y162.545 E16.223
G1 X42.719 Y161.775 E16.25401
G1 X42.476 Y161.287 E16.27325
G1 X42.353 Y161.031 E16.28327
G1 X42.055 Y160.39 E16.30821
G1 X41.825 Y159.858 E16.32866
G1 X41.669 Y159.457 E16.34385
G1 X41.59 Y159.243 E16.3519
G1 X41.498 Y158.982 E16.36166
G1 X41.323 Y158.467 E16.38085
G1 X41.067 Y157.594 E16.41295
G1 X40.909 Y156.953 E16.43625
G1 X40.834 Y156.626 E16.44809
G1 X40.724 Y156.11 E16.4667
G1 X40.605 Y155.453 E16.49026
G1 X40.536 Y154.907 E16.50968
G1 X40.487 Y154.42 E16.52695
G1 X40.463 Y154.142 E16.5368
G1 X40.419 Y153.548 E16.55782
G1 X40.392 Y152.977 E16.57799
G1 X40.389 Y152.827 E16.58328
G1 X40.392 Y152.29 E16.60223
G1 X40.403 Y151.931 E16.6149
G1 X40.437 Y151.352 E16.63537
G1 X40.459 Y151.095 E16.64447
G1 X40.485 Y150.828 E16.65394
G1 X40.531 Y150.426 E16.66821
G1 X40.617 Y149.764 E16.69177
G1 X40.748 Y148.988 E16.71954
G1 X40.848 Y148.54 E16.73574
G1 X40.971 Y148.039 E16.75394
G1 X41.044 Y147.757 E16.76422
G1 X41.196 Y147.204 E16.78445
G1 X41.383 Y146.595 E16.80693
G1 X41.558 Y146.088 E16.82586
G1 X41.592 Y145.994 E16.82939
G1 X41.868 Y145.307 E16.85551
G1 X42.178 Y144.607 E16.88252
G1 X42.302 Y144.338 E16.89298
G1 X42.558 Y143.801 E16.91397
G1 X43.008 Y142.957 E16.94772
G1 X43.468 Y142.181 E16.97955
G1 X43.643 Y141.895 E16.99138
G1 X43.923 Y141.455 E17.00978
G1 X44.28 Y140.93 E17.03218
G1 X44.739 Y140.296 E17.0598
G1 X44.929 Y140.042 E17.071
G1 X45.154 Y139.75 E17.084
G1 X45.563 Y139.251 E17.10677
G1 X46.131 Y138.6 E17.13725
G1 X46.572 Y138.109 E17.16054
G1 X47.008 Y137.638 E17.18319
G1 X47.466 Y137.173 E17.20622
G1 X48.244 Y136.43 E17.24418
G1 X48.701 Y136.008 E17.26613
G1 X49.337 Y135.438 E17.29626
G1 X49.662 Y135.158 E17.3114
G1 X49.881 Y134.978 E17.3214
G1 X50.367 Y134.591 E17.34333
G1 X51.231 Y133.917 E17.38199
G1 X51.942 Y133.378 E17.41347
G1 X52.246 Y133.155 E17.42678
G1 X52.472 Y132.998 E17.43649
G1 X53.22 Y132.489 E17.46841
G1 X53.457 Y132.331 E17.47846
G1 X54.772 Y131.487 E17.5336
G1 X55.464 Y131.057 E17.56235
G1 X55.727 Y130.899 E17.57317
G1 X56.457 Y130.475 E17.60296
G1 X57.923 Y129.654 E17.66225
G1 X58.69 Y129.239 E17.69302
G1 X58.933 Y129.112 E17.7027
G1 X59.687 Y128.732 E17.73249
G1 X61.899 Y127.657 E17.81927
M204 S2000
G0 F6000 X62.069 Y128.02
M204 S1500
G1 F600 X62.834 Y127.662 E17.84907
G1 X63.063 Y127.558 E17.85795
G1 X63.96 Y127.165 E17.8925
G1 X65.673 Y126.396 E17.95876
G1 X67.989 Y125.287 E18.04937
G1 X70.266 Y124.116 E18.13971
G1 X72.476 Y122.9 E18.22872
G1 X74.641 Y121.626 E18.31736
G1 X76.847 Y120.246 E18.40918
G1 X78.925 Y118.86 E18.49731
G1 X81.015 Y117.38 E18.58768
G1 X83.034 Y115.863 E18.67679
G1 X85.008 Y114.29 E18.76585
G1 X85.964 Y113.488 E18.80988
G1 X86.354 Y113.171 E18.82762
G1 X87.082 Y112.635 E18.85952
G1 X87.853 Y112.166 E18.89136
G1 X88.663 Y111.767 E18.92322
G1 X89.506 Y111.441 E18.95511
G1 X90.373 Y111.191 E18.98695
G1 X91.26 Y111.018 E19.01884
G1 X92.432 Y110.912 E19.06036
G1 X92.741 Y110.902 E19.07127
G1 X93.071 Y110.897 E19.08292
G1 X206.55 Y110.896 E23.0871
G1 X207.4 Y110.907 E23.1171
G1 X208.301 Y110.96 E23.14895
G1 X209.195 Y111.092 E23.18083
G1 X210.073 Y111.303 E23.2127
G1 X210.929 Y111.591 E23.24456
G1 X211.756 Y111.953 E23.27642
G1 X212.548 Y112.387 E23.30829
G1 X213.299 Y112.889 E23.34016
G1 X213.771 Y113.258 E23.3613
G1 X214.619 Y113.962 E23.40019
G1 X216.594 Y115.554 E23.4897
G1 X218.624 Y117.097 E23.57967
G1 X220.691 Y118.579 E23.66942
G1 X222.798 Y120.001 E23.75911
G1 X224.965 Y121.375 E23.84965
G1 X227.099 Y122.645 E23.93728
G1 X229.362 Y123.908 E24.02872
G1 X231.574 Y125.06 E24.11673
G1 X233.867 Y126.173 E24.20667
G1 X235.414 Y126.866 E24.26648
G1 X235.621 Y126.97 E24.27465
G1 X237.903 Y127.996 E24.36294
G1 X238.727 Y128.38 E24.39502
G1 X238.94 Y128.482 E24.40335
G1 X239.32 Y128.671 E24.41833
G1 X241.136 Y129.596 E24.49024
G1 X242.187 Y130.153 E24.53221
G1 X242.436 Y130.289 E24.54222
G1 X243.178 Y130.709 E24.57231
G1 X244.06 Y131.227 E24.6084
G1 X244.863 Y131.712 E24.6415
G1 X245.077 Y131.844 E24.65037
G1 X245.47 Y132.096 E24.66685
G1 X246.251 Y132.605 E24.69974
G1 X246.853 Y133.009 E24.72532
G1 X247.093 Y133.176 E24.73564
G1 X247.727 Y133.629 E24.76313
G1 X248.311 Y134.058 E24.7887
G1 X248.775 Y134.409 E24.80923
G1 X249.015 Y134.597 E24.81999
G1 X249.818 Y135.243 E24.85635
G1 X249.985 Y135.38 E24.86398
G1 X250.326 Y135.667 E24.8797
G1 X250.884 Y136.147 E24.90568
G1 X251.114 Y136.351 E24.91652
G1 X251.434 Y136.647 E24.9319
G1 X251.653 Y136.857 E24.94261
G1 X252.277 Y137.468 E24.97343
G1 X252.573 Y137.765 E24.98822
G1 X252.81 Y138.011 E25.00028
G1 X253.425 Y138.671 E25.03211
G1 X253.874 Y139.187 E25.05624
G1 X254.591 Y140.068 E25.09632
G1 X254.821 Y140.36 E25.10944
G1 X255.049 Y140.662 E25.12279
G1 X255.399 Y141.157 E25.14418
G1 X256.004 Y142.066 E25.18271
G1 X256.223 Y142.41 E25.1971
G1 X256.485 Y142.84 E25.21487
G1 X256.723 Y143.25 E25.2316
G1 X256.804 Y143.398 E25.23755
G1 X256.953 Y143.682 E25.24887
G1 X257.197 Y144.168 E25.26806
G1 X257.472 Y144.742 E25.29051
G1 X257.814 Y145.542 E25.32121
G1 X258.042 Y146.145 E25.34396
G1 X258.142 Y146.421 E25.35432
G1 X258.322 Y146.942 E25.37377
G1 X258.578 Y147.805 E25.40553
G1 X258.671 Y148.178 E25.4191
G1 X258.757 Y148.554 E25.43271
G1 X258.92 Y149.332 E25.46076
G1 X259.038 Y150.007 E25.48494
G1 X259.061 Y150.171 E25.49078
G1 X259.105 Y150.527 E25.50344
G1 X259.144 Y150.9 E25.51667
G1 X259.19 Y151.527 E25.53885
G1 X259.206 Y151.964 E25.55428
G1 X259.211 Y152.184 E25.56205
G1 X259.214 Y152.46 E25.57179
G1 X259.211 Y153.156 E25.59635
G1 X259.141 Y154.309 E25.63711
G1 X259.07 Y154.91 E25.65846
G1 X259.034 Y155.182 E25.66814
G1 X258.956 Y155.718 E25.68725
G1 X258.858 Y156.278 E25.70731
G1 X258.817 Y156.48 E25.71459
G1 X258.69 Y157.029 E25.73447
G1 X258.579 Y157.454 E25.74997
G1 X258.426 Y157.981 E25.76933
G1 X258.281 Y158.425 E25.78581
G1 X258.176 Y158.729 E25.79716
G1 X258.098 Y158.947 E25.80533
G1 X257.839 Y159.645 E25.8316
G1 X257.496 Y160.459 E25.86277
G1 X257.355 Y160.757 E25.8744
G1 X257.238 Y160.997 E25.88383
G1 X257.026 Y161.414 E25.90033
G1 X256.725 Y161.986 E25.92314
G1 X256.424 Y162.518 E25.94471
G1 X256.108 Y163.04 E25.96624
G1 X255.951 Y163.291 E25.97669
G1 X255.818 Y163.497 E25.98534
G1 X255.45 Y164.028 E26.00813
G1 X254.803 Y164.903 E26.04653
G1 X254.618 Y165.147 E26.05734
G1 X254.16 Y165.729 E26.08347
G1 X253.788 Y166.175 E26.10396
G1 X253.621 Y166.364 E26.11286
G1 X253.42 Y166.584 E26.12338
G1 X252.692 Y167.359 E26.1609
G1 X252.224 Y167.842 E26.18463
G1 X251.822 Y168.235 E26.20447
G1 X251.216 Y168.795 E26.23358
G1 X250.578 Y169.365 E26.26377
G1 X250.136 Y169.748 E26.28441
G1 X249.744 Y170.07 E26.30231
G1 X248.477 Y171.06 E26.35904
G1 X247.848 Y171.531 E26.38677
G1 X247.51 Y171.776 E26.4015
G1 X247.247 Y171.96 E26.41283
G1 X246.207 Y172.665 E26.45716
G1 X246.04 Y172.776 E26.46424
G1 X245.163 Y173.344 E26.5011
G1 X244.661 Y173.659 E26.52202
G1 X244.391 Y173.823 E26.53316
G1 X243.451 Y174.373 E26.57159
G1 X241.952 Y175.216 E26.63228
G1 X241.173 Y175.642 E26.6636
G1 X240.895 Y175.787 E26.67467
G1 X240.156 Y176.16 E26.70388
G1 X238.171 Y177.128 E26.7818
G1 X237.399 Y177.492 E26.81192
G1 X237.162 Y177.6 E26.82111
G1 X236.711 Y177.798 E26.83849
G1 X234.322 Y178.82 E26.93018
G1 X233.269 Y179.254 E26.97037
G1 X233.026 Y179.351 E26.9796
G1 X231.972 Y179.753 E27.0194
G1 X229.566 Y180.637 E27.10985
