;FLAVOR:Marlin
;TIME:6227
;Filament used: 5.911m
;Layer height: 0.3
;MINX:-93.723
;MINY:-78.4
;MINZ:0.3
;MAXX:108.507
;MAXY:90.039
;MAXZ:12
;Generated with Cura_SteamEngine 4.10.0
M140 S90
M105
M190 S90
M104 S250
M105
M109 S250
M82 ;absolute extrusion mode
G21        ;metric values
G90        ;absolute positioning
M107       ;start with the fan off
G28   ;move to endstops

;Z-Offset Reset und dann Z +0,1 für PLA
;MacroZOffset0
;MacroZOffsetPlus0100

G92 E0                  ;zero the extruded length
G1 F200 E3              ;extrude 3mm of feed stock
G92 E0                  ;zero the extruded length again
G1 F120
;Put printing message on LCD screen
M117 Printing...
G92 E0
G92 E0
G1 F1500 E-6.5
;LAYER_COUNT:40
;LAYER:0
M106 S51
G0 F900 X6.936 Y1.32 Z0.3
;TYPE:SKIRT
G1 F1500 E0
G1 F300 X7.253 Y1.008 E0.03795
G1 X9.586 Y-1.136 E0.30826
G1 X10.081 Y-1.559 E0.36381
G1 X12.543 Y-3.525 E0.6326
G1 X13.08 Y-3.924 E0.68967
G1 X15.723 Y-5.741 E0.9633
G1 X16.22 Y-6.057 E1.01354
G1 X18.906 Y-7.635 E1.27931
G1 X19.496 Y-7.955 E1.33657
G1 X22.268 Y-9.325 E1.60036
G1 X22.888 Y-9.603 E1.65833
G1 X23.901 Y-10.015 E1.75162
G1 X8.27 Y-19.039 E3.29141
G1 X8.42 Y-17.96 E3.38435
G1 X8.49 Y-17.278 E3.44284
G1 X8.688 Y-14.192 E3.70665
G1 X8.707 Y-13.527 E3.76341
G1 X8.684 Y-10.412 E4.02916
G1 X8.654 Y-9.744 E4.08621
G1 X8.406 Y-6.621 E4.35348
G1 X8.34 Y-6.048 E4.40268
G1 X7.861 Y-2.855 E4.67814
G1 X7.739 Y-2.203 E4.73472
G1 X7.048 Y0.89 E5.0051
G1 X6.936 Y1.32 E5.04301
G0 F900 X6.216 Y1.231
G1 F300 X5.403 Y3.977 E5.28733
G1 X7.372 Y1.902 E5.53136
G1 X7.741 Y1.539 E5.57552
G1 X10.074 Y-.605 E5.84584
G1 X10.531 Y-.997 E5.8972
G1 X12.993 Y-2.963 E6.16599
G1 X13.488 Y-3.331 E6.21861
G1 X16.131 Y-5.148 E6.49224
G1 X16.585 Y-5.436 E6.53811
G1 X19.271 Y-7.014 E6.80387
G1 X19.815 Y-7.309 E6.85667
G1 X22.587 Y-8.679 E7.12046
G1 X23.159 Y-8.936 E7.17396
G1 X25.537 Y-9.902 E7.39293
G1 X7.355 Y-20.399 E9.18402
G1 X7.707 Y-17.861 E9.40262
G1 X7.771 Y-17.232 E9.45656
G1 X7.969 Y-14.146 E9.72037
G1 X7.987 Y-13.532 E9.77278
G1 X7.964 Y-10.417 E10.03853
G1 X7.936 Y-9.801 E10.09114
G1 X7.688 Y-6.678 E10.35841
G1 X7.628 Y-6.154 E10.4034
G1 X7.149 Y-2.961 E10.67885
G1 X7.036 Y-2.36 E10.73102
G1 X6.345 Y0.733 E11.0014
G1 X6.216 Y1.231 E11.04529
G0 F900 X5.526 Y1.027
G1 F300 X4.602 Y4.148 E11.32297
G1 X4.452 Y4.595 E11.3632
G1 X3.371 Y7.494 E11.62715
G1 X5.342 Y5.11 E11.89104
G1 X5.652 Y4.76 E11.93093
G1 X7.894 Y2.397 E12.20882
G1 X8.228 Y2.069 E12.24876
G1 X10.561 Y-0.075 E12.51908
G1 X10.98 Y-.434 E12.56615
G1 X13.442 Y-2.4 E12.83494
G1 X13.896 Y-2.738 E12.88322
G1 X16.539 Y-4.555 E13.15685
G1 X16.949 Y-4.816 E13.19831
G1 X19.635 Y-6.394 E13.46408
G1 X20.134 Y-6.664 E13.51248
G1 X22.906 Y-8.034 E13.77627
G1 X23.43 Y-8.269 E13.82527
G1 X26.273 Y-9.424 E14.08706
G1 X26.827 Y-9.625 E14.13734
G1 X27.231 Y-9.755 E14.17355
G1 X6.378 Y-21.794 E16.22776
G1 X6.497 Y-21.238 E16.27626
G1 X6.572 Y-20.801 E16.31409
G1 X6.994 Y-17.762 E16.57584
G1 X7.053 Y-17.186 E16.62524
G1 X7.251 Y-14.1 E16.88905
G1 X7.267 Y-13.537 E16.9371
G1 X7.244 Y-10.422 E17.20286
G1 X7.219 Y-9.858 E17.25102
G1 X6.971 Y-6.735 E17.51829
G1 X6.916 Y-6.261 E17.559
G1 X6.437 Y-3.068 E17.83445
G1 X6.333 Y-2.517 E17.88229
G1 X5.642 Y0.576 E18.15266
G1 X5.526 Y1.027 E18.19239
G0 F900 X4.835 Y0.822
G1 F300 X3.911 Y3.943 E18.47007
G1 X3.778 Y4.343 E18.50604
G1 X2.636 Y7.407 E18.785
G1 X2.476 Y7.794 E18.82073
G1 X1.126 Y10.776 E19.09998
G1 X0.941 Y11.15 E19.13558
G1 X-.611 Y14.037 E19.41521
G1 X-.819 Y14.395 E19.45053
G1 X-2.562 Y17.169 E19.73003
G1 X-2.797 Y17.516 E19.76578
G1 X-4.724 Y20.162 E20.04503
G1 X-4.981 Y20.491 E20.08065
G1 X-7.08 Y22.995 E20.3594
G1 X-7.361 Y23.307 E20.39522
G1 X-9.619 Y25.653 E20.67301
G1 X-9.922 Y25.947 E20.70902
G1 X-12.328 Y28.124 E20.98584
G1 X-12.872 Y28.563 E21.04548
G1 X-13.464 Y28.937 E21.10521
G1 X-13.793 Y29.107 E21.13681
G1 X-14.975 Y29.672 E21.24858
G1 X-15.743 Y30.177 E21.32699
G1 X-16.474 Y30.811 E21.40954
G1 X-17.122 Y31.536 E21.4925
G1 X-17.692 Y32.37 E21.57868
G1 X-18.148 Y33.261 E21.66407
G1 X-18.481 Y34.188 E21.7481
G1 X-18.689 Y35.135 E21.83082
G1 X-18.804 Y36.482 E21.94615
G1 X-18.903 Y37.175 E22.00587
G1 X-19.063 Y37.808 E22.06157
G1 X-19.288 Y38.47 E22.12122
G1 X-19.601 Y39.127 E22.18331
G1 X-19.713 Y39.33 E22.20309
G1 X-20.086 Y39.923 E22.26285
G1 X-20.515 Y40.459 E22.32142
G1 X-20.662 Y40.623 E22.34021
G1 X-21.158 Y41.116 E22.39987
G1 X-21.768 Y41.592 E22.46588
G1 X-21.954 Y41.719 E22.4851
G1 X-22.553 Y42.08 E22.54476
G1 X-23.293 Y42.409 E22.61385
G1 X-23.497 Y42.484 E22.6324
G1 X-24.166 Y42.688 E22.69206
G1 X-25.052 Y42.835 E22.76868
G1 X-25.26 Y42.854 E22.7865
G1 X-25.959 Y42.877 E22.84617
G1 X-26.932 Y42.776 E22.92962
G1 X-27.137 Y42.738 E22.94741
G1 X-27.817 Y42.572 E23.00713
G1 X-28.771 Y42.189 E23.09483
G1 X-28.952 Y42.098 E23.11211
G1 X-29.558 Y41.748 E23.17181
G1 X-30.382 Y41.101 E23.26119
G1 X-30.535 Y40.958 E23.27906
G1 X-31.018 Y40.452 E23.33874
G1 X-31.606 Y39.631 E23.42489
G1 X-31.712 Y39.454 E23.44249
G1 X-32.037 Y38.835 E23.50213
G1 X-32.356 Y37.957 E23.58183
G1 X-32.413 Y37.753 E23.5999
G1 X-32.563 Y37.07 E23.65955
G1 X-32.638 Y36.217 E23.73261
G1 X-32.642 Y35.996 E23.75146
G1 X-32.615 Y35.297 E23.81114
G1 X-32.574 Y35.038 E23.83351
G1 X-32.521 Y33.686 E23.94894
G1 X-32.436 Y32.879 E24.01817
G1 X-32.135 Y31.144 E24.1684
G1 X-31.948 Y30.369 E24.23641
G1 X-31.42 Y28.675 E24.38779
G1 X-31.136 Y27.936 E24.45533
G1 X-30.39 Y26.316 E24.60749
G1 X-30.015 Y25.623 E24.67471
G1 X-29.065 Y24.109 E24.82719
G1 X-28.608 Y23.475 E24.89387
G1 X-27.48 Y22.103 E25.0454
G1 X-26.936 Y21.523 E25.11324
G1 X-25.644 Y20.313 E25.26425
G1 X-25.023 Y19.803 E25.33281
G1 X-23.602 Y18.786 E25.48188
G1 X-22.899 Y18.352 E25.55237
G1 X-21.965 Y17.859 E25.64247
G1 X-20.099 Y16.253 E25.8525
G1 X-18.116 Y14.281 E26.09109
G1 X-16.275 Y12.164 E26.33043
G1 X-14.575 Y9.9 E26.57197
G1 X-13.043 Y7.527 E26.81294
G1 X-11.687 Y5.063 E27.05288
G1 X-10.495 Y2.469 E27.29642
G1 X-9.509 Y-.149 E27.53509
G1 X-8.713 Y-2.838 E27.77433
G1 X-8.114 Y-5.564 E28.01244
G1 X-7.719 Y-8.308 E28.24895
G1 X-7.529 Y-11.027 E28.48148
G1 X-7.544 Y-13.738 E28.71277
G1 X-7.762 Y-16.409 E28.94139
G1 X-8.176 Y-19.004 E29.16558
G1 X-8.793 Y-21.571 E29.39081
G1 X-9.594 Y-24.021 E29.61071
G1 X-10.576 Y-26.362 E29.82729
G1 X-11.736 Y-28.595 E30.04196
G1 X-13.068 Y-30.706 E30.25491
G1 X-14.546 Y-32.661 E30.464
G1 X-16.177 Y-34.471 E30.67185
G1 X-17.95 Y-36.129 E30.87894
G1 X-19.841 Y-37.609 E31.08381
G1 X-21.811 Y-38.891 E31.28432
G1 X-23.902 Y-39.954 E31.48444
G1 X-26.138 Y-40.855 E31.6901
G1 X-28.447 Y-41.559 E31.89604
G1 X-30.834 Y-42.066 E32.10422
G1 X-33.279 Y-42.37 E32.31442
G1 X-35.756 Y-42.467 E32.5259
G1 X-38.274 Y-42.355 E32.74093
G1 X-40.802 Y-42.034 E32.95833
G1 X-43.313 Y-41.505 E33.17725
G1 X-45.838 Y-40.759 E33.40187
G1 X-48.298 Y-39.818 E33.62657
G1 X-50.728 Y-38.667 E33.85596
G1 X-53.08 Y-37.327 E34.08689
G1 X-55.346 Y-35.799 E34.32005
G1 X-57.52 Y-34.088 E34.55607
G1 X-59.577 Y-32.211 E34.79364
G1 X-61.505 Y-30.178 E35.03267
G1 X-63.305 Y-27.987 E35.27458
G1 X-64.926 Y-25.696 E35.51401
G1 X-66.391 Y-23.278 E35.7552
G1 X-67.685 Y-20.753 E35.99725
G1 X-68.788 Y-18.165 E36.23726
G1 X-69.704 Y-15.5 E36.47767
G1 X-70.429 Y-12.773 E36.7184
G1 X-70.878 Y-10.38 E36.92611
G1 X-70.838 Y-9.33 E37.01575
G1 X-70.863 Y-8.505 E37.08617
G1 X-71.033 Y-6.761 E37.23566
G1 X-71.164 Y-5.965 E37.30448
G1 X-71.565 Y-4.246 E37.45507
G1 X-71.795 Y-3.486 E37.52281
G1 X-72.42 Y-1.82 E37.67461
G1 X-72.741 Y-1.106 E37.7414
G1 X-73.576 Y0.471 E37.89363
G1 X-73.989 Y1.141 E37.96078
G1 X-75.019 Y2.597 E38.11293
G1 X-75.515 Y3.211 E38.18027
G1 X-76.72 Y4.518 E38.33193
G1 X-77.298 Y5.068 E38.4
G1 X-78.647 Y6.194 E38.54991
G1 X-79.3 Y6.67 E38.61885
G1 X-80.446 Y7.394 E38.73449
G1 X-80.62 Y7.536 E38.75365
G1 X-81.231 Y7.925 E38.81544
G1 X-81.425 Y8.033 E38.83439
G1 X-82.055 Y8.338 E38.8941
G1 X-82.904 Y8.62 E38.97042
G1 X-83.11 Y8.672 E38.98855
G1 X-83.797 Y8.804 E39.04823
G1 X-84.695 Y8.857 E39.12497
G1 X-84.905 Y8.854 E39.14289
G1 X-85.603 Y8.804 E39.20259
G1 X-86.609 Y8.587 E39.29039
G1 X-86.805 Y8.527 E39.30788
G1 X-87.461 Y8.284 E39.36756
G1 X-88.361 Y7.799 E39.45478
G1 X-88.534 Y7.686 E39.47241
G1 X-89.097 Y7.27 E39.53213
G1 X-89.608 Y6.794 E39.5917
G1 X-89.977 Y6.377 E39.63921
G1 X-90.4 Y5.819 E39.69894
G1 X-90.884 Y4.954 E39.78351
G1 X-90.971 Y4.764 E39.80133
G1 X-91.226 Y4.112 E39.86106
G1 X-91.435 Y3.272 E39.93491
G1 X-91.473 Y3.055 E39.9537
G1 X-91.554 Y2.36 E40.01339
G1 X-91.547 Y1.53 E40.08421
G1 X-91.53 Y1.309 E40.10312
G1 X-91.437 Y0.615 E40.16285
G1 X-91.25 Y-.109 E40.22665
G1 X-91.18 Y-.325 E40.24602
G1 X-90.927 Y-.977 E40.30568
G1 X-90.589 Y-1.615 E40.36728
G1 X-90.473 Y-1.806 E40.38634
G1 X-90.076 Y-2.382 E40.44602
G1 X-89.583 Y-2.943 E40.50974
G1 X-89.422 Y-3.105 E40.52922
G1 X-88.901 Y-3.572 E40.58891
G1 X-88.578 Y-3.814 E40.62334
G1 X-87.475 Y-4.582 E40.73801
G1 X-86.764 Y-5.231 E40.82013
G1 X-86.125 Y-5.986 E40.90452
G1 X-85.578 Y-6.832 E40.99046
G1 X-85.149 Y-7.726 E41.07506
G1 X-84.839 Y-8.667 E41.15958
G1 X-84.658 Y-9.611 E41.24158
G1 X-84.604 Y-10.533 E41.32038
G1 X-84.705 Y-11.83 E41.43136
G1 X-84.719 Y-12.529 E41.49101
G1 X-84.653 Y-13.225 E41.55065
G1 X-84.587 Y-13.588 E41.58213
G1 X-83.906 Y-16.762 E41.85907
G1 X-83.802 Y-17.176 E41.89549
G1 X-82.899 Y-20.302 E42.17308
G1 X-82.77 Y-20.698 E42.20861
G1 X-81.652 Y-23.769 E42.48742
G1 X-81.494 Y-24.159 E42.52332
G1 X-80.165 Y-27.151 E42.80262
G1 X-79.984 Y-27.525 E42.83807
G1 X-78.454 Y-30.422 E43.11757
G1 X-78.248 Y-30.781 E43.15288
G1 X-76.525 Y-33.569 E43.43249
G1 X-76.292 Y-33.919 E43.46836
G1 X-74.383 Y-36.58 E43.74775
G1 X-74.127 Y-36.912 E43.78352
G1 X-72.045 Y-39.431 E44.06232
G1 X-71.768 Y-39.744 E44.09798
G1 X-69.526 Y-42.107 E44.37587
G1 X-69.227 Y-42.401 E44.41164
G1 X-66.894 Y-44.545 E44.68196
G1 X-66.513 Y-44.871 E44.72474
G1 X-64.051 Y-46.837 E44.99353
G1 X-63.638 Y-47.144 E45.03743
G1 X-60.995 Y-48.961 E45.31105
G1 X-60.629 Y-49.194 E45.34807
G1 X-57.944 Y-50.772 E45.61376
G1 X-57.489 Y-51.019 E45.65793
G1 X-54.716 Y-52.389 E45.9218
G1 X-54.242 Y-52.602 E45.96613
G1 X-51.4 Y-53.757 E46.22785
G1 X-50.896 Y-53.94 E46.27359
G1 X-48.945 Y-54.566 E46.44839
G1 X-60.713 Y-61.361 E47.60769
G1 X-61.298 Y-61.745 E47.66739
G1 X-61.835 Y-62.193 E47.72705
G1 X-62.317 Y-62.699 E47.78667
G1 X-62.739 Y-63.257 E47.84636
G1 X-63.094 Y-63.86 E47.90605
G1 X-63.378 Y-64.499 E47.96571
G1 X-63.588 Y-65.166 E48.02537
G1 X-63.719 Y-65.853 E48.08503
G1 X-63.772 Y-66.55 E48.14466
G1 X-63.745 Y-67.249 E48.20434
G1 X-63.638 Y-67.941 E48.26408
G1 X-63.453 Y-68.615 E48.32371
G1 X-63.192 Y-69.264 E48.38338
G1 X-62.953 Y-69.721 E48.42738
G1 X-60.953 Y-73.185 E48.76862
G1 X-60.569 Y-73.77 E48.82832
G1 X-60.121 Y-74.307 E48.88798
G1 X-59.615 Y-74.789 E48.9476
G1 X-59.057 Y-75.211 E49.00729
G1 X-58.454 Y-75.566 E49.06698
G1 X-57.815 Y-75.85 E49.12664
G1 X-57.148 Y-76.06 E49.1863
G1 X-56.461 Y-76.191 E49.24596
G1 X-55.763 Y-76.244 E49.30568
G1 X-55.065 Y-76.217 E49.36528
G1 X-54.373 Y-76.11 E49.42501
G1 X-53.699 Y-75.925 E49.48464
G1 X-53.05 Y-75.664 E49.54432
G1 X-52.593 Y-75.425 E49.58831
G1 X103.292 Y14.575 E64.94455
G1 X103.877 Y14.959 E65.00425
G1 X104.414 Y15.407 E65.06391
G1 X104.896 Y15.913 E65.12353
G1 X105.318 Y16.471 E65.18322
G1 X105.673 Y17.074 E65.24291
G1 X105.957 Y17.713 E65.30257
G1 X106.167 Y18.38 E65.36222
G1 X106.298 Y19.067 E65.42189
G1 X106.351 Y19.764 E65.48152
G1 X106.324 Y20.463 E65.5412
G1 X106.217 Y21.155 E65.60094
G1 X106.032 Y21.829 E65.66057
G1 X105.771 Y22.478 E65.72024
G1 X105.531 Y22.936 E65.76436
G1 X103.53 Y26.4 E66.10564
G1 X103.146 Y26.985 E66.16534
G1 X102.698 Y27.522 E66.225
G1 X102.192 Y28.004 E66.28462
G1 X101.634 Y28.426 E66.34431
G1 X101.031 Y28.781 E66.404
G1 X100.392 Y29.065 E66.46366
G1 X99.725 Y29.274 E66.52329
G1 X99.038 Y29.406 E66.58297
G1 X98.34 Y29.458 E66.64268
G1 X97.641 Y29.431 E66.70236
G1 X96.95 Y29.323 E66.76203
G1 X96.276 Y29.138 E66.82166
G1 X95.627 Y28.877 E66.88133
G1 X95.171 Y28.639 E66.92521
G1 X83.275 Y21.771 E68.09708
G1 X83.708 Y23.776 E68.27208
G1 X83.802 Y24.3 E68.3175
G1 X84.223 Y27.339 E68.57924
G1 X84.276 Y27.858 E68.62374
G1 X84.475 Y30.944 E68.88756
G1 X84.49 Y31.459 E68.93152
G1 X84.466 Y34.574 E69.19727
G1 X84.443 Y35.085 E69.24091
G1 X84.195 Y38.208 E69.50818
G1 X84.146 Y38.632 E69.54459
G1 X83.667 Y41.825 E69.82004
G1 X83.573 Y42.326 E69.86353
G1 X82.882 Y45.419 E70.13391
G1 X82.777 Y45.822 E70.16944
G1 X81.853 Y48.943 E70.44712
G1 X81.72 Y49.343 E70.48308
G1 X80.578 Y52.407 E70.76204
G1 X80.418 Y52.794 E70.79777
G1 X79.068 Y55.776 E71.07703
G1 X78.883 Y56.15 E71.11262
G1 X77.331 Y59.037 E71.39225
G1 X77.123 Y59.395 E71.42758
G1 X75.38 Y62.169 E71.70707
G1 X75.145 Y62.516 E71.74282
G1 X73.218 Y65.162 E72.02208
G1 X72.962 Y65.489 E72.05751
G1 X70.864 Y67.993 E72.3362
G1 X70.581 Y68.308 E72.37233
G1 X68.322 Y70.654 E72.65017
G1 X68.02 Y70.947 E72.68607
G1 X65.614 Y73.124 E72.96288
G1 X65.07 Y73.563 E73.02252
G1 X64.478 Y73.937 E73.08226
G1 X64.149 Y74.107 E73.11385
G1 X62.966 Y74.673 E73.22573
G1 X62.198 Y75.178 E73.30415
G1 X61.47 Y75.808 E73.38628
G1 X60.82 Y76.537 E73.46961
G1 X60.253 Y77.367 E73.55536
G1 X59.795 Y78.261 E73.64106
G1 X59.461 Y79.191 E73.72536
G1 X59.253 Y80.136 E73.80791
G1 X59.138 Y81.483 E73.92324
G1 X59.039 Y82.175 E73.98288
G1 X58.877 Y82.815 E74.0392
G1 X58.651 Y83.477 E74.09888
G1 X58.341 Y84.127 E74.16032
G1 X58.229 Y84.33 E74.1801
G1 X57.856 Y84.923 E74.23986
G1 X57.427 Y85.459 E74.29843
G1 X57.28 Y85.623 E74.31722
G1 X56.784 Y86.116 E74.37688
G1 X56.187 Y86.584 E74.4416
G1 X56.002 Y86.711 E74.46074
G1 X55.403 Y87.073 E74.52045
G1 X54.641 Y87.412 E74.5916
G1 X54.436 Y87.487 E74.61022
G1 X53.766 Y87.69 E74.66995
G1 X52.89 Y87.835 E74.7457
G1 X52.682 Y87.854 E74.76352
G1 X51.983 Y87.877 E74.82318
G1 X51.004 Y87.776 E74.90715
G1 X50.8 Y87.738 E74.92485
G1 X50.121 Y87.57 E74.98453
G1 X49.184 Y87.195 E75.07063
G1 X49.002 Y87.104 E75.08799
G1 X48.395 Y86.756 E75.14768
G1 X47.832 Y86.341 E75.20735
G1 X47.407 Y85.958 E75.25616
G1 X46.924 Y85.452 E75.31583
G1 X46.336 Y84.631 E75.40199
G1 X46.23 Y84.454 E75.41959
G1 X45.905 Y83.835 E75.47923
G1 X45.586 Y82.957 E75.55893
G1 X45.529 Y82.753 E75.577
G1 X45.379 Y82.07 E75.63665
G1 X45.304 Y81.217 E75.70971
G1 X45.3 Y80.996 E75.72856
G1 X45.327 Y80.297 E75.78824
G1 X45.368 Y80.038 E75.81061
G1 X45.421 Y78.686 E75.92604
G1 X45.506 Y77.879 E75.99527
G1 X45.807 Y76.144 E76.1455
G1 X45.994 Y75.369 E76.21351
G1 X46.522 Y73.675 E76.36489
G1 X46.806 Y72.936 E76.43243
G1 X47.552 Y71.316 E76.58458
G1 X47.927 Y70.623 E76.65181
G1 X48.877 Y69.109 E76.80429
G1 X49.334 Y68.475 E76.87097
G1 X50.462 Y67.103 E77.0225
G1 X51.006 Y66.523 E77.09033
G1 X52.298 Y65.313 E77.24135
G1 X52.919 Y64.803 E77.3099
G1 X54.34 Y63.786 E77.45898
G1 X55.043 Y63.352 E77.52946
G1 X55.979 Y62.857 E77.6198
G1 X57.842 Y61.254 E77.82947
G1 X59.826 Y59.281 E78.06818
G1 X61.667 Y57.164 E78.30752
G1 X63.37 Y54.896 E78.54948
G1 X64.895 Y52.536 E78.7892
G1 X66.261 Y50.052 E79.03104
G1 X67.441 Y47.486 E79.27199
G1 X68.433 Y44.849 E79.51235
G1 X69.229 Y42.162 E79.75143
G1 X69.83 Y39.426 E79.99041
G1 X70.224 Y36.7 E80.22539
G1 X70.413 Y33.975 E80.45842
G1 X70.398 Y31.259 E80.69014
G1 X70.181 Y28.592 E80.91842
G1 X69.762 Y25.965 E81.14536
G1 X69.153 Y23.441 E81.36687
G1 X68.35 Y20.984 E81.58739
G1 X67.362 Y18.628 E81.80535
G1 X66.209 Y16.41 E82.01861
G1 X64.874 Y14.294 E82.23206
G1 X63.396 Y12.339 E82.44114
G1 X61.765 Y10.529 E82.649
G1 X59.992 Y8.871 E82.85609
G1 X58.105 Y7.394 E83.06052
G1 X56.127 Y6.107 E83.26185
G1 X54.04 Y5.046 E83.46158
G1 X51.804 Y4.145 E83.66724
G1 X49.495 Y3.441 E83.87318
G1 X47.108 Y2.934 E84.08137
G1 X44.663 Y2.63 E84.29156
G1 X42.186 Y2.533 E84.50304
G1 X39.668 Y2.645 E84.71807
G1 X37.143 Y2.966 E84.93522
G1 X34.624 Y3.497 E85.15484
G1 X32.108 Y4.24 E85.37865
G1 X29.644 Y5.182 E85.6037
G1 X27.219 Y6.33 E85.83259
G1 X24.858 Y7.677 E86.06449
G1 X22.597 Y9.201 E86.29711
G1 X20.423 Y10.912 E86.53313
G1 X18.365 Y12.79 E86.77081
G1 X16.438 Y14.82 E87.0096
G1 X14.638 Y17.014 E87.25171
G1 X13.017 Y19.304 E87.49107
