;FLAVOR:Marlin
;TIME:4419
;Filament used: 4.31943m
;Layer height: 0.3
;MINX:213.475
;MINY:55.2
;MINZ:0.3
;MAXX:288.636
;MAXY:244.8
;MAXZ:12
;Generated with Cura_SteamEngine 4.10.0
M104 S205
M105
M109 S205
M82 ;absolute extrusion mode
G28 ; home all axes
 M117 Purge extruder
 G92 E0 ; reset extruder
 G1 Z1.0 F3000 ; move z up little to prevent scratching of surface
 G1 X2 Y20 Z0.3 F5000.0 ; move to start-line position
 G1 X2 Y200.0 Z0.3 F1500.0 E15 ; draw 1st line
 G1 X2 Y200.0 Z0.4 F5000.0 ; move to side a little
 G1 X2 Y20 Z0.4 F1500.0 E30 ; draw 2nd line
 G92 E0 ; reset extruder
 G1 Z1.0 F3000 ; move z up little to prevent scratching of surface
G92 E0
G92 E0
G1 F2400 E-1.6
;LAYER_COUNT:40
;LAYER:0
M106 S89.3
;MESH:sodastream_bottle_holder_clip.stl
G0 F6000 X279.33 Y176.465 Z0.3
;TYPE:WALL-INNER
G1 F2400 E0
G1 F900 X279.476 Y176.551 E0.00993
G1 X279.979 Y176.757 E0.04177
G1 X280.049 Y176.773 E0.04597
G1 X280.509 Y176.882 E0.07367
G1 X281.06 Y176.915 E0.106
G1 X281.608 Y176.85 E0.13833
G1 X282.137 Y176.692 E0.17067
G1 X282.633 Y176.456 E0.20285
G1 X283.123 Y176.132 E0.23726
G1 X283.919 Y175.376 E0.30157
G1 X284.634 Y174.406 E0.37217
G1 X285.383 Y173.058 E0.4625
G1 X285.383 Y126.787 E3.17311
G1 X284.634 Y125.439 E3.26345
G1 X283.919 Y124.469 E3.33404
G1 X283.123 Y123.713 E3.39835
G1 X282.635 Y123.39 E3.43263
G1 X282.136 Y123.15 E3.46507
G1 X281.605 Y122.995 E3.49747
G1 X281.06 Y122.93 E3.52963
G1 X280.509 Y122.963 E3.56196
G1 X280.048 Y123.072 E3.58971
G1 X279.979 Y123.088 E3.59386
G1 X279.476 Y123.294 E3.62571
G1 X279.329 Y123.381 E3.63571
G1 X279.403 Y123.253 E3.63609
G1 X279.617 Y122.88 E3.64838
G1 X279.652 Y122.819 E3.65225
G1 X280.774 Y120.867 E3.78415
G1 X282.141 Y117.978 E3.97138
G1 X283.277 Y114.991 E4.15859
G1 X284.174 Y111.924 E4.34578
G1 X284.828 Y108.795 E4.53304
G1 X285.231 Y105.625 E4.72024
G1 X285.385 Y102.422 E4.90809
G1 X285.231 Y99.22 E5.09589
G1 X284.828 Y96.05 E5.28308
G1 X284.174 Y92.92 E5.4704
G1 X283.277 Y89.854 E5.65754
G1 X282.141 Y86.867 E5.84475
G1 X280.774 Y83.977 E6.03203
G1 X279.653 Y82.027 E6.1638
G1 X279.618 Y81.965 E6.16797
G1 X279.404 Y81.593 E6.19311
G1 X279.33 Y81.465 E6.20177
G1 X279.476 Y81.551 E6.20349
G1 X279.979 Y81.757 E6.2224
G1 X280.049 Y81.773 E6.22636
G1 X280.509 Y81.882 E6.25405
G1 X281.06 Y81.915 E6.28639
G1 X281.608 Y81.85 E6.31871
G1 X282.137 Y81.692 E6.35106
G1 X282.633 Y81.456 E6.38323
G1 X283.123 Y81.132 E6.41765
G1 X283.919 Y80.376 E6.48196
G1 X284.634 Y79.406 E6.55255
G1 X285.383 Y78.058 E6.64289
G1 X285.383 Y56.2 E7.92335
G1 X286.783 Y56.2 E8.00537
G1 X286.783 Y243.561 E18.98118
G1 X286.783 Y243.8 E18.99518
G1 X286.544 Y243.8 E19.00424
G1 X285.383 Y243.799 E19.07225
G1 X285.383 Y221.787 E20.36174
G1 X284.634 Y220.439 E20.45208
G1 X283.919 Y219.469 E20.52267
G1 X283.123 Y218.713 E20.58698
G1 X282.635 Y218.39 E20.62126
G1 X282.136 Y218.15 E20.6537
G1 X281.605 Y217.995 E20.68611
G1 X281.06 Y217.93 E20.71826
G1 X280.509 Y217.963 E20.7506
G1 X280.048 Y218.072 E20.77835
G1 X279.979 Y218.088 E20.7825
G1 X279.476 Y218.294 E20.81434
G1 X279.329 Y218.381 E20.82434
G1 X279.403 Y218.253 E20.82472
G1 X279.617 Y217.88 E20.83701
G1 X279.652 Y217.819 E20.84089
G1 X280.774 Y215.867 E20.97278
G1 X282.141 Y212.978 E21.16001
G1 X283.277 Y209.991 E21.34722
G1 X284.174 Y206.924 E21.53441
G1 X284.828 Y203.795 E21.72168
G1 X285.231 Y200.625 E21.90887
G1 X285.385 Y197.422 E22.09672
G1 X285.231 Y194.22 E22.28452
G1 X284.828 Y191.05 E22.47171
G1 X284.174 Y187.92 E22.65903
G1 X283.277 Y184.854 E22.84617
G1 X282.141 Y181.867 E23.03338
G1 X280.774 Y178.977 E23.22066
G1 X279.653 Y177.027 E23.35243
G1 X279.618 Y176.965 E23.35485
G1 X279.404 Y176.593 E23.36708
G1 X279.33 Y176.465 E23.3675
G0 F6000 X272.668 Y169.278
G0 X271.348 Y168.087
G0 X265.108 Y162.706
G1 F900 X265.172 Y162.743 E23.37183
G1 X265.562 Y162.989 E23.39885
G1 X267.737 Y164.359 E23.54943
G1 X268.236 Y164.728 E23.58578
G1 X270.172 Y166.163 E23.72696
G1 X270.208 Y166.192 E23.72966
G1 X270.764 Y166.673 E23.77273
G1 X272.488 Y168.164 E23.90626
G1 X272.526 Y168.2 E23.90932
G1 X273.133 Y168.81 E23.95973
G1 X274.628 Y170.315 E24.084
G1 X274.665 Y170.356 E24.08724
G1 X275.324 Y171.129 E24.14675
G1 X276.65 Y172.683 E24.26642
G1 X277.327 Y173.61 E24.33366
G1 X278.509 Y175.227 E24.451
G1 X279.26 Y175.867 E24.5088
G1 X279.69 Y176.12 E24.53803
G1 X280.126 Y176.298 E24.56561
G1 X280.579 Y176.405 E24.59288
G1 X281.046 Y176.433 E24.62029
G1 X281.511 Y176.378 E24.64772
G1 X281.964 Y176.243 E24.67541
G1 X282.396 Y176.037 E24.70345
G1 X282.823 Y175.755 E24.73342
G1 X283.558 Y175.057 E24.7928
G1 X284.229 Y174.146 E24.85908
G1 X284.903 Y172.934 E24.94032
G1 X284.903 Y126.911 E27.6364
G1 X284.229 Y125.699 E27.71764
G1 X283.558 Y124.788 E27.78392
G1 X282.823 Y124.09 E27.8433
G1 X282.397 Y123.808 E27.87323
G1 X281.964 Y123.6 E27.90137
G1 X281.509 Y123.467 E27.92914
G1 X281.046 Y123.412 E27.95645
G1 X280.579 Y123.44 E27.98386
G1 X280.126 Y123.547 E28.01113
G1 X279.69 Y123.725 E28.03871
G1 X279.26 Y123.978 E28.06794
G1 X278.509 Y124.618 E28.12574
G1 X277.328 Y126.234 E28.243
G1 X276.64 Y127.175 E28.31128
G1 X275.325 Y128.716 E28.42996
G1 X274.674 Y129.479 E28.48871
G1 X274.629 Y129.529 E28.49265
G1 X273.134 Y131.034 E28.61692
G1 X272.527 Y131.644 E28.66734
G1 X272.49 Y131.679 E28.67032
G1 X270.765 Y133.171 E28.80393
G1 X270.215 Y133.647 E28.84654
G1 X270.174 Y133.68 E28.84962
G1 X268.236 Y135.115 E28.99089
G1 X267.722 Y135.496 E29.02837
G1 X265.563 Y136.855 E29.17781
G1 X265.173 Y137.101 E29.20482
G1 X265.11 Y137.137 E29.20908
G1 X262.761 Y138.381 E29.36479
G1 X262.479 Y138.53 E29.38347
G1 X262.412 Y138.561 E29.3878
G1 X259.848 Y139.679 E29.55166
G1 X259.655 Y139.763 E29.56399
G1 X256.841 Y140.745 E29.73858
G1 X256.769 Y140.77 E29.74305
G1 X256.716 Y140.786 E29.74629
G1 X253.812 Y141.558 E29.92232
G1 X253.758 Y141.57 E29.92556
G1 X253.726 Y141.576 E29.92747
G1 X250.814 Y142.119 E30.101
G1 X250.587 Y142.143 E30.11437
G1 X247.761 Y142.454 E30.28092
G1 X247.413 Y142.465 E30.30131
G1 X244.708 Y142.556 E30.45987
G1 X244.223 Y142.537 E30.4883
G1 X241.646 Y142.43 E30.63939
G1 X241.04 Y142.359 E30.67514
G1 X238.62 Y142.073 E30.81789
G1 X237.878 Y141.928 E30.86218
G1 X235.606 Y141.484 E30.99779
G1 X234.762 Y141.252 E31.04907
G1 X232.668 Y140.676 E31.17629
G1 X231.709 Y140.332 E31.23598
G1 X229.86 Y139.668 E31.35107
G1 X228.854 Y138.902 E31.42514
G1 X228.669 Y138.761 E31.43876
G1 X228.561 Y138.679 E31.44671
G1 X227.186 Y137.912 E31.53894
G1 X226.992 Y137.803 E31.55198
G1 X225.742 Y137.322 E31.63044
G1 X225.317 Y137.158 E31.65712
G1 X224.262 Y136.915 E31.72055
G1 X223.567 Y136.754 E31.76234
G1 X222.752 Y136.685 E31.81025
G1 X221.777 Y136.601 E31.86758
G1 X221.254 Y136.63 E31.89826
G1 X221.126 Y136.638 E31.90578
G1 X219.984 Y136.703 E31.97279
G1 X219.699 Y136.76 E31.98981
G1 X218.223 Y137.056 E32.078
G1 X218.19 Y137.067 E32.08004
G1 X216.695 Y137.594 E32.1729
G1 X216.529 Y137.653 E32.18322
G1 X215.205 Y138.342 E32.27065
G1 X215.066 Y138.414 E32.27982
G1 X214.955 Y138.412 E32.28633
G1 X214.92 Y138.411 E32.28838
G1 X214.877 Y138.32 E32.29427
G1 X214.903 Y138.287
G1 X214.959 Y138.216 E32.29605
G1 X214.992 Y138.205
G1 X215.111 Y138.163 E32.29882
G1 X216.389 Y137.415 E32.34193
G1 X216.59 Y137.297 E32.35101
G1 X218.059 Y136.698 E32.41952
G1 X218.129 Y136.681 E32.42315
G1 X219.609 Y136.312 E32.50176
G1 X219.94 Y136.278 E32.51982
G1 X221.078 Y136.162 E32.58319
G1 X221.197 Y136.149 E32.59021
G1 X221.27 Y136.152 E32.59449
G1 X221.794 Y136.172 E32.6236
G1 X222.792 Y136.213 E32.67873
G1 X223.638 Y136.369 E32.72431
G1 X224.357 Y136.502 E32.76078
G1 X225.417 Y136.859 E32.81151
G1 X225.862 Y137.009 E32.83031
G1 X227.082 Y137.624 E32.8754
G1 X227.288 Y137.728 E32.8813
G1 X228.589 Y138.638 E32.90679
G1 X228.702 Y138.717 E32.90769
G1 X228.924 Y138.808 E32.91045
G1 X230.027 Y139.237 E32.95168
G1 X231.847 Y139.945 E33.05578
G1 X232.801 Y140.231 E33.10895
G1 X234.871 Y140.854 E33.22472
G1 X235.703 Y141.034 E33.27005
G1 X237.957 Y141.522 E33.39314
G1 X238.681 Y141.619 E33.43198
G1 X241.088 Y141.944 E33.56191
G1 X241.671 Y141.976 E33.59294
G1 X244.24 Y142.119 E33.73011
G1 X244.697 Y142.109 E33.75421
G1 X247.398 Y142.045 E33.89743
G1 X247.715 Y142.013 E33.91416
G1 X250.54 Y141.722 E34.06454
G1 X250.734 Y141.687 E34.07484
G1 X253.646 Y141.151 E34.23253
G1 X253.699 Y141.137 E34.23549
G1 X256.603 Y140.364 E34.39555
G1 X256.656 Y140.349 E34.39854
G1 X256.698 Y140.338 E34.40075
G1 X259.507 Y139.347 E34.55957
G1 X259.676 Y139.287 E34.56901
G1 X262.23 Y138.153 E34.71835
G1 X262.297 Y138.123 E34.72236
G1 X262.561 Y138.005 E34.73767
G1 X264.894 Y136.74 E34.87982
G1 X264.958 Y136.705 E34.88385
G1 X265.338 Y136.499 E34.9068
G1 X267.472 Y135.112 E35.04359
G1 X267.986 Y134.778 E35.07639
G1 X269.892 Y133.314 E35.20585
G1 X269.934 Y133.282 E35.20882
G1 X270.491 Y132.855 E35.24644
G1 X272.178 Y131.334 E35.36907
G1 X272.216 Y131.3 E35.37196
G1 X272.837 Y130.74 E35.4169
G1 X274.288 Y129.207 E35.53123
G1 X274.334 Y129.158 E35.53509
G1 X275.008 Y128.446 E35.58798
G1 X276.272 Y126.879 E35.69727
G1 X276.991 Y125.989 E35.75935
G1 X278.121 Y124.338 E35.86885
G1 X278.774 Y123.383 E35.93662
G1 X280.348 Y120.644 E36.12168
G1 X281.699 Y117.79 E36.30666
G1 X282.822 Y114.838 E36.49168
G1 X283.708 Y111.807 E36.67667
G1 X284.354 Y108.716 E36.86165
G1 X284.752 Y105.583 E37.04666
G1 X284.904 Y102.422 E37.23205
G1 X284.752 Y99.262 E37.41738
G1 X284.354 Y96.129 E37.60239
G1 X283.708 Y93.037 E37.78744
G1 X282.822 Y90.007 E37.97237
G1 X281.699 Y87.055 E38.15739
G1 X280.348 Y84.2 E38.34242
G1 X278.774 Y81.462 E38.52743
G1 X278.121 Y80.508 E38.59516
G1 X276.991 Y78.856 E38.71241
G1 X276.284 Y77.98 E38.77835
G1 X275.008 Y76.399 E38.89737
G1 X274.326 Y75.678 E38.95551
G1 X274.288 Y75.638 E38.95874
G1 X272.837 Y74.105 E39.08239
G1 X272.216 Y73.545 E39.13138
G1 X272.177 Y73.51 E39.13445
G1 X270.491 Y71.99 E39.26743
G1 X269.928 Y71.558 E39.309
G1 X269.891 Y71.53 E39.31172
G1 X267.986 Y70.067 E39.45243
G1 X267.488 Y69.743 E39.48723
G1 X265.338 Y68.346 E39.63743
G1 X264.958 Y68.14 E39.66276
G1 X264.893 Y68.105 E39.66708
G1 X262.561 Y66.84 E39.8225
G1 X262.297 Y66.723 E39.83941
G1 X262.23 Y66.693 E39.84371
G1 X259.676 Y65.558 E40.00744
G1 X259.504 Y65.498 E40.01811
G1 X256.698 Y64.507 E40.19244
G1 X256.657 Y64.497 E40.19491
G1 X256.603 Y64.482 E40.19819
G1 X253.699 Y63.708 E40.37425
G1 X253.646 Y63.693 E40.37748
G1 X250.734 Y63.159 E40.55091
G1 X250.54 Y63.123 E40.56247
G1 X247.715 Y62.833 E40.72883
G1 X247.398 Y62.8 E40.7475
G1 X244.704 Y62.737 E40.90536
G1 X244.24 Y62.726 E40.93255
G1 X241.67 Y62.867 E41.08333
G1 X241.088 Y62.9 E41.11748
G1 X238.68 Y63.224 E41.25981
G1 X237.957 Y63.322 E41.30256
G1 X235.703 Y63.81 E41.43766
G1 X234.871 Y63.99 E41.48752
G1 X232.801 Y64.613 E41.61416
G1 X231.847 Y64.9 E41.67252
G1 X230.028 Y65.607 E41.78685
G1 X228.921 Y66.037 E41.85641
G1 X228.697 Y66.13 E41.87062
G1 X228.589 Y66.205 E41.87833
G1 X227.283 Y67.119 E41.97171
G1 X227.083 Y67.22 E41.98483
G1 X225.868 Y67.834 E42.06458
G1 X225.418 Y67.985 E42.09239
G1 X224.357 Y68.343 E42.15798
G1 X223.639 Y68.475 E42.20075
G1 X222.792 Y68.632 E42.25121
G1 X221.795 Y68.672 E42.30967
G1 X221.27 Y68.693 E42.34045
G1 X221.197 Y68.696 E42.34473
G1 X221.091 Y68.685 E42.35097
G1 X219.941 Y68.568 E42.41868
G1 X219.609 Y68.533 E42.43824
G1 X218.13 Y68.165 E42.52752
G1 X218.059 Y68.147 E42.53182
G1 X216.59 Y67.548 E42.62475
G1 X216.39 Y67.431 E42.63832
G1 X215.129 Y66.694 E42.72389
G1 X214.942 Y66.585 E42.73657
G1 X214.884 Y66.551 E42.7405
G1 X214.9 Y66.453 E42.74632
G1 X215.04 Y66.416 E42.74937
G1 X215.223 Y66.511 E42.75424
G1 X216.529 Y67.192 E42.79774
G1 X216.694 Y67.25 E42.80343
G1 X218.189 Y67.777 E42.87211
G1 X218.223 Y67.789 E42.87362
G1 X219.698 Y68.084 E42.95119
G1 X219.984 Y68.142 E42.96689
G1 X221.138 Y68.208 E43.03099
G1 X221.253 Y68.215 E43.03774
G1 X221.777 Y68.244 E43.06685
G1 X222.751 Y68.161 E43.12061
G1 X223.567 Y68.091 E43.16366
G1 X224.261 Y67.931 E43.19899
G1 X225.317 Y67.687 E43.2476
G1 X225.747 Y67.522 E43.26571
G1 X226.992 Y67.042 E43.30889
G1 X227.181 Y66.937 E43.31413
G1 X228.561 Y66.166 E43.33867
G1 X228.664 Y66.088 E43.33941
G1 X228.851 Y65.946 E43.34232
G1 X229.86 Y65.177 E43.38814
G1 X231.708 Y64.514 E43.49274
G1 X232.667 Y64.17 E43.54713
G1 X234.762 Y63.594 E43.66301
G1 X235.605 Y63.362 E43.70948
G1 X237.878 Y62.918 E43.83258
G1 X238.619 Y62.773 E43.87263
G1 X241.039 Y62.488 E44.00213
G1 X241.645 Y62.416 E44.03449
G1 X244.222 Y62.309 E44.17141
G1 X244.714 Y62.288 E44.19757
G1 X247.412 Y62.378 E44.34135
G1 X247.76 Y62.39 E44.3599
G1 X250.586 Y62.7 E44.51115
G1 X250.813 Y62.725 E44.52333
G1 X253.725 Y63.268 E44.68147
G1 X253.757 Y63.274 E44.68313
G1 X253.811 Y63.286 E44.68607
G1 X256.715 Y64.058 E44.84666
G1 X256.768 Y64.074 E44.84967
G1 X256.84 Y64.099 E44.85382
G1 X259.651 Y65.08 E45.01312
G1 X259.847 Y65.165 E45.02458
G1 X262.411 Y66.283 E45.17442
G1 X262.478 Y66.314 E45.17848
G1 X262.76 Y66.463 E45.19558
G1 X265.108 Y67.706 E45.33839
G1 X265.172 Y67.743 E45.34247
G1 X265.562 Y67.989 E45.36714
G1 X267.737 Y69.359 E45.50516
G1 X268.236 Y69.728 E45.53855
G1 X270.172 Y71.163 E45.66868
G1 X270.208 Y71.192 E45.67129
G1 X270.764 Y71.673 E45.71082
G1 X272.488 Y73.164 E45.83392
G1 X272.526 Y73.2 E45.83689
G1 X273.133 Y73.81 E45.88325
G1 X274.628 Y75.315 E45.99808
G1 X274.665 Y75.356 E46.00123
G1 X275.324 Y76.129 E46.05607
G1 X276.65 Y77.683 E46.16677
G1 X277.327 Y78.61 E46.22908
G1 X278.509 Y80.227 E46.3387
G1 X279.26 Y80.867 E46.3965
G1 X279.69 Y81.12 E46.42573
G1 X280.126 Y81.298 E46.45332
G1 X280.579 Y81.405 E46.48059
G1 X281.046 Y81.433 E46.50799
G1 X281.511 Y81.378 E46.53542
G1 X281.964 Y81.243 E46.56311
G1 X282.396 Y81.037 E46.59115
G1 X282.823 Y80.755 E46.62113
G1 X283.558 Y80.057 E46.68051
G1 X284.229 Y79.146 E46.74679
G1 X284.903 Y77.934 E46.82803
G1 X284.903 Y55.72 E48.12935
G1 X287.263 Y55.72 E48.2676
G1 X287.263 Y244.041 E59.29965
G1 X287.263 Y244.28 E59.31365
G1 X287.024 Y244.28 E59.32271
G1 X284.903 Y244.279 E59.44696
G1 X284.903 Y221.911 E60.7573
G1 X284.229 Y220.699 E60.83854
G1 X283.558 Y219.788 E60.90483
G1 X282.823 Y219.09 E60.9642
G1 X282.397 Y218.808 E60.99413
G1 X281.964 Y218.6 E61.02227
G1 X281.509 Y218.467 E61.05004
G1 X281.046 Y218.412 E61.07736
G1 X280.579 Y218.44 E61.10476
G1 X280.126 Y218.547 E61.13203
G1 X279.69 Y218.725 E61.15962
G1 X279.26 Y218.978 E61.18885
G1 X278.509 Y219.618 E61.24665
G1 X277.328 Y221.234 E61.3639
G1 X276.64 Y222.175 E61.43219
G1 X275.325 Y223.716 E61.55086
G1 X274.674 Y224.479 E61.60962
G1 X274.629 Y224.529 E61.61356
G1 X273.134 Y226.034 E61.73783
G1 X272.527 Y226.644 E61.78824
G1 X272.49 Y226.679 E61.79122
G1 X270.765 Y228.171 E61.92483
G1 X270.215 Y228.647 E61.96744
G1 X270.174 Y228.68 E61.97053
G1 X268.236 Y230.115 E62.11179
G1 X267.722 Y230.496 E62.14927
G1 X265.563 Y231.855 E62.29872
G1 X265.173 Y232.101 E62.32573
G1 X265.11 Y232.137 E62.32998
G1 X262.761 Y233.381 E62.48569
G1 X262.479 Y233.53 E62.50438
G1 X262.412 Y233.561 E62.5087
G1 X259.848 Y234.679 E62.67256
G1 X259.655 Y234.763 E62.68489
G1 X256.841 Y235.745 E62.85949
G1 X256.769 Y235.77 E62.86395
G1 X256.716 Y235.786 E62.8672
G1 X253.812 Y236.558 E63.04322
G1 X253.758 Y236.57 E63.04646
G1 X253.726 Y236.576 E63.04837
G1 X250.814 Y237.119 E63.2219
G1 X250.587 Y237.143 E63.23527
G1 X247.761 Y237.454 E63.40182
G1 X247.413 Y237.465 E63.42222
G1 X244.708 Y237.556 E63.58077
G1 X244.223 Y237.537 E63.6092
G1 X241.646 Y237.43 E63.7603
G1 X241.04 Y237.359 E63.79604
G1 X238.62 Y237.073 E63.93879
G1 X237.878 Y236.928 E63.98308
G1 X235.606 Y236.484 E64.1187
G1 X234.762 Y236.252 E64.16997
G1 X232.668 Y235.676 E64.2972
G1 X231.709 Y235.332 E64.35688
G1 X229.86 Y234.668 E64.47197
G1 X228.854 Y233.902 E64.54604
G1 X228.669 Y233.761 E64.55967
G1 X228.561 Y233.679 E64.56761
G1 X227.186 Y232.912 E64.65985
G1 X226.992 Y232.803 E64.67288
G1 X225.742 Y232.322 E64.75134
G1 X225.317 Y232.158 E64.77803
G1 X224.262 Y231.915 E64.84145
G1 X223.567 Y231.754 E64.88324
G1 X222.752 Y231.685 E64.93116
G1 X221.777 Y231.601 E64.98848
G1 X221.254 Y231.63 E65.01917
G1 X221.141 Y231.637 E65.0258
G1 X219.984 Y231.703 E65.09369
