;FLAVOR:Marlin
;TIME:3739
;Filament used: 3.37996m
;Layer height: 0.3
;MINX:21.098
;MINY:9.137
;MINZ:0.3
;MAXX:176.751
;MAXY:100.787
;MAXZ:2.1
;Generated with Cura_SteamEngine 4.10.0
M104 S210
M105
M109 S210
M82 ;absolute extrusion mode
G21 ;metric values
G90 ;absolute positioning
M82 ;set extruder to absolute mode
M107 ;start with the fan off
G28 X0 Y0 ;move X/Y to min endstops
G28 Z0 ;move Z to min endstops
M501
M420 S1 ;Marlin Bed-leveling on
G1 Z15.0 F180.0 ;move the platform down 15mm
G92 E0 ;zero the extruded length
G1 F200 E3 ;extrude 3mm of feed stock
G92 E0 ;zero the extruded length again
G1 F180.0
M117 Printing...
G5
G92 E0
G92 E0
;LAYER_COUNT:7
;LAYER:0
M107
M204 S3000
M205 X10 Y10
G0 F7200 X23.536 Y20.06 Z0.3
M204 S1000
M205 X8 Y8
;TYPE:SKIRT
G1 F1200 X23.884 Y19.661 E0.04345
G1 X24.318 Y19.219 E0.09429
G1 X24.89 Y18.712 E0.15702
G1 X25.327 Y18.364 E0.20287
G1 X25.906 Y17.95 E0.26128
G1 X26.347 Y17.676 E0.30389
G1 X26.948 Y17.349 E0.36004
G1 X27.421 Y17.125 E0.40299
G1 X27.702 Y17.005 E0.42807
G1 X28.181 Y16.822 E0.47015
G1 X28.763 Y16.636 E0.5203
G1 X29.479 Y16.456 E0.58089
G1 X29.765 Y16.398 E0.60484
G1 X30.3 Y16.311 E0.64932
G1 X30.549 Y16.281 E0.6699
G1 X31.22 Y16.234 E0.72511
G1 X33.672 Y16.185 E0.92638
G1 X34.751 Y16.168 E1.01495
G1 X37.407 Y16.055 E1.23312
G1 X40.032 Y15.869 E1.44909
G1 X42.134 Y15.672 E1.62236
G1 X42.595 Y15.643 E1.66027
G1 X43.964 Y15.615 E1.77264
G1 X44.703 Y15.615 E1.83329
G1 X45.917 Y15.633 E1.93293
G1 X46.417 Y15.652 E1.974
G1 X47.6 Y15.706 E2.07119
G1 X50.227 Y15.751 E2.28682
G1 X52.895 Y15.721 E2.50579
G1 X53.547 Y15.697 E2.55934
G1 X55.664 Y15.658 E2.73311
G1 X56.252 Y15.659 E2.78136
G1 X58.02 Y15.695 E2.92649
G1 X60.678 Y15.713 E3.14464
G1 X64.598 Y15.603 E3.46648
G1 X65.22 Y15.576 E3.51757
G1 X66.68 Y15.549 E3.63741
G1 X69.299 Y15.464 E3.85247
G1 X71.977 Y15.302 E4.07265
G1 X74.564 Y15.07 E4.28582
G1 X77.21 Y14.758 E4.50448
G1 X79.835 Y14.374 E4.7222
G1 X82.408 Y13.922 E4.9366
G1 X84.975 Y13.397 E5.15163
G1 X87.546 Y12.794 E5.36836
G1 X90.112 Y12.114 E5.58622
G1 X92.647 Y11.366 E5.80313
G1 X95.149 Y10.549 E6.01914
G1 X95.834 Y10.305 E6.07882
G1 X97.167 Y9.845 E6.19455
G1 X97.841 Y9.645 E6.25224
G1 X98.578 Y9.48 E6.31423
G1 X99.107 Y9.394 E6.35821
G1 X99.346 Y9.365 E6.37797
G1 X100.022 Y9.317 E6.43359
G1 X101.401 Y9.289 E6.54678
G1 X102.139 Y9.289 E6.60735
G1 X103.987 Y9.315 E6.75903
G1 X105.518 Y9.35 E6.88471
G1 X108.177 Y9.334 E7.10294
G1 X110.815 Y9.245 E7.31956
G1 X111.603 Y9.197 E7.38435
G1 X112.16 Y9.172 E7.43011
G1 X113.838 Y9.137 E7.56785
G1 X114.58 Y9.137 E7.62875
G1 X115.399 Y9.148 E7.69597
G1 X115.948 Y9.173 E7.74107
G1 X116.484 Y9.225 E7.78527
G1 X117.101 Y9.318 E7.83648
G1 X117.631 Y9.428 E7.8809
G1 X118.28 Y9.603 E7.93607
G1 X118.845 Y9.792 E7.98496
G1 X119.51 Y10.062 E8.04386
G1 X120.928 Y10.719 E8.17212
G1 X123.324 Y11.793 E8.38761
G1 X125.818 Y12.829 E8.60925
G1 X128.237 Y13.75 E8.82168
G1 X130.735 Y14.624 E9.03887
G1 X133.26 Y15.427 E9.25632
G1 X135.759 Y16.145 E9.46971
G1 X138.334 Y16.808 E9.68793
G1 X140.948 Y17.403 E9.90795
G1 X143.47 Y17.899 E10.1189
G1 X146.119 Y18.344 E10.33934
G1 X148.712 Y18.706 E10.55421
G1 X151.289 Y18.99 E10.76699
G1 X153.627 Y19.168 E10.95942
G1 X155.933 Y19.359 E11.14932
G1 X158.611 Y19.543 E11.36962
G1 X161.203 Y19.649 E11.58252
G1 X163.889 Y19.681 E11.80298
G1 X164.338 Y19.677 E11.83983
G1 X165.312 Y19.679 E11.91976
G1 X166.662 Y19.707 E12.03058
G1 X167.423 Y19.766 E12.09322
G1 X167.705 Y19.804 E12.11657
G1 X168.285 Y19.908 E12.16493
G1 X168.949 Y20.069 E12.22101
G1 X169.174 Y20.133 E12.2402
G1 X169.672 Y20.296 E12.28321
G1 X170.269 Y20.528 E12.33577
G1 X170.682 Y20.722 E12.37322
G1 X171.259 Y21.018 E12.42644
G1 X171.96 Y21.433 E12.4933
G1 X172.198 Y21.594 E12.51688
G1 X172.614 Y21.899 E12.55922
G1 X173.183 Y22.369 E12.61978
G1 X173.351 Y22.521 E12.63838
G1 X173.869 Y23.044 E12.69879
G1 X174.313 Y23.544 E12.75367
G1 X174.913 Y24.329 E12.83476
G1 X175.224 Y24.804 E12.88135
G1 X175.689 Y25.636 E12.95957
G1 X175.96 Y26.214 E13.01196
G1 X176.307 Y27.119 E13.09151
G1 X176.463 Y27.633 E13.13559
G1 X176.638 Y28.346 E13.19585
G1 X176.734 Y29.074 E13.25611
G1 X176.751 Y29.809 E13.31645
G1 X176.667 Y30.672 E13.38761
G1 X176.495 Y31.732 E13.47574
G1 X176.094 Y34.435 E13.7
G1 X175.778 Y37.067 E13.91756
G1 X175.542 Y39.665 E14.13165
G1 X175.375 Y42.325 E14.35039
G1 X175.285 Y44.95 E14.56594
G1 X175.266 Y46.888 E14.725
G1 X175.265 Y68.246 E16.47784
G1 X175.302 Y70.87 E16.69321
G1 X175.415 Y73.532 E16.91188
G1 X175.599 Y76.136 E17.12612
G1 X175.863 Y78.792 E17.34517
G1 X176.193 Y81.371 E17.55855
G1 X176.63 Y84.147 E17.78918
G1 X176.656 Y84.3 E17.80192
G1 X176.739 Y85.03 E17.86222
G1 X176.743 Y85.765 E17.92254
G1 X176.667 Y86.495 E17.98277
G1 X176.528 Y87.152 E18.03789
G1 X176.322 Y87.861 E18.09848
G1 X176.172 Y88.298 E18.1364
G1 X175.81 Y89.157 E18.2129
G1 X175.539 Y89.692 E18.26212
G1 X175.045 Y90.515 E18.34089
G1 X174.673 Y91.046 E18.3941
G1 X174.197 Y91.65 E18.45722
G1 X173.674 Y92.212 E18.52022
G1 X173.487 Y92.394 E18.54164
G1 X172.971 Y92.847 E18.59799
G1 X172.465 Y93.248 E18.65097
G1 X171.807 Y93.709 E18.71691
G1 X171.156 Y94.089 E18.77877
G1 X170.895 Y94.225 E18.80293
G1 X170.435 Y94.443 E18.8447
G1 X170.155 Y94.563 E18.86971
G1 X169.668 Y94.75 E18.91252
G1 X169.086 Y94.936 E18.96266
G1 X168.37 Y95.116 E19.02325
G1 X168.084 Y95.174 E19.0472
G1 X167.518 Y95.264 E19.09424
G1 X167.233 Y95.297 E19.11778
G1 X166.586 Y95.341 E19.17101
G1 X165.328 Y95.365 E19.27427
G1 X164.724 Y95.364 E19.32384
G1 X163.379 Y95.337 E19.43424
G1 X162.947 Y95.314 E19.46975
G1 X162.109 Y95.243 E19.53877
G1 X159.387 Y95.054 E19.7627
G1 X156.765 Y94.947 E19.97806
G1 X154.151 Y94.912 E20.19261
G1 X153.651 Y94.917 E20.23365
G1 X152.622 Y94.915 E20.3181
G1 X151.282 Y94.888 E20.42809
G1 X148.595 Y94.87 E20.64862
G1 X146.007 Y94.925 E20.86106
G1 X143.32 Y95.059 E21.08186
G1 X140.737 Y95.262 E21.2945
G1 X138.09 Y95.545 E21.51297
G1 X135.486 Y95.898 E21.72863
G1 X132.871 Y96.328 E21.94613
G1 X130.279 Y96.83 E22.1628
G1 X127.705 Y97.405 E22.37926
G1 X125.184 Y98.042 E22.59266
G1 X122.631 Y98.766 E22.81044
G1 X119.226 Y99.853 E23.10378
G1 X118.524 Y100.092 E23.16464
G1 X117.858 Y100.288 E23.22162
G1 X117.122 Y100.451 E23.28349
G1 X116.389 Y100.559 E23.34429
G1 X116.18 Y100.58 E23.36153
G1 X115.629 Y100.613 E23.40683
G1 X114.289 Y100.636 E23.51682
G1 X113.702 Y100.634 E23.565
G1 X111.159 Y100.587 E23.77373
G1 X108.472 Y100.574 E23.99426
G1 X105.835 Y100.637 E24.21074
G1 X103.692 Y100.751 E24.38686
G1 X103.457 Y100.76 E24.40616
G1 X101.986 Y100.787 E24.5269
G1 X101.414 Y100.787 E24.57385
G1 X100.039 Y100.762 E24.68671
G1 X99.244 Y100.7 E24.75216
G1 X98.918 Y100.655 E24.77916
G1 X98.348 Y100.551 E24.82672
G1 X97.67 Y100.385 E24.884
G1 X96.953 Y100.177 E24.94527
G1 X94.35 Y99.46 E25.16685
G1 X91.787 Y98.832 E25.38342
G1 X89.219 Y98.278 E25.59902
G1 X86.629 Y97.795 E25.81525
G1 X83.998 Y97.383 E26.0338
G1 X81.407 Y97.05 E26.24819
G1 X78.766 Y96.788 E26.466
G1 X76.153 Y96.602 E26.68099
G1 X73.491 Y96.488 E26.89966
G1 X70.885 Y96.452 E27.11356
G1 X68.967 Y96.471 E27.27097
G1 X67.216 Y96.506 E27.4147
G1 X66.695 Y96.505 E27.45746
G1 X64.904 Y96.469 E27.60448
G1 X62.218 Y96.451 E27.82492
G1 X59.605 Y96.509 E28.03942
G1 X58.623 Y96.561 E28.12013
G1 X57.97 Y96.582 E28.17375
G1 X57.782 Y96.588 E28.18918
G1 X56.311 Y96.615 E28.30993
G1 X55.739 Y96.615 E28.35687
G1 X54.075 Y96.585 E28.49346
G1 X51.782 Y96.503 E28.68176
G1 X49.139 Y96.482 E28.89868
G1 X47.542 Y96.517 E29.02978
G1 X47.42 Y96.513 E29.03979
G1 X43.411 Y96.593 E29.36887
G1 X42.355 Y96.612 E29.45555
G1 X39.728 Y96.723 E29.67134
G1 X36.138 Y96.994 E29.96681
G1 X35.136 Y97.089 E30.04941
G1 X34.54 Y97.128 E30.09843
G1 X34.284 Y97.139 E30.11946
G1 X33.078 Y97.164 E30.21846
G1 X32.537 Y97.163 E30.26286
G1 X31.187 Y97.135 E30.37367
G1 X30.426 Y97.076 E30.43632
G1 X30.144 Y97.038 E30.45967
G1 X29.564 Y96.934 E30.50803
G1 X28.9 Y96.773 E30.5641
G1 X28.675 Y96.709 E30.5833
G1 X28.177 Y96.546 E30.6263
G1 X27.58 Y96.314 E30.67887
G1 X27.167 Y96.12 E30.71632
G1 X26.59 Y95.824 E30.76954
G1 X25.884 Y95.405 E30.83691
G1 X25.645 Y95.243 E30.86061
G1 X25.234 Y94.942 E30.90242
G1 X24.662 Y94.47 E30.96328
G1 X24.492 Y94.316 E30.98211
G1 X23.976 Y93.794 E31.04234
G1 X23.534 Y93.296 E31.09699
G1 X22.931 Y92.507 E31.17849
G1 X22.618 Y92.028 E31.22545
G1 X22.155 Y91.196 E31.30359
G1 X21.887 Y90.623 E31.35551
G1 X21.542 Y89.723 E31.43461
G1 X21.386 Y89.209 E31.47869
G1 X21.211 Y88.496 E31.53895
G1 X21.115 Y87.768 E31.59921
G1 X21.098 Y87.033 E31.65955
G1 X21.182 Y86.17 E31.73071
G1 X21.358 Y85.08 E31.82132
G1 X21.755 Y82.407 E32.0431
G1 X22.071 Y79.775 E32.26066
G1 X22.307 Y77.177 E32.47475
G1 X22.474 Y74.517 E32.69349
G1 X22.564 Y71.892 E32.90904
G1 X22.583 Y69.953 E33.06819
G1 X22.584 Y43.326 E35.25345
G1 X22.547 Y40.702 E35.46882
G1 X22.434 Y38.04 E35.68748
G1 X22.25 Y35.436 E35.90173
G1 X21.986 Y32.78 E36.12078
G1 X21.655 Y30.195 E36.33466
G1 X21.197 Y27.294 E36.57569
G1 X21.11 Y26.564 E36.63602
G1 X21.104 Y25.83 E36.69626
G1 X21.178 Y25.099 E36.75656
G1 X21.323 Y24.407 E36.81459
G1 X21.542 Y23.631 E36.88076
G1 X21.733 Y23.105 E36.92669
G1 X22.045 Y22.399 E36.99004
G1 X22.328 Y21.843 E37.04124
G1 X22.664 Y21.258 E37.0966
G1 X23.024 Y20.724 E37.14946
G1 X23.536 Y20.06 E37.21827
M204 S3000
M205 X10 Y10
G0 F7200 X24.067 Y20.516
M204 S1000
M205 X8 Y8
G1 F1200 X24.403 Y20.131 E37.26021
G1 X24.809 Y19.719 E37.30768
G1 X25.326 Y19.259 E37.36447
G1 X25.763 Y18.911 E37.41032
G1 X26.282 Y18.541 E37.46263
G1 X26.779 Y18.235 E37.51053
G1 X27.272 Y17.97 E37.55646
G1 X27.977 Y17.649 E37.62004
G1 X28.609 Y17.416 E37.67532
G1 X29.214 Y17.238 E37.72708
G1 X29.905 Y17.084 E37.78518
G1 X30.632 Y16.976 E37.8455
G1 X31.234 Y16.934 E37.89502
G1 X33.683 Y16.885 E38.09605
G1 X34.753 Y16.868 E38.18387
G1 X37.45 Y16.753 E38.40542
G1 X40.103 Y16.565 E38.62369
G1 X41.763 Y16.41 E38.76052
G1 X42.609 Y16.343 E38.83017
G1 X43.978 Y16.315 E38.94255
G1 X44.702 Y16.315 E39.00196
G1 X45.892 Y16.333 E39.09964
G1 X46.386 Y16.351 E39.14021
G1 X47.593 Y16.406 E39.23937
G1 X50.223 Y16.451 E39.45524
G1 X52.893 Y16.421 E39.67438
G1 X53.56 Y16.397 E39.72916
G1 X55.807 Y16.357 E39.9136
G1 X56.238 Y16.359 E39.94897
G1 X58.002 Y16.395 E40.09377
G1 X60.664 Y16.413 E40.31224
G1 X64.653 Y16.301 E40.63975
G1 X65.233 Y16.276 E40.68739
G1 X66.646 Y16.25 E40.80337
G1 X69.363 Y16.162 E41.02647
G1 X72.011 Y16.001 E41.24419
G1 X74.674 Y15.763 E41.46362
G1 X77.285 Y15.455 E41.67938
G1 X79.919 Y15.069 E41.89786
G1 X82.56 Y14.606 E42.11792
G1 X85.105 Y14.085 E42.33111
G1 X87.749 Y13.464 E42.55401
G1 X90.269 Y12.797 E42.76795
G1 X92.883 Y12.025 E42.99164
G1 X95.347 Y11.221 E43.20435
G1 X96.062 Y10.967 E43.26662
G1 X97.395 Y10.507 E43.38235
G1 X98.027 Y10.32 E43.43644
G1 X98.718 Y10.166 E43.49454
G1 X99.43 Y10.06 E43.55362
G1 X100.036 Y10.017 E43.60348
G1 X101.415 Y9.989 E43.71667
G1 X102.138 Y9.989 E43.77601
G1 X103.971 Y10.015 E43.92646
G1 X105.506 Y10.05 E44.05247
G1 X108.17 Y10.035 E44.2711
G1 X110.845 Y9.944 E44.49077
G1 X111.636 Y9.896 E44.5558
G1 X112.175 Y9.872 E44.60008
G1 X113.853 Y9.837 E44.73783
G1 X114.651 Y9.838 E44.80332
G1 X115.39 Y9.848 E44.86397
G1 X115.906 Y9.872 E44.90637
G1 X116.606 Y9.947 E44.96414
G1 X117.189 Y10.048 E45.0127
G1 X117.861 Y10.211 E45.06945
G1 X118.366 Y10.364 E45.11276
G1 X119.215 Y10.698 E45.18763
G1 X120.565 Y11.323 E45.30972
G1 X123.097 Y12.458 E45.53745
G1 X125.531 Y13.469 E45.75375
G1 X128.011 Y14.413 E45.97153
G1 X130.503 Y15.284 E46.18818
G1 X133.033 Y16.089 E46.40607
G1 X135.612 Y16.83 E46.62629
G1 X138.181 Y17.492 E46.84401
G1 X140.788 Y18.085 E47.06343
G1 X143.363 Y18.591 E47.2788
G1 X145.98 Y19.031 E47.49659
G1 X148.608 Y19.398 E47.71436
G1 X151.247 Y19.689 E47.93226
G1 X153.569 Y19.866 E48.12338
G1 X155.827 Y20.053 E48.30932
G1 X158.569 Y20.242 E48.53489
G1 X161.201 Y20.349 E48.75108
G1 X163.889 Y20.381 E48.97169
G1 X164.337 Y20.377 E49.00846
G1 X165.297 Y20.379 E49.08725
G1 X166.647 Y20.407 E49.19807
G1 X167.33 Y20.46 E49.25429
G1 X167.612 Y20.498 E49.27764
G1 X168.131 Y20.591 E49.32091
G1 X168.757 Y20.742 E49.37376
G1 X169.429 Y20.952 E49.43154
G1 X169.99 Y21.17 E49.48094
G1 X170.362 Y21.345 E49.51468
G1 X170.939 Y21.641 E49.5679
G1 X171.568 Y22.013 E49.62787
G1 X172.178 Y22.447 E49.68931
G1 X172.713 Y22.888 E49.74622
G1 X172.881 Y23.04 E49.76481
G1 X173.346 Y23.509 E49.81901
G1 X173.79 Y24.009 E49.87389
G1 X174.328 Y24.712 E49.94654
G1 X174.639 Y25.187 E49.99314
G1 X175.055 Y25.933 E50.06324
G1 X175.326 Y26.511 E50.11563
G1 X175.637 Y27.322 E50.18691
G1 X175.793 Y27.836 E50.23099
G1 X175.957 Y28.512 E50.28808
G1 X176.041 Y29.202 E50.34513
G1 X176.046 Y29.898 E50.40225
G1 X175.976 Y30.56 E50.45688
G1 X175.803 Y31.63 E50.54584
G1 X175.398 Y34.359 E50.77226
G1 X175.082 Y36.994 E50.99006
G1 X174.843 Y39.625 E51.20687
G1 X174.676 Y42.294 E51.42635
G1 X174.586 Y44.919 E51.6419
G1 X174.566 Y46.881 E51.80293
G1 X174.565 Y68.246 E53.55635
G1 X174.602 Y70.874 E53.77205
G1 X174.717 Y73.576 E53.994
G1 X174.904 Y76.22 E54.21153
G1 X175.165 Y78.846 E54.42811
G1 X175.504 Y81.499 E54.64761
G1 X175.965 Y84.417 E54.89006
G1 X176.042 Y85.109 E54.9472
G1 X176.039 Y85.804 E55.00424
G1 X175.957 Y86.494 E55.06126
G1 X175.788 Y87.212 E55.1218
G1 X175.51 Y88.071 E55.1959
G1 X175.185 Y88.841 E55.26449
G1 X174.914 Y89.376 E55.31371
G1 X174.472 Y90.113 E55.38424
G1 X174.1 Y90.644 E55.43745
G1 X173.673 Y91.185 E55.49401
G1 X173.186 Y91.711 E55.55284
G1 X172.999 Y91.893 E55.57425
G1 X172.537 Y92.299 E55.62473
G1 X172.031 Y92.7 E55.67772
G1 X171.44 Y93.113 E55.73689
G1 X170.833 Y93.468 E55.7946
G1 X170.159 Y93.8 E55.85626
G1 X169.443 Y94.087 E55.91957
G1 X168.9 Y94.261 E55.96636
G1 X168.23 Y94.43 E56.02307
G1 X167.944 Y94.488 E56.04702
G1 X167.438 Y94.569 E56.08908
G1 X167.153 Y94.602 E56.11262
G1 X166.572 Y94.641 E56.16041
G1 X165.181 Y94.666 E56.27459
G1 X164.738 Y94.664 E56.31095
G1 X163.393 Y94.637 E56.42135
G1 X163.006 Y94.617 E56.45316
G1 X162.092 Y94.54 E56.52843
G1 X159.465 Y94.357 E56.74455
G1 X156.768 Y94.247 E56.96608
G1 X154.153 Y94.212 E57.18071
G1 X153.652 Y94.217 E57.22183
G1 X152.636 Y94.215 E57.30521
G1 X151.301 Y94.188 E57.41479
G1 X148.62 Y94.17 E57.63483
G1 X145.921 Y94.228 E57.85638
G1 X143.3 Y94.359 E58.07176
G1 X140.681 Y94.564 E58.28735
G1 X137.991 Y94.852 E58.50938
G1 X135.388 Y95.205 E58.72496
G1 X132.763 Y95.637 E58.94329
G1 X130.138 Y96.145 E59.16272
G1 X127.559 Y96.721 E59.37959
G1 X124.991 Y97.37 E59.59697
G1 X122.411 Y98.101 E59.81705
G1 X119.009 Y99.187 E60.11013
G1 X118.299 Y99.429 E60.17169
G1 X117.673 Y99.612 E60.22522
G1 X116.986 Y99.764 E60.28296
G1 X116.319 Y99.863 E60.3383
G1 X115.616 Y99.913 E60.39614
G1 X114.29 Y99.936 E60.50498
G1 X113.715 Y99.934 E60.55217
G1 X111.175 Y99.887 E60.76066
G1 X108.459 Y99.874 E60.98357
G1 X105.816 Y99.937 E61.20054
G1 X103.655 Y100.052 E61.37814
G1 X103.444 Y100.06 E61.39547
G1 X101.848 Y100.088 E61.52647
G1 X101.315 Y100.086 E61.57022
G1 X100.052 Y100.062 E61.67389
G1 X99.34 Y100.006 E61.7325
G1 X99.014 Y99.961 E61.75951
G1 X98.503 Y99.868 E61.80214
G1 X97.865 Y99.713 E61.85602
G1 X97.113 Y99.495 E61.92028
G1 X94.524 Y98.782 E62.14067
G1 X91.957 Y98.153 E62.35757
G1 X89.357 Y97.592 E62.57586
G1 X86.728 Y97.102 E62.79534
G1 X84.121 Y96.693 E63.01191
G1 X81.461 Y96.352 E63.232
G1 X78.85 Y96.092 E63.44734
G1 X76.16 Y95.901 E63.66867
G1 X73.531 Y95.789 E63.88462
G1 X70.888 Y95.751 E64.10155
G1 X68.947 Y95.771 E64.26086
G1 X67.202 Y95.806 E64.4041
G1 X66.709 Y95.805 E64.44456
G1 X64.922 Y95.769 E64.59125
G1 X62.243 Y95.752 E64.81111
G1 X59.553 Y95.811 E65.03193
G1 X58.586 Y95.862 E65.11141
G1 X57.937 Y95.883 E65.1647
G1 X57.769 Y95.888 E65.17849
G1 X56.173 Y95.916 E65.30949
G1 X55.642 Y95.914 E65.35307
G1 X53.982 Y95.882 E65.48933
G1 X51.814 Y95.803 E65.66738
G1 X49.163 Y95.782 E65.88495
G1 X47.527 Y95.818 E66.01925
G1 X47.397 Y95.813 E66.02992
G1 X43.399 Y95.893 E66.3581
G1 X42.354 Y95.911 E66.44388
G1 X39.675 Y96.025 E66.66394
G1 X36.073 Y96.297 E66.9604
G1 X35.07 Y96.392 E67.04308
G1 X34.499 Y96.43 E67.09005
G1 X34.269 Y96.439 E67.10894
G1 X33.063 Y96.464 E67.20793
