;FLAVOR:Marlin
;TIME:3410
;Filament used: 2.77156m
;Layer height: 0.3
;MINX:113.594
;MINY:98.127
;MINZ:0.3
;MAXX:194.185
;MAXY:201.899
;MAXZ:2.1
;Generated with Cura_SteamEngine 4.10.0
M104 S210
M105
M109 S210
M82 ;absolute extrusion mode
G21 ;metric values
G90 ;absolute positioning
M82 ;set extruder to absolute mode
M107 ;start with the fan off
G28 X0 Y0 ;move X/Y to min endstops
G28 Z0 ;move Z to min endstops
M501
M420 S1 ;Marlin Bed-leveling on
G1 Z15.0 F180.0 ;move the platform down 15mm
G92 E0 ;zero the extruded length
G1 F200 E3 ;extrude 3mm of feed stock
G92 E0 ;zero the extruded length again
G1 F180.0
M117 Printing...
G5
G92 E0
G92 E0
;LAYER_COUNT:7
;LAYER:0
M107
M204 S3000
M205 X10 Y10
G0 F7200 X116.213 Y102.451 Z0.3
M204 S1000
M205 X8 Y8
;TYPE:SKIRT
G1 F1200 X116.558 Y102.085 E0.04128
G1 X116.931 Y101.726 E0.08377
G1 X117.426 Y101.298 E0.13747
G1 X118.006 Y100.86 E0.19712
G1 X118.319 Y100.644 E0.22833
G1 X118.835 Y100.336 E0.27765
G1 X119.378 Y100.043 E0.32828
G1 X120.276 Y99.639 E0.4091
G1 X120.793 Y99.451 E0.45425
G1 X121.738 Y99.184 E0.53484
G1 X122.335 Y99.061 E0.58486
G1 X123.306 Y98.933 E0.66524
G1 X124.005 Y98.898 E0.72268
G1 X125.13 Y98.879 E0.81502
G1 X125.669 Y98.881 E0.85926
G1 X127.539 Y98.915 E1.01275
G1 X128.968 Y98.968 E1.13011
G1 X131.619 Y98.991 E1.34768
G1 X134.265 Y98.939 E1.56488
G1 X134.82 Y98.913 E1.61048
G1 X135.01 Y98.907 E1.62608
G1 X136.63 Y98.879 E1.75905
G1 X137.171 Y98.881 E1.80345
G1 X138.413 Y98.904 E1.9054
G1 X138.822 Y98.924 E1.93901
G1 X139.718 Y98.995 E2.01277
G1 X141.565 Y99.156 E2.16493
G1 X144.16 Y99.309 E2.37827
G1 X146.818 Y99.391 E2.59651
G1 X149.439 Y99.398 E2.81162
G1 X152.097 Y99.329 E3.02983
G1 X154.696 Y99.188 E3.24344
G1 X157.295 Y98.976 E3.45745
G1 X157.744 Y98.933 E3.49447
G1 X158.254 Y98.904 E3.53639
G1 X159.519 Y98.88 E3.64023
G1 X160.126 Y98.881 E3.69004
G1 X161.539 Y98.91 E3.80603
G1 X162.103 Y98.937 E3.85237
G1 X164.861 Y99.049 E4.07891
G1 X167.452 Y99.081 E4.29156
G1 X170.113 Y99.037 E4.50998
G1 X172.732 Y98.921 E4.72513
G1 X175.35 Y98.731 E4.94055
G1 X179.139 Y98.324 E5.2533
G1 X179.885 Y98.231 E5.315
G1 X180.304 Y98.187 E5.34958
G1 X180.88 Y98.151 E5.39694
G1 X182.137 Y98.127 E5.50012
G1 X182.744 Y98.128 E5.54994
G1 X184.062 Y98.155 E5.65813
G1 X184.695 Y98.198 E5.7102
G1 X185.645 Y98.348 E5.78913
G1 X186.336 Y98.507 E5.84732
G1 X186.598 Y98.582 E5.86969
G1 X187.105 Y98.749 E5.91349
G1 X187.647 Y98.959 E5.9612
G1 X188.281 Y99.25 E6.01845
G1 X188.752 Y99.499 E6.06217
G1 X189.469 Y99.943 E6.13139
G1 X190.096 Y100.399 E6.19501
G1 X190.324 Y100.583 E6.21906
G1 X190.858 Y101.063 E6.27799
G1 X191.28 Y101.485 E6.32696
G1 X191.734 Y101.987 E6.38251
G1 X192.153 Y102.525 E6.43848
G1 X192.437 Y102.938 E6.47961
G1 X192.688 Y103.331 E6.51788
G1 X192.949 Y103.777 E6.56029
G1 X193.199 Y104.272 E6.6058
G1 X193.545 Y105.058 E6.67628
G1 X193.591 Y105.177 E6.68675
G1 X193.761 Y105.675 E6.72994
G1 X193.905 Y106.156 E6.77115
G1 X194.078 Y106.87 E6.83144
G1 X194.171 Y107.599 E6.89175
G1 X194.185 Y108.333 E6.952
G1 X194.096 Y109.208 E7.02418
G1 X193.999 Y109.784 E7.07212
G1 X193.582 Y112.503 E7.29788
G1 X193.26 Y115.094 E7.51216
G1 X193.008 Y117.716 E7.72833
G1 X192.831 Y120.356 E7.94548
G1 X192.728 Y123.006 E8.16313
G1 X192.699 Y125.299 E8.35133
G1 X192.698 Y174.457 E12.3857
G1 X192.735 Y177.079 E12.6009
G1 X192.848 Y179.733 E12.81891
G1 X193.034 Y182.359 E13.03497
G1 X193.296 Y184.994 E13.25229
G1 X193.626 Y187.579 E13.46616
G1 X194.074 Y190.423 E13.70244
G1 X194.148 Y191.154 E13.76274
G1 X194.15 Y191.756 E13.81215
G1 X194.135 Y192.114 E13.84155
G1 X194.064 Y192.845 E13.90183
G1 X193.915 Y193.564 E13.96209
G1 X193.664 Y194.362 E14.03075
G1 X193.474 Y194.868 E14.0751
G1 X193.084 Y195.696 E14.15022
G1 X192.694 Y196.398 E14.21612
G1 X192.164 Y197.202 E14.29515
G1 X191.711 Y197.79 E14.35607
G1 X191.548 Y197.979 E14.37655
G1 X191.054 Y198.494 E14.43512
G1 X190.569 Y198.949 E14.4897
G1 X189.78 Y199.585 E14.57287
G1 X189.33 Y199.895 E14.61772
G1 X188.637 Y200.313 E14.68413
G1 X188.379 Y200.445 E14.70792
G1 X187.92 Y200.667 E14.74976
G1 X187.364 Y200.905 E14.7994
G1 X186.899 Y201.066 E14.83978
G1 X186.339 Y201.237 E14.88784
G1 X185.571 Y201.423 E14.95269
G1 X184.843 Y201.537 E15.01316
G1 X184.628 Y201.56 E15.03091
G1 X184.049 Y201.597 E15.07852
G1 X182.693 Y201.625 E15.18983
G1 X182.157 Y201.624 E15.23382
G1 X180.819 Y201.597 E15.34365
G1 X180.077 Y201.541 E15.40472
G1 X178.538 Y201.339 E15.53211
G1 X175.923 Y201.033 E15.74819
G1 X173.277 Y200.799 E15.96619
G1 X170.66 Y200.642 E16.18135
G1 X168.005 Y200.559 E16.39935
G1 X165.381 Y200.55 E16.6147
G1 X162.754 Y200.616 E16.83037
G1 X160.072 Y200.759 E17.05079
G1 X157.483 Y200.971 E17.26398
G1 X154.885 Y201.257 E17.47848
G1 X152.217 Y201.629 E17.69956
G1 X151.175 Y201.784 E17.78602
G1 X150.588 Y201.844 E17.83445
G1 X150.008 Y201.874 E17.88211
G1 X148.801 Y201.899 E17.98119
G1 X148.26 Y201.898 E18.02559
G1 X146.91 Y201.87 E18.13641
G1 X146.149 Y201.811 E18.19905
G1 X145.867 Y201.773 E18.2224
G1 X145.36 Y201.684 E18.26465
G1 X145.06 Y201.62 E18.28982
G1 X144.562 Y201.494 E18.33198
G1 X143.985 Y201.317 E18.38151
G1 X143.107 Y201.014 E18.45774
G1 X142.123 Y200.662 E18.54351
G1 X139.65 Y199.854 E18.75702
G1 X137.105 Y199.103 E18.97479
G1 X134.535 Y198.422 E19.19299
G1 X131.962 Y197.816 E19.40993
G1 X129.422 Y197.298 E19.62268
G1 X126.799 Y196.837 E19.84125
G1 X123.539 Y196.368 E20.11155
G1 X122.593 Y196.248 E20.18981
G1 X121.962 Y196.132 E20.24246
G1 X121.364 Y195.986 E20.29298
G1 X120.981 Y195.874 E20.32573
G1 X120.478 Y195.694 E20.36957
G1 X119.882 Y195.453 E20.42233
G1 X119.217 Y195.141 E20.48262
G1 X118.692 Y194.846 E20.53204
G1 X118.166 Y194.512 E20.58318
G1 X117.733 Y194.2 E20.62698
G1 X117.116 Y193.688 E20.69278
G1 X116.659 Y193.263 E20.744
G1 X116.129 Y192.711 E20.8068
G1 X115.962 Y192.516 E20.82787
G1 X115.534 Y191.959 E20.88552
G1 X115.222 Y191.507 E20.93059
G1 X114.941 Y191.066 E20.97351
G1 X114.674 Y190.573 E21.01952
G1 X114.445 Y190.105 E21.06228
G1 X114.078 Y189.19 E21.14319
G1 X113.913 Y188.673 E21.18773
G1 X113.728 Y187.962 E21.24802
G1 X113.621 Y187.236 E21.30825
G1 X113.594 Y186.501 E21.36861
G1 X113.664 Y185.645 E21.4391
G1 X113.732 Y185.185 E21.47726
G1 X114.068 Y183.126 E21.64848
G1 X114.416 Y180.533 E21.86319
G1 X114.695 Y177.884 E22.08179
G1 X114.897 Y175.268 E22.29713
G1 X115.024 Y172.645 E22.51265
G1 X115.08 Y169.372 E22.7813
G1 X115.081 Y125.834 E26.35444
G1 X115.044 Y123.211 E26.56973
G1 X114.931 Y120.555 E26.7879
G1 X114.745 Y117.933 E27.00363
G1 X114.483 Y115.291 E27.22152
G1 X114.153 Y112.714 E27.43474
G1 X113.705 Y109.867 E27.67126
G1 X113.651 Y109.468 E27.70431
G1 X113.597 Y108.735 E27.76463
G1 X113.623 Y108.001 E27.8249
G1 X113.729 Y107.274 E27.8852
G1 X113.981 Y106.36 E27.96301
G1 X114.197 Y105.748 E28.01627
G1 X114.492 Y105.042 E28.07907
G1 X114.747 Y104.54 E28.12528
G1 X114.998 Y104.095 E28.16721
G1 X115.025 Y104.05 E28.17151
G1 X115.373 Y103.527 E28.22307
G1 X115.744 Y103.022 E28.2745
G1 X116.213 Y102.451 E28.33514
M204 S3000
M205 X10 Y10
G0 F7200 X116.729 Y102.925
M204 S1000
M205 X8 Y8
G1 F1200 X117.109 Y102.524 E28.38048
G1 X117.704 Y101.977 E28.44681
G1 X118.164 Y101.611 E28.49505
G1 X118.649 Y101.265 E28.54395
G1 X118.705 Y101.228 E28.54946
G1 X119.167 Y100.952 E28.59362
G1 X119.71 Y100.659 E28.64426
G1 X120.515 Y100.297 E28.7167
G1 X121.032 Y100.109 E28.76185
G1 X121.879 Y99.869 E28.8341
G1 X122.476 Y99.746 E28.88412
G1 X123.347 Y99.632 E28.95621
G1 X124.018 Y99.598 E29.01135
G1 X125.128 Y99.579 E29.10246
G1 X125.656 Y99.581 E29.1458
G1 X127.643 Y99.618 E29.3089
G1 X128.971 Y99.668 E29.41796
G1 X131.626 Y99.691 E29.63586
G1 X134.275 Y99.639 E29.85331
G1 X134.853 Y99.612 E29.90079
G1 X135.023 Y99.607 E29.91475
G1 X136.628 Y99.579 E30.04649
G1 X137.158 Y99.581 E30.08999
G1 X138.4 Y99.604 E30.19194
G1 X138.767 Y99.622 E30.22209
G1 X139.657 Y99.693 E30.29537
G1 X141.499 Y99.854 E30.44712
G1 X144.132 Y100.009 E30.66358
G1 X146.794 Y100.091 E30.88215
G1 X149.456 Y100.098 E31.10062
G1 X152.118 Y100.029 E31.31916
G1 X154.755 Y99.886 E31.5359
G1 X157.341 Y99.675 E31.74883
G1 X158.267 Y99.604 E31.82505
G1 X159.665 Y99.579 E31.93981
G1 X160.111 Y99.581 E31.97641
G1 X161.524 Y99.61 E32.0924
G1 X162.107 Y99.639 E32.1403
G1 X164.789 Y99.747 E32.36059
G1 X167.49 Y99.78 E32.58228
G1 X170.119 Y99.737 E32.79807
G1 X172.779 Y99.62 E33.01658
G1 X175.418 Y99.428 E33.23374
G1 X179.196 Y99.022 E33.54558
G1 X179.958 Y98.927 E33.6086
G1 X180.377 Y98.883 E33.64318
G1 X180.894 Y98.851 E33.68569
G1 X182.284 Y98.826 E33.79978
G1 X182.73 Y98.828 E33.83639
G1 X184.048 Y98.855 E33.94458
G1 X184.615 Y98.894 E33.99122
G1 X185.524 Y99.037 E34.06674
G1 X186.143 Y99.18 E34.11888
G1 X186.86 Y99.404 E34.18052
G1 X187.373 Y99.603 E34.22568
G1 X187.978 Y99.881 E34.28033
G1 X188.591 Y100.215 E34.33762
G1 X189.071 Y100.519 E34.38425
G1 X189.657 Y100.944 E34.44366
G1 X189.885 Y101.128 E34.4677
G1 X190.363 Y101.558 E34.52047
G1 X190.785 Y101.98 E34.56945
G1 X191.192 Y102.43 E34.61924
G1 X191.583 Y102.93 E34.67133
G1 X192.098 Y103.708 E34.74791
G1 X192.392 Y104.219 E34.79629
G1 X192.752 Y104.979 E34.86531
G1 X193.091 Y105.876 E34.944
G1 X193.235 Y106.357 E34.98521
G1 X193.396 Y107.033 E35.04224
G1 X193.478 Y107.724 E35.09935
G1 X193.48 Y108.419 E35.15639
G1 X193.406 Y109.092 E35.21195
G1 X193.294 Y109.76 E35.26754
G1 X192.892 Y112.38 E35.48508
G1 X192.56 Y115.049 E35.70581
G1 X192.309 Y117.671 E35.92198
G1 X192.132 Y120.319 E36.13978
G1 X192.029 Y122.947 E36.35563
G1 X191.999 Y125.375 E36.55491
G1 X191.998 Y174.457 E40.58304
G1 X192.035 Y177.083 E40.79857
G1 X192.15 Y179.779 E41.02003
G1 X192.339 Y182.441 E41.23905
G1 X192.597 Y185.048 E41.45405
G1 X192.937 Y187.707 E41.67405
G1 X193.382 Y190.532 E41.90876
G1 X193.451 Y191.224 E41.96583
G1 X193.451 Y191.726 E42.00703
G1 X193.436 Y192.084 E42.03643
G1 X193.367 Y192.776 E42.09351
G1 X193.136 Y193.728 E42.17391
G1 X192.854 Y194.537 E42.24422
G1 X192.456 Y195.387 E42.32125
G1 X192.09 Y196.045 E42.38304
G1 X191.587 Y196.806 E42.4579
G1 X191.181 Y197.333 E42.5125
G1 X191.018 Y197.522 E42.53298
G1 X190.575 Y197.983 E42.58545
G1 X190.09 Y198.438 E42.64003
G1 X189.383 Y199.008 E42.71456
G1 X188.933 Y199.318 E42.75941
G1 X188.312 Y199.694 E42.81899
G1 X188.074 Y199.814 E42.84086
G1 X187.615 Y200.036 E42.88271
G1 X187.117 Y200.25 E42.92719
G1 X186.695 Y200.396 E42.96384
G1 X186.135 Y200.567 E43.01189
G1 X185.446 Y200.734 E43.07008
G1 X184.769 Y200.841 E43.12633
G1 X184.554 Y200.864 E43.14407
G1 X184.035 Y200.897 E43.18675
G1 X182.679 Y200.925 E43.29806
G1 X182.171 Y200.924 E43.33975
G1 X180.833 Y200.897 E43.44959
G1 X180.168 Y200.847 E43.50432
G1 X178.641 Y200.647 E43.63071
G1 X175.995 Y200.337 E43.84935
G1 X173.31 Y200.099 E44.07057
G1 X170.687 Y199.942 E44.28622
G1 X168.029 Y199.859 E44.50447
G1 X165.365 Y199.85 E44.7231
G1 X162.699 Y199.917 E44.94197
G1 X160.082 Y200.056 E45.15705
G1 X157.419 Y200.274 E45.37633
G1 X154.746 Y200.569 E45.59703
G1 X152.144 Y200.931 E45.81263
G1 X151.987 Y200.956 E45.82568
G1 X151.073 Y201.091 E45.9015
G1 X150.546 Y201.145 E45.94498
G1 X149.993 Y201.174 E45.99043
G1 X148.786 Y201.199 E46.08951
G1 X148.275 Y201.198 E46.13145
G1 X146.925 Y201.17 E46.24226
G1 X146.242 Y201.117 E46.29848
G1 X145.506 Y201 E46.35965
G1 X144.76 Y200.823 E46.42257
G1 X144.213 Y200.655 E46.46953
G1 X143.342 Y200.355 E46.54513
G1 X142.344 Y199.998 E46.63212
G1 X139.865 Y199.188 E46.84616
G1 X137.262 Y198.42 E47.06889
G1 X134.739 Y197.752 E47.28308
G1 X132.125 Y197.136 E47.50349
G1 X129.538 Y196.608 E47.72018
G1 X126.925 Y196.148 E47.93792
G1 X123.611 Y195.672 E48.21269
G1 X122.844 Y195.576 E48.27613
G1 X122.312 Y195.489 E48.32037
G1 X121.794 Y195.375 E48.3639
G1 X121.245 Y195.224 E48.41063
G1 X120.74 Y195.045 E48.4546
G1 X120.144 Y194.804 E48.50736
G1 X119.549 Y194.525 E48.5613
G1 X119.058 Y194.25 E48.60748
G1 X118.563 Y193.936 E48.65559
G1 X118.15 Y193.638 E48.69739
G1 X117.593 Y193.175 E48.75683
G1 X117.136 Y192.75 E48.80805
G1 X116.661 Y192.255 E48.86435
G1 X116.494 Y192.06 E48.88542
G1 X116.11 Y191.562 E48.93703
G1 X115.798 Y191.11 E48.98211
G1 X115.542 Y190.707 E49.02129
G1 X115.303 Y190.265 E49.06253
G1 X115.074 Y189.797 E49.10529
G1 X114.744 Y188.977 E49.17783
G1 X114.579 Y188.46 E49.22237
G1 X114.406 Y187.787 E49.2794
G1 X114.312 Y187.098 E49.33647
G1 X114.297 Y186.403 E49.39352
G1 X114.357 Y185.746 E49.44766
G1 X114.423 Y185.298 E49.48483
G1 X114.761 Y183.228 E49.65696
G1 X115.109 Y180.63 E49.87208
G1 X115.393 Y177.938 E50.09424
G1 X115.595 Y175.321 E50.30965
G1 X115.724 Y172.659 E50.52838
G1 X115.78 Y169.384 E50.79719
G1 X115.781 Y125.834 E54.37131
G1 X115.744 Y123.207 E54.58693
G1 X115.629 Y120.512 E54.80831
G1 X115.44 Y117.849 E55.02741
G1 X115.182 Y115.242 E55.24241
G1 X114.842 Y112.582 E55.46249
G1 X114.397 Y109.758 E55.69712
G1 X114.345 Y109.379 E55.72851
G1 X114.297 Y108.685 E55.7856
G1 X114.328 Y107.99 E55.8427
G1 X114.438 Y107.304 E55.89972
G1 X114.641 Y106.593 E55.9604
G1 X114.857 Y105.981 E56.01366
G1 X115.122 Y105.348 E56.06998
G1 X115.359 Y104.879 E56.11311
G1 X115.625 Y104.41 E56.15736
G1 X115.937 Y103.941 E56.20359
G1 X116.308 Y103.436 E56.25501
G1 X116.729 Y102.925 E56.30935
M204 S3000
M205 X10 Y10
G0 F7200 X117.244 Y103.398
M204 S1000
M205 X8 Y8
G1 F1200 X117.604 Y103.019 E56.35225
G1 X118.151 Y102.516 E56.41324
G1 X118.576 Y102.177 E56.45785
G1 X119.035 Y101.849 E56.50415
G1 X119.499 Y101.568 E56.54867
G1 X120.042 Y101.275 E56.59931
G1 X120.755 Y100.955 E56.66345
G1 X121.272 Y100.767 E56.7086
G1 X122.02 Y100.555 E56.7724
G1 X122.617 Y100.432 E56.82243
G1 X123.387 Y100.331 E56.88616
G1 X124.03 Y100.298 E56.939
G1 X125.126 Y100.279 E57.02896
G1 X125.643 Y100.281 E57.07139
G1 X127.616 Y100.318 E57.23335
G1 X128.938 Y100.368 E57.34192
G1 X131.634 Y100.391 E57.56319
G1 X134.32 Y100.338 E57.78367
G1 X134.885 Y100.312 E57.83009
G1 X135.035 Y100.307 E57.8424
G1 X136.626 Y100.279 E57.973
G1 X137.145 Y100.281 E58.01559
G1 X138.387 Y100.304 E58.11754
G1 X138.711 Y100.32 E58.14416
G1 X139.597 Y100.39 E58.2171
G1 X141.435 Y100.55 E58.36851
G1 X144.139 Y100.71 E58.59082
G1 X146.771 Y100.791 E58.80693
G1 X149.472 Y100.798 E59.0286
G1 X152.139 Y100.729 E59.24755
G1 X154.816 Y100.584 E59.46757
G1 X157.381 Y100.374 E59.67878
G1 X158.281 Y100.304 E59.75287
G1 X159.663 Y100.279 E59.86631
G1 X160.097 Y100.281 E59.90193
G1 X161.51 Y100.31 E60.01791
G1 X162.039 Y100.336 E60.06138
G1 X164.788 Y100.447 E60.28717
G1 X167.492 Y100.48 E60.50911
G1 X170.126 Y100.438 E60.7253
G1 X172.823 Y100.318 E60.94686
G1 X175.488 Y100.125 E61.16615
G1 X179.304 Y99.715 E61.48113
G1 X180.031 Y99.623 E61.54127
G1 X180.907 Y99.551 E61.61341
G1 X182.282 Y99.526 E61.72627
G1 X182.716 Y99.528 E61.76189
G1 X184.034 Y99.555 E61.87008
G1 X184.535 Y99.589 E61.91129
G1 X185.403 Y99.727 E61.98342
G1 X185.95 Y99.853 E62.02949
G1 X186.614 Y100.06 E62.08657
G1 X187.098 Y100.247 E62.12915
G1 X187.675 Y100.512 E62.18126
G1 X188.239 Y100.82 E62.234
G1 X188.672 Y101.094 E62.27606
G1 X189.217 Y101.489 E62.3313
G1 X189.445 Y101.673 E62.35534
G1 X189.868 Y102.053 E62.40201
G1 X190.29 Y102.475 E62.45099
G1 X190.65 Y102.873 E62.49503
G1 X191.012 Y103.335 E62.5432
G1 X191.508 Y104.084 E62.61692
G1 X191.775 Y104.55 E62.661
G1 X192.115 Y105.269 E62.72627
G1 X192.42 Y106.077 E62.79715
G1 X192.564 Y106.558 E62.83836
G1 X192.713 Y107.194 E62.89197
G1 X192.783 Y107.844 E62.94562
G1 X192.774 Y108.498 E62.9993
G1 X192.715 Y108.977 E63.03891
G1 X192.615 Y109.571 E63.08834
G1 X192.198 Y112.291 E63.31418
G1 X191.87 Y114.927 E63.53218
G1 X191.611 Y117.631 E63.75512
G1 X191.433 Y120.28 E63.97301
G1 X191.329 Y122.949 E64.19222
G1 X191.299 Y125.366 E64.39059
G1 X191.298 Y174.457 E68.41946
G1 X191.336 Y177.123 E68.63828
G1 X191.449 Y179.789 E68.85728
G1 X191.64 Y182.487 E69.07925
G1 X191.903 Y185.136 E69.29772
G1 X192.244 Y187.801 E69.51822
G1 X192.691 Y190.641 E69.75417
G1 X192.753 Y191.292 E69.80784
G1 X192.736 Y192.055 E69.87047
G1 X192.669 Y192.705 E69.9241
G1 X192.471 Y193.508 E69.99197
G1 X192.206 Y194.272 E70.05834
G1 X191.828 Y195.078 E70.1314
G1 X191.485 Y195.692 E70.18912
G1 X191.01 Y196.41 E70.25978
