;FLAVOR:Marlin
;TIME:3583
;Filament used: 1.84122m
;Layer height: 0.2
;MINX:109.649
;MINY:103.15
;MINZ:0.2
;MAXX:178.871
;MAXY:196.864
;MAXZ:2
;Generated with Cura_SteamEngine 4.10.0
M104 S225
M105
M109 S225
M82 ;absolute extrusion mode
G28 ; home all axes
 M117 Purge extruder
 G92 E0 ; reset extruder
 G1 Z1.0 F3000 ; move z up little to prevent scratching of surface
 G1 X2 Y20 Z0.3 F5000.0 ; move to start-line position
 G1 X2 Y200.0 Z0.3 F1500.0 E15 ; draw 1st line
 G1 X2 Y200.0 Z0.4 F5000.0 ; move to side a little
 G1 X2 Y20 Z0.4 F1500.0 E30 ; draw 2nd line
 G92 E0 ; reset extruder
 G1 Z1.0 F3000 ; move z up little to prevent scratching of surface
G92 E0
G92 E0
G1 F1500 E-2
;LAYER_COUNT:10
;LAYER:0
M107
;MESH:70mm_84mm_total_length_Lace.stl(1)
G0 F6000 X119.688 Y193.485 Z0.2
;TYPE:WALL-INNER
G1 F1500 E0
G1 F1200 X119.658 Y193.555 E0.00222
G1 X119.535 Y193.798 E0.01017
G1 X119.501 Y193.855 E0.01211
G1 X119.392 Y194.036 E0.01828
G1 X119.244 Y194.25 E0.02587
G1 X119.071 Y194.463 E0.03388
G1 X118.885 Y194.661 E0.04181
G1 X118.702 Y194.829 E0.04906
G1 X118.486 Y194.997 E0.05704
G1 X118.273 Y195.141 E0.06455
G1 X118.034 Y195.274 E0.07253
G1 X117.837 Y195.366 E0.07888
G1 X117.578 Y195.462 E0.08694
G1 X117.112 Y195.576 E0.10094
G1 X116.879 Y195.604 E0.10779
G1 X116.603 Y195.615 E0.11585
G1 X114.385 Y195.615 E0.18058
G1 X114.121 Y195.604 E0.1883
G1 X113.647 Y195.527 E0.20231
G1 X113.388 Y195.453 E0.21017
G1 X113.174 Y195.372 E0.21685
G1 X112.937 Y195.26 E0.2245
G1 X112.722 Y195.14 E0.23169
G1 X112.501 Y194.99 E0.23948
G1 X112.312 Y194.84 E0.24653
G1 X112.108 Y194.653 E0.2546
G1 X111.923 Y194.457 E0.26247
G1 X111.766 Y194.263 E0.26975
G1 X111.597 Y194.019 E0.27841
G1 X111.498 Y193.854 E0.28403
G1 X111.465 Y193.798 E0.28593
G1 X111.342 Y193.555 E0.29388
G1 X111.312 Y193.485 E0.2961
G1 X111.342 Y193.485
G1 X111.465 Y193.485 E0.29713
G1 X111.531 Y193.485 E0.2989
G1 X113.045 Y193.485 E0.34309
G1 X113.466 Y193.416 E0.35554
G1 X113.886 Y193.203 E0.36928
G1 X114.218 Y192.886 E0.38268
G1 X114.454 Y192.483 E0.39631
G1 X114.57 Y192.043 E0.40959
G1 X114.585 Y191.819 E0.41614
G1 X114.585 Y188.237 E0.52068
G1 X114.128 Y187.831 E0.53853
G1 X113.912 Y187.611 E0.54752
G1 X113.729 Y187.4 E0.55568
G1 X113.518 Y187.12 E0.56591
G1 X113.351 Y186.866 E0.57478
G1 X113.197 Y186.593 E0.58393
G1 X113.046 Y186.286 E0.59391
G1 X112.935 Y186.015 E0.60246
G1 X112.827 Y185.701 E0.61215
G1 X112.74 Y185.389 E0.62161
G1 X112.671 Y185.064 E0.6313
G1 X112.626 Y184.754 E0.64044
G1 X112.595 Y184.418 E0.65029
G1 X112.585 Y184.1 E0.65958
G1 X112.585 Y115.901 E2.65002
G1 X112.595 Y115.575 E2.65954
G1 X112.627 Y115.227 E2.66974
G1 X112.674 Y114.916 E2.67892
G1 X112.741 Y114.603 E2.68826
G1 X112.829 Y114.289 E2.69778
G1 X112.937 Y113.978 E2.70738
G1 X113.057 Y113.689 E2.71652
G1 X113.199 Y113.403 E2.72584
G1 X113.364 Y113.113 E2.73558
G1 X113.532 Y112.859 E2.74446
G1 X113.715 Y112.618 E2.75329
G1 X113.945 Y112.354 E2.76351
G1 X114.141 Y112.156 E2.77165
G1 X114.585 Y111.763 E2.78895
G1 X114.585 Y108.159 E2.89414
G1 X114.525 Y107.727 E2.90687
G1 X114.343 Y107.297 E2.92049
G1 X114.053 Y106.934 E2.93405
G1 X113.67 Y106.667 E2.94768
G1 X113.237 Y106.532 E2.96092
G1 X113.024 Y106.515 E2.96715
G1 X111.521 Y106.515 E3.01102
G1 X111.482 Y106.515 E3.01216
G1 X111.352 Y106.515 E3.01595
G1 X111.313 Y106.515 E3.01709
G1 X111.352 Y106.423 E3.0179
G1 X111.482 Y106.171 E3.02385
G1 X111.502 Y106.138 E3.02492
G1 X111.603 Y105.97 E3.03064
G1 X111.766 Y105.735 E3.03898
G1 X111.919 Y105.548 E3.04604
G1 X112.108 Y105.347 E3.05409
G1 X112.312 Y105.16 E3.06217
G1 X112.501 Y105.01 E3.06921
G1 X112.724 Y104.859 E3.07707
G1 X112.937 Y104.74 E3.08419
G1 X113.174 Y104.628 E3.09184
G1 X113.388 Y104.547 E3.09852
G1 X113.647 Y104.473 E3.10638
G1 X114.122 Y104.396 E3.12042
G1 X114.397 Y104.385 E3.12846
G1 X116.613 Y104.385 E3.19313
G1 X116.903 Y104.399 E3.20161
G1 X117.116 Y104.425 E3.20787
G1 X117.375 Y104.479 E3.21559
G1 X117.599 Y104.543 E3.22239
G1 X117.854 Y104.641 E3.23036
G1 X118.064 Y104.74 E3.23714
G1 X118.287 Y104.867 E3.24463
G1 X118.501 Y105.012 E3.25217
G1 X118.709 Y105.179 E3.25996
G1 X118.897 Y105.353 E3.26743
G1 X119.078 Y105.543 E3.27509
G1 X119.225 Y105.725 E3.28192
G1 X119.403 Y105.982 E3.29104
G1 X119.503 Y106.148 E3.2967
G1 X119.541 Y106.213 E3.2989
G1 X119.668 Y106.467 E3.30719
G1 X119.688 Y106.515 E3.3087
G1 X119.668 Y106.515
G1 X119.541 Y106.515 E3.30953
G1 X119.465 Y106.515 E3.31153
G1 X117.956 Y106.515 E3.35557
G1 X117.537 Y106.583 E3.36796
G1 X117.119 Y106.793 E3.38162
G1 X116.774 Y107.124 E3.39557
G1 X116.544 Y107.527 E3.40911
G1 X116.43 Y107.957 E3.4221
G1 X116.415 Y108.181 E3.42865
G1 X116.415 Y111.763 E3.53319
G1 X116.859 Y112.156 E3.5505
G1 X117.066 Y112.365 E3.55908
G1 X117.289 Y112.622 E3.56901
G1 X117.468 Y112.859 E3.57768
G1 X117.636 Y113.113 E3.58657
G1 X117.801 Y113.403 E3.59631
G1 X117.949 Y113.705 E3.60612
G1 X118.058 Y113.965 E3.61435
G1 X118.171 Y114.289 E3.62437
G1 X118.259 Y114.603 E3.63388
G1 X118.326 Y114.916 E3.64323
G1 X118.373 Y115.227 E3.65241
G1 X118.405 Y115.574 E3.66258
G1 X118.415 Y115.9 E3.67209
G1 X118.415 Y184.099 E5.66253
G1 X118.404 Y184.436 E5.67238
G1 X118.373 Y184.778 E5.6824
G1 X118.32 Y185.109 E5.69218
G1 X118.256 Y185.403 E5.70096
G1 X118.162 Y185.736 E5.71106
G1 X118.058 Y186.032 E5.72022
G1 X117.93 Y186.337 E5.72987
G1 X117.79 Y186.618 E5.73904
G1 X117.636 Y186.886 E5.74806
G1 X117.454 Y187.161 E5.75768
G1 X117.272 Y187.398 E5.7664
G1 X117.066 Y187.635 E5.77557
G1 X116.862 Y187.841 E5.78403
G1 X116.415 Y188.237 E5.80146
G1 X116.415 Y191.831 E5.90635
G1 X116.473 Y192.262 E5.91904
G1 X116.651 Y192.692 E5.93263
G1 X116.94 Y193.059 E5.94626
G1 X117.32 Y193.328 E5.95985
G1 X117.754 Y193.468 E5.97316
G1 X117.978 Y193.485 E5.97971
G1 X119.468 Y193.485 E6.0232
G1 X119.535 Y193.485 E6.02447
G1 X119.658 Y193.485 E6.0255
G1 X119.688 Y193.485
G0 F6000 X120.179 Y193.145
;TYPE:WALL-OUTER
G1 F1200 X120.082 Y193.429 E6.03426
G1 X119.97 Y193.691 E6.04257
G1 X119.827 Y193.973 E6.0518
G1 X119.683 Y194.213 E6.05997
G1 X119.508 Y194.465 E6.06893
G1 X119.329 Y194.685 E6.0772
G1 X119.13 Y194.897 E6.08569
G1 X118.92 Y195.09 E6.09401
G1 X118.684 Y195.274 E6.10275
G1 X118.449 Y195.432 E6.11101
G1 X118.197 Y195.573 E6.11944
G1 X117.956 Y195.685 E6.1272
G1 X117.693 Y195.783 E6.13539
G1 X117.42 Y195.86 E6.14367
G1 X117.158 Y195.913 E6.15147
G1 X116.907 Y195.943 E6.15885
G1 X116.617 Y195.955 E6.16732
G1 X114.37 Y195.955 E6.2329
G1 X114.093 Y195.943 E6.24099
G1 X113.831 Y195.912 E6.24869
G1 X113.564 Y195.857 E6.25665
G1 X113.285 Y195.777 E6.26512
G1 X113.046 Y195.687 E6.27257
G1 X112.777 Y195.56 E6.28125
G1 X112.542 Y195.428 E6.28912
G1 X112.305 Y195.268 E6.29746
G1 X112.082 Y195.091 E6.30577
G1 X111.87 Y194.897 E6.31416
G1 X111.671 Y194.685 E6.32265
G1 X111.494 Y194.467 E6.33084
G1 X111.309 Y194.2 E6.34032
G1 X111.173 Y193.973 E6.34805
G1 X111.03 Y193.691 E6.35727
G1 X110.918 Y193.429 E6.36559
G1 X110.821 Y193.145 E6.37435
G1 X113.017 Y193.145 E6.43844
G1 X113.359 Y193.089 E6.44856
G1 X113.688 Y192.922 E6.45932
G1 X113.949 Y192.673 E6.46985
G1 X114.137 Y192.351 E6.48073
G1 X114.233 Y191.988 E6.49169
G1 X114.245 Y191.808 E6.49696
G1 X114.245 Y188.39 E6.59672
G1 X113.902 Y188.085 E6.61011
G1 X113.662 Y187.841 E6.6201
G1 X113.463 Y187.611 E6.62898
G1 X113.243 Y187.32 E6.63962
G1 X113.058 Y187.038 E6.64947
G1 X112.896 Y186.751 E6.65909
G1 X112.741 Y186.436 E6.66933
G1 X112.616 Y186.132 E6.67893
G1 X112.499 Y185.792 E6.68942
G1 X112.409 Y185.469 E6.69921
G1 X112.338 Y185.135 E6.70917
G1 X112.287 Y184.785 E6.71949
G1 X112.256 Y184.449 E6.72934
G1 X112.245 Y184.1 E6.73953
G1 X112.245 Y115.89 E8.73029
G1 X112.256 Y115.544 E8.7404
G1 X112.288 Y115.196 E8.7506
G1 X112.338 Y114.865 E8.76037
G1 X112.414 Y114.511 E8.77094
G1 X112.508 Y114.177 E8.78106
G1 X112.616 Y113.866 E8.79067
G1 X112.748 Y113.548 E8.80072
G1 X112.899 Y113.242 E8.81068
G1 X113.075 Y112.934 E8.82103
G1 X113.252 Y112.666 E8.83041
G1 X113.454 Y112.399 E8.84018
G1 X113.695 Y112.123 E8.85087
G1 X113.904 Y111.912 E8.85954
G1 X114.245 Y111.61 E8.87283
G1 X114.245 Y108.183 E8.97285
G1 X114.194 Y107.818 E8.98361
G1 X114.048 Y107.473 E8.99454
G1 X113.818 Y107.185 E9.0053
G1 X113.519 Y106.976 E9.01595
G1 X113.172 Y106.868 E9.02655
G1 X113.01 Y106.855 E9.0313
G1 X110.821 Y106.855 E9.09518
G1 X110.925 Y106.555 E9.10445
G1 X111.039 Y106.289 E9.1129
G1 X111.18 Y106.015 E9.12189
G1 X111.32 Y105.782 E9.12982
G1 X111.494 Y105.532 E9.13871
G1 X111.671 Y105.315 E9.14689
G1 X111.87 Y105.103 E9.15537
G1 X112.082 Y104.909 E9.16376
G1 X112.305 Y104.732 E9.17207
G1 X112.544 Y104.571 E9.18048
G1 X112.777 Y104.44 E9.18828
G1 X113.046 Y104.313 E9.19696
G1 X113.285 Y104.223 E9.20442
G1 X113.564 Y104.143 E9.21289
G1 X113.831 Y104.088 E9.22084
G1 X114.094 Y104.057 E9.22857
G1 X114.383 Y104.045 E9.23702
G1 X116.629 Y104.045 E9.30257
G1 X116.919 Y104.059 E9.31104
G1 X117.181 Y104.091 E9.31874
G1 X117.452 Y104.148 E9.32683
G1 X117.709 Y104.221 E9.33462
G1 X117.979 Y104.324 E9.34306
G1 X118.22 Y104.438 E9.35084
G1 X118.471 Y104.581 E9.35927
G1 X118.705 Y104.74 E9.36753
G1 X118.927 Y104.918 E9.37583
G1 X119.144 Y105.119 E9.38446
G1 X119.33 Y105.315 E9.39235
G1 X119.505 Y105.531 E9.40046
G1 X119.683 Y105.788 E9.40959
G1 X119.842 Y106.055 E9.41866
G1 X119.972 Y106.314 E9.42712
G1 X120.089 Y106.592 E9.43592
G1 X120.179 Y106.855 E9.44403
G1 X117.983 Y106.855 E9.50812
G1 X117.643 Y106.91 E9.51818
G1 X117.317 Y107.074 E9.52883
G1 X117.045 Y107.335 E9.53983
G1 X116.861 Y107.657 E9.55065
G1 X116.767 Y108.012 E9.56137
G1 X116.755 Y108.192 E9.56664
G1 X116.755 Y111.61 E9.66639
G1 X117.084 Y111.901 E9.67921
G1 X117.323 Y112.142 E9.68912
G1 X117.546 Y112.399 E9.69905
G1 X117.748 Y112.666 E9.70882
G1 X117.925 Y112.934 E9.71819
G1 X118.101 Y113.242 E9.72855
G1 X118.259 Y113.564 E9.73902
G1 X118.379 Y113.853 E9.74815
G1 X118.492 Y114.177 E9.75816
G1 X118.586 Y114.511 E9.76829
G1 X118.662 Y114.865 E9.77886
G1 X118.712 Y115.196 E9.78863
G1 X118.744 Y115.543 E9.7988
G1 X118.755 Y115.9 E9.80922
G1 X118.755 Y184.11 E11.79998
G1 X118.743 Y184.467 E11.81041
G1 X118.711 Y184.816 E11.82064
G1 X118.656 Y185.164 E11.83092
G1 X118.585 Y185.49 E11.84066
G1 X118.486 Y185.839 E11.85124
G1 X118.377 Y186.15 E11.86086
G1 X118.238 Y186.481 E11.87134
G1 X118.089 Y186.78 E11.88109
G1 X117.92 Y187.074 E11.89099
G1 X117.734 Y187.355 E11.90082
G1 X117.535 Y187.614 E11.91036
G1 X117.323 Y187.858 E11.91979
G1 X117.087 Y188.096 E11.92957
G1 X116.755 Y188.39 E11.94251
G1 X116.755 Y191.808 E12.04227
G1 X116.804 Y192.173 E12.05302
G1 X116.947 Y192.519 E12.06395
G1 X117.176 Y192.81 E12.07475
G1 X117.474 Y193.02 E12.08539
G1 X117.82 Y193.132 E12.09601
G1 X117.991 Y193.145 E12.10101
G1 X120.179 Y193.145 E12.16487
G0 F6000 X119.049 Y193.865
;TYPE:SKIN
G1 F1200 X118.944 Y194.016 E12.17054
G1 X118.785 Y194.212 E12.17831
G1 X118.455 Y194.541 E12.19267
G1 X118.072 Y194.818 E12.20723
G1 X117.685 Y195.017 E12.22064
G1 X117.46 Y195.1 E12.22802
G1 X117.05 Y195.2 E12.24103
G1 X116.846 Y195.224 E12.24735
G1 X116.587 Y195.235 E12.25534
G1 X114.401 Y195.235 E12.32268
G1 X114.156 Y195.225 E12.33024
G1 X113.729 Y195.155 E12.34357
G1 X113.323 Y195.022 E12.35673
G1 X112.922 Y194.816 E12.37062
G1 X112.567 Y194.557 E12.38416
G1 X112.373 Y194.38 E12.39225
G1 X112.062 Y194.024 E12.40681
G1 X111.952 Y193.865 E12.41277
G1 X113.076 Y193.865 E12.44739
G1 X113.585 Y193.782 E12.46328
G1 X114.108 Y193.517 E12.48134
G1 X114.518 Y193.124 E12.49884
G1 X114.808 Y192.631 E12.51646
G1 X114.946 Y192.105 E12.53321
G1 X114.965 Y191.832 E12.54165
G1 X114.965 Y188.066 E12.65767
G1 X114.39 Y187.555 E12.68136
G1 X114.183 Y187.344 E12.69047
G1 X114.021 Y187.157 E12.69809
G1 X113.822 Y186.892 E12.7083
G1 X113.675 Y186.667 E12.71658
G1 X113.532 Y186.414 E12.72553
G1 X113.387 Y186.118 E12.73569
G1 X113.29 Y185.88 E12.74361
G1 X113.19 Y185.589 E12.75309
G1 X113.106 Y185.287 E12.76274
G1 X113.043 Y184.986 E12.77222
G1 X113.002 Y184.7 E12.78112
G1 X112.975 Y184.404 E12.79027
G1 X112.965 Y184.1 E12.79965
G1 X112.965 Y115.913 E14.9003
G1 X112.975 Y115.587 E14.91034
G1 X113.003 Y115.284 E14.91972
G1 X113.046 Y114.995 E14.92872
G1 X113.107 Y114.706 E14.93782
G1 X113.192 Y114.402 E14.94754
G1 X113.288 Y114.124 E14.9566
G1 X113.398 Y113.858 E14.96547
G1 X113.544 Y113.564 E14.97558
G1 X113.68 Y113.325 E14.98406
G1 X113.843 Y113.079 E14.99315
G1 X114.01 Y112.858 E15.00168
G1 X114.224 Y112.612 E15.01173
G1 X114.403 Y112.432 E15.01955
G1 X114.965 Y111.934 E15.04268
G1 X114.965 Y108.133 E15.15978
G1 X114.895 Y107.625 E15.17558
G1 X114.672 Y107.1 E15.19315
G1 X114.316 Y106.654 E15.21073
G1 X113.839 Y106.322 E15.22863
G1 X113.309 Y106.156 E15.24574
G1 X113.039 Y106.135 E15.25409
G1 X111.951 Y106.135 E15.2876
G1 X112.196 Y105.809 E15.30017
G1 X112.379 Y105.614 E15.3084
G1 X112.732 Y105.312 E15.32272
G1 X113.11 Y105.078 E15.33641
G1 X113.508 Y104.908 E15.34975
G1 X113.729 Y104.845 E15.35683
G1 X114.157 Y104.775 E15.37019
G1 X114.413 Y104.765 E15.37808
G1 X116.595 Y104.765 E15.4453
G1 X116.864 Y104.778 E15.4536
G1 X117.285 Y104.848 E15.46674
G1 X117.474 Y104.903 E15.47281
G1 X117.718 Y104.996 E15.48085
G1 X117.879 Y105.072 E15.48634
G1 X118.098 Y105.197 E15.49411
G1 X118.461 Y105.467 E15.50804
G1 X118.792 Y105.794 E15.52238
G1 X119.047 Y106.135 E15.5355
G1 X117.925 Y106.135 E15.57006
G1 X117.418 Y106.217 E15.58588
G1 X116.897 Y106.479 E15.60385
G1 X116.472 Y106.888 E15.62202
G1 X116.189 Y107.381 E15.63953
G1 X116.054 Y107.895 E15.6559
G1 X116.035 Y108.168 E15.66434
G1 X116.035 Y111.934 E15.78036
G1 X116.597 Y112.432 E15.80349
G1 X116.787 Y112.623 E15.81179
G1 X116.993 Y112.861 E15.82149
G1 X117.164 Y113.088 E15.83024
G1 X117.324 Y113.332 E15.83923
G1 X117.46 Y113.571 E15.8477
G1 X117.598 Y113.852 E15.85735
G1 X117.707 Y114.112 E15.86603
G1 X117.808 Y114.403 E15.87552
G1 X117.887 Y114.683 E15.88448
G1 X117.952 Y114.985 E15.894
G1 X117.997 Y115.284 E15.90331
G1 X118.025 Y115.586 E15.91266
G1 X118.035 Y115.9 E15.92234
G1 X118.035 Y184.087 E18.02299
G1 X118.024 Y184.422 E18.03331
G1 X117.997 Y184.718 E18.04247
G1 X117.948 Y185.029 E18.05217
G1 X117.887 Y185.309 E18.061
G1 X117.8 Y185.619 E18.07092
G1 X117.707 Y185.885 E18.0796
G1 X117.584 Y186.178 E18.08939
G1 X117.449 Y186.449 E18.09872
G1 X117.319 Y186.676 E18.10677
G1 X117.147 Y186.936 E18.11638
G1 X116.97 Y187.166 E18.12532
G1 X116.787 Y187.377 E18.13392
G1 X116.601 Y187.564 E18.14205
G1 X116.035 Y188.066 E18.16536
G1 X116.035 Y191.856 E18.28212
G1 X116.103 Y192.362 E18.29784
G1 X116.32 Y192.885 E18.31529
G1 X116.675 Y193.338 E18.33302
G1 X117.148 Y193.671 E18.35084
G1 X117.68 Y193.844 E18.36807
G1 X117.964 Y193.865 E18.37685
G1 X119.049 Y193.865 E18.41027
G0 F6000 X113.105 Y194.224
G1 F1200 X112.736 Y194.223 E18.42164
G1 X112.792 Y194.274 E18.42397
G1 X113.113 Y194.509 E18.43623
G1 X113.459 Y194.686 E18.4482
G1 X113.682 Y194.759 E18.45543
G1 X113.142 Y194.218 E18.47898
G0 F6000 X113.682 Y194.759
G1 F1200 X113.816 Y194.804 E18.48333
G1 X114.187 Y194.864 E18.49491
G1 X114.345 Y194.87 E18.49978
G1 X113.616 Y194.141 E18.53154
G1 X113.697 Y194.128 E18.53407
G1 X114.001 Y193.974 E18.54457
G1 X114.9 Y194.874 E18.58376
G1 X115.452 Y194.874 E18.60077
G1 X114.356 Y193.778 E18.64852
G1 X114.637 Y193.508 E18.66052
G1 X116.003 Y194.874 E18.72003
G1 X116.555 Y194.874 E18.73704
G1 X114.886 Y193.205 E18.80976
G1 X115.09 Y192.858 E18.82216
G1 X117.059 Y194.827 E18.90794
G1 X117.347 Y194.756 E18.91708
G1 X117.487 Y194.703 E18.92169
G1 X115.228 Y192.444 E19.02011
G1 X115.303 Y192.163 E19.02907
G1 X115.315 Y191.98 E19.03472
G1 X115.746 Y192.41 E19.05348
G1 X115.751 Y192.454 E19.05484
G1 X116.005 Y193.067 E19.07528
G1 X116.423 Y193.601 E19.09617
G1 X116.984 Y193.995 E19.11729
G0 F6000 X117.498 Y194.163
G1 F1200 X117.857 Y194.522 E19.13294
G1 X117.878 Y194.512 E19.13365
G1 X118.18 Y194.293 E19.14514
G1 X118.11 Y194.223 E19.14819
G1 X118.262 Y194.223 E19.15288
G1 X118.222 Y194.263 E19.15462
G0 F6000 X115.746 Y192.41
G1 F1200 X115.674 Y191.879 E19.17113
G1 X115.674 Y191.787 E19.17396
G1 X115.324 Y191.437 E19.18921
G1 X115.324 Y190.886 E19.20619
G1 X115.674 Y191.236 E19.22143
