; generated by PrusaSlicer 2.8.1+win64 on 2024-11-03 at 09:40:29 UTC


;
;
; 

; external perimeters extrusion width = 0.40mm
; perimeters extrusion width = 0.40mm
; infill extrusion width = 0.40mm
; solid infill extrusion width = 0.40mm
; top infill extrusion width = 0.40mm
; first layer extrusion width = 0.44mm

;TYPE:Custom
G90 ; use absolute coordinates
M83 ; extruder relative mode
M140 S100 ; set bed temp
M190 S100 ; wait for bed temp
M104 S260 ; set extruder temp
M109 S260 ; wait for extruder temp
G28                                        ; move X/Y/Z to min endstops
G1 Z0.28                                   ; lift nozzle a bit 
G92 E0 
G1 Y3 F2400                                    ; zero the extruded length 
G1 X180  E40 F500                       ; Extrude 25mm of filament in a 5cm line. 
G92 E0                                     ; zero the extruded length again 
G1 E-0.2 F3000                                ; Retract a little 
G1 X181 F4000                              ; Quickly wipe away from the filament line
M117
G21 ; set units to millimeters
G90 ; use absolute coordinates
M82 ; use absolute distances for extrusion
G92 E0
; Filament gcode
M107
;LAYER_CHANGE
;Z:0.2
;HEIGHT:0.2
G1 E-2.5 F4800
G92 E0
G1 Z.6 F9000
G92 E0
G1 X87.933 Y92.893
G1 Z.2
G1 E2.5 F4800
M204 S5000
;TYPE:External perimeter
;WIDTH:0.439999
G1 F2400
G1 X89.671 Y86.138 E2.70727
G1 X89.876 Y85.538 E2.72611
G1 X90.352 Y84.681 E2.75524
G1 X90.775 Y84.168 E2.775
G1 X91.239 Y83.749 E2.79358
G1 X91.785 Y83.382 E2.81313
G1 X92.683 Y82.994 E2.8422
G1 X93.331 Y82.846 E2.86195
G1 X94.308 Y82.807 E2.89101
G1 X94.967 Y82.902 E2.91079
G1 X95.865 Y83.204 E2.93894
G1 X96.745 Y83.735 E2.96948
G1 X97.431 Y84.395 E2.99777
G1 X97.969 Y85.204 E3.02664
G1 X98.32 Y86.103 E3.05532
G1 X98.444 Y86.744 E3.07472
G1 X98.47 Y87.457 E3.09592
G1 X98.406 Y88.057 E3.11385
G1 X96.522 Y95.367 E3.33817
G1 X96.317 Y95.972 E3.35715
G1 X96.021 Y96.555 E3.37658
G1 X95.637 Y97.094 E3.39625
G1 X95.207 Y97.544 E3.41475
G1 X94.676 Y97.962 E3.43483
G1 X94.153 Y98.257 E3.45267
G1 X93.655 Y98.459 E3.46864
G1 X92.862 Y98.662 E3.49296
G1 X92.298 Y98.706 E3.50977
G1 X91.778 Y98.682 E3.52524
G1 X91.247 Y98.602 E3.5412
G1 X90.741 Y98.457 E3.55684
G1 X90.207 Y98.245 E3.57391
G1 X89.747 Y97.986 E3.5896
G1 X89.28 Y97.631 E3.60703
G1 X88.568 Y96.863 E3.63815
G1 X88.256 Y96.359 E3.65576
G1 X88.038 Y95.868 E3.67172
G1 X87.798 Y95.081 E3.69617
G1 X87.722 Y94.4 E3.71653
G1 X87.788 Y93.456 E3.74465
G1 X87.918 Y92.951 E3.76015
M204 S20000
G1 X87.546 Y92.793 F9000
M204 S5000
;TYPE:Perimeter
G1 F2400
G1 X89.286 Y86.039 E3.9674
G1 X89.501 Y85.409 E3.98718
G1 X90.005 Y84.487 E4.0184
G1 X90.469 Y83.914 E4.04031
G1 X90.974 Y83.453 E4.06063
G1 X91.564 Y83.052 E4.08183
G1 X92.527 Y82.629 E4.11308
G1 X93.245 Y82.459 E4.13501
G1 X94.293 Y82.41 E4.16619
G1 X95.025 Y82.509 E4.18814
G1 X95.993 Y82.828 E4.21843
G1 X96.454 Y83.09 E4.23419
G1 X96.915 Y83.368 E4.25019
G1 X97.706 Y84.109 E4.2824
G1 X98.301 Y84.986 E4.31389
G1 X98.69 Y85.96 E4.34506
G1 X98.834 Y86.671 E4.36662
G1 X98.852 Y87.444 E4.3896
;WIDTH:0.41093
G1 X98.806 Y87.77 E4.39867
;WIDTH:0.385178
G1 X98.76 Y88.097 E4.40713
;WIDTH:0.359425
G1 X98.744 Y88.174 E4.40899
;WIDTH:0.355715
G1 X96.862 Y95.454 E4.585
;WIDTH:0.349007
G1 X96.65 Y96.085 E4.60025
;WIDTH:0.35044
G1 X96.334 Y96.716 E4.61649
G1 X95.92 Y97.298 E4.63293
;WIDTH:0.348653
G1 X95.46 Y97.788 E4.64831
;WIDTH:0.350438
G1 X94.893 Y98.239 E4.66498
;WIDTH:0.3547
G1 X94.326 Y98.566 E4.68025
;WIDTH:0.356777
G1 X93.783 Y98.79 E4.69405
;WIDTH:0.35731
G1 X93.257 Y98.939 E4.70691
G1 X92.324 Y99.059 E4.72904
;WIDTH:0.358664
G1 X91.751 Y99.037 E4.74259
G1 X91.17 Y98.95 E4.75647
G1 X90.609 Y98.789 E4.77026
G1 X90.079 Y98.575 E4.78377
;WIDTH:0.353743
G1 X89.573 Y98.292 E4.79726
;WIDTH:0.354131
G1 X89.065 Y97.912 E4.81203
;WIDTH:0.364349
G1 X88.657 Y97.499 E4.82599
G1 X88.306 Y97.098 E4.83881
;WIDTH:0.354848
G1 X87.954 Y96.544 E4.85413
;WIDTH:0.358176
G1 X87.71 Y96.009 E4.868
;WIDTH:0.366819
G1 X87.449 Y95.173 E4.88923
;WIDTH:0.403409
G1 X87.388 Y94.808 E4.89921
;WIDTH:0.439999
G1 X87.327 Y94.443 E4.91021
G1 X87.409 Y93.322 E4.94361
G1 X87.531 Y92.851 E4.95807
M204 S20000
;WIPE_START
G1 F7200
G1 X87.546 Y92.793 E4.92013
G1 X88.516 Y89.028 E2.45807
;WIPE_END
G92 E0
G1 Z.6 F9000
G1 X136.24 Y140.892
G1 Z.2
G1 E2.5 F4800
M204 S5000
;TYPE:External perimeter
G1 F2400
G1 X137.14 Y142.29 E2.54941
G1 X133.776 Y148.881 E2.7693
G1 X133.448 Y149.4 E2.78754
G1 X133.049 Y149.804 E2.80441
G1 X120.29 Y160.038 E3.29044
G1 X119.502 Y160.624 E3.31962
G1 X119.163 Y160.721 E3.3301
G1 X118.772 Y160.706 E3.34173
G1 X104.492 Y158.048 E3.77336
G1 X103.986 Y157.88 E3.7892
G1 X103.748 Y157.72 E3.79772
G1 X103.389 Y157.417 E3.81168
G1 X89.314 Y141.197 E4.44983
G1 X88.977 Y140.686 E4.46802
G1 X88.869 Y140.243 E4.48157
G1 X88.518 Y136.881 E4.58202
G1 X88.511 Y136.267 E4.60027
G1 X88.629 Y135.671 E4.61832
G1 X88.8 Y135.298 E4.63051
G1 X88.998 Y135.115 E4.63852
G1 X89.2 Y135.021 E4.64514
G1 X93.318 Y133.884 E4.77209
G1 X93.181 Y135.353 E4.81593
G1 X92.734 Y135.924 E4.83748
G1 X92.436 Y136.542 E4.85787
G1 X92.335 Y137.026 E4.87256
G1 X92.34 Y137.55 E4.88813
G1 X92.506 Y138.196 E4.90795
G1 X92.763 Y138.663 E4.92379
G1 X93.254 Y139.181 E4.945
G1 X93.823 Y139.513 E4.96458
G1 X94.329 Y139.661 E4.98025
G1 X95.38 Y139.762 E5.01162
G1 X105.199 Y152.515 E5.48989
G1 X105.786 Y153.132 E5.5152
G1 X106.462 Y153.601 E5.53965
G1 X107.183 Y153.914 E5.56301
G1 X107.61 Y154.029 E5.57615
G1 X116.191 Y155.758 E5.83626
G1 X116.765 Y155.768 E5.85332
G1 X117.243 Y155.616 E5.86822
G1 X117.486 Y155.466 E5.87671
G1 X126.284 Y148.411 E6.21182
G1 X126.787 Y147.905 E6.23302
G1 X127.194 Y147.288 E6.25498
G1 X129.993 Y141.807 E6.43786
G1 X132.587 Y141.675 E6.51504
G1 X132.987 Y141.582 E6.52724
G1 X133.294 Y141.376 E6.53823
G1 X133.459 Y141.169 E6.5461
G1 X137.141 Y133.94 E6.78717
G1 X137.204 Y133.596 E6.79756
G1 X137.069 Y133.086 E6.81324
G1 X135.636 Y130.864 E6.89181
G1 X138.13 Y125.98 E7.05477
G1 X138.331 Y125.437 E7.07198
G1 X138.389 Y125.129 E7.08129
G1 X138.393 Y124.71 E7.09374
G1 X138.315 Y124.274 E7.1069
G1 X125.261 Y83.999 E8.36499
G1 X125.036 Y83.525 E8.38058
G1 X124.676 Y83.114 E8.39682
G1 X124.276 Y82.844 E8.41116
G1 X110.801 Y75.967 E8.86071
G1 X110.497 Y75.846 E8.87043
G1 X109.988 Y75.786 E8.88566
G1 X109.629 Y75.842 E8.89646
G1 X109.229 Y76.012 E8.90938
G1 X102.362 Y80.05 E9.1461
G1 X101.823 Y80.466 E9.16633
G1 X101.445 Y80.936 E9.18425
G1 X101.284 Y81.237 E9.19439
G1 X101.119 Y81.7 E9.209
G1 X97.414 Y95.94 E9.64624
G1 X97.167 Y96.565 E9.66621
G1 X96.847 Y97.153 E9.6861
G1 X96.253 Y97.936 E9.7153
G1 X95.749 Y98.422 E9.73611
G1 X95.211 Y98.825 E9.75608
G1 X94.63 Y99.16 E9.77601
G1 X94.01 Y99.421 E9.796
G1 X93.394 Y99.596 E9.81503
G1 X92.36 Y99.728 E9.84601
G1 X91.692 Y99.708 E9.86587
G1 X91.026 Y99.606 E9.88589
G1 X90.38 Y99.421 E9.90586
G1 X89.76 Y99.162 E9.92583
G1 X89.178 Y98.828 E9.94577
G1 X88.64 Y98.425 E9.96574
G1 X88.154 Y97.959 E9.98575
G1 X87.731 Y97.44 E10.00565
G1 X87.372 Y96.871 E10.02564
G1 X87.087 Y96.261 E10.04565
G1 X85.244 Y90.661 E10.22084
G1 X85.136 Y90.181 E10.23546
G1 X85.152 Y89.95 E10.24234
G1 X85.231 Y89.524 E10.25521
G1 X88.71 Y80.079 E10.55431
G1 X88.948 Y79.615 E10.56981
G1 X89.092 Y79.479 E10.5757
G1 X89.38 Y79.272 E10.58624
G1 X110.733 Y69.213 E11.28764
G1 X111.285 Y69.018 E11.30504
G1 X111.894 Y68.953 E11.32324
G1 X112.454 Y69.026 E11.34002
G1 X113.048 Y69.249 E11.35887
G1 X126.958 Y76.352 E11.82298
G1 X127.383 Y76.64 E11.83824
G1 X127.697 Y77.008 E11.85262
G1 X127.918 Y77.477 E11.86803
G1 X144.008 Y127.114 E13.41858
G1 X144.113 Y127.66 E13.4351
G1 X144.101 Y127.953 E13.44381
G1 X144.089 Y128.246 E13.45252
G1 X143.975 Y128.656 E13.46517
G1 X143.78 Y129.17 E13.48151
G1 X140.13 Y136.324 E13.72017
G1 X138.465 Y136.418 E13.76973
G1 X138.178 Y136.499 E13.77859
G1 X137.92 Y136.668 E13.78775
G1 X137.718 Y136.909 E13.79709
G1 X136.178 Y139.936 E13.89801
G1 X136.091 Y140.433 E13.913
G1 X136.213 Y140.839 E13.9256
M204 S20000
G1 X136.213 Y140.839 F9000
G1 X135.906 Y141.107
M204 S5000
;TYPE:Perimeter
G1 F2400
G1 X136.683 Y142.313 E13.96823
G1 X133.43 Y148.684 E14.1808
G1 X133.135 Y149.152 E14.19724
G1 X132.783 Y149.509 E14.21214
G1 X120.041 Y159.728 E14.6975
G1 X119.431 Y160.2 E14.72042
G1 X119.115 Y160.322 E14.73049
G1 X118.816 Y160.31 E14.73938
G1 X104.726 Y157.687 E15.16527
G1 X104.163 Y157.52 E15.18272
G1 X103.97 Y157.39 E15.18963
G1 X103.68 Y157.146 E15.20089
G1 X89.642 Y140.97 E15.83734
G1 X89.349 Y140.535 E15.85293
G1 X89.261 Y140.175 E15.86394
G1 X88.913 Y136.84 E15.96358
G1 X88.907 Y136.288 E15.97998
G1 X89.015 Y135.765 E15.99585
G1 X89.114 Y135.548 E16.00294
G1 X89.338 Y135.395 E16.011
G1 X92.869 Y134.42 E16.11985
G1 X92.797 Y135.198 E16.14307
G1 X92.377 Y135.751 E16.1637
G1 X92.03 Y136.515 E16.18863
G1 X91.935 Y137.064 E16.20519
G1 X91.956 Y137.649 E16.22258
G1 X92.174 Y138.427 E16.24659
G1 X92.472 Y138.933 E16.26404
G1 X93.054 Y139.523 E16.28867
G1 X93.759 Y139.914 E16.31263
G1 X94.293 Y140.057 E16.32906
G1 X95.168 Y140.137 E16.35517
G1 X104.884 Y152.757 E16.82845
G1 X105.558 Y153.457 E16.85733
G1 X106.304 Y153.966 E16.88417
G1 X107.025 Y154.278 E16.90751
G1 X107.531 Y154.418 E16.92311
G1 X116.113 Y156.147 E17.18325
G1 X116.761 Y156.165 E17.20251
G1 X117.372 Y155.991 E17.22139
G1 X117.734 Y155.776 E17.2339
G1 X126.533 Y148.721 E17.56903
G1 X127.118 Y148.124 E17.59387
G1 X127.548 Y147.468 E17.61718
G1 X130.242 Y142.192 E17.79321
G1 X132.607 Y142.072 E17.86358
G1 X133.08 Y141.967 E17.87798
G1 X133.292 Y141.869 E17.88492
G1 X133.528 Y141.696 E17.89362
G1 X133.813 Y141.349 E17.90696
G1 X137.494 Y134.12 E18.14802
G1 X137.597 Y133.657 E18.16211
G1 X137.581 Y133.402 E18.1697
G1 X137.403 Y132.871 E18.18634
G1 X136.094 Y130.841 E18.25812
G1 X138.502 Y126.118 E18.41565
G1 X138.703 Y125.575 E18.43286
G1 X138.78 Y125.2 E18.44424
G1 X138.79 Y124.711 E18.45877
G1 X138.693 Y124.151 E18.47566
G1 X125.639 Y83.876 E19.73375
G1 X125.394 Y83.353 E19.75091
G1 X124.97 Y82.848 E19.7705
G1 X124.457 Y82.49 E19.78909
G1 X110.981 Y75.613 E20.23867
G1 X110.642 Y75.477 E20.24952
G1 X110.029 Y75.391 E20.26791
G1 X109.558 Y75.452 E20.28202
G1 X109.028 Y75.67 E20.29905
G1 X102.161 Y79.708 E20.53577
G1 X101.513 Y80.217 E20.56026
G1 X101.136 Y80.687 E20.57816
G1 X100.912 Y81.095 E20.59199
G1 X100.734 Y81.6 E20.6079
G1 X99.376 Y86.821 E20.76821
G1 X99.196 Y87.592 E20.79174
;WIDTH:0.401035
G1 X99.047 Y88.252 E20.80987
;WIDTH:0.355715
G1 X97.157 Y95.531 E20.98591
;WIDTH:0.358108
G1 X97.071 Y95.838 E20.99343
G1 X96.84 Y96.423 E21.00827
;WIDTH:0.356618
G1 X96.542 Y96.971 E21.02291
;WIDTH:0.356431
G1 X95.978 Y97.707 E21.04466
G1 X95.51 Y98.157 E21.05989
;WIDTH:0.355981
G1 X94.975 Y98.554 E21.0755
;WIDTH:0.351134
G1 X94.334 Y98.903 E21.09233
;WIDTH:0.35023
G1 X93.627 Y99.165 E21.10967
;WIDTH:0.348366
G1 X92.89 Y99.31 E21.12684
;WIDTH:0.350959
G1 X92.24 Y99.371 E21.14189
;WIDTH:0.358654
G1 X91.715 Y99.351 E21.1543
G1 X91.093 Y99.255 E21.16917
G1 X90.49 Y99.081 E21.184
G1 X89.858 Y98.811 E21.20024
;WIDTH:0.3526
G1 X89.323 Y98.496 E21.21463
;WIDTH:0.351257
G1 X88.81 Y98.1 E21.22958
;WIDTH:0.364349
G1 X88.412 Y97.708 E21.24302
G1 X87.984 Y97.18 E21.25937
;WIDTH:0.351083
G1 X87.621 Y96.572 E21.2757
;WIDTH:0.350938
G1 X87.318 Y95.839 E21.29398
;WIDTH:0.374196
G1 X87.108 Y95.161 E21.31158
;WIDTH:0.407098
G1 X87.022 Y94.844 E21.32053
;WIDTH:0.439999
G1 X86.935 Y94.528 E21.33027
G1 X85.621 Y90.536 E21.45516
G1 X85.536 Y90.156 E21.46673
G1 X85.609 Y89.648 E21.48198
G1 X89.083 Y80.216 E21.78066
G1 X89.265 Y79.862 E21.79249
G1 X89.561 Y79.626 E21.80374
G1 X110.884 Y69.581 E22.50415
G1 X111.373 Y69.408 E22.51956
G1 X111.889 Y69.353 E22.53498
G1 X112.358 Y69.414 E22.54903
G1 X112.887 Y69.613 E22.56582
G1 X126.651 Y76.641 E23.02506
G1 X127.115 Y76.939 E23.04145
G1 X127.361 Y77.226 E23.05268
G1 X127.549 Y77.624 E23.06576
G1 X143.575 Y127.069 E24.61029
G1 X143.714 Y127.69 E24.6292
G1 X143.704 Y127.937 E24.63655
G1 X143.694 Y128.184 E24.6439
G1 X143.605 Y128.505 E24.6538
G1 X143.423 Y128.996 E24.66936
G1 X139.88 Y135.94 E24.90101
G1 X138.304 Y136.046 E24.94795
G1 X137.893 Y136.202 E24.96101
G1 X137.576 Y136.45 E24.97297
G1 X137.364 Y136.728 E24.98336
G1 X135.824 Y139.756 E25.08431
G1 X135.699 Y140.258 E25.09968
G1 X135.708 Y140.54 E25.10806
G1 X135.879 Y141.054 E25.12416
M204 S20000
;WIPE_START
G1 F7200
G1 X135.906 Y141.107 E25.08649
G1 X136.683 Y142.313 E24.17789
G1 X135.567 Y144.498 E22.62416
;WIPE_END
G92 E0
G1 Z.6 F9000
G1 X127.682 Y78.55
G1 Z.2
G1 E2.5 F4800
M204 S5000
;TYPE:Solid infill
;WIDTH:0.44187
G1 F2400
G1 X125.632 Y76.499 E2.58658
G1 X124.479 Y75.911 E2.62522
G1 X127.674 Y79.106 E2.76012
G1 X127.945 Y79.941 E2.78633
G1 X123.326 Y75.322 E2.98135
G1 X122.173 Y74.733 E3.02
G1 X128.215 Y80.776 E3.27513
G1 X128.486 Y81.611 E3.30134
G1 X121.02 Y74.145 E3.61657
G1 X119.867 Y73.556 E3.65522
G1 X128.757 Y82.446 E4.03057
G1 X129.027 Y83.28 E4.05674
G1 X118.714 Y72.967 E4.49218
G1 X117.562 Y72.379 E4.53079
G1 X129.298 Y84.115 E5.02631
G1 X129.568 Y84.95 E5.05251
G1 X116.409 Y71.79 E5.60813
G1 X115.256 Y71.202 E5.64677
G1 X129.839 Y85.785 E6.2625
G1 X130.11 Y86.619 E6.28868
G1 X114.103 Y70.613 E6.96451
G1 X112.95 Y70.024 E7.00316
G1 X130.38 Y87.454 E7.73909
G1 X130.651 Y88.289 E7.7653
G1 X112.08 Y69.718 E8.54941
G1 X111.885 Y69.693 E8.55528
G1 X111.528 Y69.731 E8.566
G1 X123.338 Y81.54 E9.06462
G1 X122.186 Y80.952 E9.10323
G1 X111.097 Y69.864 E9.57141
G1 X110.707 Y70.037 E9.58415
G1 X121.034 Y80.364 E10.02018
G1 X119.881 Y79.776 E10.05882
G1 X110.323 Y70.218 E10.46238
G1 X109.94 Y70.399 E10.47503
G1 X118.729 Y79.188 E10.84612
G1 X117.577 Y78.6 E10.88473
G1 X109.556 Y70.58 E11.22337
G1 X109.173 Y70.76 E11.236
G1 X116.425 Y78.012 E11.54219
G1 X115.273 Y77.424 E11.5808
G1 X108.789 Y70.941 E11.85455
G1 X108.405 Y71.122 E11.86722
G1 X114.12 Y76.836 E12.1085
G1 X112.968 Y76.248 E12.14711
G1 X108.022 Y71.302 E12.35594
G1 X107.638 Y71.483 E12.36861
G1 X111.816 Y75.66 E12.54499
G1 X111.13 Y75.31 E12.56798
G1 X110.749 Y75.157 E12.58024
G1 X107.255 Y71.664 E12.72774
G1 X106.871 Y71.844 E12.7404
G1 X110.084 Y75.057 E12.87606
G1 X109.81 Y75.063 E12.88424
G1 X109.57 Y75.107 E12.89152
G1 X106.488 Y72.025 E13.02165
G1 X106.104 Y72.206 E13.03432
G1 X109.146 Y75.248 E13.16276
G1 X108.766 Y75.432 E13.17537
G1 X105.721 Y72.386 E13.30396
G1 X105.337 Y72.567 E13.31663
G1 X108.411 Y75.641 E13.44642
G1 X108.056 Y75.85 E13.45872
G1 X104.954 Y72.748 E13.58969
G1 X104.57 Y72.928 E13.60235
G1 X107.701 Y76.059 E13.73455
G1 X107.345 Y76.268 E13.74687
G1 X104.187 Y73.109 E13.88023
G1 X103.803 Y73.29 E13.8929
G1 X106.99 Y76.476 E14.02744
G1 X106.635 Y76.685 E14.03974
G1 X103.42 Y73.47 E14.17548
G1 X103.036 Y73.651 E14.18815
G1 X106.279 Y76.894 E14.32508
G1 X105.924 Y77.103 E14.33738
G1 X102.653 Y73.832 E14.47549
G1 X102.269 Y74.012 E14.48815
G1 X105.569 Y77.312 E14.62748
G1 X105.214 Y77.521 E14.63978
G1 X101.886 Y74.193 E14.7803
G1 X101.502 Y74.374 E14.79297
G1 X104.858 Y77.73 E14.93467
G1 X104.503 Y77.939 E14.94697
G1 X101.119 Y74.554 E15.08987
G1 X100.735 Y74.735 E15.10254
G1 X104.148 Y78.148 E15.24664
G1 X103.792 Y78.357 E15.25896
G1 X100.351 Y74.916 E15.40425
G1 X99.968 Y75.096 E15.41688
G1 X103.437 Y78.566 E15.56337
G1 X103.082 Y78.775 E15.57567
G1 X99.584 Y75.277 E15.72336
G1 X99.201 Y75.458 E15.73601
G1 X102.727 Y78.983 E15.88486
G1 X102.371 Y79.192 E15.89718
G1 X98.817 Y75.638 E16.04724
G1 X98.434 Y75.819 E16.05989
G1 X102.016 Y79.401 E16.21113
G1 X101.69 Y79.64 E16.2232
G1 X98.05 Y76 E16.37689
G1 X97.667 Y76.181 E16.38954
G1 X101.372 Y79.886 E16.54597
G1 X101.107 Y80.184 E16.55788
G1 X97.283 Y76.361 E16.71932
G1 X96.9 Y76.542 E16.73197
G1 X100.857 Y80.499 E16.89904
G1 X100.654 Y80.86 E16.91141
G1 X96.516 Y76.723 E17.0861
G1 X96.133 Y76.903 E17.09873
G1 X100.493 Y81.264 E17.28284
G1 X100.363 Y81.698 E17.29637
G1 X95.749 Y77.084 E17.49118
G1 X95.366 Y77.265 E17.50383
G1 X100.246 Y82.145 E17.70987
G1 X100.13 Y82.593 E17.72369
G1 X94.982 Y77.445 E17.94105
G1 X94.599 Y77.626 E17.9537
G1 X100.013 Y83.04 E18.18229
G1 X99.896 Y83.488 E18.19611
G1 X94.215 Y77.807 E18.43597
