;FLAVOR:Marlin
;TIME:940
;Filament used: 0.949143m
;Layer height: 0.3
;MINX:-10.995
;MINY:-10.996
;MINZ:0.3
;MAXX:10.996
;MAXY:10.995
;MAXZ:25.5
;Generated with Cura_SteamEngine 4.10.0
M140 S60
M105
M190 S60
M104 S205
M105
M109 S205
M82 ;absolute extrusion mode
G21        ;metric values
G90        ;absolute positioning
M107       ;start with the fan off
G28   ;move to endstops

;Z-Offset Reset und dann Z +0,1 für PLA
;MacroZOffset0
;MacroZOffsetPlus0100

G92 E0                  ;zero the extruded length
G1 F200 E3              ;extrude 3mm of feed stock
G92 E0                  ;zero the extruded length again
G1 F150.0
;Put printing message on LCD screen
M117 Printing...
G92 E0
G92 E0
G1 F2400 E-6
;LAYER_COUNT:85
;LAYER:0
M106 S191.3
M204 S2000
G1 F600 Z1.3
G0 F4500 X3.598 Y-10.391 Z1.3
M204 S1500
;TYPE:SKIRT
G1 F600 Z0.3
G1 F2400 E0
G1 F300 X4.117 Y-10.221 E0.05449
G1 X4.592 Y-10.03 E0.10558
G1 X5.14 Y-9.76 E0.16653
G1 X5.424 Y-9.605 E0.19882
G1 X5.868 Y-9.325 E0.25119
G1 X6.817 Y-8.64 E0.36798
G1 X7.428 Y-8.151 E0.44606
G1 X7.809 Y-7.79 E0.49843
G1 X8.17 Y-7.412 E0.55059
G1 X8.474 Y-7.04 E0.59852
G1 X9.265 Y-5.953 E0.73266
G1 X9.529 Y-5.543 E0.78132
G1 X9.783 Y-5.092 E0.83297
G1 X10.046 Y-4.557 E0.89245
G1 X10.229 Y-4.094 E0.94213
G1 X10.616 Y-2.915 E1.06594
G1 X10.764 Y-2.371 E1.1222
G1 X10.92 Y-1.564 E1.20421
G1 X10.959 Y-1.261 E1.23469
G1 X10.993 Y-.736 E1.28719
G1 X10.996 Y0.478 E1.40832
G1 X10.955 Y1.295 E1.48994
G1 X10.847 Y2.005 E1.5616
G1 X10.682 Y2.695 E1.63239
G1 X10.321 Y3.821 E1.75038
G1 X10.095 Y4.443 E1.81641
G1 X9.845 Y4.977 E1.87525
G1 X9.607 Y5.421 E1.92551
G1 X9.326 Y5.867 E1.97811
G1 X8.614 Y6.851 E2.0993
G1 X8.145 Y7.436 E2.17412
G1 X7.791 Y7.808 E2.22535
G1 X7.407 Y8.174 E2.27829
G1 X7.039 Y8.475 E2.32572
G1 X5.947 Y9.269 E2.46044
G1 X5.537 Y9.532 E2.50905
G1 X5.091 Y9.783 E2.56011
G1 X4.53 Y10.057 E2.62241
G1 X4.076 Y10.236 E2.6711
G1 X2.912 Y10.617 E2.79331
G1 X2.37 Y10.764 E2.84934
G1 X1.559 Y10.92 E2.93175
G1 X1.246 Y10.96 E2.96323
G1 X0.721 Y10.994 E3.01573
G1 X-.524 Y10.995 E3.13996
G1 X-1.301 Y10.954 E3.21759
G1 X-2.007 Y10.846 E3.28886
G1 X-2.701 Y10.68 E3.36006
G1 X-3.598 Y10.391 E3.45409
G1 X-4.117 Y10.221 E3.50859
G1 X-4.592 Y10.03 E3.55967
G1 X-5.14 Y9.76 E3.62063
G1 X-5.424 Y9.605 E3.65291
G1 X-5.869 Y9.324 E3.70542
G1 X-6.806 Y8.647 E3.82077
G1 X-7.336 Y8.236 E3.88769
G1 X-7.747 Y7.852 E3.94381
G1 X-8.157 Y7.427 E4.00274
G1 X-8.477 Y7.037 E4.05307
G1 X-9.27 Y5.945 E4.18773
G1 X-9.531 Y5.54 E4.23581
G1 X-9.783 Y5.093 E4.28701
G1 X-10.064 Y4.515 E4.35114
G1 X-10.238 Y4.069 E4.39891
G1 X-10.654 Y2.792 E4.53292
G1 X-10.865 Y1.887 E4.62564
G1 X-10.96 Y1.252 E4.68971
G1 X-10.994 Y0.723 E4.7426
G1 X-10.995 Y-.525 E4.86712
G1 X-10.954 Y-1.301 E4.94466
G1 X-10.846 Y-2.007 E5.01593
G1 X-10.68 Y-2.701 E5.08713
G1 X-10.302 Y-3.877 E5.21038
G1 X-10.078 Y-4.482 E5.27475
G1 X-9.843 Y-4.98 E5.3297
G1 X-9.612 Y-5.413 E5.37867
G1 X-9.324 Y-5.87 E5.43257
G1 X-8.618 Y-6.846 E5.55276
G1 X-8.139 Y-7.443 E5.62913
G1 X-7.791 Y-7.808 E5.67945
G1 X-7.391 Y-8.188 E5.7345
G1 X-7.033 Y-8.48 E5.7806
G1 X-5.946 Y-9.27 E5.91468
G1 X-5.137 Y-9.759 E6.009
G1 X-4.508 Y-10.067 E6.07889
G1 X-4.076 Y-10.236 E6.12517
G1 X-2.912 Y-10.617 E6.24738
G1 X-2.37 Y-10.764 E6.30342
G1 X-1.564 Y-10.919 E6.38531
G1 X-1.254 Y-10.959 E6.4165
G1 X-.724 Y-10.994 E6.4695
G1 X0.436 Y-10.996 E6.58524
G1 X1.273 Y-10.957 E6.66885
G1 X2.007 Y-10.846 E6.74292
G1 X2.701 Y-10.68 E6.81412
G1 X3.598 Y-10.391 E6.90816
M204 S2000
G0 F4500 X3.338 Y-9.634
M204 S1500
G1 F300 X3.86 Y-9.464 E6.96294
G1 X4.402 Y-9.236 E7.02161
G1 X5.041 Y-8.902 E7.09355
G1 X5.4 Y-8.676 E7.13588
G1 X6.335 Y-8.001 E7.25095
G1 X6.884 Y-7.565 E7.3209
G1 X7.437 Y-7.025 E7.39802
G1 X7.827 Y-6.57 E7.45782
G1 X8.618 Y-5.483 E7.59195
G1 X8.831 Y-5.15 E7.6314
G1 X9.085 Y-4.699 E7.68304
G1 X9.32 Y-4.219 E7.73637
G1 X9.468 Y-3.844 E7.7766
G1 X9.886 Y-2.566 E7.91076
G1 X10.082 Y-1.725 E7.99693
G1 X10.165 Y-1.159 E8.05401
G1 X10.193 Y-.734 E8.09651
G1 X10.196 Y0.466 E8.21624
G1 X10.162 Y1.191 E8.28866
G1 X10.058 Y1.871 E8.3573
G1 X9.92 Y2.451 E8.41679
G1 X9.562 Y3.566 E8.53364
G1 X9.362 Y4.123 E8.59269
G1 X9.127 Y4.624 E8.64791
G1 X8.677 Y5.399 E8.73733
G1 X7.975 Y6.371 E8.85697
G1 X7.56 Y6.89 E8.92327
G1 X7.022 Y7.44 E9.00004
G1 X6.568 Y7.828 E9.05963
G1 X5.476 Y8.622 E9.19435
G1 X5.145 Y8.835 E9.23362
G1 X4.699 Y9.086 E9.28469
G1 X4.195 Y9.331 E9.34061
G1 X3.827 Y9.475 E9.38004
G1 X2.663 Y9.856 E9.50224
G1 X1.723 Y10.082 E9.59871
G1 X1.145 Y10.167 E9.657
G1 X0.72 Y10.194 E9.6995
G1 X-.509 Y10.195 E9.82213
G1 X-1.197 Y10.161 E9.89086
G1 X-1.872 Y10.058 E9.95899
G1 X-2.456 Y9.918 E10.01891
G1 X-3.338 Y9.634 E10.11137
G1 X-3.86 Y9.464 E10.16615
G1 X-4.402 Y9.236 E10.22482
G1 X-5.041 Y8.902 E10.29676
G1 X-5.401 Y8.675 E10.33923
G1 X-6.326 Y8.007 E10.45308
G1 X-6.81 Y7.633 E10.51411
G1 X-7.187 Y7.281 E10.56557
G1 X-7.57 Y6.883 E10.62069
G1 X-7.83 Y6.567 E10.66152
G1 X-8.623 Y5.475 E10.79618
G1 X-8.834 Y5.147 E10.83509
G1 X-9.086 Y4.7 E10.88629
G1 X-9.336 Y4.181 E10.94377
G1 X-9.478 Y3.821 E10.98239
G1 X-9.857 Y2.662 E11.10406
G1 X-10.082 Y1.723 E11.20041
G1 X-10.166 Y1.15 E11.25819
G1 X-10.194 Y0.722 E11.30099
G1 X-10.195 Y-.51 E11.42392
G1 X-10.161 Y-1.197 E11.49255
G1 X-10.058 Y-1.872 E11.56068
G1 X-9.918 Y-2.456 E11.62061
G1 X-9.624 Y-3.369 E11.71631
G1 X-9.452 Y-3.89 E11.77106
G1 X-9.239 Y-4.395 E11.82575
G1 X-8.908 Y-5.031 E11.89729
G1 X-8.676 Y-5.401 E11.94086
G1 X-7.977 Y-6.367 E12.05984
G1 X-7.556 Y-6.896 E12.1273
G1 X-7.022 Y-7.44 E12.20336
G1 X-6.563 Y-7.832 E12.26359
G1 X-5.476 Y-8.622 E12.39767
G1 X-4.743 Y-9.063 E12.48302
G1 X-4.177 Y-9.339 E12.54586
G1 X-3.827 Y-9.475 E12.58332
G1 X-2.663 Y-9.856 E12.70553
G1 X-1.723 Y-10.082 E12.802
G1 X-1.152 Y-10.166 E12.85958
G1 X-.723 Y-10.194 E12.90248
G1 X0.5 Y-10.196 E13.02451
G1 X1.172 Y-10.163 E13.09165
G1 X1.872 Y-10.058 E13.16227
G1 X2.456 Y-9.918 E13.2222
G1 X3.338 Y-9.634 E13.31465
M204 S2000
G1 F2400 E7.31465
G1 F600 Z1.3
;MESH:t_bar_nut.stl
G0 F4500 X3.777 Y0.276 Z1.3
M204 S1500
;TYPE:WALL-INNER
G1 F600 Z0.3
G1 F2400 E13.31465
G1 F300 X3.777 Y-.276 E13.36422
G1 X3.696 Y-.823 E13.41388
G1 X3.536 Y-1.356 E13.46386
G1 X3.269 Y-1.907 E13.51884
G1 X2.996 Y-2.315 E13.56293
G1 X2.627 Y-2.727 E13.61259
G1 X2.199 Y-3.082 E13.66253
G1 X1.677 Y-3.394 E13.71714
G1 X1.219 Y-3.586 E13.76174
G1 X0.686 Y-3.724 E13.81118
G1 X0.137 Y-3.785 E13.86079
G1 X-.414 Y-3.764 E13.9103
G1 X-.957 Y-3.664 E13.95989
G1 X-1.48 Y-3.485 E14.00953
G1 X-1.978 Y-3.23 E14.05977
G1 X-2.47 Y-2.867 E14.11468
G1 X-2.821 Y-2.525 E14.15869
G1 X-3.158 Y-2.091 E14.20803
G1 X-3.429 Y-1.606 E14.25792
G1 X-3.629 Y-1.084 E14.30812
G1 X-3.752 Y-.488 E14.36277
G1 X-3.787 Y0.002 E14.40689
G1 X-3.747 Y0.549 E14.45614
G1 X-3.627 Y1.09 E14.50591
G1 X-3.429 Y1.606 E14.55554
G1 X-3.158 Y2.091 E14.60543
G1 X-2.82 Y2.527 E14.65497
G1 X-2.42 Y2.914 E14.70495
G1 X-1.912 Y3.268 E14.76056
G1 X-1.418 Y3.509 E14.80992
G1 X-.954 Y3.664 E14.85385
G1 X-.414 Y3.764 E14.90317
G1 X0.137 Y3.785 E14.95268
G1 X0.686 Y3.724 E15.00229
G1 X1.227 Y3.584 E15.05247
G1 X1.793 Y3.334 E15.10804
G1 X2.255 Y3.039 E15.15726
G1 X2.63 Y2.724 E15.20124
G1 X2.998 Y2.313 E15.25078
G1 X3.303 Y1.852 E15.30042
G1 X3.537 Y1.351 E15.35008
G1 X3.696 Y0.823 E15.3996
G1 X3.777 Y0.276 E15.44926
M204 S2000
G0 F4500 X2.715 Y2.089
G0 X1.105 Y3.243
G0 X-.866 Y3.313
G0 X-5.044 Y0.228
M204 S1500
G1 F300 X-5.043 Y-.222 E15.48967
G1 X-5.152 Y-.685 E15.53238
G1 X-5.229 Y-.829 E15.54705
G1 X-5.111 Y-.944 E15.56184
G1 X-4.864 Y-1.347 E15.60429
G1 X-4.725 Y-1.791 E15.64607
G1 X-4.691 Y-2.251 E15.68749
G1 X-4.717 Y-2.404 E15.70143
G1 X-4.566 Y-2.481 E15.71665
G1 X-4.214 Y-2.781 E15.75818
G1 X-3.939 Y-3.161 E15.80031
G1 X-3.762 Y-3.601 E15.8429
G1 X-3.743 Y-3.742 E15.85567
G1 X-3.601 Y-3.761 E15.86854
G1 X-3.16 Y-3.939 E15.91125
G1 X-2.767 Y-4.225 E15.9549
G1 X-2.467 Y-4.587 E15.99712
G1 X-2.404 Y-4.717 E16.01009
G1 X-2.239 Y-4.69 E16.0251
G1 X-1.771 Y-4.727 E16.06726
G1 X-1.326 Y-4.874 E16.10935
G1 X-.93 Y-5.123 E16.15136
G1 X-.828 Y-5.228 E16.1645
G1 X-.682 Y-5.152 E16.17928
G1 X-.228 Y-5.044 E16.22119
G1 X0.222 Y-5.043 E16.2616
G1 X0.685 Y-5.152 E16.30432
G1 X0.829 Y-5.229 E16.31898
G1 X0.944 Y-5.111 E16.33378
G1 X1.347 Y-4.864 E16.37623
G1 X1.791 Y-4.725 E16.41801
G1 X2.251 Y-4.691 E16.45943
G1 X2.404 Y-4.717 E16.47336
G1 X2.481 Y-4.566 E16.48859
G1 X2.781 Y-4.214 E16.53012
G1 X3.161 Y-3.939 E16.57224
G1 X3.601 Y-3.762 E16.61483
G1 X3.742 Y-3.743 E16.62761
G1 X3.761 Y-3.601 E16.64048
G1 X3.939 Y-3.16 E16.68318
G1 X4.225 Y-2.767 E16.72683
G1 X4.587 Y-2.467 E16.76905
G1 X4.717 Y-2.404 E16.78202
G1 X4.69 Y-2.239 E16.79704
G1 X4.727 Y-1.771 E16.8392
G1 X4.874 Y-1.326 E16.88128
G1 X5.123 Y-.93 E16.92329
G1 X5.229 Y-.828 E16.9365
G1 X5.152 Y-.682 E16.95132
G1 X5.044 Y-.228 E16.99323
G1 X5.043 Y0.222 E17.03364
G1 X5.152 Y0.685 E17.07636
G1 X5.229 Y0.829 E17.09102
G1 X5.111 Y0.944 E17.10582
G1 X4.864 Y1.347 E17.14827
G1 X4.725 Y1.791 E17.19005
G1 X4.691 Y2.251 E17.23147
G1 X4.717 Y2.404 E17.24541
G1 X4.566 Y2.481 E17.26063
G1 X4.214 Y2.781 E17.30216
G1 X3.939 Y3.161 E17.34428
G1 X3.762 Y3.601 E17.38687
G1 X3.743 Y3.742 E17.39965
G1 X3.601 Y3.761 E17.41252
G1 X3.16 Y3.939 E17.45522
G1 X2.767 Y4.225 E17.49887
G1 X2.467 Y4.587 E17.54109
G1 X2.404 Y4.717 E17.55407
G1 X2.239 Y4.69 E17.56908
G1 X1.771 Y4.727 E17.61124
G1 X1.326 Y4.874 E17.65333
G1 X0.93 Y5.123 E17.69533
G1 X0.828 Y5.228 E17.70848
G1 X0.682 Y5.152 E17.72326
G1 X0.228 Y5.044 E17.76517
G1 X-.222 Y5.043 E17.80558
G1 X-.685 Y5.152 E17.84829
G1 X-.829 Y5.229 E17.86296
G1 X-.944 Y5.111 E17.87776
G1 X-1.347 Y4.864 E17.9202
G1 X-1.791 Y4.725 E17.96198
G1 X-2.251 Y4.691 E18.0034
G1 X-2.404 Y4.717 E18.01734
G1 X-2.481 Y4.566 E18.03256
G1 X-2.781 Y4.214 E18.0741
G1 X-3.161 Y3.939 E18.11622
G1 X-3.601 Y3.762 E18.15881
G1 X-3.742 Y3.743 E18.17159
G1 X-3.761 Y3.601 E18.18445
G1 X-3.939 Y3.16 E18.22716
G1 X-4.225 Y2.767 E18.27081
G1 X-4.587 Y2.467 E18.31303
G1 X-4.717 Y2.404 E18.326
G1 X-4.69 Y2.239 E18.34102
G1 X-4.727 Y1.771 E18.38317
G1 X-4.874 Y1.326 E18.42526
G1 X-5.123 Y0.93 E18.46727
G1 X-5.228 Y0.828 E18.48041
G1 X-5.152 Y0.682 E18.4952
G1 X-5.044 Y0.228 E18.5371
M204 S2000
G0 F4500 X-5.947 Y1.245
M204 S1500
;TYPE:WALL-OUTER
G1 F300 X-6.24 Y1.108 E18.56615
G1 X-6.251 Y1.102 E18.56727
G1 X-6.317 Y1.071 E18.57382
G1 X-6.353 Y1.054 E18.5774
G1 X-6.369 Y0.959 E18.58605
G1 X-6.232 Y0.859 E18.59006
G1 X-6.21 Y0.842 E18.59069
G1 X-6.036 Y0.644 E18.60743
G1 X-5.907 Y0.399 E18.6298
G1 X-5.844 Y0.133 E18.65435
G1 X-5.843 Y-.13 E18.67797
G1 X-5.907 Y-.4 E18.70289
G1 X-6.042 Y-.653 E18.72864
G1 X-6.294 Y-.942 E18.76307
G1 X-6.361 Y-1.019 E18.77224
G1 X-6.27 Y-1.069
G1 X-5.947 Y-1.245 E18.79354
G1 X-5.742 Y-1.446 E18.81933
G1 X-5.598 Y-1.681 E18.84408
G1 X-5.516 Y-1.942 E18.86865
G1 X-5.496 Y-2.214 E18.89314
G1 X-5.54 Y-2.476 E18.917
G1 X-5.705 Y-2.794 E18.94917
G1 X-5.737 Y-2.856 E18.95543
G1 X-5.731 Y-2.941 E18.96309
G1 X-5.628 Y-2.959
G1 X-5.259 Y-3.026 E18.9835
G1 X-5.013 Y-3.151 E19.00575
G1 X-4.806 Y-3.328 E19.03021
G1 X-4.644 Y-3.551 E19.05496
G1 X-4.541 Y-3.807 E19.07974
G1 X-4.504 Y-4.08 E19.10448
G1 X-4.563 Y-4.397 E19.13344
G1 X-4.566 Y-4.409 E19.13455
G1 X-4.588 Y-4.519 E19.14462
G1 X-4.521 Y-4.588 E19.15326
G1 X-4.416 Y-4.569 E19.15327
G1 X-4.4 Y-4.566
G1 X-4.071 Y-4.504 E19.17342
G1 X-3.808 Y-4.54 E19.19726
G1 X-3.551 Y-4.644 E19.22216
G1 X-3.319 Y-4.813 E19.24794
G1 X-3.144 Y-5.024 E19.27255
G1 X-3.023 Y-5.272 E19.29733
G1 X-2.985 Y-5.589 E19.326
G1 X-2.983 Y-5.602 E19.32719
G1 X-2.973 Y-5.676 E19.33389
G1 X-2.968 Y-5.715 E19.33742
G1 X-2.881 Y-5.76 E19.34622
G1 X-2.746 Y-5.664 E19.35009
G1 X-2.719 Y-5.645 E19.35013
G1 X-2.477 Y-5.54 E19.36692
G1 X-2.205 Y-5.495 E19.38925
G1 X-1.93 Y-5.517 E19.41402
G1 X-1.669 Y-5.603 E19.4387
G1 X-1.437 Y-5.749 E19.46332
G1 X-1.245 Y-5.947 E19.48808
G1 X-1.108 Y-6.24 E19.51713
G1 X-1.102 Y-6.251 E19.51826
G1 X-1.071 Y-6.317 E19.5248
G1 X-1.054 Y-6.353 E19.52838
G1 X-.959 Y-6.369 E19.53703
G1 X-.859 Y-6.232 E19.54105
G1 X-.842 Y-6.21
G1 X-.644 Y-6.036 E19.55779
G1 X-.399 Y-5.907 E19.58016
G1 X-.133 Y-5.844 E19.60471
G1 X0.13 Y-5.843 E19.62833
G1 X0.4 Y-5.907 E19.65325
G1 X0.653 Y-6.042 E19.679
G1 X0.874 Y-6.278 E19.70803
G1 X0.882 Y-6.286 E19.70905
G1 X0.96 Y-6.369 E19.71928
G1 X1.054 Y-6.354 E19.72783
G1 X1.102 Y-6.251 E19.72827
G1 X1.107 Y-6.24
G1 X1.245 Y-5.947 E19.74764
G1 X1.446 Y-5.742 E19.77071
G1 X1.681 Y-5.598 E19.79546
G1 X1.942 Y-5.516 E19.82003
G1 X2.214 Y-5.496 E19.84452
G1 X2.476 Y-5.54 E19.86838
G1 X2.794 Y-5.705 E19.90055
G1 X2.856 Y-5.737 E19.90682
G1 X2.941 Y-5.731 E19.91447
G1 X2.959 Y-5.628
G1 X3.026 Y-5.259 E19.93489
G1 X3.151 Y-5.013 E19.95714
G1 X3.328 Y-4.806 E19.9816
G1 X3.551 Y-4.644 E20.00635
G1 X3.807 Y-4.541 E20.03113
G1 X4.08 Y-4.504 E20.05587
G1 X4.397 Y-4.563 E20.08483
G1 X4.409 Y-4.566 E20.08594
G1 X4.519 Y-4.588 E20.09601
G1 X4.588 Y-4.521 E20.10465
G1 X4.569 Y-4.416 E20.10465
G1 X4.566 Y-4.4
G1 X4.504 Y-4.071 E20.12481
G1 X4.54 Y-3.808 E20.14865
G1 X4.644 Y-3.551 E20.17355
G1 X4.813 Y-3.319 E20.19932
G1 X5.024 Y-3.144 E20.22394
G1 X5.272 Y-3.023 E20.24872
G1 X5.645 Y-2.938 E20.28307
G1 X5.744 Y-2.915 E20.2922
G1 X5.736 Y-2.855 E20.29764
G1 X5.709 Y-2.802
G1 X5.704 Y-2.792
G1 X5.54 Y-2.477 E20.31854
G1 X5.495 Y-2.205 E20.34329
G1 X5.517 Y-1.93 E20.36807
G1 X5.603 Y-1.669 E20.39275
G1 X5.749 Y-1.437 E20.41736
G1 X5.947 Y-1.245 E20.44213
G1 X6.276 Y-1.05 E20.47647
G1 X6.364 Y-.998 E20.48565
G1 X6.337 Y-.94 E20.4914
G1 X6.287 Y-.891
G1 X6.036 Y-.644 E20.51207
G1 X5.907 Y-.399 E20.53693
G1 X5.844 Y-.133 E20.56148
G1 X5.843 Y0.13 E20.5851
G1 X5.907 Y0.4 E20.61002
G1 X6.042 Y0.653 E20.63577
G1 X6.293 Y0.934 E20.66961
G1 X6.362 Y1.011 E20.67889
G1 X6.319 Y1.062 E20.68488
G1 X6.259 Y1.091
G1 X6.25 Y1.096
G1 X5.947 Y1.245 E20.70463
G1 X5.742 Y1.446 E20.73041
G1 X5.598 Y1.681 E20.75516
G1 X5.516 Y1.942 E20.77973
G1 X5.496 Y2.214 E20.80422
G1 X5.54 Y2.476 E20.82808
G1 X5.705 Y2.794 E20.86025
G1 X5.737 Y2.856 E20.86652
G1 X5.734 Y2.935 E20.87362
G1 X5.681 Y2.965 E20.87908
G1 X5.607 Y2.975
G1 X5.259 Y3.026 E20.90082
G1 X5.013 Y3.151 E20.92307
G1 X4.806 Y3.328 E20.94753
G1 X4.644 Y3.551 E20.97228
G1 X4.541 Y3.807 E20.99706
G1 X4.504 Y4.08 E21.0218
G1 X4.563 Y4.397 E21.05076
G1 X4.566 Y4.409 E21.05187
G1 X4.588 Y4.519 E21.06194
G1 X4.521 Y4.588 E21.07058
G1 X4.416 Y4.569 E21.07058
G1 X4.4 Y4.566
G1 X4.071 Y4.504 E21.09074
G1 X3.808 Y4.54 E21.11458
G1 X3.551 Y4.644 E21.13948
G1 X3.319 Y4.813 E21.16525
G1 X3.144 Y5.024 E21.18987
G1 X3.023 Y5.272 E21.21465
G1 X2.985 Y5.589 E21.24332
G1 X2.983 Y5.602 E21.2445
G1 X2.973 Y5.676 E21.25121
G1 X2.968 Y5.715 E21.25474
G1 X2.881 Y5.76 E21.26354
G1 X2.746 Y5.664 E21.26741
G1 X2.719 Y5.645 E21.26744
G1 X2.477 Y5.54 E21.28424
G1 X2.205 Y5.495 E21.30657
G1 X1.93 Y5.517 E21.33134
G1 X1.669 Y5.603 E21.35602
G1 X1.437 Y5.749 E21.38063
G1 X1.245 Y5.947 E21.4054
G1 X1.108 Y6.24 E21.43445
G1 X1.102 Y6.251 E21.43557
G1 X1.071 Y6.317 E21.44212
G1 X1.054 Y6.353 E21.4457
G1 X0.959 Y6.369 E21.45435
G1 X0.859 Y6.232 E21.45836
G1 X0.842 Y6.21
G1 X0.644 Y6.036 E21.47511
G1 X0.399 Y5.907 E21.49748
G1 X0.133 Y5.844 E21.52203
G1 X-.13 Y5.843 E21.54564
G1 X-.4 Y5.907 E21.57056
G1 X-.653 Y6.042 E21.59632
G1 X-.935 Y6.293 E21.63022
G1 X-1.012 Y6.362 E21.6395
G1 X-1.062 Y6.319 E21.64542
G1 X-1.091 Y6.259
G1 X-1.096 Y6.25
G1 X-1.245 Y5.947 E21.66516
G1 X-1.446 Y5.742 E21.69094
G1 X-1.681 Y5.598 E21.71569
G1 X-1.942 Y5.516 E21.74026
G1 X-2.214 Y5.496 E21.76475
G1 X-2.476 Y5.54 E21.78861
G1 X-2.794 Y5.705 E21.82078
G1 X-2.856 Y5.737 E21.82705
G1 X-2.941 Y5.731 E21.8347
G1 X-2.959 Y5.628
G1 X-3.026 Y5.259 E21.85512
G1 X-3.151 Y5.013 E21.87737
G1 X-3.328 Y4.806 E21.90183
G1 X-3.551 Y4.644 E21.92658
G1 X-3.807 Y4.541 E21.95136
G1 X-4.08 Y4.504 E21.9761
G1 X-4.397 Y4.563 E22.00506
G1 X-4.409 Y4.566 E22.00617
G1 X-4.519 Y4.588 E22.01624
G1 X-4.588 Y4.521 E22.02488
G1 X-4.569 Y4.416 E22.02488
G1 X-4.566 Y4.4
G1 X-4.504 Y4.071 E22.04504
G1 X-4.54 Y3.808 E22.06888
G1 X-4.644 Y3.551 E22.09378
G1 X-4.813 Y3.319 E22.11955
G1 X-5.024 Y3.144 E22.14417
G1 X-5.272 Y3.023 E22.16895
G1 X-5.589 Y2.985 E22.19762
