;FLAVOR:Marlin
;TIME:1343
;Filament used: 3.00453m
;Layer height: 0.3
;MINX:-38.706
;MINY:-12.322
;MINZ:0.3
;MAXX:38.706
;MAXY:12.322
;MAXZ:18.9
;Generated with Cura_SteamEngine 4.10.0
M140 S60
M105
M190 S60
M104 S205
M105
M109 S205
M82 ;absolute extrusion mode
G21        ;metric values
G90        ;absolute positioning
M107       ;start with the fan off
G28   ;move to endstops

;Z-Offset Reset und dann Z +0,1 für PLA
;MacroZOffset0
;MacroZOffsetPlus0100

G92 E0                  ;zero the extruded length
G1 F200 E3              ;extrude 3mm of feed stock
G92 E0                  ;zero the extruded length again
G1 F150.0
;Put printing message on LCD screen
M117 Printing...
G92 E0
G92 E0
G1 F2400 E-6
;LAYER_COUNT:63
;LAYER:0
M106 S191.3
M204 S2000
G1 F600 Z1.3
G0 F1500 X0.755 Y-12.297 Z1.3
M204 S1500
;TYPE:SKIRT
G1 F600 Z0.3
G1 F2400 E0
G1 F300 X1.356 Y-12.252 E0.06014
G1 X1.785 Y-12.194 E0.10333
G1 X2.372 Y-12.094 E0.16275
G1 X2.967 Y-11.965 E0.22349
G1 X3.504 Y-11.834 E0.27865
G1 X4.873 Y-11.478 E0.41979
G1 X7.562 Y-10.858 E0.69514
G1 X10.191 Y-10.333 E0.96264
G1 X12.861 Y-9.877 E1.23291
G1 X15.55 Y-9.493 E1.50394
G1 X18.228 Y-9.19 E1.77286
G1 X20.945 Y-8.959 E2.04494
G1 X23.619 Y-8.808 E2.31218
G1 X27.73 Y-8.721 E2.72247
G1 X29.352 Y-8.721 E2.88431
G1 X29.981 Y-8.71 E2.94708
G1 X30.676 Y-8.678 E3.01651
G1 X31.346 Y-8.603 E3.08378
G1 X32.03 Y-8.469 E3.15332
G1 X32.528 Y-8.335 E3.20478
G1 X33.117 Y-8.132 E3.26694
G1 X33.655 Y-7.905 E3.32521
G1 X34.173 Y-7.644 E3.38309
G1 X34.622 Y-7.383 E3.43491
G1 X35.132 Y-7.037 E3.4964
G1 X35.534 Y-6.725 E3.54718
G1 X36.028 Y-6.284 E3.61325
G1 X36.519 Y-5.774 E3.68389
G1 X36.99 Y-5.198 E3.75813
G1 X37.398 Y-4.592 E3.83103
G1 X37.621 Y-4.205 E3.87559
G1 X37.912 Y-3.631 E3.93981
G1 X38.155 Y-3.059 E4.00182
G1 X38.357 Y-2.451 E4.06574
G1 X38.527 Y-1.768 E4.13597
G1 X38.654 Y-.988 E4.21483
G1 X38.706 Y-.225 E4.29114
G1 X38.704 Y0.319 E4.34542
G1 X38.659 Y0.927 E4.40625
G1 X38.59 Y1.44 E4.4579
G1 X38.47 Y2.03 E4.51797
G1 X38.333 Y2.537 E4.57038
G1 X38.132 Y3.117 E4.63163
G1 X37.908 Y3.649 E4.68922
G1 X37.637 Y4.186 E4.74924
G1 X37.263 Y4.806 E4.82149
G1 X36.826 Y5.41 E4.89588
G1 X36.292 Y6.02 E4.97677
G1 X35.772 Y6.52 E5.04875
G1 X35.186 Y6.999 E5.12427
G1 X34.592 Y7.398 E5.19567
G1 X34.205 Y7.621 E5.24024
G1 X33.631 Y7.912 E5.30445
G1 X33.059 Y8.155 E5.36646
G1 X32.458 Y8.355 E5.42966
G1 X31.756 Y8.529 E5.50183
G1 X30.881 Y8.663 E5.59015
G1 X30.299 Y8.699 E5.64834
G1 X29.072 Y8.722 E5.77079
G1 X27.746 Y8.722 E5.9031
G1 X24.955 Y8.761 E6.18161
G1 X22.262 Y8.876 E6.45057
G1 X19.602 Y9.064 E6.71664
G1 X16.854 Y9.337 E6.99219
G1 X14.183 Y9.679 E7.26088
G1 X11.504 Y10.099 E7.53146
G1 X8.852 Y10.593 E7.80063
G1 X6.177 Y11.168 E8.07364
G1 X2.65 Y12.036 E8.43606
G1 X1.972 Y12.166 E8.50495
G1 X1.378 Y12.248 E8.56478
G1 X0.72 Y12.304 E8.63067
G1 X-0.078 Y12.322 E8.71031
G1 X-.755 Y12.297 E8.77791
G1 X-1.356 Y12.252 E8.83805
G1 X-1.785 Y12.194 E8.88124
G1 X-2.372 Y12.094 E8.94066
G1 X-2.967 Y11.965 E9.00141
G1 X-3.504 Y11.834 E9.05656
G1 X-4.873 Y11.478 E9.1977
G1 X-7.562 Y10.858 E9.47305
G1 X-10.191 Y10.333 E9.74055
G1 X-12.861 Y9.877 E10.01083
G1 X-15.55 Y9.493 E10.28186
G1 X-18.228 Y9.19 E10.55077
G1 X-20.945 Y8.959 E10.82285
G1 X-23.619 Y8.808 E11.09009
G1 X-27.73 Y8.721 E11.50038
G1 X-29.352 Y8.721 E11.66223
G1 X-29.981 Y8.71 E11.725
G1 X-30.676 Y8.678 E11.79442
G1 X-31.357 Y8.601 E11.8628
G1 X-32.027 Y8.47 E11.93092
G1 X-32.528 Y8.335 E11.98269
G1 X-33.122 Y8.131 E12.04536
G1 X-33.647 Y7.909 E12.10224
G1 X-34.19 Y7.635 E12.16292
G1 X-34.807 Y7.262 E12.23486
G1 X-35.411 Y6.825 E12.30925
G1 X-36.03 Y6.282 E12.39141
G1 X-36.387 Y5.92 E12.44214
G1 X-36.777 Y5.47 E12.50156
G1 X-37.109 Y5.032 E12.5564
G1 X-37.4 Y4.589 E12.60929
G1 X-37.626 Y4.197 E12.65444
G1 X-37.915 Y3.625 E12.71838
G1 X-38.151 Y3.067 E12.77883
G1 X-38.355 Y2.459 E12.84282
G1 X-38.487 Y1.964 E12.89394
G1 X-38.607 Y1.323 E12.95901
G1 X-38.673 Y0.784 E13.01319
G1 X-38.706 Y0.218 E13.06977
G1 X-38.702 Y-.345 E13.12594
G1 X-38.659 Y-.929 E13.18437
G1 X-38.59 Y-1.44 E13.23582
G1 X-38.47 Y-2.03 E13.2959
G1 X-38.333 Y-2.537 E13.3483
G1 X-38.121 Y-3.145 E13.41255
G1 X-37.902 Y-3.66 E13.46839
G1 X-37.639 Y-4.182 E13.52671
G1 X-37.387 Y-4.616 E13.57679
G1 X-37.037 Y-5.133 E13.63909
G1 X-36.701 Y-5.563 E13.69354
G1 X-36.278 Y-6.035 E13.75678
G1 X-35.773 Y-6.519 E13.82657
G1 X-35.181 Y-7.003 E13.90287
G1 X-34.592 Y-7.398 E13.97364
G1 X-34.21 Y-7.619 E14.01767
G1 X-33.681 Y-7.888 E14.07689
G1 X-33.141 Y-8.123 E14.13565
G1 X-32.455 Y-8.356 E14.20794
G1 X-31.97 Y-8.485 E14.25802
G1 X-31.358 Y-8.603 E14.32021
G1 X-30.527 Y-8.689 E14.40357
G1 X-30.299 Y-8.699 E14.42634
G1 X-29.072 Y-8.722 E14.54879
G1 X-27.746 Y-8.722 E14.6811
G1 X-24.955 Y-8.761 E14.95961
G1 X-22.262 Y-8.876 E15.22857
G1 X-19.602 Y-9.064 E15.49464
G1 X-16.854 Y-9.337 E15.77019
G1 X-14.183 Y-9.679 E16.03888
G1 X-11.504 Y-10.099 E16.30946
G1 X-8.852 Y-10.593 E16.57863
G1 X-6.177 Y-11.168 E16.85164
G1 X-2.646 Y-12.037 E17.21447
G1 X-1.972 Y-12.166 E17.28295
G1 X-1.378 Y-12.248 E17.34278
G1 X-.72 Y-12.304 E17.40867
G1 X0.078 Y-12.322 E17.48832
G1 X0.755 Y-12.297 E17.55591
M204 S2000
G0 F1500 X0.725 Y-11.498
M204 S1500
G1 F300 X1.259 Y-11.458 E17.60934
G1 X1.651 Y-11.406 E17.6488
G1 X2.238 Y-11.306 E17.70822
G1 X2.768 Y-11.19 E17.76235
G1 X3.303 Y-11.06 E17.81729
G1 X4.711 Y-10.694 E17.96245
G1 X7.389 Y-10.077 E18.23666
G1 X10.049 Y-9.546 E18.50731
G1 X12.721 Y-9.088 E18.77781
G1 X15.455 Y-8.699 E19.05336
G1 X18.138 Y-8.394 E19.3228
G1 X20.867 Y-8.163 E19.59607
G1 X23.613 Y-8.007 E19.87051
G1 X27.714 Y-7.921 E20.2798
G1 X29.341 Y-7.921 E20.44214
G1 X29.944 Y-7.91 E20.50232
G1 X30.639 Y-7.878 E20.57174
G1 X31.237 Y-7.81 E20.63179
G1 X31.865 Y-7.687 E20.69565
G1 X32.46 Y-7.516 E20.75742
G1 X33.128 Y-7.266 E20.82859
G1 X33.809 Y-6.932 E20.90427
G1 X34.35 Y-6.605 E20.96735
G1 X34.891 Y-6.217 E21.03377
G1 X35.49 Y-5.691 E21.11332
G1 X35.909 Y-5.255 E21.17365
G1 X36.34 Y-4.732 E21.24128
G1 X36.727 Y-4.157 E21.31043
G1 X36.908 Y-3.843 E21.3466
G1 X37.199 Y-3.269 E21.41081
G1 X37.406 Y-2.776 E21.46416
G1 X37.596 Y-2.204 E21.5243
G1 X37.74 Y-1.624 E21.58393
G1 X37.858 Y-.912 E21.65595
G1 X37.907 Y-.183 E21.72885
G1 X37.895 Y0.453 E21.79232
G1 X37.829 Y1.133 E21.86049
G1 X37.687 Y1.864 E21.93479
G1 X37.516 Y2.46 E21.99666
G1 X37.269 Y3.122 E22.06717
G1 X36.926 Y3.821 E22.14486
G1 X36.605 Y4.35 E22.2066
G1 X36.209 Y4.902 E22.27438
G1 X35.7 Y5.482 E22.35138
G1 X35.254 Y5.91 E22.41306
G1 X34.721 Y6.348 E22.4819
G1 X34.157 Y6.727 E22.5497
G1 X33.843 Y6.908 E22.58586
G1 X33.269 Y7.199 E22.65008
G1 X32.776 Y7.406 E22.70343
G1 X32.211 Y7.594 E22.76284
G1 X31.614 Y7.742 E22.82421
G1 X30.823 Y7.865 E22.90409
G1 X30.283 Y7.899 E22.95808
G1 X29.072 Y7.922 E23.07893
G1 X27.735 Y7.922 E23.21234
G1 X24.945 Y7.961 E23.49075
G1 X22.208 Y8.078 E23.7641
G1 X19.501 Y8.27 E24.03489
G1 X16.781 Y8.539 E24.30761
G1 X14.096 Y8.883 E24.57771
G1 X11.371 Y9.311 E24.85295
G1 X8.68 Y9.811 E25.12605
G1 X6.027 Y10.382 E25.39683
G1 X2.459 Y11.26 E25.76347
G1 X1.863 Y11.373 E25.824
G1 X1.269 Y11.455 E25.88383
G1 X0.69 Y11.505 E25.94182
G1 X-0.048 Y11.523 E26.01548
G1 X-.725 Y11.498 E26.08308
G1 X-1.259 Y11.458 E26.13651
G1 X-1.651 Y11.406 E26.17596
G1 X-2.238 Y11.306 E26.23538
G1 X-2.768 Y11.19 E26.28951
G1 X-3.303 Y11.06 E26.34445
G1 X-4.711 Y10.694 E26.48961
G1 X-7.389 Y10.077 E26.76382
G1 X-10.049 Y9.546 E27.03447
G1 X-12.721 Y9.088 E27.30498
G1 X-15.455 Y8.699 E27.58052
G1 X-18.138 Y8.394 E27.84996
G1 X-20.867 Y8.163 E28.12323
G1 X-23.613 Y8.007 E28.39767
G1 X-27.714 Y7.921 E28.80696
G1 X-29.341 Y7.921 E28.9693
G1 X-29.944 Y7.91 E29.02948
G1 X-30.639 Y7.878 E29.0989
G1 X-31.247 Y7.808 E29.15997
G1 X-31.862 Y7.687 E29.22251
G1 X-32.462 Y7.516 E29.28476
G1 X-33.123 Y7.268 E29.35521
G1 X-33.823 Y6.924 E29.43303
G1 X-34.351 Y6.604 E29.49464
G1 X-34.903 Y6.208 E29.56242
G1 X-35.491 Y5.69 E29.64061
G1 X-35.906 Y5.259 E29.70031
G1 X-36.356 Y4.71 E29.77114
G1 X-36.729 Y4.154 E29.83795
G1 X-36.912 Y3.836 E29.87456
G1 X-37.201 Y3.264 E29.9385
G1 X-37.404 Y2.782 E29.99069
G1 X-37.594 Y2.211 E30.05074
G1 X-37.742 Y1.614 E30.11211
G1 X-37.859 Y0.899 E30.1844
G1 X-37.907 Y0.176 E30.2567
G1 X-37.894 Y-.47 E30.32117
G1 X-37.829 Y-1.133 E30.38764
G1 X-37.687 Y-1.864 E30.46195
G1 X-37.513 Y-2.47 E30.52486
G1 X-37.257 Y-3.148 E30.59717
G1 X-36.928 Y-3.817 E30.67156
G1 X-36.608 Y-4.346 E30.73325
G1 X-36.201 Y-4.912 E30.80281
G1 X-35.686 Y-5.496 E30.8805
G1 X-35.255 Y-5.91 E30.94013
G1 X-34.716 Y-6.351 E31.00962
G1 X-34.157 Y-6.727 E31.07684
G1 X-33.847 Y-6.906 E31.11256
G1 X-33.318 Y-7.175 E31.17178
G1 X-32.842 Y-7.381 E31.22353
G1 X-32.208 Y-7.595 E31.2903
G1 X-31.626 Y-7.74 E31.35014
G1 X-30.848 Y-7.863 E31.42874
G1 X-30.283 Y-7.899 E31.48523
G1 X-29.072 Y-7.922 E31.60608
G1 X-27.735 Y-7.922 E31.73949
G1 X-24.945 Y-7.961 E32.0179
G1 X-22.208 Y-8.078 E32.29125
G1 X-19.501 Y-8.27 E32.56204
G1 X-16.781 Y-8.539 E32.83476
G1 X-14.096 Y-8.883 E33.10486
G1 X-11.371 Y-9.311 E33.3801
G1 X-8.68 Y-9.811 E33.6532
G1 X-6.027 Y-10.382 E33.92398
G1 X-2.455 Y-11.261 E34.29103
G1 X-1.863 Y-11.373 E34.35115
G1 X-1.269 Y-11.455 E34.41098
G1 X-.69 Y-11.505 E34.46897
G1 X0.048 Y-11.523 E34.54263
G1 X0.725 Y-11.498 E34.61023
M204 S2000
G1 F2400 E28.61023
G1 F600 Z1.3
;MESH:t_bar_handle.stl
G0 F1500 X5.753 Y-2.526 Z1.3
M204 S1500
;TYPE:WALL-INNER
G1 F600 Z0.3
G1 F2400 E34.61023
G1 F300 X7.82 Y-2.527 E34.79585
G1 X11.182 Y-2.521 E35.09776
G1 X29.952 Y-2.521 E36.78335
G1 X30.645 Y-2.433 E36.84609
G1 X31.264 Y-2.177 E36.90624
G1 X31.779 Y-1.779 E36.96469
G1 X32.176 Y-1.265 E37.02301
G1 X32.433 Y-.645 E37.08328
G1 X32.519 Y0.00 E37.14172
G1 X32.433 Y0.645 E37.20015
G1 X32.177 Y1.264 E37.26031
G1 X31.779 Y1.779 E37.31876
G1 X31.263 Y2.177 E37.37728
G1 X30.644 Y2.433 E37.43743
G1 X29.947 Y2.522 E37.50053
G1 X11.185 Y2.521 E39.18541
G1 X5.748 Y2.526 E39.67366
G1 X4.884 Y3.712 E39.80543
G1 X4.456 Y4.218 E39.86495
G1 X4.01 Y4.645 E39.9204
G1 X3.518 Y5.027 E39.97633
G1 X3.008 Y5.346 E40.03035
G1 X2.418 Y5.637 E40.08943
G1 X1.846 Y5.851 E40.14427
G1 X1.244 Y6.008 E40.20014
G1 X0.62 Y6.103 E40.25683
G1 X0.016 Y6.135 E40.31114
G1 X-.624 Y6.102 E40.36869
G1 X-1.253 Y6.005 E40.42585
G1 X-1.833 Y5.855 E40.47964
G1 X-2.422 Y5.635 E40.53611
G1 X-3.008 Y5.346 E40.59478
G1 X-3.518 Y5.027 E40.6488
G1 X-4.004 Y4.649 E40.70409
G1 X-4.463 Y4.209 E40.76119
G1 X-4.88 Y3.719 E40.81897
G1 X-5.753 Y2.526 E40.95173
G1 X-7.82 Y2.527 E41.13735
G1 X-11.182 Y2.521 E41.43927
G1 X-29.952 Y2.521 E43.12486
G1 X-30.645 Y2.433 E43.18759
G1 X-31.264 Y2.177 E43.24774
G1 X-31.779 Y1.779 E43.30619
G1 X-32.177 Y1.263 E43.36471
G1 X-32.433 Y0.645 E43.42479
G1 X-32.519 Y0.00 E43.48322
G1 X-32.433 Y-.645 E43.54166
G1 X-32.176 Y-1.265 E43.60193
G1 X-31.779 Y-1.779 E43.66025
G1 X-31.263 Y-2.177 E43.71877
G1 X-30.644 Y-2.433 E43.77892
G1 X-29.947 Y-2.522 E43.84203
G1 X-11.185 Y-2.521 E45.5269
G1 X-5.75 Y-2.526 E46.01497
G1 X-4.879 Y-3.716 E46.14741
G1 X-4.455 Y-4.22 E46.20655
G1 X-4.01 Y-4.645 E46.26181
G1 X-3.518 Y-5.027 E46.31775
G1 X-3.008 Y-5.346 E46.37177
G1 X-2.418 Y-5.637 E46.43085
G1 X-1.846 Y-5.851 E46.48569
G1 X-1.244 Y-6.008 E46.54156
G1 X-.62 Y-6.103 E46.59824
G1 X-0.016 Y-6.135 E46.65256
G1 X0.624 Y-6.102 E46.71011
G1 X1.253 Y-6.005 E46.76726
G1 X1.834 Y-5.855 E46.82115
G1 X2.42 Y-5.636 E46.87733
G1 X3.008 Y-5.346 E46.9362
G1 X3.518 Y-5.027 E46.99022
G1 X4.004 Y-4.649 E47.04551
G1 X4.463 Y-4.209 E47.10261
G1 X4.88 Y-3.719 E47.16039
G1 X5.753 Y-2.526 E47.29315
M204 S2000
G0 F1500 X6.159 Y-3.326
M204 S1500
G1 F300 X7.821 Y-3.327 E47.4424
G1 X11.183 Y-3.321 E47.74432
G1 X29.97 Y-3.321 E49.43143
G1 X30.43 Y-3.292 E49.47282
G1 X30.858 Y-3.206 E49.51203
G1 X31.265 Y-3.068 E49.55062
G1 X31.661 Y-2.873 E49.59026
G1 X32.022 Y-2.632 E49.62924
G1 X32.346 Y-2.346 E49.66805
G1 X32.632 Y-2.022 E49.70686
G1 X32.873 Y-1.661 E49.74584
G1 X33.066 Y-1.271 E49.78492
G1 X33.206 Y-.858 E49.82408
G1 X33.292 Y-.43 E49.86328
G1 X33.32 Y0.00 E49.90198
G1 X33.292 Y0.43 E49.94067
G1 X33.206 Y0.858 E49.97988
G1 X33.068 Y1.265 E50.01847
G1 X32.873 Y1.661 E50.05811
G1 X32.632 Y2.022 E50.09709
G1 X32.346 Y2.346 E50.1359
G1 X32.022 Y2.632 E50.17471
G1 X31.661 Y2.873 E50.21369
G1 X31.271 Y3.066 E50.25277
G1 X30.858 Y3.206 E50.29193
G1 X30.429 Y3.292 E50.33122
G1 X29.968 Y3.322 E50.37271
G1 X11.185 Y3.321 E52.05946
G1 X6.155 Y3.326 E52.51117
G1 X5.506 Y4.216 E52.61009
G1 X5.042 Y4.764 E52.67457
G1 X4.536 Y5.248 E52.73745
G1 X3.976 Y5.684 E52.80118
G1 X3.391 Y6.05 E52.86315
G1 X2.744 Y6.369 E52.92793
G1 X2.085 Y6.615 E52.9911
G1 X1.403 Y6.793 E53.0544
G1 X0.703 Y6.9 E53.11799
G1 X0.017 Y6.936 E53.17968
G1 X-.709 Y6.899 E53.24496
G1 X-1.408 Y6.791 E53.30848
G1 X-2.079 Y6.617 E53.37073
G1 X-2.742 Y6.37 E53.43426
G1 X-3.391 Y6.05 E53.49925
G1 X-3.976 Y5.684 E53.56121
G1 X-4.536 Y5.248 E53.62495
G1 X-5.043 Y4.762 E53.68802
G1 X-5.508 Y4.216 E53.75242
G1 X-6.159 Y3.326 E53.85145
G1 X-7.821 Y3.327 E54.0007
G1 X-11.183 Y3.321 E54.30261
G1 X-29.97 Y3.321 E55.98973
G1 X-30.43 Y3.292 E56.03112
G1 X-30.858 Y3.206 E56.07033
G1 X-31.265 Y3.068 E56.10892
G1 X-31.661 Y2.873 E56.14856
G1 X-32.022 Y2.632 E56.18754
G1 X-32.346 Y2.346 E56.22635
G1 X-32.632 Y2.022 E56.26516
G1 X-32.873 Y1.661 E56.30414
G1 X-33.066 Y1.271 E56.34321
G1 X-33.206 Y0.858 E56.38237
G1 X-33.292 Y0.43 E56.42158
G1 X-33.32 Y0.00 E56.46027
G1 X-33.292 Y-.43 E56.49897
G1 X-33.206 Y-.858 E56.53818
G1 X-33.068 Y-1.265 E56.57677
G1 X-32.873 Y-1.661 E56.61641
G1 X-32.632 Y-2.022 E56.65539
G1 X-32.346 Y-2.346 E56.6942
G1 X-32.022 Y-2.632 E56.73301
G1 X-31.661 Y-2.873 E56.77199
G1 X-31.271 Y-3.066 E56.81106
G1 X-30.858 Y-3.206 E56.85022
G1 X-30.429 Y-3.292 E56.88952
G1 X-29.968 Y-3.322 E56.931
G1 X-11.185 Y-3.321 E58.61776
G1 X-6.156 Y-3.326 E59.06938
G1 X-5.505 Y-4.216 E59.1684
G1 X-5.042 Y-4.765 E59.23289
G1 X-4.536 Y-5.248 E59.29571
G1 X-3.976 Y-5.684 E59.35945
G1 X-3.391 Y-6.05 E59.42141
G1 X-2.744 Y-6.369 E59.48619
G1 X-2.085 Y-6.615 E59.54936
G1 X-1.403 Y-6.793 E59.61266
G1 X-.703 Y-6.9 E59.67625
G1 X-0.017 Y-6.936 E59.73794
G1 X0.709 Y-6.899 E59.80322
G1 X1.408 Y-6.791 E59.86674
G1 X2.08 Y-6.617 E59.92908
G1 X2.74 Y-6.371 E59.99233
G1 X3.391 Y-6.05 E60.05751
G1 X3.976 Y-5.684 E60.11948
G1 X4.536 Y-5.248 E60.18321
G1 X5.043 Y-4.762 E60.24628
G1 X5.508 Y-4.216 E60.31069
G1 X6.159 Y-3.326 E60.40971
M204 S2000
G0 F1500 X6.565 Y-4.126
M204 S1500
;TYPE:WALL-OUTER
G1 F300 X7.821 Y-4.127 E60.5225
G1 X11.184 Y-4.121 E60.82451
G1 X29.99 Y-4.121 E62.51333
G1 X30.539 Y-4.086 E62.56273
G1 X31.062 Y-3.982 E62.61062
G1 X31.578 Y-3.806 E62.65958
G1 X32.061 Y-3.568 E62.70793
G1 X32.508 Y-3.27 E62.75618
G1 X32.913 Y-2.913 E62.80466
G1 X33.27 Y-2.508 E62.85314
G1 X33.566 Y-2.064 E62.90106
G1 X33.805 Y-1.581 E62.94946
G1 X33.982 Y-1.062 E62.9987
G1 X34.086 Y-.539 E63.04659
G1 X34.121 Y0.00 E63.09509
G1 X34.086 Y0.539 E63.1436
G1 X33.982 Y1.062 E63.19148
G1 X33.806 Y1.578 E63.24044
G1 X33.568 Y2.061 E63.2888
G1 X33.27 Y2.508 E63.33704
G1 X32.913 Y2.913 E63.38553
G1 X32.508 Y3.27 E63.43401
G1 X32.064 Y3.566 E63.48193
G1 X31.581 Y3.805 E63.53032
G1 X31.062 Y3.982 E63.57957
G1 X30.539 Y4.086 E63.62745
G1 X29.989 Y4.122 E63.67695
G1 X11.185 Y4.121 E65.36559
G1 X6.562 Y4.126 E65.78075
G1 X6.133 Y4.714 E65.84611
G1 X5.628 Y5.311 E65.91633
G1 X5.058 Y5.855 E65.98709
G1 X4.439 Y6.338 E66.0576
G1 X3.774 Y6.754 E66.12804
G1 X3.064 Y7.104 E66.19913
G1 X2.329 Y7.378 E66.26957
G1 X1.562 Y7.578 E66.34075
G1 X0.786 Y7.697 E66.41125
G1 X0.007 Y7.738 E66.4813
G1 X-0.061 Y7.733 E66.48743
G1 X-.795 Y7.696 E66.55343
G1 X-1.562 Y7.577 E66.62313
G1 X-2.325 Y7.379 E66.69392
G1 X-3.062 Y7.105 E66.76453
G1 X-3.774 Y6.754 E66.83581
G1 X-4.439 Y6.338 E66.90625
G1 X-5.058 Y5.855 E66.97676
G1 X-5.623 Y5.315 E67.04695
G1 X-6.141 Y4.706 E67.11874
G1 X-6.565 Y4.126 E67.18326
G1 X-7.821 Y4.127 E67.29606
G1 X-11.184 Y4.121 E67.59806
G1 X-29.99 Y4.121 E69.28688
G1 X-30.539 Y4.086 E69.33629
G1 X-31.062 Y3.982 E69.38417
G1 X-31.578 Y3.806 E69.43313
G1 X-32.061 Y3.568 E69.48149
G1 X-32.508 Y3.27 E69.52973
G1 X-32.913 Y2.913 E69.57821
G1 X-33.27 Y2.508 E69.6267
G1 X-33.566 Y2.064 E69.67462
