;FLAVOR:Marlin
;TIME:1546
;Filament used: 3.61092m
;Layer height: 0.3
;MINX:-43.242
;MINY:-13.008
;MINZ:0.3
;MAXX:41.071
;MAXY:13.27
;MAXZ:18.9
;Generated with Cura_SteamEngine 4.10.0
M140 S60
M105
M190 S60
M104 S205
M105
M109 S205
M82 ;absolute extrusion mode
G21        ;metric values
G90        ;absolute positioning
M107       ;start with the fan off
G28   ;move to endstops

;Z-Offset Reset und dann Z +0,1 für PLA
;MacroZOffset0
;MacroZOffsetPlus0100

G92 E0                  ;zero the extruded length
G1 F200 E3              ;extrude 3mm of feed stock
G92 E0                  ;zero the extruded length again
G1 F150.0
;Put printing message on LCD screen
M117 Printing...
G92 E0
G92 E0
G1 F2400 E-6
;LAYER_COUNT:63
;LAYER:0
M106 S191.3
M204 S2000
G1 F600 Z1.3
G0 F1500 X2.592 Y-12.479 Z1.3
M204 S1500
;TYPE:SKIRT
G1 F600 Z0.3
G1 F2400 E0
G1 F300 X5.245 Y-11.791 E0.27347
G1 X7.888 Y-11.183 E0.54408
G1 X10.582 Y-10.642 E0.81826
G1 X13.208 Y-10.195 E1.08405
G1 X15.905 Y-9.812 E1.35586
G1 X18.577 Y-9.509 E1.62418
G1 X21.305 Y-9.278 E1.89735
G1 X23.974 Y-9.128 E2.16409
G1 X28.066 Y-9.042 E2.57248
G1 X31.262 Y-9.042 E2.89138
G1 X31.786 Y-9.035 E2.94367
G1 X32.568 Y-9 E3.02177
G1 X33.237 Y-8.935 E3.08884
G1 X34.048 Y-8.776 E3.1713
G1 X34.459 Y-8.665 E3.21378
G1 X34.985 Y-8.494 E3.26897
G1 X35.582 Y-8.261 E3.33292
G1 X36.284 Y-7.92 E3.41079
G1 X36.75 Y-7.651 E3.46448
G1 X37.296 Y-7.282 E3.53023
G1 X38.018 Y-6.693 E3.6232
G1 X38.481 Y-6.252 E3.68701
G1 X39.058 Y-5.602 E3.77373
G1 X39.364 Y-5.199 E3.82422
G1 X39.731 Y-4.644 E3.89061
G1 X40.008 Y-4.16 E3.94625
G1 X40.296 Y-3.562 E4.01248
G1 X40.496 Y-3.069 E4.06557
G1 X40.703 Y-2.451 E4.1306
G1 X40.844 Y-1.908 E4.18658
G1 X40.962 Y-1.288 E4.24955
G1 X41.036 Y-.685 E4.31017
G1 X41.071 Y-.103 E4.36835
G1 X41.065 Y0.519 E4.43041
G1 X41.021 Y1.105 E4.48905
G1 X40.944 Y1.66 E4.54496
G1 X40.829 Y2.226 E4.60259
G1 X40.715 Y2.65 E4.6464
G1 X40.509 Y3.284 E4.71291
G1 X40.287 Y3.845 E4.77311
G1 X39.96 Y4.509 E4.84697
G1 X39.702 Y4.956 E4.89846
G1 X39.325 Y5.515 E4.96574
G1 X38.737 Y6.236 E5.05857
G1 X38.296 Y6.699 E5.12237
G1 X37.645 Y7.276 E5.20917
G1 X37.231 Y7.591 E5.26108
G1 X36.687 Y7.95 E5.32612
G1 X36.197 Y8.229 E5.38238
G1 X35.584 Y8.523 E5.45021
G1 X35.111 Y8.715 E5.50115
G1 X34.535 Y8.907 E5.56173
G1 X34.11 Y9.021 E5.60564
G1 X33.568 Y9.136 E5.66092
G1 X32.94 Y9.233 E5.72433
G1 X32.345 Y9.278 E5.78387
G1 X31.071 Y9.304 E5.91101
G1 X28.082 Y9.305 E6.20926
G1 X25.291 Y9.344 E6.48777
G1 X22.598 Y9.459 E6.75673
G1 X19.937 Y9.647 E7.0229
G1 X17.191 Y9.92 E7.29825
G1 X14.519 Y10.262 E7.56704
G1 X11.835 Y10.683 E7.83812
G1 X9.179 Y11.177 E8.10769
G1 X6.549 Y11.742 E8.3761
G1 X3.928 Y12.384 E8.64535
G1 X2.813 Y12.673 E8.76028
G1 X1.964 Y12.906 E8.84813
G1 X1.443 Y13.026 E8.90148
G1 X1.034 Y13.097 E8.9429
G1 X0.449 Y13.178 E9.00182
G1 X0.144 Y13.209 E9.03241
G1 X-.588 Y13.255 E9.1056
G1 X-1.188 Y13.27 E9.16548
G1 X-1.67 Y13.255 E9.2136
G1 X-2.211 Y13.22 E9.2677
G1 X-2.523 Y13.188 E9.29899
G1 X-3.272 Y13.082 E9.37447
G1 X-3.843 Y12.98 E9.43235
G1 X-4.766 Y12.741 E9.52748
G1 X-7.419 Y12.053 E9.80096
G1 X-10.062 Y11.445 E10.07156
G1 X-12.756 Y10.904 E10.34574
G1 X-15.382 Y10.457 E10.61153
G1 X-18.079 Y10.074 E10.88334
G1 X-20.751 Y9.771 E11.15166
G1 X-23.479 Y9.54 E11.42484
G1 X-26.148 Y9.39 E11.69157
G1 X-30.24 Y9.304 E12.09996
G1 X-33.436 Y9.304 E12.41886
G1 X-33.96 Y9.297 E12.47115
G1 X-34.742 Y9.262 E12.54926
G1 X-35.411 Y9.197 E12.61632
G1 X-36.226 Y9.037 E12.6992
G1 X-36.636 Y8.927 E12.74155
G1 X-37.132 Y8.766 E12.79359
G1 X-37.76 Y8.521 E12.86085
G1 X-38.465 Y8.178 E12.93908
G1 X-38.93 Y7.908 E12.99273
G1 X-39.444 Y7.56 E13.05467
G1 X-39.794 Y7.291 E13.09871
G1 X-40.285 Y6.87 E13.16325
G1 X-40.729 Y6.439 E13.22499
G1 X-41.224 Y5.874 E13.29994
G1 X-41.559 Y5.432 E13.35528
G1 X-41.908 Y4.902 E13.4186
G1 X-42.189 Y4.409 E13.47522
G1 X-42.483 Y3.795 E13.54315
G1 X-42.682 Y3.299 E13.59647
G1 X-42.88 Y2.699 E13.65952
G1 X-43.019 Y2.17 E13.71409
G1 X-43.142 Y1.521 E13.78
G1 X-43.209 Y0.965 E13.83588
G1 X-43.242 Y0.419 E13.89046
G1 X-43.242 Y-0.03 E13.93526
G1 X-43.207 Y-.681 E14.00031
G1 X-43.134 Y-1.303 E14.0628
G1 X-42.986 Y-2.047 E14.1385
G1 X-42.849 Y-2.547 E14.19022
G1 X-42.628 Y-3.183 E14.25741
G1 X-42.401 Y-3.716 E14.31521
G1 X-42.13 Y-4.255 E14.37541
G1 X-41.871 Y-4.704 E14.42713
G1 X-41.498 Y-5.254 E14.49344
G1 X-40.911 Y-5.974 E14.58613
G1 X-40.451 Y-6.455 E14.65254
G1 X-39.88 Y-6.964 E14.72887
G1 X-39.524 Y-7.237 E14.77363
G1 X-39.03 Y-7.575 E14.83335
G1 X-38.523 Y-7.883 E14.89255
G1 X-37.778 Y-8.253 E14.97555
G1 X-37.251 Y-8.467 E15.0323
G1 X-36.702 Y-8.648 E15.08998
G1 X-36.285 Y-8.759 E15.13304
G1 X-35.767 Y-8.869 E15.18588
G1 X-35.121 Y-8.97 E15.25112
G1 X-34.519 Y-9.016 E15.31136
G1 X-33.245 Y-9.042 E15.43851
G1 X-30.256 Y-9.043 E15.73675
G1 X-27.465 Y-9.082 E16.01527
G1 X-24.772 Y-9.197 E16.28422
G1 X-22.111 Y-9.385 E16.5504
G1 X-19.365 Y-9.658 E16.82574
G1 X-16.693 Y-10 E17.09453
G1 X-14.009 Y-10.421 E17.36562
G1 X-11.353 Y-10.915 E17.63518
G1 X-8.723 Y-11.48 E17.90359
G1 X-6.102 Y-12.122 E18.17284
G1 X-4.987 Y-12.411 E18.28778
G1 X-4.138 Y-12.644 E18.37562
G1 X-3.617 Y-12.764 E18.42897
G1 X-3.208 Y-12.835 E18.47039
G1 X-2.623 Y-12.916 E18.52932
G1 X-2.318 Y-12.947 E18.55991
G1 X-1.586 Y-12.993 E18.63309
G1 X-.986 Y-13.008 E18.69298
G1 X-.504 Y-12.993 E18.74109
G1 X0.037 Y-12.958 E18.79519
G1 X0.349 Y-12.926 E18.82648
G1 X1.098 Y-12.82 E18.90196
G1 X1.669 Y-12.718 E18.95984
G1 X2.592 Y-12.479 E19.05498
M204 S2000
G0 F1500 X2.39 Y-11.706
M204 S1500
G1 F300 X5.084 Y-11.006 E19.33271
G1 X7.687 Y-10.407 E19.59923
G1 X10.428 Y-9.858 E19.87816
G1 X13.11 Y-9.401 E20.14962
G1 X15.806 Y-9.018 E20.42133
G1 X18.491 Y-8.714 E20.69096
G1 X21.227 Y-8.482 E20.96493
G1 X23.969 Y-8.327 E21.23897
G1 X28.049 Y-8.242 E21.64616
G1 X31.251 Y-8.242 E21.96566
G1 X31.775 Y-8.235 E22.01795
G1 X32.531 Y-8.201 E22.09346
G1 X33.107 Y-8.145 E22.1512
G1 X33.879 Y-7.994 E22.22969
G1 X34.211 Y-7.904 E22.26402
G1 X34.737 Y-7.733 E22.3192
G1 X35.278 Y-7.521 E22.37718
G1 X35.922 Y-7.207 E22.44867
G1 X36.486 Y-6.868 E22.51433
G1 X37.124 Y-6.405 E22.59299
G1 X37.659 Y-5.937 E22.66391
G1 X38.137 Y-5.45 E22.732
G1 X38.614 Y-4.871 E22.80685
G1 X39.06 Y-4.209 E22.8865
G1 X39.387 Y-3.614 E22.95425
G1 X39.677 Y-2.974 E23.02436
G1 X39.942 Y-2.202 E23.1058
G1 X40.094 Y-1.588 E23.16891
G1 X40.217 Y-.85 E23.24357
G1 X40.272 Y-0.06 E23.32258
G1 X40.266 Y0.489 E23.37737
G1 X40.224 Y1.039 E23.43241
G1 X40.124 Y1.697 E23.49881
G1 X39.955 Y2.403 E23.57125
G1 X39.749 Y3.037 E23.63777
G1 X39.552 Y3.529 E23.69065
G1 X39.246 Y4.148 E23.75955
G1 X38.914 Y4.701 E23.82391
G1 X38.449 Y5.342 E23.90292
G1 X37.981 Y5.877 E23.97385
G1 X37.494 Y6.354 E24.04187
G1 X36.91 Y6.836 E24.11742
G1 X36.251 Y7.279 E24.19665
G1 X35.651 Y7.608 E24.26493
G1 X35.004 Y7.9 E24.33576
G1 X34.288 Y8.146 E24.4113
G1 X33.944 Y8.238 E24.44683
G1 X33.402 Y8.353 E24.50212
G1 X32.832 Y8.44 E24.55965
G1 X32.304 Y8.479 E24.61248
G1 X30.99 Y8.505 E24.74361
G1 X28.071 Y8.505 E25.03487
G1 X25.281 Y8.544 E25.31329
G1 X22.541 Y8.661 E25.58694
G1 X19.838 Y8.852 E25.85731
G1 X17.148 Y9.119 E26.12704
G1 X14.402 Y9.471 E26.40328
G1 X11.708 Y9.894 E26.67538
G1 X9.008 Y10.396 E26.94941
G1 X6.368 Y10.963 E27.21883
G1 X3.746 Y11.605 E27.48819
G1 X2.61 Y11.9 E27.6053
G1 X1.774 Y12.129 E27.69179
G1 X1.075 Y12.28 E27.76314
G1 X0.924 Y12.305 E27.77841
G1 X0.339 Y12.386 E27.83734
G1 X0.092 Y12.411 E27.86211
G1 X-.618 Y12.456 E27.9331
G1 X-1.17 Y12.47 E27.9882
G1 X-1.619 Y12.457 E28.03302
G1 X-2.16 Y12.422 E28.08711
G1 X-2.412 Y12.396 E28.11239
G1 X-3.145 Y12.293 E28.18625
G1 X-3.661 Y12.201 E28.23855
G1 X-4.075 Y12.102 E28.28102
G1 X-4.564 Y11.968 E28.33161
G1 X-7.258 Y11.268 E28.60934
G1 X-9.861 Y10.669 E28.87586
G1 X-12.602 Y10.12 E29.15479
G1 X-15.284 Y9.663 E29.42626
G1 X-17.98 Y9.28 E29.69797
G1 X-20.665 Y8.976 E29.96759
G1 X-23.401 Y8.744 E30.24157
G1 X-26.143 Y8.589 E30.5156
G1 X-30.223 Y8.504 E30.9228
G1 X-33.425 Y8.504 E31.24229
G1 X-33.949 Y8.497 E31.29458
G1 X-34.705 Y8.463 E31.37009
G1 X-35.281 Y8.407 E31.42784
G1 X-36.057 Y8.255 E31.50674
G1 X-36.389 Y8.166 E31.54104
G1 X-36.885 Y8.005 E31.59307
G1 X-37.457 Y7.781 E31.65436
G1 X-38.1 Y7.466 E31.72581
G1 X-38.671 Y7.122 E31.79232
G1 X-39.273 Y6.684 E31.86661
G1 X-39.764 Y6.263 E31.93114
G1 X-40.157 Y5.88 E31.9859
G1 X-40.616 Y5.355 E32.05548
G1 X-40.989 Y4.848 E32.11829
G1 X-41.383 Y4.218 E32.19243
G1 X-41.759 Y3.455 E32.2773
G1 X-41.98 Y2.883 E32.33849
G1 X-42.193 Y2.189 E32.41092
G1 X-42.355 Y1.38 E32.49325
G1 X-42.423 Y0.751 E32.55638
G1 X-42.443 Y0.012 E32.63014
G1 X-42.408 Y-.639 E32.69519
G1 X-42.343 Y-1.19 E32.75055
G1 X-42.203 Y-1.88 E32.8208
G1 X-42.037 Y-2.456 E32.88062
G1 X-41.758 Y-3.201 E32.96
G1 X-41.417 Y-3.892 E33.03688
G1 X-41.086 Y-4.443 E33.10102
G1 X-40.623 Y-5.08 E33.17959
G1 X-40.149 Y-5.621 E33.25136
G1 X-39.662 Y-6.098 E33.31938
G1 X-39.072 Y-6.577 E33.39521
G1 X-38.578 Y-6.915 E33.45494
G1 X-38.121 Y-7.191 E33.50821
G1 X-37.435 Y-7.531 E33.5846
G1 X-36.829 Y-7.767 E33.64949
G1 X-36.119 Y-7.977 E33.72337
G1 X-35.601 Y-8.087 E33.77621
G1 X-35.012 Y-8.177 E33.83566
G1 X-34.478 Y-8.217 E33.88909
G1 X-33.164 Y-8.243 E34.02023
G1 X-30.245 Y-8.243 E34.31149
G1 X-27.455 Y-8.282 E34.58991
G1 X-24.715 Y-8.399 E34.86355
G1 X-22.012 Y-8.59 E35.13393
G1 X-19.322 Y-8.857 E35.40366
G1 X-16.576 Y-9.209 E35.6799
G1 X-13.882 Y-9.632 E35.952
G1 X-11.182 Y-10.134 E36.22603
G1 X-8.542 Y-10.701 E36.49545
G1 X-5.921 Y-11.343 E36.76471
G1 X-4.784 Y-11.638 E36.88191
G1 X-3.948 Y-11.867 E36.9684
G1 X-3.249 Y-12.018 E37.03976
G1 X-3.098 Y-12.043 E37.05503
G1 X-2.513 Y-12.124 E37.11396
G1 X-2.266 Y-12.149 E37.13873
G1 X-1.556 Y-12.194 E37.20972
G1 X-1.004 Y-12.208 E37.26481
G1 X-.555 Y-12.195 E37.30963
G1 X-0.014 Y-12.16 E37.36373
G1 X0.238 Y-12.134 E37.38901
G1 X0.971 Y-12.031 E37.46286
G1 X1.487 Y-11.939 E37.51516
G1 X1.901 Y-11.84 E37.55764
G1 X2.39 Y-11.706 E37.60823
M204 S2000
G1 F2400 E31.60823
G1 F600 Z1.3
;MESH:t_bar_handle.stl
G0 F1500 X-7.517 Y3.107 Z1.3
M204 S1500
;TYPE:WALL-INNER
G1 F600 Z0.3
G1 F2400 E37.60823
G1 F300 X-9.69 Y3.111 E37.80337
G1 X-13.387 Y3.104 E38.13537
G1 X-34.035 Y3.104 E39.98961
G1 X-34.478 Y3.075 E40.02948
G1 X-34.841 Y3.003 E40.06271
G1 X-35.226 Y2.873 E40.0992
G1 X-35.571 Y2.703 E40.13374
G1 X-35.894 Y2.487 E40.16863
G1 X-36.185 Y2.232 E40.20338
G1 X-36.656 Y1.623 E40.27252
G1 X-36.956 Y0.899 E40.34289
G1 X-37.033 Y0.514 E40.37815
G1 X-37.033 Y-.252 E40.44694
G1 X-36.956 Y-.637 E40.4822
G1 X-36.657 Y-1.358 E40.55229
G1 X-36.187 Y-1.969 E40.62152
G1 X-35.572 Y-2.442 E40.69119
G1 X-34.864 Y-2.735 E40.76
G1 X-34.469 Y-2.814 E40.79618
G1 X-34.03 Y-2.843 E40.83569
G1 X-13.388 Y-2.842 E42.68939
G1 X-9.692 Y-2.848 E43.0213
G1 X-7.509 Y-2.847 E43.21734
G1 X-6.615 Y-4.08 E43.3541
G1 X-6.145 Y-4.633 E43.41928
G1 X-5.636 Y-5.121 E43.4826
G1 X-5.062 Y-5.567 E43.54788
G1 X-4.469 Y-5.94 E43.61079
G1 X-3.856 Y-6.242 E43.67216
G1 X-3.171 Y-6.497 E43.7378
G1 X-2.495 Y-6.674 E43.80055
G1 X-1.804 Y-6.78 E43.86333
G1 X-1.083 Y-6.818 E43.92817
G1 X-.389 Y-6.782 E43.99057
G1 X0.322 Y-6.674 E44.05515
G1 X0.983 Y-6.502 E44.11649
G1 X1.664 Y-6.251 E44.18167
G1 X2.302 Y-5.935 E44.2456
G1 X2.89 Y-5.567 E44.3079
G1 X3.457 Y-5.127 E44.37235
G1 X3.965 Y-4.64 E44.43554
G1 X4.443 Y-4.078 E44.5018
G1 X5.343 Y-2.845 E44.63889
G1 X7.516 Y-2.849 E44.83403
G1 X11.213 Y-2.842 E45.16603
G1 X31.861 Y-2.842 E47.02027
G1 X32.304 Y-2.813 E47.06013
G1 X32.667 Y-2.741 E47.09337
G1 X33.058 Y-2.609 E47.13043
G1 X33.397 Y-2.442 E47.16436
G1 X33.715 Y-2.229 E47.19873
G1 X34.011 Y-1.969 E47.23411
G1 X34.274 Y-1.671 E47.26981
G1 X34.652 Y-1.015 E47.3378
G1 X34.783 Y-.63 E47.37432
G1 X34.882 Y0.131 E47.44323
G1 X34.782 Y0.901 E47.51296
G1 X34.659 Y1.263 E47.54729
G1 X34.484 Y1.618 E47.58284
G1 X34.273 Y1.933 E47.61689
G1 X34.014 Y2.228 E47.65214
G1 X33.712 Y2.494 E47.68828
G1 X33.405 Y2.7 E47.72148
G1 X32.69 Y2.997 E47.79101
G1 X32.295 Y3.076 E47.82718
G1 X31.856 Y3.105 E47.86669
G1 X11.214 Y3.104 E49.72039
G1 X7.518 Y3.11 E50.0523
G1 X5.335 Y3.109 E50.24834
G1 X4.441 Y4.342 E50.38511
G1 X3.971 Y4.895 E50.45028
G1 X3.462 Y5.383 E50.51361
G1 X2.891 Y5.827 E50.57856
G1 X2.304 Y6.195 E50.64078
G1 X1.67 Y6.509 E50.70431
G1 X0.997 Y6.759 E50.76878
G1 X0.321 Y6.936 E50.83154
G1 X-.37 Y7.042 E50.89432
G1 X-1.091 Y7.08 E50.95915
G1 X-1.785 Y7.044 E51.02156
G1 X-2.496 Y6.936 E51.08614
G1 X-3.162 Y6.763 E51.14794
G1 X-3.828 Y6.516 E51.21172
G1 X-4.475 Y6.197 E51.27651
G1 X-5.065 Y5.827 E51.33905
G1 X-5.636 Y5.383 E51.404
G1 X-6.139 Y4.902 E51.4665
G1 X-6.617 Y4.34 E51.53275
G1 X-7.517 Y3.107 E51.66984
M204 S2000
G0 F1500 X5.704 Y-3.557
G0 X5.749 Y-3.646
M204 S1500
G1 F300 X7.517 Y-3.649 E51.82861
G1 X11.214 Y-3.642 E52.16061
G1 X31.882 Y-3.642 E54.01665
G1 X32.408 Y-3.608 E54.06398
G1 X32.878 Y-3.514 E54.10702
G1 X33.361 Y-3.351 E54.1528
G1 X33.801 Y-3.134 E54.19686
G1 X34.202 Y-2.866 E54.24017
G1 X34.577 Y-2.537 E54.28497
G1 X34.91 Y-2.159 E54.33021
G1 X35.176 Y-1.762 E54.37312
G1 X35.394 Y-1.319 E54.41746
G1 X35.557 Y-.839 E54.46299
G1 X35.651 Y-.362 E54.50664
G1 X35.684 Y0.131 E54.55102
G1 X35.651 Y0.626 E54.59557
G1 X35.557 Y1.106 E54.63949
G1 X35.398 Y1.572 E54.68371
G1 X35.178 Y2.019 E54.72845
G1 X34.91 Y2.42 E54.77176
G1 X34.581 Y2.795 E54.81656
G1 X34.2 Y3.13 E54.86212
G1 X33.806 Y3.394 E54.90471
G1 X33.356 Y3.615 E54.94973
G1 X32.892 Y3.773 E54.99375
G1 X32.406 Y3.87 E55.03825
G1 X31.879 Y3.905 E55.08568
G1 X11.215 Y3.904 E56.94136
G1 X7.519 Y3.91 E57.27327
G1 X5.743 Y3.909 E57.43276
G1 X5.074 Y4.832 E57.53513
G1 X4.551 Y5.447 E57.60763
G1 X3.983 Y5.992 E57.67832
G1 X3.351 Y6.483 E57.75019
G1 X2.696 Y6.894 E57.81963
G1 X1.986 Y7.245 E57.89076
G1 X1.241 Y7.522 E57.96213
G1 X0.48 Y7.721 E58.03277
G1 X-.285 Y7.839 E58.10228
G1 X-1.09 Y7.881 E58.17467
G1 X-1.866 Y7.841 E58.24445
G1 X-2.654 Y7.721 E58.31603
G1 X-3.404 Y7.526 E58.38562
G1 X-4.151 Y7.249 E58.45717
G1 X-4.863 Y6.898 E58.52845
G1 X-5.525 Y6.483 E58.59862
G1 X-6.157 Y5.992 E58.67049
G1 X-6.723 Y5.45 E58.74086
G1 X-7.245 Y4.837 E58.81317
G1 X-7.923 Y3.908 E58.91645
G1 X-9.691 Y3.911 E59.07522
G1 X-13.388 Y3.904 E59.40722
G1 X-34.056 Y3.904 E61.26326
G1 X-34.582 Y3.87 E61.31059
G1 X-35.052 Y3.776 E61.35363
G1 X-35.532 Y3.614 E61.39913
G1 X-35.973 Y3.397 E61.44326
G1 X-36.382 Y3.123 E61.48747
G1 X-36.751 Y2.8 E61.53151
G1 X-37.086 Y2.419 E61.57707
G1 X-37.35 Y2.024 E61.61974
G1 X-37.57 Y1.577 E61.66448
G1 X-37.732 Y1.101 E61.70963
G1 X-37.827 Y0.625 E61.75322
G1 X-37.858 Y0.142 E61.79668
G1 X-37.827 Y-.363 E61.84212
G1 X-37.732 Y-.839 E61.88571
G1 X-37.57 Y-1.315 E61.93086
G1 X-37.352 Y-1.758 E61.9752
G1 X-37.083 Y-2.159 E62.01856
G1 X-36.751 Y-2.539 E62.06388
G1 X-36.389 Y-2.856 E62.10709
G1 X-35.974 Y-3.135 E62.152
G1 X-35.527 Y-3.354 E62.1967
G1 X-35.066 Y-3.511 E62.24043
G1 X-34.58 Y-3.608 E62.28494
G1 X-34.053 Y-3.643 E62.33237
G1 X-13.389 Y-3.642 E64.18804
G1 X-9.693 Y-3.648 E64.51995
G1 X-7.917 Y-3.647 E64.67944
G1 X-7.248 Y-4.57 E64.78181
G1 X-6.725 Y-5.185 E64.85431
G1 X-6.157 Y-5.73 E64.925
G1 X-5.529 Y-6.218 E64.99642
G1 X-4.857 Y-6.64 E65.06768
G1 X-4.168 Y-6.98 E65.13668
G1 X-3.415 Y-7.26 E65.20882
G1 X-2.654 Y-7.459 E65.27946
G1 X-1.889 Y-7.577 E65.34897
G1 X-1.084 Y-7.619 E65.42136
G1 X-.308 Y-7.579 E65.49114
G1 X0.48 Y-7.459 E65.56272
G1 X1.23 Y-7.264 E65.63231
G1 X1.978 Y-6.988 E65.70391
G1 X2.689 Y-6.636 E65.77516
G1 X3.348 Y-6.224 E65.84495
G1 X3.983 Y-5.73 E65.9172
G1 X4.549 Y-5.188 E65.98757
G1 X5.071 Y-4.575 E66.05988
G1 X5.749 Y-3.646 E66.16316
M204 S2000
G0 F1500 X6.155 Y-4.447
M204 S1500
;TYPE:WALL-OUTER
G1 F300 X7.518 Y-4.449 E66.28556
G1 X11.215 Y-4.442 E66.61756
G1 X31.902 Y-4.442 E68.4753
G1 X32.512 Y-4.403 E68.53019
G1 X33.092 Y-4.287 E68.58331
G1 X33.665 Y-4.093 E68.63763
G1 X34.203 Y-3.828 E68.69149
G1 X34.69 Y-3.502 E68.74412
G1 X35.143 Y-3.105 E68.79821
G1 X35.546 Y-2.647 E68.85299
G1 X35.872 Y-2.159 E68.9057
G1 X36.136 Y-1.623 E68.95935
G1 X36.331 Y-1.047 E69.01396
G1 X36.445 Y-.47 E69.06678
G1 X36.486 Y0.131 E69.12088
G1 X36.445 Y0.732 E69.17497
G1 X36.332 Y1.309 E69.22777
G1 X36.137 Y1.883 E69.28221
G1 X35.872 Y2.421 E69.33607
