;FLAVOR:Marlin
;TIME:6272
;Filament used: 5.46691m
;Layer height: 0.25
;MINX:124.466
;MINY:125.027
;MINZ:0.25
;MAXX:175.534
;MAXY:172.668
;MAXZ:32.2
;Generated with Cura_SteamEngine 4.10.0
M140 S90
M105
M190 S90
M104 S240
M105
M109 S240
M82 ;absolute extrusion mode
G28 ; home all axes
 M117 Purge extruder
 G92 E0 ; reset extruder
 G1 Z1.0 F3000 ; move z up little to prevent scratching of surface
 G1 X2 Y20 Z0.3 F5000.0 ; move to start-line position
 G1 X2 Y200.0 Z0.3 F1500.0 E15 ; draw 1st line
 G1 X2 Y200.0 Z0.4 F5000.0 ; move to side a little
 G1 X2 Y20 Z0.4 F1500.0 E30 ; draw 2nd line
 G92 E0 ; reset extruder
 G1 Z1.0 F3000 ; move z up little to prevent scratching of surface
G92 E0
G92 E0
G1 F2100 E-2
;LAYER_COUNT:128
;LAYER:0
M107
G1 F300 Z0.45
G0 F6000 X127.812 Y128.474 Z0.45
;TYPE:SKIRT
G1 F300 Z0.25
G1 F2100 E0
G1 F600 X127.962 Y128.325 E0.01169
G1 X128.65 Y127.698 E0.06316
G1 X129.389 Y127.132 E0.11463
G1 X130.174 Y126.632 E0.1661
G1 X131.18 Y126.119 E0.22854
G1 X131.424 Y126.01 E0.24332
G1 X132.289 Y125.667 E0.29477
G1 X133.181 Y125.399 E0.34627
G1 X134.093 Y125.21 E0.39777
G1 X134.753 Y125.122 E0.43459
G1 X135 Y125.097 E0.44832
G1 X135.471 Y125.06 E0.47444
G1 X135.593 Y125.053 E0.4812
G1 X136.174 Y125.035 E0.51334
G1 X136.67 Y125.033 E0.54077
G1 X137.04 Y125.028 E0.56123
G1 X163.228 Y125.027 E2.00929
G1 X163.738 Y125.036 E2.0375
G1 X163.896 Y125.036 E2.04623
G1 X164.907 Y125.083 E2.1022
G1 X165.174 Y125.108 E2.11702
G1 X166.096 Y125.235 E2.16849
G1 X167.004 Y125.44 E2.21996
G1 X167.891 Y125.722 E2.27143
G1 X168.442 Y125.941 E2.30421
G1 X168.57 Y125.996 E2.31191
G1 X169.409 Y126.4 E2.36341
G1 X170.352 Y126.969 E2.42431
G1 X170.524 Y127.085 E2.43578
G1 X171.273 Y127.638 E2.48726
G1 X171.971 Y128.254 E2.53873
G1 X172.615 Y128.927 E2.59024
G1 X173.287 Y129.776 E2.65011
G1 X173.424 Y129.968 E2.66315
G1 X173.932 Y130.748 E2.71463
G1 X174.446 Y131.73 E2.77591
G1 X174.481 Y131.806 E2.78054
G1 X174.834 Y132.667 E2.832
G1 X175.111 Y133.556 E2.88348
G1 X175.328 Y134.558 E2.94017
G1 X175.362 Y134.762 E2.95161
G1 X175.475 Y135.686 E3.00308
G1 X175.503 Y136.189 E3.03094
G1 X175.528 Y136.952 E3.07315
G1 X175.534 Y137.307 E3.09278
G1 X175.534 Y145.886 E3.56716
G1 X175.528 Y146.304 E3.59028
G1 X175.517 Y146.638 E3.60875
G1 X175.496 Y147.072 E3.63278
G1 X175.411 Y147.999 E3.68425
G1 X175.247 Y148.915 E3.73571
G1 X174.892 Y150.153 E3.80692
G1 X174.825 Y150.343 E3.81806
G1 X174.32 Y151.541 E3.88995
G1 X173.137 Y154.01 E4.04134
G1 X172.112 Y156.32 E4.18108
G1 X171.165 Y158.624 E4.31882
G1 X170.257 Y161.025 E4.46076
G1 X169.427 Y163.434 E4.60165
G1 X168.995 Y164.743 E4.67787
G1 X168.677 Y165.585 E4.72764
G1 X168.637 Y165.679 E4.73329
G1 X168.426 Y166.146 E4.76162
G1 X168.315 Y166.376 E4.77575
G1 X167.874 Y167.197 E4.82728
G1 X167.365 Y167.976 E4.87873
G1 X166.791 Y168.709 E4.93021
G1 X166.156 Y169.39 E4.9817
G1 X165.465 Y170.014 E5.03318
G1 X164.723 Y170.577 E5.08468
G1 X164.322 Y170.842 E5.11126
G1 X164.19 Y170.925 E5.11988
G1 X163.381 Y171.386 E5.17137
G1 X162.536 Y171.776 E5.22283
G1 X161.878 Y172.022 E5.26167
G1 X161.676 Y172.09 E5.27346
G1 X160.782 Y172.348 E5.32491
G1 X159.869 Y172.53 E5.37639
G1 X158.788 Y172.641 E5.43648
G1 X158.327 Y172.658 E5.46198
G1 X157.574 Y172.668 E5.50363
G1 X156.49 Y172.667 E5.56357
G1 X155.567 Y172.655 E5.61461
G1 X153.178 Y172.653 E5.74671
G1 X151.906 Y172.667 E5.81705
G1 X150.138 Y172.668 E5.91481
G1 X149.256 Y172.656 E5.96358
G1 X146.966 Y172.653 E6.09021
G1 X145.555 Y172.668 E6.16823
G1 X141.221 Y172.666 E6.40788
G1 X140.541 Y172.656 E6.44549
G1 X139.611 Y172.602 E6.497
G1 X138.69 Y172.469 E6.54845
G1 X137.783 Y172.257 E6.59996
G1 X136.898 Y171.968 E6.65144
G1 X136.041 Y171.605 E6.7029
G1 X135.098 Y171.097 E6.76213
G1 X134.881 Y170.966 E6.77614
G1 X134.105 Y170.451 E6.82764
G1 X133.376 Y169.872 E6.87912
G1 X132.7 Y169.232 E6.93059
G1 X132.082 Y168.536 E6.98206
G1 X131.525 Y167.79 E7.03354
G1 X131.085 Y167.089 E7.0793
G1 X130.966 Y166.882 E7.09251
G1 X130.537 Y166.055 E7.14402
G1 X130.32 Y165.556 E7.17411
G1 X130.223 Y165.317 E7.18837
G1 X129.83 Y164.167 E7.25557
G1 X129.705 Y163.718 E7.28135
G1 X129.183 Y161.744 E7.39425
G1 X128.462 Y159.305 E7.53488
G1 X127.677 Y156.904 E7.67456
G1 X126.836 Y154.554 E7.81258
G1 X125.606 Y151.446 E7.9974
G1 X125.365 Y150.865 E8.03218
G1 X125.045 Y149.991 E8.08365
G1 X124.72 Y148.699 E8.15731
G1 X124.659 Y148.373 E8.17565
G1 X124.527 Y147.451 E8.22715
G1 X124.477 Y146.646 E8.27175
G1 X124.469 Y146.321 E8.28973
G1 X124.466 Y146.054 E8.30449
G1 X124.466 Y137.454 E8.78003
G1 X124.469 Y137.19 E8.79463
G1 X124.473 Y137.045 E8.80265
G1 X124.475 Y136.52 E8.83168
G1 X124.519 Y135.59 E8.88316
G1 X124.62 Y134.804 E8.92698
G1 X124.658 Y134.574 E8.93987
G1 X124.849 Y133.663 E8.99134
G1 X125.118 Y132.771 E9.04286
G1 X125.462 Y131.906 E9.09433
G1 X125.882 Y131.067 E9.14621
G1 X125.98 Y130.891 E9.15735
G1 X126.468 Y130.098 E9.20884
G1 X127.021 Y129.35 E9.26027
G1 X127.812 Y128.474 E9.32554
G0 F6000 X128.206 Y128.872
G1 F600 X128.356 Y128.723 E9.33723
G1 X129.027 Y128.113 E9.38737
G1 X129.749 Y127.564 E9.43753
G1 X130.516 Y127.081 E9.48765
G1 X131.408 Y126.63 E9.54291
G1 X131.652 Y126.521 E9.55769
G1 X132.495 Y126.188 E9.60781
G1 X133.365 Y125.931 E9.65797
G1 X134.253 Y125.751 E9.70807
G1 X134.81 Y125.679 E9.73913
G1 X135.057 Y125.654 E9.75286
G1 X135.503 Y125.619 E9.77759
G1 X135.625 Y125.612 E9.78435
G1 X136.176 Y125.595 E9.81483
G1 X136.683 Y125.593 E9.84287
G1 X137.04 Y125.588 E9.86261
G1 X163.228 Y125.587 E11.31067
G1 X163.726 Y125.596 E11.33822
G1 X163.896 Y125.596 E11.34762
G1 X164.854 Y125.641 E11.40065
G1 X165.121 Y125.666 E11.41547
G1 X166.019 Y125.79 E11.4656
G1 X166.903 Y125.993 E11.51575
G1 X167.765 Y126.273 E11.56587
G1 X168.221 Y126.456 E11.59304
G1 X168.349 Y126.511 E11.60074
G1 X169.166 Y126.905 E11.6509
G1 X170.039 Y127.433 E11.70731
G1 X170.211 Y127.549 E11.71878
G1 X170.94 Y128.089 E11.76895
G1 X171.618 Y128.69 E11.81905
G1 X172.24 Y129.35 E11.86919
G1 X172.831 Y130.101 E11.92204
G1 X172.968 Y130.293 E11.93508
G1 X173.462 Y131.054 E11.98525
G1 X173.937 Y131.964 E12.04201
G1 X173.972 Y132.04 E12.04663
G1 X174.315 Y132.879 E12.09675
G1 X174.582 Y133.746 E12.14692
G1 X174.775 Y134.65 E12.19803
G1 X174.809 Y134.854 E12.20947
G1 X174.919 Y135.754 E12.2596
G1 X174.943 Y136.207 E12.28469
G1 X174.968 Y136.97 E12.3269
G1 X174.974 Y137.307 E12.34554
G1 X174.974 Y145.886 E12.81991
G1 X174.968 Y146.294 E12.84247
G1 X174.958 Y146.611 E12.86001
G1 X174.937 Y147.045 E12.88404
G1 X174.853 Y147.948 E12.93418
G1 X174.69 Y148.839 E12.98427
G1 X174.364 Y149.967 E13.0492
G1 X174.297 Y150.157 E13.06034
G1 X173.818 Y151.292 E13.12846
G1 X172.627 Y153.778 E13.28088
G1 X171.597 Y156.1 E13.42134
G1 X170.643 Y158.421 E13.5601
G1 X169.735 Y160.822 E13.70204
G1 X168.911 Y163.209 E13.84167
G1 X168.857 Y163.378 E13.85148
G1 X168.464 Y164.567 E13.92072
G1 X168.162 Y165.366 E13.96795
G1 X168.122 Y165.46 E13.9736
G1 X167.921 Y165.903 E14.0005
G1 X167.81 Y166.133 E14.01462
G1 X167.381 Y166.931 E14.06472
G1 X166.882 Y167.689 E14.1149
G1 X166.319 Y168.399 E14.16501
G1 X165.695 Y169.058 E14.21519
G1 X165.016 Y169.658 E14.26529
G1 X164.024 Y170.368 E14.33275
G1 X163.892 Y170.451 E14.34137
G1 X163.104 Y170.899 E14.39149
G1 X162.28 Y171.276 E14.4416
G1 X161.7 Y171.491 E14.4758
G1 X161.498 Y171.559 E14.48759
G1 X160.627 Y171.81 E14.53771
G1 X159.737 Y171.983 E14.58784
G1 X158.758 Y172.082 E14.64225
G1 X158.319 Y172.098 E14.66654
G1 X157.574 Y172.108 E14.70774
G1 X156.497 Y172.107 E14.76729
G1 X155.574 Y172.095 E14.81834
G1 X153.172 Y172.093 E14.95115
G1 X151.906 Y172.107 E15.02116
G1 X150.145 Y172.108 E15.11854
G1 X149.263 Y172.096 E15.16731
G1 X146.96 Y172.093 E15.29466
G1 X145.556 Y172.108 E15.37229
G1 X141.229 Y172.106 E15.61156
G1 X140.549 Y172.096 E15.64916
G1 X139.644 Y172.043 E15.69929
G1 X138.747 Y171.91 E15.74943
G1 X137.865 Y171.698 E15.79959
G1 X137.006 Y171.41 E15.84969
G1 X136.175 Y171.047 E15.89983
G1 X135.387 Y170.618 E15.94944
G1 X135.17 Y170.487 E15.96346
G1 X134.415 Y169.984 E16.01362
G1 X133.708 Y169.417 E16.06373
G1 X133.053 Y168.79 E16.11387
G1 X132.456 Y168.108 E16.16399
G1 X131.921 Y167.376 E16.21412
G1 X131.571 Y166.809 E16.25097
G1 X131.452 Y166.602 E16.26417
G1 X131.035 Y165.797 E16.3143
G1 X130.839 Y165.345 E16.34154
G1 X130.742 Y165.106 E16.3558
G1 X130.369 Y164.016 E16.41951
G1 X130.246 Y163.575 E16.44482
G1 X129.717 Y161.578 E16.55906
G1 X128.999 Y159.149 E16.69911
G1 X128.205 Y156.718 E16.84052
G1 X127.365 Y154.372 E16.97831
G1 X126.112 Y151.203 E17.16674
G1 X125.882 Y150.65 E17.19986
G1 X125.572 Y149.799 E17.24994
G1 X125.27 Y148.596 E17.31852
G1 X125.209 Y148.27 E17.33686
G1 X125.082 Y147.372 E17.38701
G1 X125.037 Y146.632 E17.428
G1 X125.029 Y146.307 E17.44598
G1 X125.026 Y146.054 E17.45997
G1 X125.026 Y137.454 E17.93551
G1 X125.032 Y137.061 E17.95724
G1 X125.035 Y136.523 E17.98699
G1 X125.079 Y135.617 E18.03715
G1 X125.172 Y134.895 E18.0774
G1 X125.21 Y134.665 E18.09029
G1 X125.398 Y133.778 E18.14042
G1 X125.662 Y132.911 E18.19054
G1 X126.002 Y132.07 E18.2407
G1 X126.371 Y131.34 E18.28593
G1 X126.469 Y131.164 E18.29707
G1 X126.945 Y130.392 E18.34722
G1 X127.487 Y129.665 E18.39736
G1 X128.206 Y128.872 E18.45655
G1 F2100 E16.45655
G1 F300 Z0.45
G0 F6000 X144.576 Y155.122 Z0.45
G1 F300 Z0.25
G1 F2100 E18.45655
G1 F600 X154.423 Y155.121 E19.00104
G1 X154.423 Y156.062 E19.05307
G1 X154.349 Y156.059 E19.05716
G1 X153.951 Y156.059 E19.07917
G1 X153.373 Y156.099 E19.11121
G1 X152.806 Y156.218 E19.14324
G1 X152.261 Y156.414 E19.17527
G1 X151.748 Y156.683 E19.2073
G1 X151.277 Y157.02 E19.23932
G1 X150.999 Y157.272 E19.26007
G1 X150.586 Y156.912 E19.29037
G1 X150.101 Y156.595 E19.3224
G1 X149.578 Y156.348 E19.35439
G1 X149.025 Y156.175 E19.38643
G1 X148.453 Y156.079 E19.4185
G1 X148.05 Y156.06 E19.44081
G1 X147.651 Y156.06 E19.46287
G1 X147.073 Y156.1 E19.4949
G1 X146.506 Y156.219 E19.52694
G1 X145.961 Y156.415 E19.55897
G1 X145.448 Y156.684 E19.59099
G1 X144.977 Y157.021 E19.62302
G1 X144.681 Y157.29 E19.64514
G1 X144.577 Y157.394 E19.65327
G1 X144.576 Y155.122 E19.7789
G0 F6000 X144.016 Y154.562
G1 F600 X154.983 Y154.561 E20.38532
G1 X154.983 Y156.681 E20.50254
G1 X154.349 Y156.619 E20.53777
G1 X153.951 Y156.619 E20.55978
G1 X153.413 Y156.659 E20.58961
G1 X152.887 Y156.778 E20.61943
G1 X152.385 Y156.973 E20.6492
G1 X151.916 Y157.241 E20.67907
G1 X151.377 Y157.685 E20.71769
G1 X150.999 Y158.063 E20.74725
G1 X150.626 Y157.689 E20.77645
G1 X150.218 Y157.336 E20.80629
G1 X149.762 Y157.048 E20.83611
G1 X149.269 Y156.83 E20.86592
G1 X148.749 Y156.688 E20.89572
G1 X148.05 Y156.62 E20.93456
G1 X147.651 Y156.62 E20.95662
G1 X147.113 Y156.66 E20.98645
G1 X146.587 Y156.779 E21.01627
G1 X146.085 Y156.974 E21.04605
G1 X145.616 Y157.242 E21.07592
G1 X145.077 Y157.686 E21.11453
G1 X144.575 Y158.188 E21.15379
G1 X144.017 Y158.188 E21.18464
G1 X144.016 Y154.562 E21.38514
G0 F6000 X143.456 Y154.002
G1 F600 X155.543 Y154.001 E22.05349
G1 X155.543 Y157.147 E22.22745
G1 X155.567 Y157.44 E22.2437
G1 X155.266 Y157.319 E22.26164
G1 X154.782 Y157.21 E22.28908
G1 X154.349 Y157.179 E22.31308
G1 X153.951 Y157.179 E22.33509
G1 X153.457 Y157.219 E22.36249
G1 X152.975 Y157.338 E22.38994
G1 X152.519 Y157.532 E22.41735
G1 X152.1 Y157.797 E22.44476
G1 X151.773 Y158.081 E22.46871
G1 X151.106 Y158.748 E22.52087
G1 X150.893 Y158.748 E22.53264
G1 X150.23 Y158.084 E22.58453
G1 X149.852 Y157.762 E22.61199
G1 X149.428 Y157.506 E22.63937
G1 X148.968 Y157.32 E22.66681
G1 X148.484 Y157.211 E22.69424
G1 X148.05 Y157.18 E22.7183
G1 X147.651 Y157.18 E22.74037
G1 X147.157 Y157.22 E22.76777
G1 X146.675 Y157.339 E22.79522
G1 X146.219 Y157.533 E22.82262
G1 X145.8 Y157.798 E22.85004
G1 X145.473 Y158.082 E22.87399
G1 X144.807 Y158.748 E22.92607
G1 X143.457 Y158.748 E23.00072
G1 X143.456 Y154.002 E23.26315
G0 F6000 X142.896 Y153.442
G1 F600 X156.103 Y153.441 E23.99343
G1 X156.103 Y157.147 E24.19835
G1 X156.143 Y157.594 E24.22316
G1 X156.261 Y158.026 E24.24793
G1 X156.28 Y158.07 E24.25058
G1 X156.28 Y158.626 E24.28132
G1 X156.132 Y158.478 E24.29289
G1 X155.788 Y158.19 E24.3177
G1 X155.399 Y157.968 E24.34247
G1 X154.976 Y157.818 E24.36729
G1 X154.349 Y157.739 E24.40223
G1 X153.951 Y157.739 E24.42424
G1 X153.504 Y157.779 E24.44905
G1 X153.072 Y157.897 E24.47381
G1 X152.667 Y158.091 E24.49865
G1 X152.169 Y158.477 E24.53349
G1 X151.338 Y159.308 E24.59847
G1 X150.661 Y159.308 E24.6359
G1 X149.834 Y158.48 E24.70061
G1 X149.49 Y158.192 E24.72542
G1 X149.1 Y157.969 E24.75026
G1 X148.677 Y157.819 E24.77508
G1 X148.05 Y157.74 E24.81002
G1 X147.651 Y157.74 E24.83209
G1 X147.204 Y157.78 E24.8569
G1 X146.772 Y157.898 E24.88166
G1 X146.367 Y158.092 E24.9065
G1 X145.869 Y158.478 E24.94134
G1 X145.039 Y159.308 E25.00624
G1 X142.877 Y159.307 E25.12579
G1 X142.897 Y159.028 E25.14126
G1 X142.896 Y153.442 E25.45013
G0 F6000 X142.336 Y153.401
G1 F600 X142.316 Y153.082 E25.46781
G1 X142.301 Y152.882 E25.4789
G1 X156.671 Y152.881 E26.27349
G1 X156.663 Y152.936 E26.27656
G1 X156.663 Y157.147 E26.50941
G1 X156.703 Y157.54 E26.53125
G1 X156.84 Y157.94 E26.55463
G1 X156.84 Y159.868 E26.66124
G1 X156.729 Y159.868 E26.66738
G1 X155.736 Y158.874 E26.74507
G1 X155.43 Y158.624 E26.76692
G1 X155.079 Y158.44 E26.78883
G1 X154.699 Y158.331 E26.81069
G1 X154.349 Y158.299 E26.83012
G1 X153.951 Y158.299 E26.85213
G1 X153.558 Y158.339 E26.87397
G1 X153.18 Y158.457 E26.89587
G1 X152.834 Y158.648 E26.91772
G1 X152.565 Y158.873 E26.93711
G1 X151.57 Y159.868 E27.01492
G1 X150.429 Y159.868 E27.07801
G1 X149.437 Y158.875 E27.15563
G1 X149.131 Y158.625 E27.17748
G1 X148.781 Y158.441 E27.19934
G1 X148.401 Y158.332 E27.2212
G1 X148.05 Y158.3 E27.24069
G1 X147.651 Y158.3 E27.26275
G1 X147.258 Y158.34 E27.28459
G1 X146.88 Y158.458 E27.30649
G1 X146.534 Y158.649 E27.32834
G1 X146.265 Y158.874 E27.34774
G1 X145.271 Y159.868 E27.42547
G1 X142.231 Y159.867 E27.59356
G1 X142.234 Y159.655 E27.60529
G1 X142.322 Y159.27 E27.62712
G1 X142.337 Y159.028 E27.64053
G1 X142.336 Y153.401 E27.95168
G0 F6000 X141.776 Y153.401
G1 F600 X141.747 Y152.967 E27.97573
G1 X141.674 Y152.487 E28.00257
G1 X141.639 Y152.322 E28.0119
G1 X157.344 Y152.32 E28.88031
G1 X157.279 Y152.542 E28.8931
G1 X157.223 Y152.936 E28.9151
G1 X157.223 Y157.147 E29.14795
G1 X157.263 Y157.479 E29.16644
G1 X157.368 Y157.767 E29.18339
G1 X157.4 Y157.832 E29.1874
G1 X157.4 Y160.428 E29.33094
G1 X156.497 Y160.428 E29.38088
G1 X155.34 Y159.27 E29.47139
G1 X155.077 Y159.063 E29.4899
G1 X154.773 Y158.925 E29.50836
G1 X154.349 Y158.859 E29.53209
G1 X153.951 Y158.859 E29.55409
G1 X153.619 Y158.899 E29.57258
G1 X153.307 Y159.016 E29.59101
G1 X152.961 Y159.269 E29.61471
G1 X151.803 Y160.427 E29.70526
G1 X150.196 Y160.429 E29.79412
G1 X149.041 Y159.271 E29.88456
G1 X148.778 Y159.064 E29.90307
G1 X148.474 Y158.926 E29.92153
G1 X148.05 Y158.86 E29.94526
G1 X147.651 Y158.86 E29.96732
G1 X147.319 Y158.9 E29.98581
G1 X147.007 Y159.017 E30.00423
G1 X146.661 Y159.27 E30.02794
G1 X145.503 Y160.428 E30.11849
G1 X141.631 Y160.427 E30.33259
G1 X141.653 Y160.308 E30.33928
G1 X141.676 Y159.989 E30.35697
G1 X141.659 Y159.605 E30.37822
G1 X141.703 Y159.476 E30.38576
G1 X141.777 Y159.028 E30.41087
G1 X141.776 Y153.401 E30.72201
G0 F6000 X141.216 Y153.401
G1 F600 X141.193 Y153.051 E30.74141
G1 X141.12 Y152.571 E30.76825
G1 X141.106 Y152.498 E30.77236
G1 X141.004 Y152.079 E30.79621
G1 X140.986 Y152.015 E30.79988
G1 X140.903 Y151.762 E30.81461
G1 X158.098 Y151.76 E31.7654
G1 X158.059 Y151.874 E31.77207
G1 X157.817 Y152.7 E31.81966
G1 X157.783 Y152.936 E31.83284
G1 X157.783 Y157.147 E32.06569
G1 X157.87 Y157.519 E32.08682
G1 X157.96 Y157.701 E32.09804
G1 X157.96 Y160.649 E32.26105
G1 X157.914 Y160.987 E32.27992
G1 X156.265 Y160.989 E32.3711
G1 X154.943 Y159.665 E32.47455
G1 X154.735 Y159.513 E32.4888
G1 X154.49 Y159.431 E32.50309
G1 X154.349 Y159.419 E32.51091
G1 X153.951 Y159.419 E32.53292
G1 X153.696 Y159.459 E32.54719
G1 X153.464 Y159.574 E32.56151
G1 X153.357 Y159.665 E32.56927
G1 X152.035 Y160.987 E32.67265
G1 X149.964 Y160.989 E32.78717
G1 X148.645 Y159.667 E32.89043
G1 X148.436 Y159.514 E32.90475
