;FLAVOR:Marlin
;TIME:19187
;Filament used: 24.0093m
;Layer height: 0.3
;MINX:80.27
;MINY:15.247
;MINZ:0.3
;MAXX:219.73
;MAXY:234.807
;MAXZ:39.9
;Generated with Cura_SteamEngine 4.10.0
M104 S230
M105
M109 S230
M82 ;absolute extrusion mode
G28 ; home all axes
 M117 Purge extruder
 G92 E0 ; reset extruder
 G1 Z1.0 F3000 ; move z up little to prevent scratching of surface
 G1 X2 Y20 Z0.3 F5000.0 ; move to start-line position
 G1 X2 Y200.0 Z0.3 F1500.0 E15 ; draw 1st line
 G1 X2 Y200.0 Z0.4 F5000.0 ; move to side a little
 G1 X2 Y20 Z0.4 F1500.0 E30 ; draw 2nd line
 G92 E0 ; reset extruder
 G1 Z1.0 F3000 ; move z up little to prevent scratching of surface
G92 E0
G92 E0
G1 F1500 E-2
;LAYER_COUNT:133
;LAYER:0
M107
M204 S2500
;MESH:Gabelschluesselhalter_12.STL
G0 F6000 X100.114 Y32.352 Z0.3
;TYPE:WALL-INNER
G1 F1500 E0
G1 F600 X99.661 Y32.372 E0.03135
G1 X99.217 Y32.467 E0.06275
G1 X98.795 Y32.637 E0.09421
G1 X98.407 Y32.875 E0.12568
G1 X98.068 Y33.175 E0.15699
G1 X97.782 Y33.527 E0.18835
G1 X97.56 Y33.925 E0.21986
G1 X97.408 Y34.355 E0.2514
G1 X97.332 Y34.81 E0.2833
G1 X97.332 Y35.254 E0.314
G1 X97.409 Y35.702 E0.34543
G1 X97.56 Y36.13 E0.37681
G1 X97.782 Y36.527 E0.40826
G1 X98.068 Y36.88 E0.43968
G1 X98.407 Y37.179 E0.47094
G1 X98.794 Y37.418 E0.50239
G1 X99.217 Y37.588 E0.53391
G1 X99.661 Y37.683 E0.56531
G1 X100.114 Y37.703 E0.59666
G1 X100.565 Y37.644 E0.62811
G1 X100.997 Y37.512 E0.65935
G1 X101.404 Y37.308 E0.69083
G1 X101.769 Y37.037 E0.72226
G1 X102.083 Y36.71 E0.75361
G1 X102.338 Y36.332 E0.78514
G1 X102.524 Y35.919 E0.81646
G1 X102.639 Y35.48 E0.84784
G1 X102.677 Y35.027 E0.87928
G1 X102.639 Y34.575 E0.91064
G1 X102.524 Y34.135 E0.94209
G1 X102.338 Y33.722 E0.97341
G1 X102.082 Y33.345 E1.00492
G1 X101.769 Y33.018 E1.03622
G1 X101.404 Y32.747 E1.06766
G1 X100.997 Y32.543 E1.09914
G1 X100.565 Y32.411 E1.13037
G1 X100.114 Y32.352 E1.16182
G0 F6000 X100.087 Y32.97
;TYPE:WALL-OUTER
G1 F600 X99.739 Y32.985 E1.18591
G1 X99.398 Y33.058 E1.21002
G1 X99.073 Y33.189 E1.23425
G1 X98.775 Y33.372 E1.25843
G1 X98.514 Y33.603 E1.28253
G1 X98.294 Y33.874 E1.30667
G1 X98.123 Y34.18 E1.33091
G1 X98.007 Y34.509 E1.35503
G1 X97.948 Y34.861 E1.37971
G1 X97.948 Y35.202 E1.40329
G1 X98.007 Y35.546 E1.42743
G1 X98.123 Y35.875 E1.45155
G1 X98.294 Y36.18 E1.47573
G1 X98.514 Y36.452 E1.49992
G1 X98.775 Y36.682 E1.52397
G1 X99.073 Y36.866 E1.54819
G1 X99.398 Y36.997 E1.57242
G1 X99.739 Y37.07 E1.59653
G1 X100.087 Y37.085 E1.62062
G1 X100.434 Y37.04 E1.64481
G1 X100.767 Y36.938 E1.6689
G1 X101.08 Y36.781 E1.69311
G1 X101.36 Y36.573 E1.71723
G1 X101.602 Y36.321 E1.74139
G1 X101.798 Y36.031 E1.76559
G1 X101.941 Y35.713 E1.7897
G1 X102.03 Y35.375 E1.81387
G1 X102.059 Y35.027 E1.83802
G1 X102.03 Y34.68 E1.86209
G1 X101.941 Y34.341 E1.88633
G1 X101.798 Y34.023 E1.91044
G1 X101.602 Y33.734 E1.93459
G1 X101.36 Y33.482 E1.95874
G1 X101.08 Y33.274 E1.98286
G1 X100.767 Y33.117 E2.00708
G1 X100.434 Y33.015 E2.03116
G1 X100.087 Y32.97 E2.05535
G0 F6000 X100.116 Y32.294
G1 F1500 E0.05535
G0 F6000 X100.118 Y32.253
G0 X133.402 Y34.172
G0 X134.77 Y34.499
G0 X135.823 Y34.935
G0 X137.305 Y35.725
G0 X137.247 Y35.805
;TYPE:WALL-INNER
G1 F1500 E2.05535
G1 F600 X136.052 Y35.073 E2.15226
G1 X134.758 Y34.537 E2.24911
G1 X133.396 Y34.211 E2.34595
G1 X132.036 Y34.103 E2.44028
G1 X120.704 Y34.103 E3.22387
G1 X119.359 Y34.209 E3.31716
G1 X118.015 Y34.527 E3.41266
G1 X116.733 Y35.05 E3.5084
G1 X115.549 Y35.765 E3.60404
G1 X114.489 Y36.654 E3.6997
G1 X113.579 Y37.697 E3.79542
G1 X112.842 Y38.867 E3.89103
G1 X112.293 Y40.138 E3.98677
G1 X111.958 Y41.443 E4.07993
G1 X108.968 Y58.395 E5.27022
G1 X108.847 Y59.479 E5.34564
G1 X108.862 Y60.598 E5.42302
G1 X109.013 Y61.677 E5.49836
G1 X116.618 Y98.855 E8.12237
G1 X117.038 Y100.28 E8.2251
G1 X117.714 Y101.648 E8.33061
G1 X118.613 Y102.881 E8.43613
G1 X119.707 Y103.943 E8.54156
G1 X120.967 Y104.804 E8.64708
G1 X122.356 Y105.436 E8.7526
G1 X123.832 Y105.825 E8.85815
G1 X125.313 Y105.951 E8.96093
G1 X132.036 Y105.951 E9.42581
G1 X133.395 Y105.844 E9.52007
G1 X134.758 Y105.518 E9.61698
G1 X136.052 Y104.982 E9.71383
G1 X137.247 Y104.25 E9.81073
G1 X138.312 Y103.339 E9.90764
G1 X139.222 Y102.275 E10.00445
G1 X139.954 Y101.079 E10.10141
G1 X140.49 Y99.787 E10.19813
G1 X140.817 Y98.424 E10.29506
G1 X140.924 Y97.063 E10.38946
G1 X140.924 Y42.991 E14.12842
G1 X140.817 Y41.631 E14.22275
G1 X140.49 Y40.268 E14.31967
G1 X139.954 Y38.976 E14.41639
G1 X139.222 Y37.78 E14.51336
G1 X138.312 Y36.716 E14.61017
G1 X137.247 Y35.805 E14.70708
G0 F6000 X136.884 Y36.305
;TYPE:WALL-OUTER
G1 F600 X135.772 Y35.624 E14.79724
G1 X134.567 Y35.125 E14.88743
G1 X133.299 Y34.821 E14.97759
G1 X132.012 Y34.719 E15.06686
G1 X120.728 Y34.719 E15.84713
G1 X119.455 Y34.819 E15.93542
G1 X118.203 Y35.115 E16.02438
G1 X117.01 Y35.602 E16.11349
G1 X115.908 Y36.268 E16.20252
G1 X114.922 Y37.095 E16.29151
G1 X114.075 Y38.066 E16.38061
G1 X113.389 Y39.155 E16.4696
G1 X112.878 Y40.338 E16.55871
G1 X112.56 Y41.573 E16.64689
G1 X109.578 Y58.483 E17.83422
G1 X109.463 Y59.509 E17.90561
G1 X109.477 Y60.551 E17.97767
G1 X109.62 Y61.572 E18.04896
G1 X117.216 Y98.706 E20.66987
G1 X117.614 Y100.055 E20.76712
G1 X118.243 Y101.328 E20.86531
G1 X119.08 Y102.476 E20.96355
G1 X120.098 Y103.464 E21.06164
G1 X121.271 Y104.265 E21.15986
G1 X122.564 Y104.854 E21.25811
G1 X123.937 Y105.216 E21.35629
G1 X125.339 Y105.335 E21.45359
G1 X132.012 Y105.335 E21.91501
G1 X133.299 Y105.234 E22.00428
G1 X134.567 Y104.93 E22.09444
G1 X135.772 Y104.431 E22.18463
G1 X136.884 Y103.75 E22.27479
G1 X137.875 Y102.902 E22.36498
G1 X138.722 Y101.912 E22.45507
G1 X139.403 Y100.799 E22.5453
G1 X139.902 Y99.596 E22.63535
G1 X140.207 Y98.327 E22.7256
G1 X140.308 Y97.039 E22.81494
G1 X140.308 Y43.015 E26.55058
G1 X140.207 Y41.728 E26.63985
G1 X139.902 Y40.459 E26.73009
G1 X139.403 Y39.256 E26.82015
G1 X138.722 Y38.143 E26.91038
G1 X137.875 Y37.153 E27.00047
G1 X136.884 Y36.305 E27.09066
G0 F6000 X137.282 Y35.758
G1 F1500 E25.09066
G0 F6000 X137.305 Y35.725
G0 X167.963 Y34.064
G0 X179.299 Y34.004
G0 X179.296 Y34.103
;TYPE:WALL-INNER
G1 F1500 E27.09066
G1 F600 X167.964 Y34.103 E27.87424
G1 X166.604 Y34.211 E27.96858
G1 X165.242 Y34.537 E28.06542
G1 X163.948 Y35.073 E28.16227
G1 X162.753 Y35.805 E28.25917
G1 X161.688 Y36.716 E28.35608
G1 X160.778 Y37.78 E28.45289
G1 X160.046 Y38.976 E28.54985
G1 X159.51 Y40.268 E28.64657
G1 X159.183 Y41.631 E28.74349
G1 X159.076 Y42.991 E28.83783
G1 X159.076 Y97.063 E32.57679
G1 X159.183 Y98.424 E32.67119
G1 X159.51 Y99.787 E32.76811
G1 X160.046 Y101.079 E32.86483
G1 X160.778 Y102.275 E32.96179
G1 X161.688 Y103.339 E33.05861
G1 X162.753 Y104.25 E33.15551
G1 X163.948 Y104.982 E33.25242
G1 X165.242 Y105.518 E33.34927
G1 X166.605 Y105.844 E33.44617
G1 X167.964 Y105.951 E33.54044
G1 X174.687 Y105.951 E34.00532
G1 X176.168 Y105.825 E34.10809
G1 X177.644 Y105.436 E34.21364
G1 X179.033 Y104.804 E34.31916
G1 X180.293 Y103.943 E34.42469
G1 X181.387 Y102.881 E34.53012
G1 X182.286 Y101.648 E34.63563
G1 X182.962 Y100.28 E34.74115
G1 X183.382 Y98.855 E34.84387
G1 X190.987 Y61.677 E37.46788
G1 X191.138 Y60.598 E37.54322
G1 X191.153 Y59.479 E37.6206
G1 X191.032 Y58.395 E37.69603
G1 X188.042 Y41.443 E38.88631
G1 X187.707 Y40.138 E38.97948
G1 X187.158 Y38.867 E39.07521
G1 X186.421 Y37.697 E39.17083
G1 X185.511 Y36.654 E39.26654
G1 X184.451 Y35.765 E39.3622
G1 X183.267 Y35.05 E39.45784
G1 X181.985 Y34.527 E39.55359
G1 X180.641 Y34.209 E39.64909
G1 X179.296 Y34.103 E39.74238
G0 F6000 X179.272 Y34.719
;TYPE:WALL-OUTER
G1 F600 X167.988 Y34.719 E40.52264
G1 X166.701 Y34.821 E40.61191
G1 X165.433 Y35.125 E40.70208
G1 X164.228 Y35.624 E40.79226
G1 X163.116 Y36.305 E40.88243
G1 X162.125 Y37.153 E40.97262
G1 X161.278 Y38.143 E41.06271
G1 X160.597 Y39.256 E41.15293
G1 X160.098 Y40.459 E41.24299
G1 X159.793 Y41.728 E41.33324
G1 X159.692 Y43.015 E41.42251
G1 X159.692 Y97.039 E45.15815
G1 X159.793 Y98.327 E45.24748
G1 X160.098 Y99.596 E45.33773
G1 X160.597 Y100.799 E45.42779
G1 X161.278 Y101.912 E45.51801
G1 X162.125 Y102.902 E45.60811
G1 X163.116 Y103.75 E45.69829
G1 X164.228 Y104.431 E45.78846
G1 X165.433 Y104.93 E45.87865
G1 X166.701 Y105.234 E45.96881
G1 X167.988 Y105.335 E46.05808
G1 X174.661 Y105.335 E46.5195
G1 X176.063 Y105.216 E46.61679
G1 X177.436 Y104.854 E46.71498
G1 X178.729 Y104.265 E46.81323
G1 X179.902 Y103.464 E46.91144
G1 X180.92 Y102.476 E47.00954
G1 X181.757 Y101.328 E47.10778
G1 X182.386 Y100.055 E47.20596
G1 X182.784 Y98.706 E47.30322
G1 X190.38 Y61.572 E49.92412
G1 X190.523 Y60.551 E49.99541
G1 X190.537 Y59.509 E50.06747
G1 X190.422 Y58.483 E50.13886
G1 X187.44 Y41.573 E51.32619
G1 X187.122 Y40.338 E51.41438
G1 X186.611 Y39.155 E51.50348
G1 X185.925 Y38.066 E51.59248
G1 X185.078 Y37.095 E51.68158
G1 X184.092 Y36.268 E51.77056
G1 X182.99 Y35.602 E51.8596
G1 X181.797 Y35.115 E51.9487
G1 X180.545 Y34.819 E52.03766
G1 X179.272 Y34.719 E52.12596
G0 F6000 X179.298 Y34.043
G0 X179.299 Y34.004
G0 X197.233 Y34.802
G0 X197.332 Y34.81
;TYPE:WALL-INNER
G1 F600 X197.332 Y35.254 E52.15666
G1 X197.409 Y35.702 E52.18809
G1 X197.56 Y36.13 E52.21947
G1 X197.782 Y36.527 E52.25093
G1 X198.068 Y36.88 E52.28234
G1 X198.407 Y37.179 E52.3136
G1 X198.794 Y37.418 E52.34505
G1 X199.217 Y37.588 E52.37657
G1 X199.661 Y37.683 E52.40797
G1 X200.114 Y37.703 E52.43932
G1 X200.564 Y37.644 E52.47071
G1 X200.998 Y37.512 E52.50207
G1 X201.405 Y37.307 E52.53359
G1 X201.769 Y37.037 E52.56492
G1 X202.083 Y36.71 E52.59627
G1 X202.338 Y36.332 E52.6278
G1 X202.524 Y35.919 E52.65912
G1 X202.639 Y35.48 E52.6905
G1 X202.677 Y35.027 E52.72194
G1 X202.639 Y34.575 E52.7533
G1 X202.524 Y34.135 E52.78475
G1 X202.338 Y33.722 E52.81607
G1 X202.082 Y33.345 E52.84758
G1 X201.769 Y33.018 E52.87888
G1 X201.405 Y32.748 E52.91022
G1 X200.998 Y32.543 E52.94173
G1 X200.564 Y32.411 E52.9731
G1 X200.114 Y32.352 E53.00448
G1 X199.661 Y32.372 E53.03584
G1 X199.217 Y32.467 E53.06723
G1 X198.795 Y32.637 E53.09869
G1 X198.407 Y32.875 E53.13017
G1 X198.068 Y33.175 E53.16147
G1 X197.782 Y33.527 E53.19283
G1 X197.56 Y33.925 E53.22434
G1 X197.408 Y34.355 E53.25588
G1 X197.332 Y34.81 E53.28778
G0 F6000 X197.948 Y34.861
;TYPE:WALL-OUTER
G1 F600 X197.948 Y35.202 E53.31136
G1 X198.007 Y35.546 E53.33549
G1 X198.123 Y35.875 E53.35961
G1 X198.294 Y36.18 E53.38379
G1 X198.514 Y36.452 E53.40798
G1 X198.775 Y36.682 E53.43204
G1 X199.073 Y36.866 E53.45625
G1 X199.398 Y36.997 E53.48048
G1 X199.739 Y37.07 E53.5046
G1 X200.087 Y37.085 E53.52868
G1 X200.434 Y37.04 E53.55288
G1 X200.768 Y36.938 E53.57703
G1 X201.08 Y36.781 E53.60118
G1 X201.36 Y36.573 E53.6253
G1 X201.602 Y36.321 E53.64946
G1 X201.798 Y36.031 E53.67366
G1 X201.941 Y35.713 E53.69777
G1 X202.03 Y35.375 E53.72194
G1 X202.059 Y35.027 E53.74609
G1 X202.03 Y34.68 E53.77016
G1 X201.941 Y34.341 E53.7944
G1 X201.798 Y34.023 E53.81851
G1 X201.602 Y33.734 E53.84265
G1 X201.36 Y33.482 E53.86681
G1 X201.08 Y33.274 E53.89093
G1 X200.768 Y33.117 E53.91508
G1 X200.434 Y33.015 E53.93923
G1 X200.087 Y32.97 E53.96343
G1 X199.739 Y32.985 E53.98751
G1 X199.398 Y33.058 E54.01163
G1 X199.073 Y33.189 E54.03586
G1 X198.775 Y33.372 E54.06004
G1 X198.514 Y33.603 E54.08414
G1 X198.294 Y33.874 E54.10828
G1 X198.123 Y34.18 E54.13251
G1 X198.007 Y34.509 E54.15664
G1 X197.948 Y34.861 E54.18132
G0 F6000 X197.274 Y34.805
G1 F1500 E52.18132
G0 F6000 X197.233 Y34.802
G0 X183.42 Y98.864
G0 X175.439 Y129.161
G0 X175.349 Y129.203
;TYPE:WALL-INNER
G1 F1500 E54.18132
G1 F600 X174.632 Y127.957 E54.28072
G1 X173.723 Y126.845 E54.38004
G1 X172.649 Y125.892 E54.47932
G1 X171.433 Y125.123 E54.57881
G1 X170.112 Y124.56 E54.6781
G1 X168.716 Y124.216 E54.77752
G1 X167.321 Y124.103 E54.8743
G1 X132.679 Y124.103 E57.26972
G1 X131.284 Y124.216 E57.36649
G1 X129.888 Y124.56 E57.46591
G1 X128.567 Y125.123 E57.56521
G1 X127.351 Y125.892 E57.66469
G1 X126.277 Y126.845 E57.76398
G1 X125.368 Y127.957 E57.86329
G1 X124.651 Y129.203 E57.9627
G1 X124.14 Y130.546 E58.06206
G1 X123.853 Y131.955 E58.16149
G1 X123.797 Y133.39 E58.26079
G1 X123.966 Y134.779 E58.35755
G1 X135.027 Y188.855 E62.1742
G1 X135.447 Y190.28 E62.27693
G1 X136.123 Y191.648 E62.38244
G1 X137.022 Y192.882 E62.48802
G1 X138.117 Y193.943 E62.59345
G1 X139.377 Y194.804 E62.69897
G1 X140.765 Y195.436 E62.80443
G1 X142.241 Y195.825 E62.90998
G1 X143.723 Y195.951 E63.01282
G1 X156.296 Y195.95 E63.88222
G1 X157.759 Y195.825 E63.98375
G1 X159.235 Y195.436 E64.0893
G1 X160.623 Y194.804 E64.19476
G1 X161.883 Y193.943 E64.30028
G1 X162.978 Y192.882 E64.40571
G1 X163.877 Y191.648 E64.51128
G1 X164.553 Y190.28 E64.6168
G1 X164.973 Y188.855 E64.71952
G1 X176.034 Y134.779 E68.53618
G1 X176.203 Y133.39 E68.63294
G1 X176.147 Y131.955 E68.73224
G1 X175.86 Y130.546 E68.83167
G1 X175.349 Y129.203 E68.93103
G0 F6000 X174.791 Y129.468
;TYPE:WALL-OUTER
G1 F600 X174.123 Y128.308 E69.02359
G1 X173.277 Y127.273 E69.11602
G1 X172.277 Y126.386 E69.20845
G1 X171.146 Y125.67 E69.30101
G1 X169.916 Y125.146 E69.39346
G1 X168.617 Y124.826 E69.48597
G1 X167.296 Y124.719 E69.57761
G1 X132.704 Y124.719 E71.96958
G1 X131.383 Y124.826 E72.06122
G1 X130.084 Y125.146 E72.15373
G1 X128.854 Y125.67 E72.24618
G1 X127.723 Y126.386 E72.33874
G1 X126.723 Y127.273 E72.43117
G1 X125.877 Y128.308 E72.5236
G1 X125.209 Y129.468 E72.61616
G1 X124.734 Y130.718 E72.70863
G1 X124.467 Y132.029 E72.80114
G1 X124.414 Y133.365 E72.89359
G1 X124.574 Y134.68 E72.98519
G1 X135.625 Y188.706 E76.79833
G1 X136.023 Y190.055 E76.89558
G1 X136.652 Y191.328 E76.99377
G1 X137.489 Y192.476 E77.09201
G1 X138.508 Y193.464 E77.19015
G1 X139.681 Y194.265 E77.28837
G1 X140.973 Y194.854 E77.38655
G1 X142.346 Y195.216 E77.48474
G1 X143.749 Y195.335 E77.5821
G1 X156.27 Y195.334 E78.4479
G1 X157.654 Y195.216 E78.54395
G1 X159.027 Y194.854 E78.64213
G1 X160.319 Y194.265 E78.74032
G1 X161.492 Y193.464 E78.83853
G1 X162.511 Y192.476 E78.93668
G1 X163.348 Y191.328 E79.03492
G1 X163.977 Y190.055 E79.1331
G1 X164.375 Y188.706 E79.23036
G1 X175.426 Y134.68 E83.04349
G1 X175.586 Y133.365 E83.13509
G1 X175.533 Y132.029 E83.22755
G1 X175.266 Y130.718 E83.32006
G1 X174.791 Y129.468 E83.41252
G0 F6000 X175.402 Y129.178
G1 F1500 E81.41252
G0 F6000 X175.439 Y129.161
G0 X175.898 Y130.535
G0 X176.186 Y131.951
G0 X176.242 Y133.391
G0 X176.073 Y134.785
G0 X165.011 Y188.864
G0 X164.59 Y190.294
G0 X163.911 Y191.668
G0 X147.995 Y213.107
G0 X148.067 Y213.176
;TYPE:WALL-INNER
G1 F1500 E83.41252
G1 F600 X147.782 Y213.528 E83.44384
G1 X147.56 Y213.924 E83.47523
G1 X147.408 Y214.355 E83.50684
G1 X147.332 Y214.81 E83.53873
G1 X147.332 Y215.254 E83.56944
G1 X147.409 Y215.702 E83.60087
G1 X147.56 Y216.13 E83.63225
G1 X147.782 Y216.527 E83.6637
G1 X148.068 Y216.88 E83.69512
G1 X148.407 Y217.179 E83.72637
G1 X148.794 Y217.418 E83.75783
G1 X149.217 Y217.588 E83.78935
G1 X149.661 Y217.683 E83.82075
G1 X150.114 Y217.703 E83.8521
G1 X150.565 Y217.644 E83.88355
G1 X150.997 Y217.512 E83.91479
G1 X151.404 Y217.308 E83.94627
G1 X151.769 Y217.037 E83.9777
G1 X152.083 Y216.71 E84.00905
G1 X152.338 Y216.332 E84.04058
G1 X152.524 Y215.919 E84.0719
G1 X152.639 Y215.48 E84.10328
G1 X152.677 Y215.027 E84.13471
G1 X152.639 Y214.575 E84.16608
G1 X152.524 Y214.135 E84.19753
G1 X152.338 Y213.722 E84.22885
G1 X152.082 Y213.345 E84.26036
G1 X151.769 Y213.018 E84.29166
G1 X151.404 Y212.747 E84.32309
G1 X150.997 Y212.543 E84.35457
G1 X150.565 Y212.411 E84.38581
G1 X150.114 Y212.352 E84.41726
G1 X149.661 Y212.372 E84.44862
G1 X149.217 Y212.467 E84.48001
G1 X148.795 Y212.637 E84.51147
G1 X148.407 Y212.875 E84.54295
G1 X148.067 Y213.176 E84.57435
G0 F6000 X148.514 Y213.603
;TYPE:WALL-OUTER
G1 F600 X148.294 Y213.875 E84.59854
G1 X148.123 Y214.179 E84.62265
G1 X148.007 Y214.509 E84.64684
G1 X147.948 Y214.861 E84.67152
G1 X147.948 Y215.202 E84.6951
G1 X148.007 Y215.546 E84.71923
G1 X148.123 Y215.875 E84.74336
G1 X148.294 Y216.18 E84.76754
G1 X148.514 Y216.452 E84.79173
G1 X148.775 Y216.682 E84.81578
G1 X149.073 Y216.866 E84.84
G1 X149.398 Y216.997 E84.86423
G1 X149.739 Y217.07 E84.88834
G1 X150.087 Y217.085 E84.91243
G1 X150.434 Y217.04 E84.93662
G1 X150.767 Y216.938 E84.96071
G1 X151.08 Y216.781 E84.98492
