;FLAVOR:Marlin
;TIME:5573
;Filament used: 4.59571m
;Layer height: 0.2
;MINX:-24.503
;MINY:-51.794
;MINZ:0.2
;MAXX:59.906
;MAXY:73.853
;MAXZ:63.2
;Generated with Cura_SteamEngine 4.10.0
M104 S205
M105
M109 S205
M82 ;absolute extrusion mode
G21        ;metric values
G90        ;absolute positioning
M107       ;start with the fan off
G28   ;move to endstops

;Z-Offset Reset und dann Z +0,1 für PLA
;MacroZOffset0
;MacroZOffsetPlus0100

G92 E0                  ;zero the extruded length
G1 F200 E3              ;extrude 3mm of feed stock
G92 E0                  ;zero the extruded length again
G1 F120
;Put printing message on LCD screen
M117 Printing...
G92 E0
G92 E0
G1 F2400 E-6
;LAYER_COUNT:316
;LAYER:0
M107
M204 S4000
G0 F1200 X-16.19 Y6.342 Z0.2
M204 S1800
;TYPE:SKIRT
G1 F2400 E0
G1 F600 X-17.145 Y3.753 E0.08719
G1 X-18.159 Y1.228 E0.17317
G1 X-19.242 Y-1.262 E0.25897
G1 X-20.39 Y-3.71 E0.3444
G1 X-21.639 Y-6.191 E0.43216
G1 X-22.123 Y-7.084 E0.46426
G1 X-22.784 Y-8.331 E0.50885
G1 X-22.999 Y-8.822 E0.52579
G1 X-23.106 Y-9.186 E0.53778
G1 X-23.374 Y-10.317 E0.5745
G1 X-23.495 Y-10.86 E0.59208
G1 X-24.034 Y-12.994 E0.66163
G1 X-24.048 Y-13.074 E0.66419
G1 X-24.377 Y-14.334 E0.70534
G1 X-24.474 Y-14.862 E0.7223
G1 X-24.502 Y-15.467 E0.74144
G1 X-24.503 Y-21.186 E0.92214
G1 X-24.492 Y-21.893 E0.94449
G1 X-24.443 Y-22.427 E0.96143
G1 X-24.376 Y-22.742 E0.9716
G1 X-23.667 Y-25.469 E1.06063
G1 X-23.187 Y-27.557 E1.12833
G1 X-23.101 Y-27.911 E1.13984
G1 X-22.936 Y-28.421 E1.15678
G1 X-22.712 Y-28.876 E1.1728
G1 X-22.587 Y-29.09 E1.18063
G1 X-21.399 Y-31.081 E1.25389
G1 X-20.074 Y-33.453 E1.33974
G1 X-18.823 Y-35.85 E1.42517
G1 X-17.62 Y-38.324 E1.5121
G1 X-16.498 Y-40.806 E1.59816
G1 X-15.448 Y-43.315 E1.6841
G1 X-14.455 Y-45.886 E1.77119
G1 X-13.516 Y-48.553 E1.86053
G1 X-13.252 Y-49.335 E1.8866
G1 X-13.043 Y-49.829 E1.90355
G1 X-12.763 Y-50.286 E1.92049
G1 X-12.419 Y-50.697 E1.93742
G1 X-12.017 Y-51.052 E1.95437
G1 X-11.567 Y-51.343 E1.9713
G1 X-11.078 Y-51.565 E1.98827
G1 X-10.562 Y-51.711 E2.00521
G1 X-9.941 Y-51.783 E2.02497
G1 X-9.426 Y-51.794 E2.04124
G1 X-8.687 Y-51.783 E2.0646
G1 X-8.133 Y-51.731 E2.08218
G1 X-7.944 Y-51.695 E2.08826
G1 X-7.021 Y-51.495 E2.1181
G1 X-4.309 Y-50.948 E2.20551
G1 X-1.588 Y-50.48 E2.29275
G1 X1.064 Y-50.099 E2.37741
G1 X3.797 Y-49.787 E2.46432
G1 X6.526 Y-49.551 E2.55088
G1 X9.247 Y-49.395 E2.63699
G1 X11.948 Y-49.316 E2.72237
G1 X13.436 Y-49.305 E2.76939
G1 X21.605 Y-49.305 E3.02751
G1 X24.386 Y-49.344 E3.11539
G1 X27.114 Y-49.46 E3.20166
G1 X29.844 Y-49.654 E3.28814
G1 X32.519 Y-49.919 E3.37308
G1 X35.259 Y-50.269 E3.46036
G1 X37.936 Y-50.69 E3.54598
G1 X40.601 Y-51.186 E3.63163
G1 X42.636 Y-51.624 E3.69741
G1 X43.087 Y-51.714 E3.71194
G1 X43.686 Y-51.782 E3.73099
G1 X44.097 Y-51.793 E3.74398
G1 X51.503 Y-51.794 E3.97798
G1 X52.21 Y-51.784 E4.00033
G1 X52.744 Y-51.736 E4.01727
G1 X53.265 Y-51.61 E4.0342
G1 X53.762 Y-51.407 E4.05117
G1 X54.223 Y-51.134 E4.0681
G1 X54.678 Y-50.756 E4.08679
G1 X54.775 Y-50.661 E4.09108
G1 X55.129 Y-50.258 E4.10803
G1 X55.419 Y-49.807 E4.12497
G1 X55.64 Y-49.318 E4.14192
G1 X55.827 Y-48.542 E4.16714
G1 X55.976 Y-47.369 E4.20451
G1 X56.365 Y-44.609 E4.29258
G1 X56.82 Y-41.934 E4.37831
G1 X57.356 Y-39.242 E4.46504
G1 X57.948 Y-36.651 E4.54902
G1 X58.646 Y-33.951 E4.63714
G1 X59.41 Y-31.307 E4.7241
G1 X59.69 Y-30.412 E4.75373
G1 X59.747 Y-30.22 E4.76006
G1 X59.861 Y-29.696 E4.777
G1 X59.904 Y-28.971 E4.79995
G1 X59.906 Y-28.863 E4.80336
G1 X59.906 Y-22.646 E4.9998
G1 X59.895 Y-21.942 E5.02205
G1 X59.846 Y-21.408 E5.03899
G1 X59.719 Y-20.887 E5.05594
G1 X59.466 Y-20.293 E5.07634
G1 X58.941 Y-19.318 E5.11133
G1 X58.639 Y-18.777 E5.1309
G1 X57.393 Y-16.391 E5.21595
G1 X56.197 Y-13.934 E5.3023
G1 X56.08 Y-13.675 E5.31128
G1 X55.518 Y-12.475 E5.35315
G1 X55.255 Y-12.008 E5.37008
G1 X54.926 Y-11.585 E5.38701
G1 X54.522 Y-11.203 E5.40458
G1 X53.699 Y-10.538 E5.43801
G1 X53.326 Y-10.247 E5.45296
G1 X51.228 Y-8.507 E5.53909
G1 X49.198 Y-6.725 E5.62443
G1 X47.181 Y-4.852 E5.71141
G1 X45.248 Y-2.952 E5.79705
G1 X43.351 Y-.978 E5.88355
G1 X41.518 Y1.041 E5.96972
G1 X39.743 Y3.109 E6.05583
G1 X38.032 Y5.221 E6.14171
G1 X36.372 Y7.395 E6.22814
G1 X34.785 Y9.598 E6.31393
G1 X33.246 Y11.868 E6.40059
G1 X31.778 Y14.171 E6.48688
G1 X30.393 Y16.485 E6.57209
G1 X29.053 Y18.874 E6.65864
G1 X27.784 Y21.295 E6.74501
G1 X26.584 Y23.753 E6.83144
G1 X25.463 Y26.222 E6.91711
G1 X24.392 Y28.766 E7.00433
G1 X23.414 Y31.296 E7.09004
G1 X22.511 Y33.839 E7.1753
G1 X21.665 Y36.452 E7.26209
G1 X20.9 Y39.068 E7.34821
G1 X20.21 Y41.701 E7.43421
G1 X19.591 Y44.36 E7.52047
G1 X19.049 Y47.04 E7.60687
G1 X18.586 Y49.717 E7.69271
G1 X18.195 Y52.42 E7.77901
G1 X17.884 Y55.124 E7.86501
G1 X17.648 Y57.821 E7.95055
G1 X17.487 Y60.578 E8.03781
G1 X17.406 Y63.271 E8.12294
G1 X17.4 Y66.026 E8.20999
G1 X17.439 Y67.805 E8.26622
G1 X17.49 Y69.446 E8.31809
G1 X17.492 Y69.61 E8.32328
G1 X17.482 Y70.296 E8.34495
G1 X17.434 Y70.831 E8.36193
G1 X17.307 Y71.352 E8.37887
G1 X17.105 Y71.848 E8.39579
G1 X16.831 Y72.309 E8.41274
G1 X16.491 Y72.724 E8.42969
G1 X16.094 Y73.084 E8.44662
G1 X15.647 Y73.382 E8.4636
G1 X15.162 Y73.609 E8.48052
G1 X14.647 Y73.762 E8.49749
G1 X13.983 Y73.843 E8.51863
G1 X13.562 Y73.853 E8.53193
G1 X4.549 Y73.853 E8.81672
G1 X3.848 Y73.843 E8.83887
G1 X3.244 Y73.783 E8.85805
G1 X2.655 Y73.674 E8.87698
G1 X-0.019 Y73.216 E8.9627
G1 X-2.738 Y72.829 E9.04948
G1 X-5.444 Y72.522 E9.13553
G1 X-7.113 Y72.379 E9.18846
G1 X-7.651 Y72.324 E9.20554
G1 X-8.179 Y72.23 E9.22249
G1 X-8.687 Y72.059 E9.23943
G1 X-9.164 Y71.814 E9.25637
G1 X-9.599 Y71.5 E9.27332
G1 X-9.983 Y71.126 E9.29026
G1 X-10.307 Y70.699 E9.30719
G1 X-10.564 Y70.228 E9.32415
G1 X-10.749 Y69.724 E9.34111
G1 X-10.856 Y69.199 E9.35804
G1 X-10.892 Y68.54 E9.37889
G1 X-10.894 Y68.382 E9.38389
G1 X-10.881 Y67.601 E9.40857
G1 X-10.842 Y66.699 E9.43709
G1 X-10.784 Y65.681 E9.46931
G1 X-10.705 Y62.882 E9.55779
G1 X-10.696 Y61.538 E9.60026
G1 X-10.696 Y38.47 E10.32914
G1 X-10.735 Y35.689 E10.41702
G1 X-10.851 Y32.96 E10.50333
G1 X-11.045 Y30.231 E10.58977
G1 X-11.31 Y27.554 E10.67477
G1 X-11.66 Y24.816 E10.76199
G1 X-12.081 Y22.138 E10.84764
G1 X-12.579 Y19.459 E10.93374
G1 X-13.143 Y16.842 E11.01833
G1 X-13.808 Y14.126 E11.10668
G1 X-14.528 Y11.507 E11.19251
G1 X-15.322 Y8.915 E11.27816
G1 X-16.19 Y6.342 E11.36396
M204 S4000
G0 F1200 X-15.822 Y6.18
M204 S1800
G1 F600 X-16.758 Y3.644 E11.44938
G1 X-17.792 Y1.068 E11.53708
G1 X-18.877 Y-1.426 E11.62302
G1 X-20.043 Y-3.91 E11.70973
G1 X-21.274 Y-6.356 E11.79625
G1 X-21.769 Y-7.271 E11.82912
G1 X-22.43 Y-8.518 E11.87371
G1 X-22.631 Y-8.982 E11.88969
G1 X-22.717 Y-9.278 E11.89943
G1 X-22.984 Y-10.405 E11.93603
G1 X-23.11 Y-10.966 E11.95419
G1 X-23.646 Y-13.092 E12.02347
G1 X-23.658 Y-13.165 E12.02581
G1 X-23.99 Y-14.435 E12.06729
G1 X-24.093 Y-15.155 E12.09027
G1 X-24.103 Y-15.567 E12.10329
G1 X-24.103 Y-21.18 E12.28064
G1 X-24.092 Y-21.887 E12.30299
G1 X-24.044 Y-22.39 E12.31895
G1 X-23.989 Y-22.642 E12.3271
G1 X-23.274 Y-25.392 E12.41688
G1 X-22.799 Y-27.462 E12.48399
G1 X-22.713 Y-27.816 E12.4955
G1 X-22.555 Y-28.297 E12.5115
G1 X-22.259 Y-28.859 E12.53157
G1 X-21.064 Y-30.861 E12.60524
G1 X-19.729 Y-33.252 E12.69176
G1 X-18.452 Y-35.697 E12.77892
G1 X-17.26 Y-38.149 E12.86507
G1 X-16.136 Y-40.637 E12.95133
G1 X-15.064 Y-43.195 E13.03897
G1 X-14.08 Y-45.746 E13.12536
G1 X-13.15 Y-48.386 E13.2138
G1 X-12.873 Y-49.207 E13.24118
G1 X-12.674 Y-49.672 E13.25716
G1 X-12.404 Y-50.099 E13.27312
G1 X-12.071 Y-50.479 E13.28909
G1 X-11.682 Y-50.802 E13.30506
G1 X-11.246 Y-51.059 E13.32106
G1 X-10.776 Y-51.244 E13.33701
G1 X-10.282 Y-51.353 E13.353
G1 X-9.569 Y-51.393 E13.37556
G1 X-9.432 Y-51.394 E13.37989
G1 X-8.693 Y-51.383 E13.40325
G1 X-8.165 Y-51.331 E13.42001
G1 X-8.028 Y-51.304 E13.42442
G1 X-7.1 Y-51.103 E13.45442
G1 X-4.384 Y-50.555 E13.54197
G1 X-1.677 Y-50.089 E13.62876
G1 X1.066 Y-49.695 E13.71632
G1 X3.75 Y-49.389 E13.80168
G1 X6.47 Y-49.154 E13.88794
G1 X9.212 Y-48.997 E13.97472
G1 X11.978 Y-48.916 E14.06216
G1 X13.433 Y-48.905 E14.10813
G1 X21.611 Y-48.905 E14.36654
G1 X24.408 Y-48.945 E14.45492
G1 X27.125 Y-49.06 E14.54085
G1 X29.872 Y-49.255 E14.62786
G1 X32.576 Y-49.523 E14.71372
G1 X35.3 Y-49.871 E14.80049
G1 X38 Y-50.296 E14.88685
G1 X40.693 Y-50.796 E14.9734
G1 X42.715 Y-51.232 E15.03876
G1 X43.166 Y-51.322 E15.05329
G1 X43.698 Y-51.383 E15.07021
G1 X44.097 Y-51.393 E15.08282
G1 X51.497 Y-51.394 E15.31664
G1 X52.204 Y-51.384 E15.33898
G1 X52.708 Y-51.337 E15.35497
G1 X53.197 Y-51.211 E15.37093
G1 X53.661 Y-51.01 E15.38691
G1 X54.087 Y-50.738 E15.40288
G1 X54.495 Y-50.375 E15.42013
G1 X54.827 Y-49.994 E15.4361
G1 X55.095 Y-49.565 E15.45208
G1 X55.292 Y-49.1 E15.46804
G1 X55.431 Y-48.491 E15.48778
G1 X55.58 Y-47.313 E15.5253
G1 X55.969 Y-44.557 E15.61324
G1 X56.427 Y-41.86 E15.69968
G1 X56.969 Y-39.139 E15.78734
G1 X57.563 Y-36.542 E15.87152
G1 X58.259 Y-33.845 E15.95953
G1 X59.01 Y-31.247 E16.04498
G1 X59.307 Y-30.298 E16.0764
G1 X59.364 Y-30.106 E16.08273
G1 X59.469 Y-29.611 E16.09872
G1 X59.505 Y-28.959 E16.11935
G1 X59.506 Y-22.652 E16.31863
G1 X59.495 Y-21.948 E16.34088
G1 X59.447 Y-21.445 E16.35684
G1 X59.32 Y-20.955 E16.37284
G1 X59.113 Y-20.482 E16.38915
G1 X58.592 Y-19.513 E16.42391
G1 X58.294 Y-18.979 E16.44324
G1 X57.022 Y-16.544 E16.53004
G1 X55.836 Y-14.107 E16.61568
G1 X55.718 Y-13.845 E16.62476
G1 X55.156 Y-12.645 E16.66663
G1 X54.906 Y-12.205 E16.68262
G1 X54.59 Y-11.811 E16.69858
G1 X54.27 Y-11.514 E16.71237
G1 X53.453 Y-10.853 E16.74558
G1 X53.054 Y-10.541 E16.76158
G1 X50.989 Y-8.83 E16.84632
G1 X48.91 Y-7.004 E16.93375
G1 X46.929 Y-5.164 E17.01917
G1 X44.944 Y-3.214 E17.1071
G1 X43.067 Y-1.26 E17.19271
G1 X41.235 Y0.758 E17.27883
G1 X39.428 Y2.864 E17.36651
G1 X37.706 Y4.989 E17.45293
G1 X36.063 Y7.141 E17.53848
G1 X34.457 Y9.37 E17.62529
G1 X32.911 Y11.651 E17.71235
G1 X31.441 Y13.956 E17.79874
G1 X30.044 Y16.291 E17.88471
G1 X28.692 Y18.7 E17.972
G1 X27.42 Y21.127 E18.05858
G1 X26.231 Y23.561 E18.14417
G1 X25.094 Y26.067 E18.23112
G1 X24.026 Y28.604 E18.3181
G1 X23.035 Y31.167 E18.40492
G1 X22.125 Y33.729 E18.49083
G1 X21.289 Y36.312 E18.57661
G1 X20.512 Y38.968 E18.66405
G1 X19.832 Y41.562 E18.74879
G1 X19.194 Y44.302 E18.83768
G1 X18.657 Y46.964 E18.92348
G1 X18.19 Y49.657 E19.00984
G1 X17.8 Y52.354 E19.09595
G1 X17.486 Y55.079 E19.18262
G1 X17.249 Y57.797 E19.26883
G1 X17.089 Y60.543 E19.35574
G1 X17.006 Y63.294 E19.4427
G1 X17 Y66.034 E19.52928
G1 X17.039 Y67.818 E19.58566
G1 X17.09 Y69.459 E19.63754
G1 X17.092 Y69.605 E19.64215
G1 X17.082 Y70.291 E19.66383
G1 X17.034 Y70.794 E19.6798
G1 X16.908 Y71.284 E19.69578
G1 X16.707 Y71.747 E19.71173
G1 X16.435 Y72.173 E19.7277
G1 X16.099 Y72.551 E19.74368
G1 X15.708 Y72.872 E19.75967
G1 X15.271 Y73.127 E19.77565
G1 X14.8 Y73.309 E19.79161
G1 X14.306 Y73.416 E19.80758
G1 X13.652 Y73.452 E19.82827
G1 X4.554 Y73.453 E20.11574
G1 X3.853 Y73.443 E20.1379
G1 X3.317 Y73.39 E20.15491
G1 X2.728 Y73.281 E20.17384
G1 X0.028 Y72.819 E20.26039
G1 X-2.668 Y72.435 E20.34644
G1 X-5.402 Y72.124 E20.43338
G1 X-7.072 Y71.981 E20.48634
G1 X-7.61 Y71.926 E20.50343
G1 X-8.108 Y71.835 E20.51943
G1 X-8.585 Y71.667 E20.53541
G1 X-9.029 Y71.426 E20.55137
G1 X-9.43 Y71.118 E20.56735
G1 X-9.777 Y70.751 E20.5833
G1 X-10.062 Y70.333 E20.59929
G1 X-10.278 Y69.876 E20.61526
G1 X-10.419 Y69.39 E20.63125
G1 X-10.484 Y68.836 E20.64888
G1 X-10.494 Y68.388 E20.66303
G1 X-10.484 Y67.706 E20.68459
G1 X-10.443 Y66.722 E20.7157
G1 X-10.384 Y65.681 E20.74865
G1 X-10.306 Y62.918 E20.83599
G1 X-10.296 Y61.54 E20.87953
G1 X-10.296 Y38.464 E21.60866
G1 X-10.336 Y35.666 E21.69708
G1 X-10.451 Y32.949 E21.78301
G1 X-10.646 Y30.203 E21.86999
G1 X-10.914 Y27.497 E21.95591
G1 X-11.262 Y24.775 E22.04262
G1 X-11.687 Y22.074 E22.12901
G1 X-12.19 Y19.366 E22.21604
G1 X-12.755 Y16.742 E22.30085
G1 X-13.419 Y14.03 E22.38908
G1 X-14.137 Y11.421 E22.47458
G1 X-14.947 Y8.775 E22.56201
G1 X-15.822 Y6.18 E22.64854
M204 S4000
G1 F2400 E16.64854
;MESH:tcutter_w50mm_body_extended.stl
G0 F1200 X-12.103 Y-7.872
G0 X-12.103 Y-8.951
G0 X-11.633 Y-11.438
M204 S1800
;TYPE:WALL-INNER
G1 F2400 E22.64854
G1 F600 X-11.575 Y-11.438 E22.65038
G1 X-11.426 Y-11.437 E22.65508
G1 X-11.011 Y-10.727 E22.68107
G1 X-11.011 Y-9.137 E22.73131
G1 X-11.917 Y-9.137 E22.75994
G1 X-11.917 Y-11.38 E22.83081
G1 X-11.917 Y-11.438 E22.83245
G1 X-11.917 Y-11.722 E22.84143
G1 X-11.633 Y-11.438 E22.84764
M204 S4000
G0 F1200 X-12.253 Y-12.259
G0 X-16.104 Y-12.437
M204 S1800
G1 F600 X-16.105 Y-9.145 E22.95165
G1 X-16.105 Y-9.137 E22.95191
G1 X-16.489 Y-9.137 E22.96404
G1 X-16.496 Y-9.137 E22.96426
G1 X-17.155 Y-9.201 E22.98518
G1 X-17.769 Y-9.381 E23.0054
G1 X-18.332 Y-9.668 E23.02536
G1 X-18.844 Y-10.067 E23.04587
G1 X-19.011 Y-10.243 E23.05354
G1 X-19.011 Y-12.637 E23.12918
G1 X-16.911 Y-12.637 E23.19554
G1 X-16.911 Y-15.837 E23.29665
G1 X-20.303 Y-15.837 E23.40383
G1 X-20.303 Y-21.237 E23.57445
G1 X-16.911 Y-21.237 E23.68163
G1 X-16.911 Y-24.437 E23.78274
G1 X-19.011 Y-24.437 E23.84909
G1 X-19.012 Y-26.82 E23.92439
G1 X-18.596 Y-27.22 E23.94262
G1 X-18.048 Y-27.567 E23.96312
G1 X-17.456 Y-27.801 E23.98323
G1 X-16.814 Y-27.921 E24.00387
G1 X-16.309 Y-27.933 E24.01983
G1 X-16.308 Y-27.934 E24.01987
G1 X-16.105 Y-27.937 E24.02629
G1 X-16.105 Y-27.734 E24.03042
G1 X-16.105 Y-27.733 E24.03045
G1 X-16.104 Y-24.637 E24.12828
G1 X-13.115 Y-24.637 E24.22272
G1 X-12.633 Y-24.637 E24.23795
G1 X-12.974 Y-24.296 E24.24615
G1 X-13.111 Y-24.159 E24.25228
G1 X-13.11 Y-21.937 E24.32248
G1 X35.469 Y-21.937 E25.85744
G1 X35.666 Y-21.924 E25.86368
G1 X36.029 Y-21.824 E25.87558
G1 X36.34 Y-21.644 E25.88693
G1 X36.597 Y-21.383 E25.8985
G1 X36.78 Y-21.066 E25.91007
G1 X36.889 Y-20.512 E25.92791
G1 X36.889 Y-16.575 E26.05231
G1 X36.835 Y-16.167 E26.06531
G1 X36.696 Y-15.834 E26.07671
G1 X36.473 Y-15.548 E26.08817
G1 X36.18 Y-15.324 E26.09983
G1 X35.846 Y-15.188 E26.11122
G1 X35.449 Y-15.137 E26.12387
G1 X-13.111 Y-15.137 E27.65822
G1 X-13.111 Y-12.915 E27.72843
G1 X-12.974 Y-12.778 E27.73456
G1 X-12.633 Y-12.437 E27.74979
G1 X-13.115 Y-12.437 E27.75799
G1 X-16.104 Y-12.437 E27.85244
M204 S4000
G0 F1200 X-12.947 Y-24.091
G0 X-12.278 Y-24.745
G0 X-11.633 Y-25.637
M204 S1800
G1 F600 X-11.917 Y-25.353 E27.86513
G1 X-11.917 Y-25.636 E27.86761
G1 X-11.918 Y-27.737 E27.93399
G1 X-11.918 Y-27.937 E27.94031
G1 X-11.718 Y-27.937 E27.94441
G1 X-11.011 Y-27.937 E27.96674
G1 X-11.01 Y-26.349 E28.01692
G1 X-11.426 Y-25.637 E28.04298
G1 X-11.633 Y-25.637 E28.04952
M204 S4000
G0 F1200 X-12.239 Y-24.78
G0 X-12.947 Y-24.091
G0 X-13.011 Y-14.737
G0 X-12.711 Y-14.737
M204 S1800
;TYPE:WALL-OUTER
G1 F600 X-12.711 Y-13.081 E28.10184
G1 X-11.467 Y-11.837 E28.15743
G1 X-11.191 Y-11.836 E28.16615
G1 X-10.877 Y-11.274 E28.18649
G1 X-10.611 Y-10.839 E28.2026
G1 X-10.611 Y-8.737 E28.26902
G1 X-12.317 Y-8.737 E28.32292
G1 X-12.317 Y-12.037 E28.4272
G1 X-15.704 Y-12.037 E28.53421
G1 X-15.705 Y-8.737 E28.63849
G1 X-16.506 Y-8.737 E28.66379
G1 X-17.232 Y-8.807 E28.68684
G1 X-17.916 Y-9.007 E28.70936
G1 X-18.551 Y-9.331 E28.73188
G1 X-19.114 Y-9.769 E28.75442
G1 X-19.411 Y-10.083 E28.76808
G1 X-19.411 Y-13.037 E28.86142
G1 X-17.311 Y-13.037 E28.92777
G1 X-17.311 Y-15.437 E29.0036
G1 X-20.703 Y-15.437 E29.11078
G1 X-20.703 Y-21.637 E29.30668
G1 X-17.311 Y-21.637 E29.41386
G1 X-17.311 Y-24.037 E29.48969
G1 X-19.411 Y-24.037 E29.55605
G1 X-19.412 Y-26.99 E29.64935
G1 X-18.842 Y-27.538 E29.67434
G1 X-18.23 Y-27.925 E29.69722
G1 X-17.569 Y-28.187 E29.71968
G1 X-16.855 Y-28.32 E29.74263
G1 X-16.479 Y-28.337 E29.75452
G1 X-15.705 Y-28.337 E29.77898
G1 X-15.704 Y-25.037 E29.88325
G1 X-12.517 Y-25.037 E29.98395
G1 X-12.317 Y-25.037 E29.99027
G1 X-12.317 Y-25.237 E29.99436
G1 X-12.318 Y-28.137 E30.08599
G1 X-12.318 Y-28.337 E30.09231
G1 X-12.118 Y-28.337 E30.09641
G1 X-10.611 Y-28.337 E30.14402
G1 X-10.61 Y-26.236 E30.21041
G1 X-10.878 Y-25.799 E30.22661
G1 X-11.191 Y-25.237 E30.24693
G1 X-11.467 Y-25.237 E30.25565
G1 X-12.711 Y-23.993 E30.31124
G1 X-12.71 Y-22.337 E30.36357
G1 X35.481 Y-22.337 E31.88626
G1 X35.733 Y-22.32 E31.89424
G1 X36.183 Y-22.197 E31.90898
