;FLAVOR:Marlin
;TIME:2304
;Filament used: 1.30704m
;Layer height: 0.2
;MINX:-33.776
;MINY:0.811
;MINZ:0.2
;MAXX:56.507
;MAXY:75.141
;MAXZ:4.2
;Generated with Cura_SteamEngine 4.10.0
M104 S205
M105
M109 S205
M82 ;absolute extrusion mode
G21        ;metric values
G90        ;absolute positioning
M107       ;start with the fan off
G28   ;move to endstops

;Z-Offset Reset und dann Z +0,1 für PLA
;MacroZOffset0
;MacroZOffsetPlus0100

G92 E0                  ;zero the extruded length
G1 F200 E3              ;extrude 3mm of feed stock
G92 E0                  ;zero the extruded length again
G1 F120
;Put printing message on LCD screen
M117 Printing...
G92 E0
G92 E0
G1 F2400 E-6
;LAYER_COUNT:21
;LAYER:0
M107
M204 S4000
G0 F1200 X29.811 Y17.308 Z0.2
M204 S1800
;TYPE:SKIRT
G1 F2400 E0
G1 F600 X29.813 Y24.495 E0.22709
G1 X29.857 Y24.944 E0.24134
G1 X30.032 Y25.395 E0.25663
G1 X30.237 Y25.679 E0.2677
G1 X30.602 Y25.975 E0.28254
G1 X30.949 Y26.131 E0.29457
G1 X31.323 Y26.199 E0.30658
G1 X31.562 Y26.207 E0.31413
G1 X38.005 Y26.207 E0.51771
G1 X38.48 Y26.161 E0.53279
G1 X38.918 Y25.989 E0.54766
G1 X39.309 Y25.678 E0.56345
G1 X39.574 Y25.281 E0.57853
G1 X39.712 Y24.811 E0.59401
G1 X39.733 Y24.468 E0.60486
G1 X39.734 Y17.315 E0.83088
G1 X39.005 Y17.044 E0.85545
G1 X38.296 Y16.695 E0.88042
G1 X37.627 Y16.277 E0.90535
G1 X37.003 Y15.793 E0.9303
G1 X36.551 Y15.372 E0.94982
G1 X36.435 Y15.255 E0.95502
G1 X35.908 Y14.667 E0.97997
G1 X35.443 Y14.028 E1.00494
G1 X35.046 Y13.346 E1.02988
G1 X34.775 Y12.75 E1.05056
G1 X34.743 Y12.837 E1.05349
G1 X34.395 Y13.546 E1.07845
G1 X33.977 Y14.217 E1.10343
G1 X33.494 Y14.841 E1.12836
G1 X33.089 Y15.278 E1.14719
G1 X32.972 Y15.395 E1.15242
G1 X32.386 Y15.925 E1.17738
G1 X31.75 Y16.392 E1.20231
G1 X31.07 Y16.793 E1.22726
G1 X30.352 Y17.123 E1.25222
G1 X29.811 Y17.308 E1.27029
M204 S4000
G0 F1200 X29.411 Y17.017
M204 S1800
G1 F600 X29.413 Y24.481 E1.50613
G1 X29.465 Y25.027 E1.52346
G1 X29.619 Y25.471 E1.53831
G1 X29.873 Y25.87 E1.55326
G1 X30.152 Y26.148 E1.5657
G1 X30.554 Y26.402 E1.58073
G1 X31.006 Y26.559 E1.59584
G1 X31.549 Y26.607 E1.61307
G1 X38.023 Y26.607 E1.81763
G1 X38.552 Y26.555 E1.83442
G1 X39.014 Y26.392 E1.8499
G1 X39.377 Y26.161 E1.8635
G1 X39.692 Y25.845 E1.8776
G1 X39.936 Y25.452 E1.89221
G1 X40.074 Y25.06 E1.90534
G1 X40.133 Y24.453 E1.92461
G1 X40.134 Y17.006 E2.15992
G1 X39.808 Y16.919 E2.17058
G1 X39.09 Y16.645 E2.19486
G1 X38.404 Y16.297 E2.21917
G1 X37.758 Y15.879 E2.24348
G1 X37.158 Y15.397 E2.2678
G1 X36.719 Y14.973 E2.28708
G1 X36.207 Y14.399 E2.31139
G1 X35.756 Y13.776 E2.33569
G1 X35.374 Y13.109 E2.35997
G1 X35.062 Y12.406 E2.38428
G1 X34.825 Y11.674 E2.40859
G1 X34.775 Y11.44 E2.41615
G1 X34.617 Y12.034 E2.43557
G1 X34.343 Y12.753 E2.45988
G1 X33.996 Y13.439 E2.48417
G1 X33.58 Y14.086 E2.50848
G1 X33.099 Y14.686 E2.53277
G1 X32.69 Y15.113 E2.55146
G1 X32.118 Y15.627 E2.57576
G1 X31.496 Y16.08 E2.60007
G1 X30.831 Y16.466 E2.62436
G1 X30.129 Y16.781 E2.64868
G1 X29.411 Y17.017 E2.67256
M204 S4000
G0 F1200 X29.908 Y16.437
M204 S1800
G1 F600 X29.194 Y16.661 E2.6962
G1 X29.011 Y16.698 E2.7021
G1 X29.013 Y24.508 E2.94887
G1 X29.078 Y25.131 E2.96867
G1 X29.261 Y25.65 E2.98605
G1 X29.558 Y26.116 E3.00352
G1 X29.903 Y26.461 E3.01893
G1 X30.387 Y26.766 E3.03701
G1 X30.913 Y26.948 E3.05459
G1 X31.536 Y27.007 E3.07437
G1 X38.018 Y27.007 E3.27918
G1 X38.654 Y26.942 E3.29938
G1 X39.192 Y26.75 E3.31743
G1 X39.642 Y26.461 E3.33433
G1 X40.008 Y26.09 E3.3508
G1 X40.294 Y25.632 E3.36786
G1 X40.462 Y25.157 E3.38378
G1 X40.533 Y24.467 E3.40569
G1 X40.534 Y16.701 E3.65108
G1 X39.873 Y16.52 E3.67273
G1 X39.177 Y16.245 E3.69638
G1 X38.515 Y15.898 E3.71999
G1 X37.893 Y15.482 E3.74364
G1 X37.119 Y14.808 E3.77607
G1 X37.003 Y14.691 E3.78127
G1 X36.506 Y14.133 E3.80488
G1 X36.07 Y13.524 E3.82855
G1 X35.703 Y12.873 E3.85216
G1 X35.407 Y12.186 E3.8758
G1 X35.186 Y11.471 E3.89945
G1 X35.042 Y10.737 E3.92308
G1 X34.974 Y9.763 E3.95393
G1 X34.974 Y8.728 E3.98663
G1 X35.014 Y7.981 E4.01027
G1 X35.133 Y7.243 E4.03389
G1 X35.331 Y6.521 E4.05755
G1 X35.604 Y5.825 E4.08117
G1 X35.951 Y5.162 E4.10481
G1 X36.366 Y4.539 E4.12847
G1 X37.024 Y3.778 E4.16025
G1 X37.141 Y3.661 E4.16548
G1 X37.698 Y3.161 E4.18913
G1 X38.304 Y2.724 E4.21274
G1 X38.954 Y2.353 E4.23639
G1 X39.64 Y2.054 E4.26003
G1 X40.354 Y1.83 E4.28368
G1 X41.087 Y1.683 E4.3073
G1 X42.091 Y1.611 E4.3391
G1 X44.785 Y1.611 E4.42423
G1 X45.841 Y1.691 E4.45769
G1 X46.49 Y1.79 E4.47843
G1 X47.368 Y1.983 E4.50684
G1 X48.154 Y2.209 E4.53268
G1 X48.861 Y2.453 E4.55631
G1 X49.222 Y2.612 E4.56877
G1 X49.835 Y2.903 E4.59022
G1 X50.761 Y3.433 E4.62393
G1 X51.202 Y3.732 E4.64076
G1 X51.798 Y4.184 E4.6644
G1 X52.091 Y4.447 E4.67684
G1 X52.518 Y4.852 E4.69543
G1 X53.033 Y5.395 E4.71908
G1 X53.345 Y5.791 E4.73501
G1 X53.725 Y6.309 E4.75531
G1 X53.913 Y6.578 E4.76568
G1 X54.355 Y7.34 E4.79351
G1 X54.614 Y7.86 E4.81187
G1 X55.008 Y8.827 E4.84486
G1 X55.205 Y9.436 E4.86509
G1 X55.422 Y10.284 E4.89274
G1 X55.546 Y10.937 E4.91375
G1 X55.627 Y11.479 E4.93106
G1 X55.665 Y11.825 E4.94206
G1 X55.707 Y12.589 E4.96624
G1 X55.707 Y24.598 E5.34569
G1 X55.702 Y24.852 E5.35371
G1 X55.673 Y25.65 E5.37894
G1 X55.633 Y26.185 E5.3959
G1 X55.545 Y26.961 E5.42057
G1 X55.469 Y27.47 E5.43683
G1 X55.322 Y28.249 E5.46188
G1 X55.205 Y28.761 E5.47848
G1 X55.001 Y29.523 E5.5034
G1 X54.848 Y30.02 E5.51983
G1 X54.627 Y30.653 E5.54102
G1 X54.521 Y30.936 E5.55057
G1 X54.329 Y31.418 E5.56696
G1 X54.129 Y31.873 E5.58267
G1 X53.784 Y32.587 E5.60772
G1 X53.547 Y33.036 E5.62376
G1 X53.153 Y33.72 E5.6487
G1 X52.879 Y34.158 E5.66503
G1 X52.433 Y34.815 E5.69012
G1 X52.103 Y35.261 E5.70765
G1 X51.61 Y35.876 E5.73256
G1 X51.114 Y36.448 E5.75648
G1 X50.843 Y36.733 E5.7689
G1 X50.292 Y37.288 E5.79362
G1 X49.885 Y37.666 E5.81117
G1 X49.283 Y38.183 E5.83624
G1 X48.884 Y38.502 E5.85238
G1 X48.343 Y38.902 E5.87364
G1 X48.089 Y39.081 E5.88346
G1 X47.655 Y39.373 E5.89999
G1 X47.24 Y39.631 E5.91543
G1 X46.561 Y40.022 E5.94018
G1 X46.102 Y40.264 E5.95658
G1 X45.391 Y40.606 E5.98151
G1 X44.922 Y40.811 E5.99768
G1 X44.183 Y41.102 E6.02278
G1 X43.678 Y41.279 E6.03968
G1 X43.035 Y41.477 E6.06094
G1 X42.734 Y41.562 E6.07083
G1 X42.237 Y41.691 E6.08705
G1 X41.787 Y41.793 E6.10163
G1 X41.004 Y41.942 E6.12681
G1 X40.482 Y42.021 E6.1435
G1 X39.819 Y42.096 E6.16458
G1 X39.056 Y42.154 E6.18876
G1 X39.325 Y42.714 E6.20839
G1 X39.528 Y43.177 E6.22436
G1 X39.819 Y43.914 E6.2494
G1 X39.998 Y44.425 E6.2665
G1 X40.196 Y45.068 E6.28776
G1 X40.283 Y45.376 E6.29788
G1 X40.412 Y45.875 E6.31416
G1 X40.512 Y46.319 E6.32854
G1 X40.66 Y47.097 E6.35357
G1 X40.738 Y47.615 E6.37012
G1 X40.814 Y48.284 E6.39139
G1 X40.843 Y48.596 E6.40129
G1 X40.878 Y49.107 E6.41748
G1 X40.9 Y49.86 E6.44128
G1 X40.9 Y58.985 E6.7296
G1 X40.903 Y60.161 E6.76676
G1 X40.898 Y62.008 E6.82512
G1 X40.852 Y62.791 E6.8499
G1 X40.791 Y63.32 E6.86673
G1 X40.664 Y64.066 E6.89064
G1 X40.513 Y64.732 E6.91222
G1 X40.244 Y65.632 E6.9419
G1 X40.035 Y66.192 E6.96079
G1 X39.622 Y67.096 E6.99219
G1 X39.346 Y67.602 E7.0104
G1 X38.953 Y68.239 E7.03405
G1 X38.732 Y68.541 E7.04588
G1 X38.393 Y68.978 E7.06335
G1 X37.903 Y69.543 E7.08698
G1 X37.619 Y69.822 E7.09956
G1 X37.211 Y70.2 E7.11713
G1 X36.636 Y70.678 E7.14076
G1 X36.21 Y70.972 E7.15712
G1 X35.606 Y71.356 E7.17973
G1 X34.954 Y71.723 E7.20337
G1 X34.533 Y71.914 E7.21798
G1 X33.892 Y72.18 E7.23991
G1 X33.013 Y72.479 E7.26924
G1 X32.413 Y72.639 E7.28887
G1 X31.717 Y72.787 E7.31135
G1 X31.193 Y72.871 E7.32812
G1 X30.646 Y72.937 E7.34553
G1 X30.534 Y72.946 E7.34908
G1 X29.973 Y72.968 E7.36682
G1 X27.282 Y72.968 E7.45184
G1 X26.535 Y72.928 E7.47548
G1 X25.797 Y72.809 E7.4991
G1 X25.075 Y72.611 E7.52276
G1 X24.379 Y72.338 E7.54638
G1 X23.716 Y71.991 E7.57002
G1 X23.093 Y71.576 E7.59368
G1 X22.332 Y70.918 E7.62546
G1 X22.215 Y70.801 E7.63069
G1 X21.715 Y70.244 E7.65434
G1 X21.278 Y69.638 E7.67795
G1 X20.907 Y68.988 E7.7016
G1 X20.608 Y68.302 E7.72524
G1 X20.384 Y67.588 E7.74889
G1 X20.237 Y66.855 E7.77251
G1 X20.165 Y65.851 E7.80431
G1 X20.165 Y64.817 E7.83698
G1 X20.205 Y64.07 E7.86062
G1 X20.324 Y63.332 E7.88424
G1 X20.522 Y62.61 E7.9079
G1 X20.795 Y61.914 E7.93152
G1 X21.142 Y61.251 E7.95516
G1 X21.557 Y60.628 E7.97882
G1 X22.215 Y59.867 E8.0106
G1 X22.332 Y59.75 E8.01583
G1 X22.889 Y59.25 E8.03948
G1 X23.495 Y58.813 E8.06309
G1 X24.145 Y58.442 E8.08674
G1 X24.831 Y58.143 E8.11038
G1 X25.545 Y57.919 E8.13403
G1 X25.727 Y57.883 E8.13989
G1 X25.726 Y50.071 E8.38673
G1 X25.661 Y49.451 E8.40642
G1 X25.469 Y48.913 E8.42447
G1 X25.194 Y48.479 E8.44071
G1 X24.824 Y48.107 E8.45729
G1 X24.361 Y47.817 E8.47455
G1 X23.878 Y47.643 E8.49077
G1 X23.202 Y47.572 E8.51225
G1 X16.721 Y47.572 E8.71703
G1 X16.222 Y47.61 E8.73284
G1 X15.727 Y47.749 E8.74909
G1 X15.257 Y47.999 E8.76591
G1 X14.829 Y48.373 E8.78387
G1 X14.519 Y48.805 E8.80067
G1 X14.304 Y49.315 E8.81816
G1 X14.215 Y49.83 E8.83467
G1 X14.206 Y50.083 E8.84267
G1 X14.205 Y57.879 E9.089
G1 X14.866 Y58.06 E9.11065
G1 X15.562 Y58.335 E9.1343
G1 X16.224 Y58.682 E9.15792
G1 X16.846 Y59.098 E9.18156
G1 X17.62 Y59.772 E9.21399
G1 X17.736 Y59.889 E9.2192
G1 X18.233 Y60.447 E9.24281
G1 X18.669 Y61.056 E9.26647
G1 X19.036 Y61.707 E9.29009
G1 X19.332 Y62.394 E9.31372
G1 X19.553 Y63.109 E9.33737
G1 X19.697 Y63.843 E9.361
G1 X19.765 Y64.817 E9.39185
G1 X19.765 Y65.851 E9.42452
G1 X19.725 Y66.598 E9.44816
G1 X19.606 Y67.336 E9.47178
G1 X19.408 Y68.058 E9.49544
G1 X19.135 Y68.754 E9.51906
G1 X18.788 Y69.417 E9.5427
G1 X18.373 Y70.04 E9.56636
G1 X17.715 Y70.801 E9.59814
G1 X17.598 Y70.918 E9.60337
G1 X17.041 Y71.418 E9.62702
G1 X16.435 Y71.855 E9.65063
G1 X15.785 Y72.226 E9.67428
G1 X15.099 Y72.525 E9.69792
G1 X14.385 Y72.749 E9.72157
G1 X13.652 Y72.896 E9.74519
G1 X12.648 Y72.968 E9.77699
G1 X9.953 Y72.968 E9.86215
G1 X8.906 Y72.889 E9.89532
G1 X8.265 Y72.792 E9.91581
G1 X7.504 Y72.634 E9.94037
G1 X6.913 Y72.476 E9.9597
G1 X6.14 Y72.22 E9.98543
G1 X5.603 Y72.007 E10.00368
G1 X4.757 Y71.604 E10.03329
G1 X4.285 Y71.339 E10.05039
G1 X3.653 Y70.938 E10.07404
G1 X3.35 Y70.71 E10.08602
G1 X2.868 Y70.326 E10.1055
G1 X2.682 Y70.166 E10.11325
G1 X2.582 Y70.252 E10.11742
G1 X1.955 Y70.752 E10.14276
G1 X1.525 Y71.069 E10.15964
G1 X0.87 Y71.514 E10.18466
G1 X0.436 Y71.786 E10.20084
G1 X-.25 Y72.182 E10.22587
G1 X-.726 Y72.433 E10.24287
G1 X-1.438 Y72.774 E10.26782
G1 X-1.893 Y72.973 E10.28351
G1 X-2.623 Y73.261 E10.3083
G1 X-3.131 Y73.439 E10.32531
G1 X-3.751 Y73.63 E10.34581
G1 X-4.054 Y73.716 E10.35576
G1 X-4.582 Y73.853 E10.373
G1 X-5.03 Y73.953 E10.3875
G1 X-5.807 Y74.101 E10.41249
G1 X-6.329 Y74.181 E10.42918
G1 X-6.991 Y74.256 E10.45023
G1 X-7.309 Y74.284 E10.46032
G1 X-7.829 Y74.319 E10.47679
G1 X-8.569 Y74.341 E10.50018
G1 X-15.39 Y74.341 E10.7157
G1 X-15.643 Y74.336 E10.7237
G1 X-16.441 Y74.307 E10.74893
G1 X-16.976 Y74.267 E10.76588
G1 X-17.752 Y74.179 E10.79056
G1 X-18.25 Y74.105 E10.80646
G1 X-18.913 Y73.981 E10.82778
G1 X-19.232 Y73.913 E10.83808
G1 X-19.741 Y73.793 E10.85461
G1 X-20.197 Y73.67 E10.86953
G1 X-20.833 Y73.474 E10.89056
G1 X-21.132 Y73.374 E10.90052
G1 X-21.626 Y73.197 E10.9171
G1 X-22.07 Y73.021 E10.93219
G1 X-22.788 Y72.707 E10.95695
G1 X-23.26 Y72.479 E10.97352
G1 X-23.966 Y72.105 E10.99876
G1 X-24.415 Y71.845 E11.01515
G1 X-25.083 Y71.425 E11.04009
G1 X-25.513 Y71.132 E11.05653
G1 X-26.15 Y70.662 E11.08154
G1 X-26.564 Y70.331 E11.09829
G1 X-27.158 Y69.819 E11.12307
G1 X-27.529 Y69.476 E11.13903
G1 X-28.084 Y68.923 E11.16379
G1 X-28.45 Y68.528 E11.1808
G1 X-28.978 Y67.914 E11.20639
G1 X-29.309 Y67.498 E11.22319
G1 X-29.774 Y66.866 E11.24798
G1 X-30.065 Y66.44 E11.26428
G1 X-30.485 Y65.771 E11.28924
G1 X-30.745 Y65.32 E11.30569
G1 X-31.115 Y64.62 E11.33071
G1 X-31.341 Y64.15 E11.34719
G1 X-31.661 Y63.417 E11.37246
G1 X-31.859 Y62.912 E11.3896
G1 X-32.118 Y62.166 E11.41455
G1 X-32.264 Y61.689 E11.43031
G1 X-32.471 Y60.92 E11.45547
G1 X-32.592 Y60.39 E11.47265
G1 X-32.737 Y59.616 E11.49753
G1 X-32.812 Y59.116 E11.51351
G1 X-32.887 Y58.455 E11.53453
G1 X-32.916 Y58.137 E11.54462
G1 X-32.951 Y57.618 E11.56105
G1 X-32.973 Y56.883 E11.58429
G1 X-32.973 Y47.755 E11.87271
G1 X-32.976 Y46.579 E11.90986
G1 X-32.971 Y44.732 E11.96822
G1 X-32.925 Y43.951 E11.99294
G1 X-32.864 Y43.421 E12.0098
G1 X-32.737 Y42.673 E12.03377
G1 X-32.586 Y42.007 E12.05535
G1 X-32.318 Y41.11 E12.08493
G1 X-32.11 Y40.552 E12.10375
G1 X-31.701 Y39.654 E12.13493
G1 X-31.426 Y39.148 E12.15312
G1 X-31.035 Y38.511 E12.17674
G1 X-30.796 Y38.186 E12.18949
G1 X-30.456 Y37.75 E12.20696
G1 X-29.711 Y36.937 E12.2418
G1 X-29.308 Y36.561 E12.25922
G1 X-28.735 Y36.08 E12.28285
G1 X-28.29 Y35.773 E12.29994
G1 X-27.669 Y35.378 E12.32319
G1 X-27.17 Y35.088 E12.34143
G1 X-26.452 Y34.759 E12.36638
G1 X-25.708 Y34.467 E12.39164
G1 X-24.998 Y34.231 E12.41528
G1 X-24.62 Y34.139 E12.42757
G1 X-23.772 Y33.957 E12.45497
G1 X-23.099 Y33.846 E12.47653
G1 X-22.837 Y33.816 E12.48486
G1 X-22.041 Y33.771 E12.51005
G1 X-19.355 Y33.771 E12.59492
G1 X-18.608 Y33.811 E12.61856
G1 X-17.87 Y33.93 E12.64218
G1 X-17.148 Y34.128 E12.66583
G1 X-16.452 Y34.401 E12.68946
G1 X-16.418 Y34.419 E12.69067
G1 X-16.5 Y33.944 E12.7059
G1 X-16.581 Y33.299 E12.72644
G1 X-16.589 Y33.197 E12.72967
G1 X-16.61 Y32.65 E12.74697
G1 X-16.61 Y29.955 E12.83213
G1 X-16.57 Y29.208 E12.85576
G1 X-16.451 Y28.47 E12.87938
G1 X-16.253 Y27.748 E12.90304
G1 X-15.98 Y27.052 E12.92666
G1 X-15.633 Y26.389 E12.9503
G1 X-15.218 Y25.766 E12.97396
G1 X-14.56 Y25.005 E13.00574
G1 X-14.443 Y24.888 E13.01097
G1 X-13.886 Y24.388 E13.03462
G1 X-13.28 Y23.951 E13.05823
G1 X-12.63 Y23.58 E13.08188
G1 X-11.944 Y23.281 E13.10552
G1 X-11.23 Y23.057 E13.12917
G1 X-10.497 Y22.91 E13.15279
G1 X-9.493 Y22.838 E13.1846
G1 X-8.459 Y22.838 E13.21727
G1 X-7.712 Y22.878 E13.2409
G1 X-6.974 Y22.997 E13.26452
G1 X-6.252 Y23.195 E13.28818
G1 X-5.556 Y23.468 E13.3118
G1 X-4.893 Y23.815 E13.33545
G1 X-4.27 Y24.23 E13.3591
G1 X-3.509 Y24.888 E13.39089
G1 X-3.392 Y25.005 E13.39611
G1 X-2.892 Y25.562 E13.41976
G1 X-2.455 Y26.168 E13.44337
G1 X-2.084 Y26.818 E13.46702
G1 X-1.785 Y27.504 E13.49067
G1 X-1.561 Y28.218 E13.51431
G1 X-1.525 Y28.4 E13.52017
G1 X6.271 Y28.399 E13.7665
G1 X6.907 Y28.334 E13.7867
G1 X7.443 Y28.143 E13.80468
G1 X7.892 Y27.856 E13.82152
G1 X8.255 Y27.49 E13.83781
G1 X8.548 Y27.021 E13.85528
G1 X8.716 Y26.547 E13.87117
G1 X8.786 Y25.87 E13.89268
G1 X8.786 Y19.377 E14.09784
G1 X8.724 Y18.769 E14.11715
G1 X8.544 Y18.249 E14.13453
G1 X8.237 Y17.767 E14.15259
G1 X7.89 Y17.421 E14.16807
G1 X7.415 Y17.12 E14.18584
G1 X6.927 Y16.947 E14.2022
G1 X6.262 Y16.879 E14.22332
G1 X-1.521 Y16.878 E14.46924
G1 X-1.702 Y17.538 E14.49087
G1 X-1.977 Y18.234 E14.51451
G1 X-2.324 Y18.896 E14.53813
G1 X-2.74 Y19.518 E14.56178
G1 X-3.392 Y20.271 E14.59325
G1 X-3.509 Y20.388 E14.59848
G1 X-4.066 Y20.888 E14.62213
G1 X-4.672 Y21.325 E14.64573
G1 X-5.322 Y21.696 E14.66938
G1 X-6.008 Y21.995 E14.69303
G1 X-6.722 Y22.219 E14.71667
G1 X-7.455 Y22.366 E14.74029
G1 X-8.459 Y22.438 E14.7721
G1 X-9.493 Y22.438 E14.80477
G1 X-10.24 Y22.398 E14.82841
G1 X-10.978 Y22.279 E14.85203
G1 X-11.7 Y22.081 E14.87568
G1 X-12.396 Y21.808 E14.8993
G1 X-13.059 Y21.461 E14.92295
G1 X-13.682 Y21.046 E14.9466
G1 X-14.443 Y20.388 E14.97839
G1 X-14.56 Y20.271 E14.98362
G1 X-15.06 Y19.714 E15.00727
G1 X-15.497 Y19.108 E15.03087
G1 X-15.868 Y18.458 E15.05452
G1 X-16.167 Y17.772 E15.07817
G1 X-16.391 Y17.058 E15.10181
G1 X-16.538 Y16.325 E15.12543
G1 X-16.61 Y15.321 E15.15724
G1 X-16.61 Y12.626 E15.24239
G1 X-16.531 Y11.579 E15.27557
G1 X-16.434 Y10.938 E15.29605
G1 X-16.277 Y10.184 E15.32039
G1 X-16.121 Y9.598 E15.33955
G1 X-15.868 Y8.829 E15.36513
G1 X-15.658 Y8.297 E15.3832
G1 X-15.248 Y7.435 E15.41336
G1 X-14.974 Y6.948 E15.43102
G1 X-14.351 Y6.023 E15.46626
G1 X-13.974 Y5.549 E15.48539
G1 X-13.599 Y5.115 E15.50352
G1 X-13.063 Y4.598 E15.52705
G1 X-12.61 Y4.206 E15.54598
G1 X-12.154 Y3.843 E15.56439
G1 X-11.645 Y3.503 E15.58373
G1 X-11.162 Y3.21 E15.60158
G1 X-10.184 Y2.717 E15.63619
G1 X-9.615 Y2.484 E15.65562
G1 X-8.727 Y2.188 E15.68519
G1 X-8.086 Y2.021 E15.70612
G1 X-7.304 Y1.864 E15.73132
G1 X-6.74 Y1.784 E15.74932
