;FLAVOR:Marlin
;TIME:5838
;Filament used: 4.78573m
;Layer height: 0.2
;MINX:-26.778
;MINY:-52.418
;MINZ:0.2
;MAXX:57.893
;MAXY:73.853
;MAXZ:70.2
;Generated with Cura_SteamEngine 4.10.0
M104 S205
M105
M109 S205
M82 ;absolute extrusion mode
G21        ;metric values
G90        ;absolute positioning
M107       ;start with the fan off
G28   ;move to endstops

;Z-Offset Reset und dann Z +0,1 für PLA
;MacroZOffset0
;MacroZOffsetPlus0100

G92 E0                  ;zero the extruded length
G1 F200 E3              ;extrude 3mm of feed stock
G92 E0                  ;zero the extruded length again
G1 F120
;Put printing message on LCD screen
M117 Printing...
G92 E0
G92 E0
G1 F2400 E-6
;LAYER_COUNT:351
;LAYER:0
M107
M204 S4000
G0 F1200 X-15.112 Y4.016 Z0.2
M204 S1800
;TYPE:SKIRT
G1 F2400 E0
G1 F600 X-15.98 Y1.443 E0.0858
G1 X-16.935 Y-1.146 E0.17299
G1 X-17.949 Y-3.671 E0.25897
G1 X-19.032 Y-6.161 E0.34477
G1 X-20.18 Y-8.609 E0.4302
G1 X-21.426 Y-11.082 E0.5177
G1 X-22.709 Y-13.461 E0.6031
G1 X-24.428 Y-16.416 E0.71112
G1 X-24.956 Y-17.287 E0.7433
G1 X-25.199 Y-17.765 E0.76025
G1 X-25.381 Y-18.324 E0.77882
G1 X-25.649 Y-19.456 E0.81558
G1 X-25.77 Y-19.999 E0.83316
G1 X-26.309 Y-22.133 E0.9027
G1 X-26.323 Y-22.211 E0.9052
G1 X-26.65 Y-23.459 E0.94597
G1 X-26.747 Y-23.987 E0.96293
G1 X-26.776 Y-24.598 E0.98226
G1 X-26.778 Y-24.706 E0.98567
G1 X-26.778 Y-30.325 E1.16322
G1 X-26.767 Y-31.032 E1.18556
G1 X-26.666 Y-31.824 E1.21079
G1 X-26.604 Y-32.075 E1.21896
G1 X-26.006 Y-34.38 E1.2942
G1 X-25.382 Y-37.095 E1.38222
G1 X-24.849 Y-39.748 E1.46772
G1 X-24.393 Y-42.432 E1.55374
G1 X-24.013 Y-45.111 E1.63924
G1 X-23.669 Y-48.139 E1.73553
G1 X-23.586 Y-48.613 E1.75074
G1 X-23.415 Y-49.121 E1.76767
G1 X-23.17 Y-49.599 E1.78465
G1 X-22.858 Y-50.034 E1.80156
G1 X-22.482 Y-50.42 E1.81859
G1 X-22.352 Y-50.535 E1.82407
G1 X-21.925 Y-50.86 E1.84103
G1 X-21.455 Y-51.117 E1.85795
G1 X-20.951 Y-51.302 E1.87492
G1 X-20.297 Y-51.424 E1.89594
G1 X-19.529 Y-51.495 E1.92031
G1 X-16.777 Y-51.788 E2.00775
G1 X-12.846 Y-52.346 E2.13321
G1 X-12.674 Y-52.374 E2.13871
G1 X-11.971 Y-52.418 E2.16097
G1 X-10.689 Y-52.372 E2.2015
G1 X-9.946 Y-52.339 E2.225
G1 X-9.346 Y-52.262 E2.24412
G1 X-8.368 Y-52.051 E2.27573
G1 X-5.677 Y-51.508 E2.36247
G1 X-2.993 Y-51.046 E2.44853
G1 X-.279 Y-50.657 E2.53516
G1 X2.422 Y-50.349 E2.62105
G1 X5.149 Y-50.114 E2.70754
G1 X7.874 Y-49.958 E2.79378
G1 X10.574 Y-49.879 E2.87913
G1 X12.055 Y-49.868 E2.92593
G1 X19.724 Y-49.868 E3.16824
G1 X22.504 Y-49.907 E3.25609
G1 X25.233 Y-50.023 E3.3424
G1 X27.962 Y-50.217 E3.42885
G1 X30.639 Y-50.482 E3.51385
G1 X33.378 Y-50.832 E3.60109
G1 X36.056 Y-51.253 E3.68675
G1 X38.719 Y-51.748 E3.77233
G1 X40.718 Y-52.18 E3.83695
G1 X41.2 Y-52.276 E3.85248
G1 X41.797 Y-52.343 E3.87147
G1 X42.208 Y-52.354 E3.88446
G1 X49.53 Y-52.355 E4.11581
G1 X50.24 Y-52.345 E4.13825
G1 X50.774 Y-52.297 E4.15519
G1 X51.295 Y-52.171 E4.17212
G1 X51.792 Y-51.969 E4.18908
G1 X52.253 Y-51.695 E4.20602
G1 X52.846 Y-51.174 E4.23096
G1 X52.942 Y-51.069 E4.23546
G1 X53.273 Y-50.648 E4.25238
G1 X53.538 Y-50.181 E4.26935
G1 X53.731 Y-49.681 E4.28628
G1 X53.859 Y-49.075 E4.30585
G1 X53.968 Y-48.179 E4.33437
G1 X54.333 Y-45.488 E4.42018
G1 X54.778 Y-42.786 E4.5067
G1 X55.298 Y-40.106 E4.59296
G1 X55.888 Y-37.467 E4.67841
G1 X56.56 Y-34.808 E4.76506
G1 X57.301 Y-32.199 E4.85076
G1 X57.615 Y-31.186 E4.88427
G1 X57.737 Y-30.771 E4.89794
G1 X57.849 Y-30.247 E4.91487
G1 X57.891 Y-29.532 E4.9375
G1 X57.893 Y-29.424 E4.94091
G1 X57.893 Y-23.21 E5.13726
G1 X57.883 Y-22.507 E5.15947
G1 X57.835 Y-21.973 E5.17641
G1 X57.709 Y-21.451 E5.19338
G1 X57.451 Y-20.849 E5.21408
G1 X56.825 Y-19.689 E5.25573
G1 X55.541 Y-17.228 E5.34343
G1 X54.346 Y-14.776 E5.42962
G1 X53.969 Y-13.94 E5.4586
G1 X53.543 Y-13.032 E5.49029
G1 X53.28 Y-12.565 E5.50722
G1 X52.95 Y-12.142 E5.52418
G1 X52.309 Y-11.554 E5.55166
G1 X50.817 Y-10.313 E5.61298
G1 X48.774 Y-8.515 E5.69897
G1 X46.779 Y-6.657 E5.78511
G1 X44.84 Y-4.743 E5.8712
G1 X42.938 Y-2.76 E5.95802
G1 X41.142 Y-.777 E6.04255
G1 X39.345 Y1.324 E6.12991
G1 X37.641 Y3.434 E6.21561
G1 X35.954 Y5.649 E6.30358
G1 X34.409 Y7.802 E6.38731
G1 X32.871 Y10.077 E6.47408
G1 X31.402 Y12.387 E6.56058
G1 X30.004 Y14.732 E6.64684
G1 X28.674 Y17.109 E6.73291
G1 X27.424 Y19.503 E6.81824
G1 X26.22 Y21.978 E6.90521
G1 X25.099 Y24.455 E6.99111
G1 X24.045 Y26.973 E7.07737
G1 X23.049 Y29.55 E7.16466
G1 X22.159 Y32.073 E7.2492
G1 X21.315 Y34.695 E7.33623
G1 X20.556 Y37.301 E7.42199
G1 X19.874 Y39.916 E7.50738
G1 X19.251 Y42.613 E7.59484
G1 X18.711 Y45.293 E7.68123
G1 X18.261 Y47.925 E7.7656
G1 X17.869 Y50.661 E7.85293
G1 X17.562 Y53.36 E7.93876
G1 X17.329 Y56.086 E8.02521
G1 X17.174 Y58.781 E8.1105
G1 X17.094 Y61.576 E8.19885
G1 X17.084 Y63.027 E8.2447
G1 X17.124 Y65.812 E8.33271
G1 X17.201 Y67.79 E8.39526
G1 X17.256 Y68.901 E8.4304
G1 X17.273 Y69.79 E8.4585
G1 X17.268 Y70.3 E8.47461
G1 X17.219 Y70.834 E8.49156
G1 X17.092 Y71.355 E8.5085
G1 X16.889 Y71.851 E8.52543
G1 X16.615 Y72.312 E8.54238
G1 X16.275 Y72.727 E8.55933
G1 X15.877 Y73.086 E8.57627
G1 X15.431 Y73.383 E8.5932
G1 X14.945 Y73.61 E8.61015
G1 X14.43 Y73.762 E8.62711
G1 X13.769 Y73.843 E8.64816
G1 X13.348 Y73.853 E8.66146
G1 X4.537 Y73.853 E8.93986
G1 X3.836 Y73.843 E8.96202
G1 X3.229 Y73.782 E8.98129
G1 X2.526 Y73.651 E9.00389
G1 X-.162 Y73.191 E9.09005
G1 X-2.881 Y72.804 E9.17683
G1 X-5.588 Y72.497 E9.26291
G1 X-6.499 Y72.419 E9.2918
G1 X-7.432 Y72.325 E9.32143
G1 X-7.96 Y72.232 E9.33837
G1 X-8.468 Y72.061 E9.35531
G1 X-8.946 Y71.816 E9.37228
G1 X-9.381 Y71.504 E9.3892
G1 X-9.766 Y71.13 E9.40616
G1 X-10.091 Y70.703 E9.42311
G1 X-10.348 Y70.233 E9.44004
G1 X-10.533 Y69.729 E9.457
G1 X-10.641 Y69.204 E9.47394
G1 X-10.678 Y68.54 E9.49495
G1 X-10.68 Y68.382 E9.49994
G1 X-10.667 Y67.602 E9.52459
G1 X-10.625 Y66.622 E9.55559
G1 X-10.573 Y65.703 E9.58467
G1 X-10.486 Y61.576 E9.7151
G1 X-10.486 Y33.571 E10.59998
G1 X-10.525 Y30.79 E10.68786
G1 X-10.641 Y28.061 E10.77417
G1 X-10.835 Y25.332 E10.86061
G1 X-11.1 Y22.655 E10.94561
G1 X-11.45 Y19.917 E11.03283
G1 X-11.871 Y17.239 E11.11848
G1 X-12.369 Y14.56 E11.20458
G1 X-12.933 Y11.943 E11.28917
G1 X-13.598 Y9.227 E11.37752
G1 X-14.318 Y6.608 E11.46335
G1 X-15.112 Y4.016 E11.549
M204 S4000
G0 F1200 X-14.737 Y3.876
M204 S1800
G1 F600 X-15.612 Y1.281 E11.63553
G1 X-16.548 Y-1.255 E11.72095
G1 X-17.582 Y-3.831 E11.80865
G1 X-18.667 Y-6.325 E11.89459
G1 X-19.833 Y-8.809 E11.98129
G1 X-21.059 Y-11.246 E12.06749
G1 X-22.37 Y-13.674 E12.15468
G1 X-24.065 Y-16.589 E12.26122
G1 X-24.614 Y-17.494 E12.29467
G1 X-24.841 Y-17.946 E12.31065
G1 X-24.992 Y-18.416 E12.32625
G1 X-25.259 Y-19.544 E12.36288
G1 X-25.385 Y-20.105 E12.38104
G1 X-25.921 Y-22.231 E12.45032
G1 X-25.933 Y-22.305 E12.45269
G1 X-26.263 Y-23.561 E12.49372
G1 X-26.367 Y-24.277 E12.51658
G1 X-26.378 Y-24.706 E12.53014
G1 X-26.378 Y-30.319 E12.7075
G1 X-26.367 Y-31.026 E12.72984
G1 X-26.277 Y-31.729 E12.75223
G1 X-26.217 Y-31.974 E12.7602
G1 X-25.615 Y-34.294 E12.83594
G1 X-24.995 Y-36.991 E12.92338
G1 X-24.456 Y-39.674 E13.00985
G1 X-23.996 Y-42.38 E13.09657
G1 X-23.618 Y-45.047 E13.18169
G1 X-23.272 Y-48.089 E13.27842
G1 X-23.191 Y-48.542 E13.29297
G1 X-23.023 Y-49.019 E13.30894
G1 X-22.783 Y-49.464 E13.32492
G1 X-22.475 Y-49.865 E13.3409
G1 X-22.087 Y-50.236 E13.35786
G1 X-21.683 Y-50.54 E13.37383
G1 X-21.237 Y-50.776 E13.38978
G1 X-20.758 Y-50.94 E13.40578
G1 X-20.26 Y-51.026 E13.42174
G1 X-19.455 Y-51.1 E13.44729
G1 X-16.738 Y-51.39 E13.53362
G1 X-12.783 Y-51.951 E13.65984
G1 X-12.611 Y-51.979 E13.66535
G1 X-11.985 Y-52.018 E13.68517
G1 X-10.433 Y-51.96 E13.73424
G1 X-9.964 Y-51.94 E13.74907
G1 X-9.43 Y-51.871 E13.76608
G1 X-8.453 Y-51.66 E13.79767
G1 X-5.752 Y-51.115 E13.88473
G1 X-3.046 Y-50.649 E13.97149
G1 X-.314 Y-50.258 E14.05869
G1 X2.379 Y-49.95 E14.14434
G1 X5.093 Y-49.717 E14.23041
G1 X7.839 Y-49.56 E14.31732
G1 X10.604 Y-49.479 E14.40472
G1 X12.053 Y-49.468 E14.45051
G1 X19.73 Y-49.468 E14.69308
G1 X22.527 Y-49.508 E14.78146
G1 X25.244 Y-49.623 E14.86739
G1 X27.99 Y-49.818 E14.95437
G1 X30.696 Y-50.086 E15.04029
G1 X33.419 Y-50.434 E15.12703
G1 X36.12 Y-50.859 E15.21343
G1 X38.805 Y-51.358 E15.29972
G1 X40.796 Y-51.787 E15.36407
G1 X41.278 Y-51.883 E15.3796
G1 X41.809 Y-51.944 E15.39649
G1 X42.208 Y-51.954 E15.4091
G1 X49.524 Y-51.955 E15.64026
G1 X50.234 Y-51.945 E15.6627
G1 X50.737 Y-51.898 E15.67866
G1 X51.227 Y-51.772 E15.69465
G1 X51.691 Y-51.571 E15.71063
G1 X52.117 Y-51.299 E15.7266
G1 X52.551 Y-50.904 E15.74514
G1 X52.647 Y-50.799 E15.74963
G1 X52.957 Y-50.4 E15.7656
G1 X53.201 Y-49.958 E15.78155
G1 X53.372 Y-49.482 E15.79753
G1 X53.462 Y-49.026 E15.81222
G1 X53.571 Y-48.13 E15.84074
G1 X53.94 Y-45.406 E15.9276
G1 X54.384 Y-42.717 E16.01371
G1 X54.902 Y-40.048 E16.09962
G1 X55.504 Y-37.354 E16.18684
G1 X56.173 Y-34.706 E16.27314
G1 X56.912 Y-32.102 E16.35867
G1 X57.231 Y-31.074 E16.39268
G1 X57.353 Y-30.659 E16.40634
G1 X57.457 Y-30.164 E16.42233
G1 X57.492 Y-29.52 E16.4427
G1 X57.493 Y-23.215 E16.64192
G1 X57.483 Y-22.512 E16.66414
G1 X57.436 Y-22.009 E16.6801
G1 X57.31 Y-21.519 E16.69609
G1 X57.099 Y-21.039 E16.71266
G1 X56.471 Y-19.874 E16.75447
G1 X55.185 Y-17.409 E16.84232
G1 X53.986 Y-14.95 E16.92876
G1 X53.607 Y-14.11 E16.95788
G1 X53.181 Y-13.202 E16.98957
G1 X52.931 Y-12.763 E17.00554
G1 X52.615 Y-12.368 E17.02152
G1 X52.048 Y-11.858 E17.04562
G1 X50.562 Y-10.622 E17.10669
G1 X48.52 Y-8.824 E17.19266
G1 X46.49 Y-6.934 E17.2803
G1 X44.571 Y-5.04 E17.36549
G1 X42.653 Y-3.04 E17.45305
G1 X40.825 Y-1.021 E17.5391
G1 X39.031 Y1.075 E17.62628
G1 X37.328 Y3.185 E17.71195
G1 X35.664 Y5.37 E17.79874
G1 X34.058 Y7.607 E17.88575
G1 X32.529 Y9.867 E17.97196
G1 X31.063 Y12.173 E18.0583
G1 X29.669 Y14.511 E18.14431
G1 X28.329 Y16.908 E18.23108
G1 X27.054 Y19.35 E18.31813
G1 X25.867 Y21.788 E18.40381
G1 X24.73 Y24.302 E18.49099
G1 X23.674 Y26.823 E18.57735
G1 X22.674 Y29.41 E18.66499
G1 X21.777 Y31.955 E18.75025
G1 X20.933 Y34.576 E18.83725
G1 X20.17 Y37.193 E18.92339
G1 X19.483 Y39.83 E19.00949
G1 X18.862 Y42.515 E19.09657
G1 X18.32 Y45.213 E19.18352
G1 X17.864 Y47.874 E19.26882
G1 X17.47 Y50.63 E19.35679
G1 X17.164 Y53.317 E19.44224
G1 X16.932 Y56.03 E19.52828
G1 X16.774 Y58.78 E19.61531
G1 X16.695 Y61.541 E19.70259
G1 X16.684 Y63.008 E19.74894
G1 X16.723 Y65.778 E19.83648
G1 X16.803 Y67.844 E19.9018
G1 X16.856 Y68.921 E19.93588
G1 X16.873 Y69.797 E19.96356
G1 X16.868 Y70.293 E19.97923
G1 X16.82 Y70.797 E19.99523
G1 X16.694 Y71.286 E20.01119
G1 X16.492 Y71.75 E20.02718
G1 X16.219 Y72.176 E20.04316
G1 X15.883 Y72.553 E20.05912
G1 X15.492 Y72.873 E20.07508
G1 X15.055 Y73.128 E20.09107
G1 X14.583 Y73.31 E20.10705
G1 X14.089 Y73.416 E20.12302
G1 X13.438 Y73.452 E20.14362
G1 X4.542 Y73.453 E20.42471
G1 X3.841 Y73.443 E20.44686
G1 X3.302 Y73.389 E20.46398
G1 X2.601 Y73.259 E20.4865
G1 X-.115 Y72.794 E20.57357
G1 X-2.811 Y72.41 E20.65962
G1 X-5.546 Y72.099 E20.74659
G1 X-6.459 Y72.021 E20.77554
G1 X-7.392 Y71.927 E20.80517
G1 X-7.889 Y71.837 E20.82113
G1 X-8.366 Y71.669 E20.83711
G1 X-8.811 Y71.429 E20.85309
G1 X-9.212 Y71.121 E20.86906
G1 X-9.56 Y70.754 E20.88504
G1 X-9.846 Y70.337 E20.90102
G1 X-10.062 Y69.88 E20.91699
G1 X-10.204 Y69.395 E20.93296
G1 X-10.27 Y68.836 E20.95075
G1 X-10.28 Y68.388 E20.96491
G1 X-10.27 Y67.706 E20.98646
G1 X-10.226 Y66.645 E21.02001
G1 X-10.173 Y65.707 E21.0497
G1 X-10.086 Y61.618 E21.17893
G1 X-10.086 Y33.565 E22.06532
G1 X-10.126 Y30.767 E22.15374
G1 X-10.241 Y28.05 E22.23966
G1 X-10.436 Y25.304 E22.32665
G1 X-10.704 Y22.598 E22.41257
G1 X-11.052 Y19.876 E22.49928
G1 X-11.477 Y17.175 E22.58567
G1 X-11.98 Y14.467 E22.6727
G1 X-12.545 Y11.843 E22.75751
G1 X-13.209 Y9.131 E22.84573
G1 X-13.927 Y6.522 E22.93123
G1 X-14.737 Y3.876 E23.01867
M204 S4000
G1 F2400 E17.01867
G0 F1200 X-22.55 Y-19.06
G0 X-23.839 Y-24.219
G0 X-23.839 Y-31.133
G0 X-22.551 Y-36.306
G0 X-17.307 Y-41.844
M204 S1800
;TYPE:SUPPORT
G1 F2400 E23.01867
G1 F600 X-19.907 Y-41.844 E23.10082
G1 X-19.907 Y-47.646 E23.28415
G1 X-12.646 Y-47.645 E23.51357
G1 X-12.307 Y-47.882 E23.52664
G1 X-12.307 Y-46.483 E23.57085
G1 X-12.547 Y-46.67 E23.58046
G1 X-16.908 Y-46.67 E23.71826
G1 X-17.307 Y-46.271 E23.73609
G1 X-17.307 Y-41.844 E23.87597
M204 S4000
G0 F1200 X-17.466 Y-42.672
M204 S1800
G1 F600 X-19.746 Y-42.672 E23.94801
M204 S4000
G0 F1200 X-18.669 Y-42.004
M204 S1800
G1 F600 X-18.669 Y-47.485 E24.12119
M204 S4000
G0 F1200 X-19.746 Y-45.339
M204 S1800
G1 F600 X-17.466 Y-45.339 E24.19323
M204 S4000
G0 F1200 X-16.002 Y-46.83
M204 S1800
G1 F600 X-16.002 Y-47.485 E24.21393
M204 S4000
G0 F1200 X-13.335 Y-47.485
M204 S1800
G1 F600 X-13.335 Y-46.83 E24.23463
M204 S4000
G1 F2400 E18.23463
;MESH:tcutter_w50mm_body_extended_v02.stl
G0 F1200 X-13.335 Y-38.341
G0 X-13.335 Y-37.256
G0 X-13.908 Y-34.776
M204 S1800
;TYPE:WALL-INNER
G1 F2400 E24.23463
G1 F600 X-14.193 Y-34.491 E24.24736
G1 X-14.193 Y-34.776 E24.24989
G1 X-14.193 Y-37.076 E24.32256
G1 X-13.286 Y-37.076 E24.35122
G1 X-13.285 Y-35.488 E24.4014
G1 X-13.701 Y-34.776 E24.42745
G1 X-13.908 Y-34.776 E24.43399
M204 S4000
G0 F1200 X-14.514 Y-33.919
G0 X-15.222 Y-33.23
G0 X-18.379 Y-21.576
M204 S1800
G1 F600 X-18.381 Y-18.285 E24.53798
G1 X-18.381 Y-18.276 E24.53826
G1 X-18.764 Y-18.276 E24.55036
G1 X-18.772 Y-18.276 E24.55061
G1 X-19.43 Y-18.34 E24.5715
G1 X-20.043 Y-18.52 E24.59169
G1 X-20.609 Y-18.809 E24.61177
G1 X-21.117 Y-19.203 E24.63208
G1 X-21.286 Y-19.382 E24.63986
G1 X-21.286 Y-21.776 E24.7155
G1 X-19.186 Y-21.776 E24.78186
G1 X-19.186 Y-24.976 E24.88297
G1 X-22.578 Y-24.976 E24.99015
G1 X-22.578 Y-30.376 E25.16077
G1 X-19.186 Y-30.376 E25.26795
G1 X-19.186 Y-33.576 E25.36906
G1 X-21.286 Y-33.576 E25.43541
G1 X-21.287 Y-35.958 E25.51068
G1 X-20.859 Y-36.369 E25.52943
G1 X-20.327 Y-36.705 E25.54931
G1 X-19.731 Y-36.94 E25.56955
G1 X-19.089 Y-37.06 E25.59019
G1 X-18.585 Y-37.072 E25.60612
G1 X-18.584 Y-37.073 E25.60616
G1 X-18.381 Y-37.076 E25.61258
G1 X-18.381 Y-36.873 E25.61671
G1 X-18.381 Y-36.872 E25.61674
G1 X-18.379 Y-33.776 E25.71457
G1 X-15.39 Y-33.776 E25.80901
G1 X-14.908 Y-33.776 E25.82424
G1 X-15.249 Y-33.435 E25.83244
G1 X-15.386 Y-33.298 E25.83856
G1 X-15.385 Y-31.076 E25.90877
G1 X33.194 Y-31.076 E27.44373
G1 X33.389 Y-31.063 E27.44991
G1 X33.752 Y-30.964 E27.46179
G1 X34.068 Y-30.78 E27.47335
G1 X34.322 Y-30.525 E27.48472
G1 X34.504 Y-30.207 E27.4963
G1 X34.614 Y-29.651 E27.51421
G1 X34.614 Y-25.714 E27.6386
G1 X34.56 Y-25.306 E27.65161
G1 X34.422 Y-24.977 E27.66288
G1 X34.199 Y-24.688 E27.67441
G1 X33.906 Y-24.465 E27.68605
G1 X33.567 Y-24.325 E27.69764
G1 X33.175 Y-24.276 E27.71012
G1 X-15.386 Y-24.276 E29.24451
G1 X-15.386 Y-22.054 E29.31472
G1 X-15.249 Y-21.917 E29.32084
G1 X-14.908 Y-21.576 E29.33608
G1 X-15.39 Y-21.576 E29.34428
G1 X-18.379 Y-21.576 E29.43872
M204 S4000
G0 F1200 X-14.528 Y-21.398
G0 X-13.908 Y-20.577
M204 S1800
G1 F600 X-13.851 Y-20.577 E29.44052
G1 X-13.701 Y-20.576 E29.44526
G1 X-13.286 Y-19.866 E29.47125
G1 X-13.286 Y-18.276 E29.52149
G1 X-14.193 Y-18.276 E29.55014
G1 X-14.193 Y-20.519 E29.62102
G1 X-14.193 Y-20.576 E29.62282
G1 X-14.194 Y-20.863 E29.63189
G1 X-13.908 Y-20.577 E29.63815
M204 S4000
G0 F1200 X-14.514 Y-21.433
G0 X-15.222 Y-22.122
G0 X-15.286 Y-23.876
G0 X-14.986 Y-23.876
M204 S1800
;TYPE:WALL-OUTER
G1 F600 X-14.986 Y-22.22 E29.69047
G1 X-13.742 Y-20.976 E29.74606
G1 X-13.466 Y-20.975 E29.75478
G1 X-13.152 Y-20.413 E29.77512
G1 X-12.886 Y-19.978 E29.79124
G1 X-12.886 Y-17.876 E29.85765
G1 X-14.593 Y-17.876 E29.91159
G1 X-14.594 Y-21.176 E30.01586
G1 X-17.979 Y-21.176 E30.12282
G1 X-17.981 Y-17.876 E30.22709
G1 X-18.781 Y-17.876 E30.25236
G1 X-19.507 Y-17.946 E30.27541
G1 X-20.191 Y-18.146 E30.29793
G1 X-20.825 Y-18.47 E30.32042
G1 X-21.389 Y-18.908 E30.34299
G1 X-21.686 Y-19.222 E30.35664
G1 X-21.686 Y-22.176 E30.44998
G1 X-19.586 Y-22.176 E30.51634
G1 X-19.586 Y-24.576 E30.59217
G1 X-22.978 Y-24.576 E30.69935
G1 X-22.978 Y-30.776 E30.89525
G1 X-19.586 Y-30.776 E31.00243
G1 X-19.586 Y-33.176 E31.07826
G1 X-21.686 Y-33.176 E31.14461
G1 X-21.687 Y-36.129 E31.23792
G1 X-21.11 Y-36.683 E31.26319
G1 X-20.506 Y-37.064 E31.28576
