; generated by PrusaSlicer 2.6.1+win64 on 2023-10-30 at 19:17:14 UTC


;
;
; 

; external perimeters extrusion width = 0.40mm
; perimeters extrusion width = 0.40mm
; infill extrusion width = 0.40mm
; solid infill extrusion width = 0.40mm
; top infill extrusion width = 0.40mm
; support material extrusion width = 0.40mm
; first layer extrusion width = 0.40mm

;TYPE:Custom
G90 ; use absolute coordinates
M83 ; extruder relative mode
M140 S60 ; set bed temp
M190 S60 ; wait for bed temp
M104 S215 ; set extruder temp
M109 S215 ; wait for extruder temp
G28                                        ; move X/Y/Z to min endstops
G1 Z0.28                                   ; lift nozzle a bit 
G92 E0 
G1 Y3 F2400                                    ; zero the extruded length 
G1 X180  E40 F500                       ; Extrude 25mm of filament in a 5cm line. 
G92 E0                                     ; zero the extruded length again 
G1 E-0.2 F3000                                ; Retract a little 
G1 X181 F4000                              ; Quickly wipe away from the filament line
M117
G21 ; set units to millimeters
G90 ; use absolute coordinates
M82 ; use absolute distances for extrusion
G92 E0
; Filament gcode
M106 S255
;LAYER_CHANGE
;Z:0.1
;HEIGHT:0.1
; BEFORE_LAYER_CHANGE 0 @ 0.1mm
G1 E-2.5 F4800
G92 E0
G1 Z.1 F18000
; AFTER_LAYER_CHANGE 0 @ 0.1mm
M204 S20000
G1 X104.649 Y108.488
G1 E2.5 F4800
M204 S5000
;TYPE:Support material interface
;WIDTH:0.4
G1 X107.844 Y105.293 E2.56044
G1 X108.283 Y104.984 E2.56762
G1 X108.745 Y104.689 E2.57495
G1 X109.296 Y104.376 E2.58343
G1 X104.377 Y109.296 E2.6765
G1 X104.061 Y109.921 E2.68587
G1 X103.886 Y110.322 E2.69172
G1 X110.32 Y103.888 E2.81344
G1 X111.181 Y103.562 E2.82576
G1 X103.563 Y111.18 E2.96988
G1 X103.334 Y111.944 E2.98055
G1 X111.94 Y103.338 E3.14336
G1 X112.637 Y103.177 E3.15293
G1 X103.174 Y112.639 E3.33194
G1 X103.064 Y113.285 E3.34071
G1 X113.284 Y103.064 E3.53406
G1 X113.893 Y102.992 E3.54226
G1 X102.993 Y113.891 E3.74846
G1 X102.953 Y114.466 E3.75617
G1 X114.467 Y102.952 E3.97399
G1 X115.014 Y102.941 E3.98131
G1 X102.942 Y115.013 E4.20969
G1 X102.953 Y115.537 E4.2167
G1 X115.538 Y102.953 E4.45478
G1 X116.039 Y102.986 E4.4615
G1 X102.986 Y116.039 E4.70844
G1 X103.037 Y116.524 E4.71496
G1 X116.522 Y103.039 E4.97007
G1 X116.988 Y103.108 E4.97637
G1 X103.105 Y116.991 E5.23901
G1 X103.189 Y117.442 E5.24515
G1 X117.439 Y103.193 E5.51472
G1 X117.876 Y103.291 E5.52071
G1 X103.289 Y117.878 E5.79667
G1 X103.402 Y118.301 E5.80253
G1 X118.3 Y103.402 E6.08438
G1 X118.711 Y103.527 E6.09013
G1 X103.526 Y118.711 E6.37739
G1 X103.662 Y119.111 E6.38304
G1 X119.108 Y103.665 E6.67525
G1 X119.496 Y103.813 E6.68081
G1 X103.809 Y119.499 E6.97757
G1 X103.97 Y119.874 E6.98303
G1 X119.873 Y103.97 E7.2839
G1 X120.24 Y104.139 E7.2893
G1 X104.139 Y120.24 E7.5939
G1 X104.317 Y120.597 E7.59924
G1 X120.595 Y104.32 E7.90718
G1 X120.941 Y104.508 E7.91245
G1 X104.38 Y121.069 E8.22575
M204 S20000
;WIPE_START
G1 F14400
G1 X109.962 Y115.487 E5.72575
;WIPE_END
G92 E0
G1 X108.268 Y125.212 F18000
G1 E2.5 F4800
M204 S5000
G1 X115.604 Y117.876 E2.63878
G1 X115.255 Y117.928 E2.6435
G1 X115.006 Y117.938 E2.64683
G1 X108.073 Y124.872 E2.778
G1 X107.761 Y124.648 E2.78314
G1 X114.512 Y117.897 E2.91086
G1 X114.082 Y117.791 E2.91678
G1 X107.46 Y124.414 E3.04207
G1 X107.168 Y124.17 E3.04716
G1 X113.702 Y117.636 E3.17077
G1 X113.363 Y117.44 E3.17601
G1 X106.883 Y123.92 E3.2986
G1 X106.606 Y123.661 E3.30367
G1 X113.06 Y117.207 E3.42577
G1 X112.793 Y116.939 E3.43083
G1 X106.34 Y123.393 E3.55292
G1 X106.08 Y123.117 E3.55799
G1 X112.56 Y116.637 E3.68058
G1 X112.364 Y116.298 E3.68582
G1 X105.829 Y122.833 E3.80945
G1 X105.587 Y122.539 E3.81454
G1 X112.209 Y115.918 E3.93981
G1 X112.103 Y115.488 E3.94573
G1 X105.353 Y122.237 E4.07342
G1 X105.127 Y121.928 E4.07854
G1 X112.063 Y114.993 E4.20975
G1 X112.076 Y114.72 E4.21341
G1 X112.126 Y114.394 E4.21782
G1 X104.912 Y121.609 E4.35431
G1 X104.705 Y121.28 E4.35951
G1 X121.28 Y104.705 E4.67308
G1 X121.607 Y104.913 E4.67826
G1 X114.393 Y112.128 E4.81475
G1 X114.745 Y112.075 E4.81951
G1 X114.991 Y112.064 E4.8228
G1 X121.925 Y105.13 E4.95398
G1 X122.237 Y105.354 E4.95912
G1 X115.486 Y112.105 E5.08684
G1 X115.915 Y112.211 E5.09275
G1 X122.538 Y105.588 E5.21805
G1 X122.83 Y105.831 E5.22313
G1 X116.296 Y112.366 E5.34675
G1 X116.636 Y112.561 E5.35199
G1 X123.115 Y106.082 E5.47456
G1 X123.392 Y106.34 E5.47962
G1 X116.938 Y112.794 E5.60172
G1 X117.206 Y113.062 E5.60679
G1 X123.659 Y106.609 E5.72887
G1 X123.918 Y106.885 E5.73393
G1 X117.439 Y113.364 E5.8565
G1 X117.635 Y113.703 E5.86174
G1 X124.171 Y107.168 E5.98538
G1 X124.411 Y107.462 E5.99046
G1 X117.791 Y114.083 E6.11571
G1 X117.897 Y114.512 E6.12162
G1 X124.645 Y107.764 E6.24928
G1 X124.871 Y108.073 E6.2544
G1 X117.937 Y115.007 E6.38558
G1 X117.924 Y115.283 E6.38928
G1 X117.875 Y115.605 E6.39364
G1 X125.087 Y108.393 E6.53008
G1 X125.294 Y108.721 E6.53527
G1 X108.718 Y125.297 E6.84886
G1 X109.056 Y125.494 E6.85409
G1 X125.493 Y109.057 E7.16505
G1 X125.682 Y109.403 E7.17032
G1 X109.403 Y125.683 E7.4783
G1 X109.758 Y125.863 E7.48362
G1 X125.86 Y109.761 E7.78824
G1 X126.029 Y110.127 E7.79363
G1 X110.124 Y126.032 E8.09452
G1 X110.502 Y126.19 E8.1
G1 X126.189 Y110.502 E8.39678
G1 X126.337 Y110.89 E8.40234
G1 X110.889 Y126.338 E8.69459
G1 X111.287 Y126.476 E8.70023
G1 X126.473 Y111.289 E8.98753
G1 X126.598 Y111.7 E8.99328
G1 X111.697 Y126.601 E9.27518
G1 X112.121 Y126.712 E9.28104
G1 X126.711 Y112.122 E9.55706
G1 X126.81 Y112.558 E9.56304
G1 X112.558 Y126.81 E9.83266
G1 X113.009 Y126.895 E9.8388
G1 X126.894 Y113.009 E10.10149
G1 X126.962 Y113.477 E10.10782
G1 X113.475 Y126.964 E10.36297
G1 X113.958 Y127.016 E10.36947
G1 X127.014 Y113.961 E10.61646
G1 X127.046 Y114.463 E10.62319
G1 X114.46 Y127.049 E10.86129
G1 X114.984 Y127.061 E10.8683
G1 X127.058 Y114.987 E11.09672
G1 X127.047 Y115.534 E11.10404
G1 X115.531 Y127.05 E11.3219
G1 X116.105 Y127.011 E11.3296
G1 X127.008 Y116.108 E11.53586
G1 X126.936 Y116.715 E11.54404
G1 X116.711 Y126.94 E11.73748
G1 X117.359 Y126.827 E11.74628
G1 X126.827 Y117.359 E11.9254
G1 X126.667 Y118.055 E11.93495
G1 X118.055 Y126.667 E12.09787
G1 X118.815 Y126.442 E12.10847
G1 X126.439 Y118.818 E12.2527
G1 X126.117 Y119.676 E12.26496
G1 X119.674 Y126.118 E12.38684
G1 X120.225 Y125.871 E12.39492
G1 X120.697 Y125.631 E12.402
G1 X125.628 Y120.7 E12.49529
G1 X125.187 Y121.457 E12.50701
G1 X124.706 Y122.157 E12.51837
G1 X121.507 Y125.356 E12.57889
M204 S20000
;LAYER_CHANGE
;Z:0.3
;HEIGHT:0.2
; BEFORE_LAYER_CHANGE 1 @ 0.3mm
;WIPE_START
G1 F14400
G1 X124.706 Y122.157 E11.14627
G1 X125.187 Y121.457 E10.87732
G1 X125.628 Y120.7 E10.59989
G1 X124.465 Y121.863 E10.07889
;WIPE_END
G92 E0
G1 Z.3 F18000
; AFTER_LAYER_CHANGE 1 @ 0.3mm
M104 S210 ; set temperature
G1 X114.964 Y119.848
G1 E2.5 F4800
M204 S5000
;TYPE:External perimeter
;WIDTH:0.422008
;HEIGHT:0.1
G1 F1800
G1 X114.667 Y119.846 E2.5042
G1 X113.925 Y119.728 E2.51483
;WIDTH:0.413004
G1 X113.337 Y119.548 E2.52334
;WIDTH:0.42611
G1 X112.856 Y119.356 E2.53075
G1 X112.586 Y119.201 E2.5352
;WIDTH:0.422432
G1 X112.009 Y118.827 E2.54494
G1 X111.485 Y118.337 E2.55511
;WIDTH:0.412275
G1 X111.079 Y117.84 E2.56397
;WIDTH:0.425643
G1 X110.787 Y117.412 E2.57137
G1 X110.662 Y117.157 E2.57543
;WIDTH:0.42295
G1 X110.382 Y116.5 E2.58556
G1 X110.226 Y115.826 E2.59538
;WIDTH:0.41166
G1 X110.163 Y115.201 E2.60404
;WIDTH:0.422957
G1 X110.161 Y114.604 E2.61251
;WIDTH:0.426764
G1 X110.324 Y113.7 E2.62567
G1 X110.446 Y113.357 E2.63088
;WIDTH:0.419801
G1 X110.692 Y112.761 E2.63996
G1 X111.102 Y112.12 E2.65067
;WIDTH:0.414171
G1 X111.483 Y111.676 E2.65879
;WIDTH:0.426529
G1 X111.852 Y111.308 E2.66625
G1 X112.122 Y111.107 E2.67107
;WIDTH:0.420696
G1 X112.673 Y110.739 E2.68042
G1 X113.355 Y110.443 E2.69091
;WIDTH:0.413524
G1 X113.976 Y110.271 E2.69984
;WIDTH:0.415755
G1 X114.706 Y110.161 E2.71013
;WIDTH:0.431273
G1 X115.22 Y110.154 E2.71757
G1 X115.764 Y110.205 E2.72548
;WIDTH:0.42701
G1 X116.661 Y110.442 E2.73878
G1 X117.106 Y110.644 E2.74578
;WIDTH:0.432158
G1 X117.557 Y110.88 E2.75317
G1 X118.291 Y111.433 E2.76651
;WIDTH:0.424762
G1 X118.525 Y111.681 E2.77137
;WIDTH:0.420808
G1 X118.952 Y112.181 E2.78065
G1 X119.331 Y112.826 E2.79121
;WIDTH:0.420082
G1 X119.593 Y113.424 E2.80041
;WIDTH:0.423534
G1 X119.808 Y114.314 E2.81342
G1 X119.855 Y114.865 E2.82128
;WIDTH:0.422193
G1 X119.815 Y115.604 E2.83176
;WIDTH:0.42061
G1 X119.698 Y116.238 E2.84085
;WIDTH:0.424065
G1 X119.37 Y117.121 E2.85425
G1 X119.101 Y117.603 E2.8621
;WIDTH:0.422728
G1 X118.672 Y118.173 E2.87222
;WIDTH:0.421341
G1 X118.216 Y118.643 E2.88147
G1 X117.598 Y119.103 E2.89236
;WIDTH:0.419037
G1 X117.046 Y119.403 E2.90119
;WIDTH:0.427301
G1 X116.563 Y119.598 E2.90866
;WIDTH:0.428572
G1 X116.031 Y119.743 E2.91659
G1 X115.305 Y119.85 E2.92715
;WIDTH:0.422008
G1 X115.024 Y119.848 E2.93113
M204 S20000
;WIPE_START
G1 F14400
G1 X114.667 Y119.846 E2.81808
G1 X113.925 Y119.728 E2.58016
G1 X113.337 Y119.548 E2.38543
G1 X112.856 Y119.356 E2.22143
G1 X112.586 Y119.201 E2.12284
G1 X112.009 Y118.827 E1.9051
G1 X111.485 Y118.337 E1.67792
G1 X111.079 Y117.84 E1.4747
G1 X110.787 Y117.412 E1.31063
G1 X110.662 Y117.157 E1.2207
G1 X110.382 Y116.5 E.99454
G1 X110.226 Y115.826 E.77546
G1 X110.163 Y115.201 E.57654
G1 X110.161 Y114.742 E.43113
;WIPE_END
G92 E0
G1 X111.764 Y111.942 F18000
G1 E2.5 F4800
M204 S5000
;WIDTH:0.412702
G1 F1800
G1 X111.77 Y111.935 E2.50013
;WIDTH:0.411892
G1 X112.317 Y111.446 E2.51025
;WIDTH:0.41641
G1 X112.795 Y111.127 E2.51827
G1 X113.462 Y110.821 E2.52851
;WIDTH:0.412241
G1 X114.013 Y110.658 E2.53645
;WIDTH:0.426505
G1 X114.53 Y110.577 E2.54394
;WIDTH:0.431273
G1 X115.191 Y110.563 E2.55351
G1 X115.671 Y110.593 E2.56048
;WIDTH:0.420299
G1 X116.2 Y110.713 E2.56813
;WIDTH:0.409443
G1 X116.886 Y110.967 E2.57816
;WIDTH:0.432158
G1 X117.326 Y111.219 E2.58552
G1 X117.747 Y111.495 E2.59283
;WIDTH:0.410775
G1 X118.212 Y111.914 E2.60144
;WIDTH:0.416786
G1 X118.584 Y112.352 E2.60947
G1 X118.968 Y112.976 E2.61971
;WIDTH:0.420686
G1 X119.2 Y113.503 E2.62783
;WIDTH:0.426366
G1 X119.337 Y114.003 E2.63525
G1 X119.453 Y114.784 E2.64655
;WIDTH:0.418166
G1 X119.427 Y115.517 E2.65683
;WIDTH:0.420031
G1 X119.326 Y116.083 E2.66493
;WIDTH:0.425873
G1 X119.154 Y116.6 E2.67272
G1 X118.826 Y117.29 E2.68364
;WIDTH:0.417482
G1 X118.398 Y117.886 E2.69391
;WIDTH:0.419486
G1 X118 Y118.301 E2.702
;WIDTH:0.425415
G1 X117.548 Y118.651 E2.71016
G1 X116.915 Y119.027 E2.72067
;WIDTH:0.427301
G1 X116.438 Y119.212 E2.72801
;WIDTH:0.428572
G1 X115.966 Y119.341 E2.73505
G1 X115.348 Y119.446 E2.74407
;WIDTH:0.41935
G1 X114.767 Y119.453 E2.75224
G1 X114.042 Y119.352 E2.76253
;WIDTH:0.411615
G1 X113.489 Y119.19 E2.77047
;WIDTH:0.42611
G1 X113.012 Y118.983 E2.77791
G1 X112.338 Y118.575 E2.78918
;WIDTH:0.416169
G1 X111.79 Y118.09 E2.79939
;WIDTH:0.411079
G1 X111.785 Y118.085 E2.79949
;WIDTH:0.410963
G1 X111.419 Y117.649 E2.80733
;WIDTH:0.425643
G1 X111.124 Y117.19 E2.81512
G1 X110.803 Y116.499 E2.826
;WIDTH:0.414883
G1 X110.616 Y115.791 E2.83618
;WIDTH:0.410651
G1 X110.551 Y115.219 E2.8441
;WIDTH:0.422957
G1 X110.558 Y114.662 E2.852
;WIDTH:0.426764
G1 X110.72 Y113.787 E2.86475
G1 X111.016 Y113 E2.87679
;WIDTH:0.417726
G1 X111.401 Y112.376 E2.88706
;WIDTH:0.412702
G1 X111.726 Y111.988 E2.89406
M204 S20000
;WIPE_START
G1 F14400
G1 X111.77 Y111.935 E2.87225
G1 X112.317 Y111.446 E2.63991
G1 X112.795 Y111.127 E2.45793
G1 X113.462 Y110.821 E2.22555
G1 X114.013 Y110.658 E2.04359
G1 X114.53 Y110.577 E1.87788
G1 X115.191 Y110.563 E1.66852
G1 X115.671 Y110.593 E1.51622
G1 X116.2 Y110.713 E1.34445
G1 X116.886 Y110.967 E1.1128
G1 X117.326 Y111.219 E.95223
G1 X117.747 Y111.495 E.79282
G1 X118.212 Y111.914 E.59461
G1 X118.584 Y112.352 E.41264
G1 X118.615 Y112.402 E.39406
;WIPE_END
G92 E0
G1 X121.171 Y109.633 F18000
G1 E2.5 F4800
M204 S5000
;WIDTH:0.399999
G1 F1800
G1 X120.962 Y110.06 E2.50636
G1 X120.738 Y110.311 E2.51086
G1 X120.301 Y110.581 E2.51773
G1 X119.81 Y110.714 E2.52453
G1 X119.262 Y110.664 E2.53189
G1 X118.789 Y110.448 E2.53885
G1 X118.532 Y110.231 E2.54335
G1 X118.25 Y109.802 E2.55022
G1 X118.104 Y109.314 E2.55703
G1 X118.108 Y108.996 E2.56128
G1 X118.205 Y108.58 E2.56699
G1 X118.436 Y108.155 E2.57346
G1 X118.822 Y107.806 E2.58042
G1 X118.989 Y107.722 E2.58292
G1 X119.296 Y107.611 E2.58729
G1 X119.798 Y107.56 E2.59404
G1 X120.176 Y107.646 E2.59923
G1 X120.629 Y107.874 E2.60601
G1 X120.976 Y108.251 E2.61286
G1 X121.2 Y108.709 E2.61968
G1 X121.249 Y109.114 E2.62514
G1 X121.193 Y109.578 E2.63139
M204 S20000
G1 X120.78 Y109.716 F18000
G1 X120.829 Y109.472
M204 S10000
;TYPE:Perimeter
G1 F1800
G1 X120.645 Y109.847 E2.63698
G1 X120.395 Y110.092 E2.64166
G1 X120.035 Y110.284 E2.64712
G1 X119.624 Y110.339 E2.65267
G1 X119.244 Y110.24 E2.65792
G1 X118.89 Y110.038 E2.66337
G1 X118.65 Y109.762 E2.66826
G1 X118.509 Y109.393 E2.67354
G1 X118.483 Y109.046 E2.67819
G1 X118.598 Y108.607 E2.68426
G1 X118.829 Y108.31 E2.68929
G1 X119.159 Y108.061 E2.69482
G1 X119.507 Y107.948 E2.69971
G1 X119.922 Y107.96 E2.70526
G1 X120.287 Y108.111 E2.71054
G1 X120.589 Y108.356 E2.71574
G1 X120.788 Y108.7 E2.72106
G1 X120.868 Y109.035 E2.72567
G1 X120.834 Y109.412 E2.73073
M204 S20000
G1 X120.432 Y109.418 F18000
M204 S10000
G1 F1800
G1 X120.227 Y109.746 E2.7359
G1 X119.922 Y109.921 E2.7406
G1 X119.612 Y109.954 E2.74477
G1 X119.198 Y109.802 E2.75067
G1 X118.975 Y109.565 E2.75502
G1 X118.88 Y109.315 E2.7586
G1 X118.869 Y109.021 E2.76254
G1 X118.975 Y108.719 E2.76682
G1 X119.254 Y108.437 E2.77213
G1 X119.482 Y108.345 E2.77542
G1 X119.834 Y108.33 E2.78013
G1 X120.171 Y108.482 E2.78508
G1 X120.399 Y108.749 E2.78978
G1 X120.49 Y109.046 E2.79394
G1 X120.494 Y109.203 E2.79604
G1 X120.449 Y109.36 E2.79822
M204 S20000
;WIPE_START
G1 F14400
G1 X120.227 Y109.746 E2.65721
G1 X119.922 Y109.921 E2.54586
G1 X119.612 Y109.954 E2.44714
G1 X119.198 Y109.802 E2.30748
G1 X118.975 Y109.565 E2.20443
G1 X118.88 Y109.315 E2.11974
G1 X118.869 Y109.021 E2.02657
G1 X118.975 Y108.719 E1.92522
G1 X119.254 Y108.437 E1.7996
G1 X119.482 Y108.345 E1.72174
G1 X119.834 Y108.33 E1.61017
G1 X120.171 Y108.482 E1.4931
G1 X120.399 Y108.749 E1.38192
G1 X120.49 Y109.046 E1.28355
G1 X120.494 Y109.203 E1.23382
G1 X120.449 Y109.36 E1.1821
;WIPE_END
G1 E.29822 F4800
G92 E0
G1 X119.662 Y108.475 F18000
G1 E2.5 F4800
M204 S10000
;TYPE:Solid infill
;WIDTH:0.475707
G1 F1800
G1 X120.131 Y108.944 E2.51065
G1 X120.16 Y109.016 E2.5119
G1 X120.171 Y109.18 E2.51454
G1 X120.158 Y109.249 E2.51567
G1 X120.058 Y109.452 E2.5193
G1 X120.029 Y109.485 E2.52001
G1 X119.338 Y108.794 E2.5357
G1 X119.23 Y108.918 E2.53834
G1 X119.193 Y109.019 E2.54007
G1 X119.177 Y109.14 E2.54203
G1 X119.21 Y109.308 E2.54478
G1 X119.705 Y109.803 E2.55602
M204 S20000
;WIPE_START
G1 F14400
G1 X119.21 Y109.308 E2.33434
G1 X119.177 Y109.14 E2.28012
G1 X119.193 Y109.019 E2.24147
G1 X119.23 Y108.918 E2.20741
G1 X119.338 Y108.794 E2.15534
G1 X120.029 Y109.485 E1.84589
G1 X120.058 Y109.452 E1.83198
G1 X120.158 Y109.249 E1.76032
G1 X120.171 Y109.18 E1.73809
G1 X120.16 Y109.016 E1.68604
G1 X120.131 Y108.944 E1.66146
G1 X119.662 Y108.475 E1.45143
;WIPE_END
G1 E.05602 F4800
G92 E0
G1 X120.603 Y112.276 F18000
G1 E2.5 F4800
M204 S5000
;TYPE:External perimeter
;WIDTH:0.399999
G1 F1800
G1 X120.352 Y111.823 E2.50693
G1 X120.793 Y111.693 E2.51308
G1 X121.347 Y111.37 E2.52166
G1 X121.728 Y111.026 E2.52853
G1 X122.036 Y110.623 E2.53532
G1 X122.288 Y110.169 E2.54227
G1 X122.684 Y110.79 E2.55212
G1 X123.019 Y111.488 E2.56248
G1 X123.251 Y112.049 E2.5706
G1 X123.34 Y112.341 E2.57468
G1 X122.6 Y112.216 E2.58472
G1 X122.123 Y112.238 E2.59111
G1 X121.62 Y112.355 E2.59802
G1 X120.981 Y112.663 E2.60751
G1 X120.815 Y112.789 E2.6103
G1 X120.626 Y112.332 E2.61692
M204 S20000
G1 X120.778 Y111.916 F18000
G1 X121.405 Y111.909
M204 S10000
;TYPE:Perimeter
;WIDTH:0.633728
G1 F1800
G1 X121.584 Y111.776 E2.62175
;WIDTH:0.585291
G1 X121.977 Y111.41 E2.63245
;WIDTH:0.546804
G1 X122.298 Y111.027 E2.64173
G1 X122.645 Y111.768 E2.65692
G1 X122.024 Y111.797 E2.66846
;WIDTH:0.590266
G1 X121.715 Y111.853 E2.67477
;WIDTH:0.633728
