;FLAVOR:Marlin
;TIME:4965
;Filament used: 7.55082m
;Layer height: 0.3
;MINX:111.129
;MINY:63.718
;MINZ:0.3
;MAXX:278.331
;MAXY:144.969
;MAXZ:10.5
;Generated with Cura_SteamEngine 4.10.0
M140 S30
M105
M190 S30
M104 S225
M105
M109 S225
M82 ;absolute extrusion mode
G28 ; home all axes
 M117 Purge extruder
 G92 E0 ; reset extruder
 G1 Z1.0 F3000 ; move z up little to prevent scratching of surface
 G1 X2 Y20 Z0.3 F5000.0 ; move to start-line position
 G1 X2 Y200.0 Z0.3 F1500.0 E15 ; draw 1st line
 G1 X2 Y200.0 Z0.4 F5000.0 ; move to side a little
 G1 X2 Y20 Z0.4 F1500.0 E30 ; draw 2nd line
 G92 E0 ; reset extruder
 G1 Z1.0 F3000 ; move z up little to prevent scratching of surface
G92 E0
G92 E0
G1 F2400 E-2
;LAYER_COUNT:35
;LAYER:0
M107
;MESH:AI3M_Samsung_note9_case_3_TPU_06nz_2h16m_v01.3mf
G0 F6000 X147.152 Y84.632 Z0.3
;TYPE:WALL-INNER
G1 F2400 E0
G1 F1200 X130.384 Y84.632 E0.7529
G1 X130.384 Y124.006 E2.52084
G1 X147.152 Y124.006 E3.27375
G1 X147.152 Y112.752 E3.77906
G1 X157.602 Y112.752 E4.24828
G1 X157.602 Y95.886 E5.00558
G1 X147.152 Y95.886 E5.4748
G1 X147.152 Y84.632 E5.98012
G0 F6000 X146.752 Y85.032
G1 F1200 X130.784 Y85.032 E6.6971
G1 X130.784 Y123.606 E8.42912
G1 X146.752 Y123.606 E9.1461
G1 X146.752 Y112.352 E9.65142
G1 X157.202 Y112.352 E10.12064
G1 X157.202 Y96.286 E10.84202
G1 X146.752 Y96.286 E11.31124
G1 X146.752 Y85.032 E11.81655
G0 F6000 X146.352 Y85.432
G1 F1200 X131.184 Y85.432 E12.49762
G1 X131.184 Y123.206 E14.19371
G1 X146.352 Y123.206 E14.87477
G1 X146.352 Y111.952 E15.38009
G1 X156.802 Y111.952 E15.84931
G1 X156.802 Y96.686 E16.53477
G1 X146.352 Y96.686 E17.00399
G1 X146.352 Y85.432 E17.50931
G0 F6000 X145.952 Y85.832
;TYPE:WALL-OUTER
G1 F1200 X131.584 Y85.832 E18.15445
G1 X131.584 Y122.806 E19.81462
G1 X145.952 Y122.806 E20.45976
G1 X145.952 Y111.676 E20.95951
G1 X146.003 Y111.573 E20.96467
G1 X146.08 Y111.552 E20.96826
G1 X156.402 Y111.552 E21.43173
G1 X156.402 Y97.086 E22.08127
G1 X146.076 Y97.086 E22.54492
G1 X145.973 Y97.035 E22.55008
G1 X145.952 Y96.959 E22.55362
G1 X145.952 Y85.832 E23.05323
G1 F2400 E21.05323
G0 F6000 X145.099 Y86.685
G0 X115.996 Y66.478
G0 X116.002 Y68.541
;TYPE:WALL-INNER
G1 F2400 E23.05323
G1 F1200 X119.493 Y68.525 E23.20999
G1 X127.788 Y68.529 E23.58244
G1 X167.365 Y68.528 E25.35949
G1 X186.237 Y68.53 E26.20687
G1 X191.389 Y68.552 E26.4382
G1 X194.727 Y68.576 E26.58809
G1 X253.844 Y68.576 E29.24251
G1 X269.401 Y68.538 E29.94104
G1 X273.46 Y68.542 E30.12329
G1 X273.463 Y72.225 E30.28867
G1 X273.426 Y86.384 E30.92442
G1 X273.425 Y122.256 E32.53512
G1 X273.464 Y136.411 E33.1707
G1 X273.46 Y140.099 E33.33629
G1 X261.294 Y140.142 E33.88256
G1 X253.846 Y140.088 E34.217
G1 X194.728 Y140.087 E36.87146
G1 X191.14 Y140.105 E37.03257
G1 X177.428 Y140.142 E37.64826
G1 X149.643 Y140.137 E38.89584
G1 X148.813 Y140.142 E38.93311
G1 X148.16 Y140.143 E38.96243
G1 X138.222 Y140.104 E39.40866
G1 X135.614 Y140.088 E39.52576
G1 X128.166 Y140.143 E39.8602
G1 X116.001 Y140.098 E40.40642
G1 X115.957 Y129.037 E40.90308
G1 X116.011 Y122.257 E41.20752
G1 X116.012 Y86.379 E42.81848
G1 X115.956 Y79.617 E43.12212
G1 X116.002 Y68.541 E43.61945
G0 F6000 X115.824 Y68.137
G1 F1200 X115.854 Y68.142 E43.62081
G1 X119.491 Y68.125 E43.78412
G1 X127.788 Y68.129 E44.15666
G1 X167.365 Y68.128 E45.93372
G1 X186.239 Y68.13 E46.78118
G1 X191.392 Y68.152 E47.01256
G1 X194.728 Y68.176 E47.16236
G1 X253.844 Y68.176 E49.81673
G1 X269.401 Y68.138 E50.51526
G1 X273.553 Y68.142 E50.70169
G1 X273.655 Y68.138 E50.70628
G1 X273.771 Y68.196 E50.7121
G1 X273.865 Y68.368 E50.7209
G1 X273.86 Y68.396 E50.72218
G1 X273.863 Y72.226 E50.89415
G1 X273.826 Y86.385 E51.52991
G1 X273.825 Y122.255 E53.14051
G1 X273.864 Y136.411 E53.77614
G1 X273.86 Y140.182 E53.94546
G1 X273.86 Y140.189 E53.94577
G1 X273.862 Y140.255 E53.94874
G1 X273.863 Y140.289 E53.95027
G1 X273.801 Y140.411 E53.95641
G1 X273.635 Y140.503 E53.96493
G1 X273.628 Y140.502 E53.96525
G1 X273.605 Y140.498 E53.9663
G1 X273.571 Y140.498 E53.96782
G1 X261.292 Y140.542 E54.51917
G1 X253.845 Y140.488 E54.85356
G1 X194.729 Y140.487 E57.50794
G1 X191.142 Y140.505 E57.669
G1 X177.43 Y140.542 E58.28469
G1 X149.644 Y140.537 E59.53231
G1 X148.815 Y140.542 E59.56953
G1 X148.159 Y140.543 E59.59899
G1 X138.22 Y140.504 E60.04526
G1 X135.615 Y140.488 E60.16223
G1 X128.168 Y140.543 E60.49662
G1 X115.912 Y140.498 E61.04694
G1 X115.81 Y140.5 E61.05152
G1 X115.688 Y140.439 E61.05764
G1 X115.597 Y140.278 E61.06594
G1 X115.602 Y140.247 E61.06735
G1 X115.557 Y129.034 E61.57084
G1 X115.611 Y122.255 E61.87523
G1 X115.612 Y86.381 E63.48602
G1 X115.556 Y79.615 E63.78983
G1 X115.602 Y68.451 E64.29111
G1 X115.599 Y68.347 E64.29578
G1 X115.658 Y68.228 E64.30174
G1 X115.824 Y68.137 E64.31024
G0 F6000 X115.889 Y67.742
G1 F1200 X119.489 Y67.725 E64.47189
G1 X127.788 Y67.729 E64.84453
G1 X167.365 Y67.728 E66.62158
G1 X186.241 Y67.73 E67.46913
G1 X191.395 Y67.752 E67.70056
G1 X194.729 Y67.776 E67.85026
G1 X253.844 Y67.776 E70.50459
G1 X269.401 Y67.738 E71.20312
G1 X273.546 Y67.742 E71.38924
G1 X273.742 Y67.735 E71.39805
G1 X274.033 Y67.88 E71.41264
G1 X274.217 Y68.123 E71.42633
G1 X274.273 Y68.352 E71.43692
G1 X274.26 Y68.429 E71.44042
G1 X274.263 Y72.227 E71.61096
G1 X274.226 Y86.386 E72.24671
G1 X274.225 Y122.254 E73.85723
G1 X274.264 Y136.411 E74.4929
G1 X274.26 Y140.184 E74.66231
G1 X274.265 Y140.379 E74.67107
G1 X274.118 Y140.673 E74.68583
G1 X273.878 Y140.856 E74.69938
G1 X273.649 Y140.911 E74.70996
G1 X273.572 Y140.898 E74.71346
G1 X261.29 Y140.942 E75.26494
G1 X253.844 Y140.888 E75.59928
G1 X194.73 Y140.887 E78.25357
G1 X191.144 Y140.905 E78.41459
G1 X177.432 Y140.942 E79.03028
G1 X149.645 Y140.937 E80.27795
G1 X148.817 Y140.942 E80.31513
G1 X148.158 Y140.943 E80.34472
G1 X138.218 Y140.904 E80.79104
G1 X135.616 Y140.888 E80.90787
G1 X128.17 Y140.943 E81.24222
G1 X115.915 Y140.898 E81.79248
G1 X115.721 Y140.902 E81.8012
G1 X115.427 Y140.756 E81.81593
G1 X115.242 Y140.515 E81.82958
G1 X115.188 Y140.29 E81.83997
G1 X115.202 Y140.212 E81.84352
G1 X115.157 Y129.031 E82.34557
G1 X115.211 Y122.253 E82.64992
G1 X115.212 Y86.383 E84.26052
G1 X115.156 Y79.613 E84.56452
G1 X115.202 Y68.455 E85.06553
G1 X115.197 Y68.259 E85.07433
G1 X115.341 Y67.966 E85.08899
G1 X115.583 Y67.783 E85.10261
G1 X115.811 Y67.728 E85.11314
G1 X115.889 Y67.742 E85.1167
G0 F6000 X115.923 Y67.342
;TYPE:WALL-OUTER
G1 F1200 X119.487 Y67.325 E85.27673
G1 X127.788 Y67.329 E85.64946
G1 X167.365 Y67.328 E87.42651
G1 X186.243 Y67.33 E88.27416
G1 X191.398 Y67.352 E88.50562
G1 X194.73 Y67.376 E88.65524
G1 X253.844 Y67.376 E91.30953
G1 X269.401 Y67.338 E92.00806
G1 X273.539 Y67.342 E92.19386
G1 X273.794 Y67.333 E92.20531
G1 X273.873 Y67.354 E92.20898
G1 X274.253 Y67.543 E92.22804
G1 X274.326 Y67.604 E92.23231
G1 X274.57 Y67.926 E92.25045
G1 X274.622 Y68.059 E92.25686
G1 X274.68 Y68.345 E92.26997
G1 X274.66 Y68.463 E92.27534
G1 X274.663 Y72.228 E92.44439
G1 X274.626 Y86.387 E93.08015
G1 X274.625 Y122.253 E94.69058
G1 X274.664 Y136.411 E95.32629
G1 X274.66 Y140.179 E95.49548
G1 X274.667 Y140.432 E95.50684
G1 X274.646 Y140.511 E95.51051
G1 X274.457 Y140.891 E95.52957
G1 X274.396 Y140.965 E95.53388
G1 X274.076 Y141.208 E95.55192
G1 X273.945 Y141.259 E95.55823
G1 X273.657 Y141.318 E95.57143
G1 X273.539 Y141.298 E95.5768
G1 X261.288 Y141.342 E96.12689
G1 X253.843 Y141.288 E96.46119
G1 X194.731 Y141.287 E99.11539
G1 X191.146 Y141.305 E99.27636
G1 X177.434 Y141.342 E99.89205
G1 X149.646 Y141.337 E101.13976
G1 X148.819 Y141.342 E101.1769
G1 X148.157 Y141.343 E101.20662
G1 X138.216 Y141.304 E101.65299
G1 X135.617 Y141.288 E101.76969
G1 X128.172 Y141.343 E102.10399
G1 X115.919 Y141.298 E102.65416
G1 X115.658 Y141.304 E102.66589
G1 X115.583 Y141.281 E102.66941
G1 X115.208 Y141.094 E102.68822
G1 X115.138 Y141.037 E102.69228
G1 X114.889 Y140.712 E102.71066
G1 X114.84 Y140.584 E102.71682
G1 X114.781 Y140.295 E102.73006
G1 X114.802 Y140.177 E102.73544
G1 X114.757 Y129.028 E103.23605
G1 X114.811 Y122.251 E103.54035
G1 X114.812 Y86.385 E105.15078
G1 X114.756 Y79.611 E105.45495
G1 X114.802 Y68.46 E105.95565
G1 X114.795 Y68.2 E105.96733
G1 X114.818 Y68.122 E105.97098
G1 X115.003 Y67.747 E105.98975
G1 X115.064 Y67.674 E105.99402
G1 X115.383 Y67.432 E106.012
G1 X115.507 Y67.382 E106.01801
G1 X115.805 Y67.321 E106.03166
G1 X115.923 Y67.342 E106.03705
G0 F6000 X115.886 Y67.78
G0 X116.39 Y68.929
;TYPE:SKIN
G1 F1200 X119.495 Y68.915 E106.18421
G1 X127.788 Y68.919 E106.57726
G1 X167.365 Y68.918 E108.45304
G1 X186.237 Y68.92 E109.34749
G1 X191.387 Y68.942 E109.59158
G1 X194.725 Y68.966 E109.7498
G1 X253.844 Y68.966 E112.55178
G1 X269.401 Y68.928 E113.28912
G1 X273.07 Y68.932 E113.46301
G1 X273.073 Y72.225 E113.61909
G1 X273.036 Y86.384 E114.29017
G1 X273.035 Y122.256 E115.99034
G1 X273.074 Y136.411 E116.66123
G1 X273.07 Y139.711 E116.81764
G1 X261.294 Y139.752 E117.37577
G1 X253.848 Y139.698 E117.72869
G1 X194.728 Y139.697 E120.53072
G1 X191.139 Y139.715 E120.70083
G1 X177.427 Y139.752 E121.35072
G1 X149.641 Y139.747 E122.66766
G1 X148.811 Y139.752 E122.707
G1 X148.16 Y139.753 E122.73785
G1 X138.224 Y139.714 E123.20878
G1 X135.614 Y139.698 E123.33248
G1 X128.166 Y139.753 E123.6855
G1 X116.389 Y139.71 E124.24368
G1 X116.347 Y129.041 E124.74935
G1 X116.401 Y122.259 E125.0708
G1 X116.402 Y86.377 E126.77145
G1 X116.346 Y79.619 E127.09176
G1 X116.39 Y68.929 E127.59842
G1 F2400 E125.59842
G0 F6000 X113.935 Y68.92
G0 X132.437 Y86.685
G0 X129.994 Y84.242
G1 F2400 E127.59842
G1 F1200 X129.994 Y124.396 E129.50155
G1 X147.542 Y124.396 E130.33325
G1 X147.542 Y113.142 E130.86664
G1 X157.992 Y113.142 E131.36193
G1 X157.992 Y95.496 E132.19827
G1 X147.542 Y95.496 E132.69356
G1 X147.542 Y84.242 E133.22695
G1 X129.994 Y84.242 E134.05865
G1 F2400 E132.05865
G0 F6000 X132.437 Y86.685
G0 X113.934 Y139.363
G0 X116.746 Y139.351
G1 F2400 E134.05865
G1 F1200 X117.291 Y139.353 E134.08448
G1 X116.744 Y138.806 E134.12114
G0 F6000 X117.291 Y139.353
G1 F1200 X117.859 Y139.355 E134.14806
G1 X116.741 Y138.237 E134.223
G1 X116.739 Y137.67 E134.24987
G1 X118.426 Y139.357 E134.36295
G1 X118.994 Y139.359 E134.38987
G1 X116.737 Y137.102 E134.54115
G1 X116.735 Y136.534 E134.56807
G1 X119.562 Y139.361 E134.75756
G1 X120.129 Y139.362 E134.78443
G1 X116.733 Y135.966 E135.01206
G1 X116.731 Y135.398 E135.03898
G1 X120.697 Y139.365 E135.30484
G1 X121.265 Y139.367 E135.33176
G1 X116.729 Y134.831 E135.6358
G1 X116.727 Y134.263 E135.66272
G1 X121.833 Y139.369 E136.00497
G1 X122.4 Y139.371 E136.03184
G1 X116.724 Y133.695 E136.41229
G1 X116.722 Y133.127 E136.43921
G1 X122.968 Y139.373 E136.85786
G1 X123.535 Y139.374 E136.88474
G1 X116.72 Y132.559 E137.34153
G1 X116.718 Y131.992 E137.3684
G1 X124.103 Y139.377 E137.8634
G1 X124.671 Y139.379 E137.89032
G1 X116.715 Y131.423 E138.4236
G1 X116.713 Y130.855 E138.45052
G1 X125.239 Y139.381 E139.02199
G1 X125.807 Y139.383 E139.04892
G1 X116.711 Y130.287 E139.6586
G1 X116.709 Y129.72 E139.68547
G1 X126.374 Y139.385 E140.33329
G1 X126.941 Y139.387 E140.36017
G1 X116.707 Y129.152 E141.04616
G1 X116.707 Y129.043 E141.05133
G1 X116.71 Y128.59 E141.0728
G1 X127.509 Y139.389 E141.79663
G1 X128.077 Y139.391 E141.82355
G1 X116.715 Y128.028 E142.58515
G1 X116.719 Y127.467 E142.61174
G1 X128.64 Y139.388 E143.41078
G1 X129.201 Y139.384 E143.43737
G1 X116.723 Y126.905 E144.27377
G1 X116.728 Y126.345 E144.30032
G1 X129.763 Y139.379 E145.17399
G1 X130.324 Y139.375 E145.20058
G1 X116.732 Y125.783 E146.11162
G1 X116.736 Y125.222 E146.13821
G1 X130.886 Y139.371 E147.08661
G1 X131.447 Y139.367 E147.1132
G1 X116.741 Y124.661 E148.09891
G1 X116.746 Y124.1 E148.1255
G1 X132.009 Y139.362 E149.14851
G1 X132.57 Y139.358 E149.1751
G1 X116.75 Y123.538 E150.23548
G1 X116.754 Y122.977 E150.26207
G1 X133.131 Y139.354 E151.35978
G1 X133.694 Y139.35 E151.38646
G1 X116.759 Y122.416 E152.52154
G1 X116.761 Y122.26 E152.52894
G1 X116.761 Y121.852 E152.54827
G1 X134.255 Y139.346 E153.72086
G1 X134.816 Y139.342 E153.74745
G1 X116.761 Y121.286 E154.95766
G1 X116.761 Y120.72 E154.98449
G1 X135.378 Y139.338 E156.23238
G1 X135.613 Y139.336 E156.24351
G1 X135.944 Y139.338 E156.2592
G1 X116.761 Y120.155 E157.54499
G1 X116.761 Y119.589 E157.57182
G1 X136.513 Y139.341 E158.89575
G1 X137.082 Y139.345 E158.92272
G1 X116.761 Y119.023 E160.28482
G1 X116.761 Y118.458 E160.3116
G1 X137.651 Y139.348 E161.71181
G1 X138.22 Y139.352 E161.73877
G1 X116.761 Y117.892 E163.17715
G1 X116.761 Y117.326 E163.20398
G1 X138.789 Y139.355 E164.6805
G1 X139.357 Y139.357 E164.70742
G1 X116.761 Y116.761 E166.22198
G1 X116.761 Y116.195 E166.2488
G1 X139.925 Y139.359 E167.80143
G1 X140.492 Y139.361 E167.8283
G1 X116.761 Y115.629 E169.41897
G1 X116.761 Y115.063 E169.44579
G1 X141.06 Y139.363 E171.07453
G1 X141.629 Y139.366 E171.1015
G1 X116.761 Y114.498 E172.76834
G1 X116.761 Y113.932 E172.79517
G1 X142.197 Y139.368 E174.50009
G1 X142.764 Y139.37 E174.52696
G1 X116.761 Y113.366 E176.26991
G1 X116.761 Y112.801 E176.29669
G1 X143.332 Y139.372 E178.07768
G1 X143.9 Y139.374 E178.1046
G1 X116.761 Y112.235 E179.92367
G1 X116.761 Y111.669 E179.95049
G1 X129.633 Y124.542 E180.8133
G1 X129.633 Y124.755 E180.8234
G0 F6000 X129.633 Y124.542
G1 F1200 X129.633 Y123.976 E180.85023
G1 X116.761 Y111.104 E181.71301
G1 X116.761 Y110.538 E181.73983
G1 X129.633 Y123.41 E182.60261
G1 X129.633 Y122.844 E182.62944
G1 X116.761 Y109.972 E183.49222
G1 X116.761 Y109.407 E183.519
G1 X129.633 Y122.279 E184.38177
G1 X129.633 Y121.713 E184.4086
G1 X116.761 Y108.841 E185.27138
G1 X116.761 Y108.275 E185.29821
G1 X129.633 Y121.147 E186.16099
G1 X129.633 Y120.582 E186.18776
G1 X116.761 Y107.71 E187.05054
G1 X116.761 Y107.144 E187.07737
G1 X129.633 Y120.016 E187.94015
G1 X129.633 Y119.45 E187.96698
G1 X116.761 Y106.578 E188.82976
G1 X116.761 Y106.012 E188.85658
G1 X129.633 Y118.885 E189.71939
G1 X129.633 Y118.319 E189.74622
G1 X116.761 Y105.447 E190.609
G1 X116.761 Y104.881 E190.63583
G1 X129.633 Y117.753 E191.49861
G1 X129.633 Y117.188 E191.52538
G1 X116.761 Y104.315 E192.3882
G1 X116.761 Y103.75 E192.41498
G1 X129.633 Y116.622 E193.27776
G1 X129.633 Y116.056 E193.30458
G1 X116.761 Y103.184 E194.16736
G1 X116.761 Y102.618 E194.19419
G1 X129.633 Y115.491 E195.057
G1 X129.633 Y114.925 E195.08383
G1 X116.761 Y102.053 E195.94661
G1 X116.761 Y101.487 E195.97343
G1 X129.633 Y114.359 E196.83621
G1 X129.633 Y113.793 E196.86304
G1 X116.761 Y100.921 E197.72582
G1 X116.761 Y100.356 E197.7526
G1 X129.633 Y113.228 E198.61538
G1 X129.633 Y112.662 E198.6422
G1 X116.761 Y99.79 E199.50498
G1 X116.761 Y99.224 E199.53181
G1 X129.633 Y112.096 E200.39459
G1 X129.633 Y111.531 E200.42137
G1 X116.761 Y98.659 E201.28415
G1 X116.761 Y98.093 E201.31097
G1 X129.633 Y110.965 E202.17375
G1 X129.633 Y110.399 E202.20058
G1 X116.761 Y97.527 E203.06336
G1 X116.761 Y96.962 E203.09014
G1 X129.633 Y109.834 E203.95291
G1 X129.633 Y109.268 E203.97974
G1 X116.761 Y96.396 E204.84252
G1 X116.761 Y95.83 E204.86935
G1 X129.633 Y108.702 E205.73213
G1 X129.633 Y108.137 E205.7589
G1 X116.761 Y95.264 E206.62172
G1 X116.761 Y94.699 E206.6485
G1 X129.633 Y107.571 E207.51128
G1 X129.633 Y107.005 E207.5381
G1 X116.761 Y94.133 E208.40088
G1 X116.761 Y93.567 E208.42771
G1 X129.633 Y106.44 E209.29052
G1 X129.633 Y105.874 E209.31735
G1 X116.761 Y93.002 E210.18013
G1 X116.761 Y92.436 E210.20695
G1 X129.633 Y105.308 E211.06973
G1 X129.633 Y104.743 E211.09651
G1 X116.761 Y91.87 E211.95932
G1 X116.761 Y91.305 E211.9861
G1 X129.633 Y104.177 E212.84888
G1 X129.633 Y103.611 E212.87571
G1 X116.761 Y90.739 E213.73849
G1 X116.761 Y90.173 E213.76531
G1 X129.633 Y103.045 E214.62809
G1 X129.633 Y102.48 E214.65487
G1 X116.761 Y89.608 E215.51765
G1 X116.761 Y89.042 E215.54448
G1 X129.633 Y101.914 E216.40726
G1 X129.633 Y101.348 E216.43408
G1 X116.761 Y88.476 E217.29686
G1 X116.761 Y87.911 E217.32364
G1 X129.633 Y100.783 E218.18642
G1 X129.633 Y100.217 E218.21325
G1 X116.761 Y87.345 E219.07603
G1 X116.761 Y86.779 E219.10285
G1 X129.633 Y99.651 E219.96563
G1 X129.633 Y99.086 E219.99241
G1 X116.759 Y86.212 E220.85532
G1 X116.754 Y85.641 E220.88239
G1 X129.633 Y98.52 E221.74564
G1 X129.633 Y97.954 E221.77246
