;FLAVOR:Marlin
;TIME:2416
;Filament used: 2.77429m
;Layer height: 0.4
;Generated with Cura_SteamEngine 3.6.0
M104 S215
M105
M109 S215
M82 ;absolute extrusion mode
G21 ;metric values
G90 ;absolute positioning
M82 ;set extruder to absolute mode
M107 ;start with the fan off
G28 X0 Y0 ;move X/Y to min endstops
G28 Z0 ;move Z to min endstops
G1 Z15.0 F100.0 ;move the platform down 15mm
G92 E0 ;zero the extruded length
G1 F200 E3 ;extrude 3mm of feed stock
G92 E0 ;zero the extruded length again
G1 F100.0
M117 Printing...
G5
G92 E0
;LAYER_COUNT:20
;LAYER:0
M107
M204 S3000
M205 X10 Y10
G0 F6000 X40.258 Y91.293 Z0.4
M204 S1000
M205 X8 Y8
;TYPE:SKIRT
G1 F1200 X41.187 Y90.88 E0.14202
G1 X42.182 Y90.524 E0.28964
G1 X43.381 Y90.193 E0.4634
G1 X44.116 Y90.031 E0.56854
G1 X44.611 Y89.968 E0.63824
G1 X45.769 Y89.86 E0.80071
G1 X46.521 Y89.83 E0.90584
G1 X47.273 Y89.879 E1.01111
G1 X47.732 Y89.95 E1.076
G1 X49.359 Y90.254 E1.30721
G1 X50.091 Y90.431 E1.41241
G1 X50.477 Y90.559 E1.46922
G1 X51.188 Y90.817 E1.57488
G1 X51.985 Y91.163 E1.69625
G1 X52.966 Y91.662 E1.85
G1 X53.749 Y92.125 E1.97707
G1 X54.722 Y92.789 E2.14162
G1 X55.362 Y93.282 E2.25448
G1 X56.341 Y94.128 E2.43523
G1 X56.875 Y94.64 E2.53857
G1 X58.216 Y96.068 E2.81222
G1 X58.667 Y96.599 E2.90954
G1 X62.427 Y101.485 E3.77078
G1 X65.827 Y105.618 E4.51839
G1 X69.389 Y109.478 E5.25211
G1 X73.24 Y113.203 E6.00055
G1 X76.055 Y115.774 E6.53311
G1 X76.374 Y116.084 E6.59525
G1 X77.791 Y117.551 E6.88017
G1 X78.108 Y117.902 E6.94623
G1 X79.474 Y119.519 E7.24193
G1 X79.787 Y119.919 E7.31288
G1 X80.946 Y121.509 E7.58774
G1 X81.212 Y121.899 E7.65368
G1 X82.073 Y123.262 E7.87889
G1 X82.42 Y123.879 E7.97778
G1 X83.686 Y126.411 E8.37323
G1 X83.943 Y126.986 E8.46121
G1 X84.316 Y127.934 E8.60352
G1 X84.446 Y128.294 E8.65699
G1 X85.084 Y130.213 E8.93948
G1 X85.239 Y130.748 E9.01729
G1 X85.803 Y133.028 E9.34539
G1 X85.933 Y133.683 E9.43867
G1 X86.543 Y137.763 E10.01495
G1 X86.595 Y138.203 E10.07685
G1 X87 Y142.9 E10.73542
G1 X87.017 Y143.144 E10.76959
G1 X87.238 Y147.421 E11.36785
G1 X87.245 Y147.613 E11.39469
G1 X87.432 Y155.254 E12.4624
G1 X87.432 Y155.608 E12.51185
G1 X87.336 Y159.384 E13.0395
G1 X87.311 Y159.828 E13.10162
G1 X87.151 Y161.642 E13.35601
G1 X87.072 Y162.24 E13.44027
G1 X86.468 Y165.698 E13.93064
G1 X86.293 Y166.453 E14.0389
G1 X85.892 Y167.836 E14.24005
G1 X85.673 Y168.477 E14.33468
G1 X84.849 Y170.554 E14.64682
G1 X84.561 Y171.188 E14.74409
G1 X83.781 Y172.702 E14.98201
G1 X83.341 Y173.441 E15.10215
G1 X81.72 Y175.826 E15.50499
G1 X81.254 Y176.438 E15.61244
G1 X80.016 Y177.892 E15.8792
G1 X79.562 Y178.377 E15.97201
G1 X77.658 Y180.23 E16.34315
G1 X77.158 Y180.673 E16.43647
G1 X74.281 Y182.989 E16.9524
G1 X73.91 Y183.268 E17.01725
G1 X70.284 Y185.815 E17.63625
G1 X70.143 Y185.912 E17.66015
G1 X66.726 Y188.191 E18.23391
G1 X66.467 Y188.355 E18.27673
G1 X64.935 Y189.284 E18.52702
G1 X64.563 Y189.495 E18.58676
G1 X62.264 Y190.706 E18.94974
G1 X61.755 Y190.948 E19.02847
G1 X58.745 Y192.24 E19.48605
G1 X58.056 Y192.495 E19.58867
G1 X56.075 Y193.112 E19.87852
G1 X55.522 Y193.26 E19.95849
G1 X54.064 Y193.588 E20.16725
G1 X53.492 Y193.692 E20.24846
G1 X51.816 Y193.927 E20.48488
G1 X51.347 Y193.977 E20.55076
G1 X48.457 Y194.188 E20.95555
G1 X47.887 Y194.207 E21.03522
G1 X45.463 Y194.189 E21.37384
G1 X44.534 Y194.121 E21.50396
G1 X41.956 Y193.761 E21.86759
G1 X41.5 Y193.682 E21.93223
G1 X38.957 Y193.156 E22.29499
G1 X38.449 Y193.031 E22.36807
G1 X35.873 Y192.297 E22.74224
G1 X35.302 Y192.108 E22.82626
G1 X31.733 Y190.755 E23.35945
G1 X31.451 Y190.641 E23.40194
G1 X29.451 Y189.783 E23.70595
G1 X29.035 Y189.588 E23.77013
G1 X26.617 Y188.36 E24.14897
G1 X26.121 Y188.083 E24.22833
G1 X21.485 Y185.241 E24.98795
G1 X21.172 Y185.038 E25.04006
G1 X18.827 Y183.425 E25.43765
G1 X18.499 Y183.185 E25.49443
G1 X16.326 Y181.499 E25.87864
G1 X15.891 Y181.133 E25.95805
G1 X13.629 Y179.068 E26.3859
G1 X13.215 Y178.657 E26.46739
G1 X12.149 Y177.51 E26.68614
G1 X11.786 Y177.088 E26.76389
G1 X10.742 Y175.771 E26.99866
G1 X10.43 Y175.345 E27.07242
G1 X9.553 Y174.052 E27.29067
G1 X9.274 Y173.607 E27.36405
G1 X8.551 Y172.35 E27.56661
G1 X8.304 Y171.879 E27.64091
G1 X7.699 Y170.617 E27.83641
G1 X7.44 Y170.006 E27.92911
G1 X6.641 Y167.841 E28.25149
G1 X6.416 Y167.112 E28.35806
G1 X5.919 Y165.133 E28.6431
G1 X5.783 Y164.451 E28.74025
G1 X5.387 Y161.795 E29.11537
G1 X5.323 Y161.194 E29.1998
G1 X5.12 Y157.968 E29.65134
G1 X5.106 Y157.541 E29.71102
G1 X5.097 Y154.181 E30.18039
G1 X5.1 Y153.957 E30.21168
G1 X5.294 Y147.256 E31.14815
G1 X5.302 Y147.07 E31.17416
G1 X5.58 Y142.028 E31.87956
G1 X5.602 Y141.733 E31.92089
G1 X6.07 Y136.913 E32.59737
G1 X6.143 Y136.378 E32.6728
G1 X6.759 Y132.849 E33.17323
G1 X6.913 Y132.165 E33.27117
G1 X7.624 Y129.612 E33.64138
G1 X7.811 Y129.037 E33.72584
G1 X8.498 Y127.194 E34.0006
G1 X8.729 Y126.647 E34.08354
G1 X9.494 Y125.024 E34.33419
G1 X9.742 Y124.545 E34.40954
G1 X10.678 Y122.897 E34.67429
G1 X11.045 Y122.317 E34.77017
G1 X12.716 Y119.942 E35.17583
G1 X13.162 Y119.373 E35.27682
G1 X14.915 Y117.354 E35.65034
G1 X15.272 Y116.972 E35.72337
G1 X16.793 Y115.461 E36.02287
G1 X17.035 Y115.232 E36.06941
G1 X18.724 Y113.705 E36.38748
G1 X23.626 Y108.972 E37.33935
G1 X27.134 Y105.117 E38.06746
G1 X30.514 Y100.953 E38.81665
G1 X33.145 Y97.458 E39.42775
G1 X33.52 Y97.001 E39.51033
G1 X35.403 Y94.891 E39.90539
G1 X36.058 Y94.245 E40.0339
G1 X37.263 Y93.204 E40.25634
G1 X38.063 Y92.606 E40.39587
G1 X39.3 Y91.81 E40.60135
G1 X40.258 Y91.293 E40.75342
M204 S3000
M205 X10 Y10
G0 F6000 X40.599 Y92.061
M204 S1000
M205 X8 Y8
G1 F1200 X41.528 Y91.648 E40.89544
G1 X42.405 Y91.334 E41.02557
G1 X43.604 Y91.003 E41.19933
G1 X44.296 Y90.853 E41.29824
G1 X44.689 Y90.804 E41.35356
G1 X45.847 Y90.696 E41.51603
G1 X46.554 Y90.67 E41.61486
G1 X47.578 Y90.775 E41.75865
G1 X49.205 Y91.079 E41.98987
G1 X50.19 Y91.348 E42.1325
G1 X50.901 Y91.606 E42.23816
G1 X51.604 Y91.911 E42.34521
G1 X52.585 Y92.41 E42.49896
G1 X53.276 Y92.819 E42.61113
G1 X54.249 Y93.483 E42.77568
G1 X54.813 Y93.917 E42.87509
G1 X55.792 Y94.763 E43.05584
G1 X56.262 Y95.215 E43.14693
G1 X57.603 Y96.643 E43.42058
G1 X58.001 Y97.111 E43.5064
G1 X61.762 Y101.999 E44.36795
G1 X65.198 Y106.174 E45.12328
G1 X68.79 Y110.067 E45.86323
G1 X72.664 Y113.815 E46.61622
G1 X75.488 Y116.394 E47.15046
G1 X75.77 Y116.668 E47.20539
G1 X77.187 Y118.135 E47.4903
G1 X77.466 Y118.444 E47.54846
G1 X78.832 Y120.061 E47.84415
G1 X79.109 Y120.414 E47.90683
G1 X80.268 Y122.004 E48.18169
G1 X80.501 Y122.348 E48.23973
G1 X81.362 Y123.711 E48.46494
G1 X81.669 Y124.254 E48.55208
G1 X82.935 Y126.786 E48.94753
G1 X83.161 Y127.294 E49.0252
G1 X83.534 Y128.242 E49.16751
G1 X83.649 Y128.559 E49.21461
G1 X84.287 Y130.478 E49.49711
G1 X84.424 Y130.95 E49.56577
G1 X84.988 Y133.23 E49.89387
G1 X85.102 Y133.807 E49.97603
G1 X85.712 Y137.887 E50.55231
G1 X85.758 Y138.275 E50.60689
G1 X86.163 Y142.972 E51.26546
G1 X86.178 Y143.187 E51.29556
G1 X86.399 Y147.464 E51.89383
G1 X86.405 Y147.634 E51.91759
G1 X86.592 Y155.275 E52.9853
G1 X86.592 Y155.587 E53.02888
G1 X86.496 Y159.363 E53.55653
G1 X86.474 Y159.754 E53.61124
G1 X86.314 Y161.568 E53.86563
G1 X86.245 Y162.095 E53.93987
G1 X85.641 Y165.553 E54.43024
G1 X85.486 Y166.219 E54.52576
G1 X85.085 Y167.602 E54.72692
G1 X84.892 Y168.167 E54.81032
G1 X84.068 Y170.244 E55.12246
G1 X83.814 Y170.803 E55.20823
G1 X83.034 Y172.317 E55.44614
G1 X82.646 Y172.969 E55.55213
G1 X81.025 Y175.354 E55.95497
G1 X80.614 Y175.893 E56.04965
G1 X79.376 Y177.347 E56.31642
G1 X78.976 Y177.775 E56.39825
G1 X77.072 Y179.628 E56.76939
G1 X76.631 Y180.018 E56.85163
G1 X73.754 Y182.334 E57.36757
G1 X73.427 Y182.581 E57.42481
G1 X69.801 Y185.128 E58.04381
G1 X69.676 Y185.213 E58.06493
G1 X66.259 Y187.492 E58.63868
G1 X66.032 Y187.637 E58.67631
G1 X64.5 Y188.566 E58.92659
G1 X64.171 Y188.752 E58.97939
G1 X61.872 Y189.963 E59.34237
G1 X61.424 Y190.176 E59.41167
G1 X58.414 Y191.468 E59.86924
G1 X57.807 Y191.693 E59.95967
G1 X55.826 Y192.31 E60.24952
G1 X55.338 Y192.44 E60.32006
G1 X53.88 Y192.768 E60.52882
G1 X53.375 Y192.86 E60.60053
G1 X51.699 Y193.095 E60.83695
G1 X51.286 Y193.139 E60.89497
G1 X48.396 Y193.35 E61.29975
G1 X47.894 Y193.367 E61.36992
G1 X45.47 Y193.349 E61.70854
G1 X44.65 Y193.289 E61.8234
G1 X42.072 Y192.929 E62.18702
G1 X41.67 Y192.859 E62.24402
G1 X39.127 Y192.333 E62.60678
G1 X38.68 Y192.223 E62.67108
G1 X36.104 Y191.489 E63.04525
G1 X35.6 Y191.322 E63.11942
G1 X32.031 Y189.969 E63.65261
G1 X31.782 Y189.869 E63.69009
G1 X29.782 Y189.011 E63.9941
G1 X29.415 Y188.839 E64.05072
G1 X26.997 Y187.611 E64.42956
G1 X26.56 Y187.367 E64.49948
G1 X21.924 Y184.525 E65.25909
G1 X21.648 Y184.346 E65.30505
G1 X19.303 Y182.733 E65.70264
G1 X19.014 Y182.521 E65.75271
G1 X16.841 Y180.835 E66.13691
G1 X16.457 Y180.512 E66.20701
G1 X14.195 Y178.447 E66.63486
G1 X13.831 Y178.086 E66.70648
G1 X12.765 Y176.939 E66.92522
G1 X12.444 Y176.566 E66.99396
G1 X11.4 Y175.249 E67.22873
G1 X11.125 Y174.874 E67.29369
G1 X10.248 Y173.581 E67.51194
G1 X10.003 Y173.188 E67.57663
G1 X9.28 Y171.931 E67.7792
G1 X9.061 Y171.516 E67.84475
G1 X8.456 Y170.254 E68.04025
G1 X8.228 Y169.715 E68.12201
G1 X7.429 Y167.55 E68.44438
G1 X7.231 Y166.908 E68.53823
G1 X6.734 Y164.929 E68.82327
G1 X6.613 Y164.327 E68.90904
G1 X6.217 Y161.671 E69.28417
G1 X6.161 Y161.141 E69.35862
G1 X5.958 Y157.915 E69.81016
G1 X5.946 Y157.539 E69.86271
G1 X5.937 Y154.179 E70.33208
G1 X5.94 Y153.981 E70.35974
G1 X6.134 Y147.28 E71.29621
G1 X6.14 Y147.116 E71.31914
G1 X6.418 Y142.074 E72.02454
G1 X6.438 Y141.814 E72.06096
G1 X6.906 Y136.994 E72.73745
G1 X6.97 Y136.523 E72.80385
G1 X7.586 Y132.994 E73.30428
G1 X7.722 Y132.391 E73.39063
G1 X8.433 Y129.838 E73.76084
G1 X8.598 Y129.33 E73.83545
G1 X9.285 Y127.487 E74.11021
G1 X9.488 Y127.005 E74.18327
G1 X10.253 Y125.382 E74.43391
G1 X10.473 Y124.959 E74.50051
G1 X11.409 Y123.311 E74.76527
G1 X11.732 Y122.801 E74.8496
G1 X13.403 Y120.426 E75.25526
G1 X13.796 Y119.924 E75.34432
G1 X15.549 Y117.905 E75.71783
G1 X15.864 Y117.568 E75.78227
G1 X17.385 Y116.057 E76.08176
G1 X17.598 Y115.855 E76.12277
G1 X19.324 Y114.294 E76.44786
G1 X24.215 Y109.572 E77.39756
G1 X27.788 Y105.645 E78.13921
G1 X31.155 Y101.497 E78.88553
G1 X33.816 Y97.963 E79.5035
G1 X34.146 Y97.56 E79.57626
G1 X36.029 Y95.45 E79.97132
G1 X36.608 Y94.881 E80.08472
G1 X37.813 Y93.84 E80.30716
G1 X38.517 Y93.313 E80.43001
G1 X39.754 Y92.517 E80.63549
G1 X40.599 Y92.061 E80.76962
M204 S3000
M205 X10 Y10
G0 F6000 X40.94 Y92.828
M204 S1000
M205 X8 Y8
G1 F1200 X41.869 Y92.415 E80.91165
G1 X42.629 Y92.143 E81.02441
G1 X43.828 Y91.812 E81.19816
G1 X44.767 Y91.64 E81.33152
G1 X45.925 Y91.532 E81.49398
G1 X46.583 Y91.511 E81.58595
G1 X47.423 Y91.601 E81.70396
G1 X49.05 Y91.905 E81.93517
G1 X49.904 Y92.138 E82.05883
G1 X50.615 Y92.396 E82.16449
G1 X51.223 Y92.66 E82.25708
G1 X52.204 Y93.159 E82.41083
G1 X52.802 Y93.513 E82.50791
G1 X53.775 Y94.177 E82.67246
G1 X54.264 Y94.553 E82.75863
G1 X55.243 Y95.399 E82.93938
G1 X55.65 Y95.79 E83.01822
G1 X56.991 Y97.218 E83.29187
G1 X57.336 Y97.623 E83.36619
G1 X61.127 Y102.551 E84.23472
G1 X64.559 Y106.721 E84.98916
G1 X68.19 Y110.656 E85.73711
G1 X72.091 Y114.429 E86.49524
G1 X74.922 Y117.015 E87.03086
G1 X75.165 Y117.251 E87.07818
G1 X76.582 Y118.718 E87.3631
G1 X76.824 Y118.986 E87.41354
G1 X78.19 Y120.603 E87.70924
G1 X78.43 Y120.908 E87.76345
G1 X79.589 Y122.498 E88.03831
G1 X79.791 Y122.796 E88.0886
G1 X80.652 Y124.159 E88.31381
G1 X80.918 Y124.63 E88.38937
G1 X82.184 Y127.162 E88.78482
G1 X82.38 Y127.602 E88.85211
G1 X82.753 Y128.55 E88.99442
G1 X82.852 Y128.824 E89.03512
G1 X83.49 Y130.743 E89.31761
G1 X83.608 Y131.151 E89.37694
G1 X84.172 Y133.431 E89.70504
G1 X84.271 Y133.932 E89.77638
G1 X84.881 Y138.012 E90.35266
G1 X84.921 Y138.347 E90.39979
G1 X85.326 Y143.044 E91.05836
G1 X85.339 Y143.23 E91.08441
G1 X85.56 Y147.507 E91.68267
G1 X85.565 Y147.654 E91.70322
G1 X85.752 Y155.295 E92.77093
G1 X85.752 Y155.566 E92.80878
G1 X85.656 Y159.342 E93.33643
G1 X85.637 Y159.68 E93.38372
G1 X85.477 Y161.494 E93.63811
G1 X85.417 Y161.951 E93.7025
G1 X84.813 Y165.409 E94.19287
G1 X84.68 Y165.985 E94.27545
G1 X84.279 Y167.368 E94.4766
G1 X84.111 Y167.858 E94.54896
G1 X83.287 Y169.935 E94.8611
G1 X83.067 Y170.418 E94.93524
G1 X82.287 Y171.932 E95.17315
G1 X81.952 Y172.497 E95.26491
G1 X80.331 Y174.882 E95.66775
G1 X79.975 Y175.349 E95.74978
G1 X78.737 Y176.803 E96.01654
G1 X78.39 Y177.173 E96.0874
G1 X76.486 Y179.026 E96.45854
G1 X76.105 Y179.364 E96.52969
G1 X73.228 Y181.68 E97.04563
G1 X72.944 Y181.893 E97.09522
G1 X69.318 Y184.44 E97.71422
G1 X69.21 Y184.514 E97.7325
G1 X65.793 Y186.793 E98.30626
G1 X65.596 Y186.918 E98.33885
G1 X64.064 Y187.847 E98.58913
G1 X63.78 Y188.008 E98.63474
G1 X61.481 Y189.219 E98.99772
G1 X61.093 Y189.405 E99.05783
G1 X58.083 Y190.697 E99.5154
G1 X57.557 Y190.891 E99.59372
G1 X55.576 Y191.508 E99.88356
G1 X55.154 Y191.621 E99.94459
G1 X53.696 Y191.949 E100.15335
G1 X53.259 Y192.028 E100.21538
G1 X51.583 Y192.263 E100.4518
G1 X51.225 Y192.302 E100.50211
G1 X48.335 Y192.513 E100.90689
G1 X47.9 Y192.527 E100.96769
G1 X45.476 Y192.509 E101.30631
G1 X44.766 Y192.457 E101.40576
G1 X42.188 Y192.097 E101.76938
G1 X41.84 Y192.037 E101.81871
G1 X39.297 Y191.511 E102.18147
G1 X38.91 Y191.416 E102.23714
G1 X36.334 Y190.682 E102.61131
G1 X35.898 Y190.537 E102.67549
G1 X32.329 Y189.184 E103.20868
G1 X32.113 Y189.097 E103.24121
G1 X30.113 Y188.239 E103.54522
G1 X29.796 Y188.091 E103.59409
G1 X27.378 Y186.863 E103.97293
G1 X26.999 Y186.651 E104.03359
G1 X22.363 Y183.809 E104.79321
G1 X22.124 Y183.654 E104.833
G1 X19.779 Y182.041 E105.23059
G1 X19.528 Y181.857 E105.27407
G1 X17.355 Y180.171 E105.65828
G1 X17.024 Y179.892 E105.71875
G1 X14.762 Y177.827 E106.1466
G1 X14.446 Y177.514 E106.20873
G1 X13.38 Y176.367 E106.42747
G1 X13.103 Y176.044 E106.48692
G1 X12.059 Y174.727 E106.72168
G1 X11.82 Y174.402 E106.77804
G1 X10.943 Y173.109 E106.99629
G1 X10.731 Y172.769 E107.05226
G1 X10.008 Y171.512 E107.25483
G1 X9.819 Y171.153 E107.3115
G1 X9.214 Y169.891 E107.50701
G1 X9.016 Y169.425 E107.57773
G1 X8.217 Y167.26 E107.90011
G1 X8.045 Y166.703 E107.98154
G1 X7.548 Y164.724 E108.26658
G1 X7.444 Y164.203 E108.34079
G1 X7.048 Y161.547 E108.71592
G1 X7 Y161.088 E108.78039
G1 X6.797 Y157.862 E109.23193
G1 X6.786 Y157.537 E109.27735
G1 X6.777 Y154.177 E109.74672
G1 X6.779 Y154.005 E109.77075
G1 X6.973 Y147.304 E110.70722
G1 X6.979 Y147.163 E110.72694
G1 X7.257 Y142.121 E111.43234
G1 X7.274 Y141.895 E111.464
G1 X7.742 Y137.075 E112.14048
G1 X7.798 Y136.667 E112.19801
G1 X8.414 Y133.138 E112.69844
G1 X8.532 Y132.616 E112.7732
G1 X9.243 Y130.063 E113.1434
G1 X9.385 Y129.624 E113.20786
G1 X10.072 Y127.781 E113.48262
G1 X10.248 Y127.363 E113.54597
G1 X11.013 Y125.74 E113.79662
G1 X11.203 Y125.374 E113.85422
G1 X12.139 Y123.726 E114.11898
G1 X12.419 Y123.284 E114.19207
G1 X14.09 Y120.909 E114.59773
G1 X14.43 Y120.475 E114.67474
G1 X16.183 Y118.456 E115.04826
G1 X16.456 Y118.164 E115.1041
G1 X17.977 Y116.653 E115.40359
G1 X18.161 Y116.478 E115.43906
G1 X19.892 Y114.913 E115.76505
G1 X24.834 Y110.141 E116.72472
G1 X28.41 Y106.212 E117.46687
G1 X31.82 Y102.01 E118.22282
G1 X34.487 Y98.468 E118.84219
G1 X34.773 Y98.119 E118.90522
G1 X36.656 Y96.009 E119.30028
G1 X37.157 Y95.517 E119.39837
G1 X38.362 Y94.476 E119.62081
G1 X38.972 Y94.019 E119.72729
G1 X40.209 Y93.223 E119.93277
G1 X40.94 Y92.828 E120.04884
M204 S3000
M205 X10 Y10
;MESH:cover.stl
G0 F6000 X38.575 Y100.958
G0 X40.059 Y102.215
G0 X25.312 Y127.169
G0 X24.993 Y127.82
G0 X24.793 Y128.477
G0 X24.602 Y129.797
G0 X24.587 Y164.221
G0 X24.793 Y165.797
G0 X24.995 Y166.46
G0 X25.083 Y166.64
G0 X25.729 Y167.736
G0 X25.799 Y167.666
M204 S1000
M205 X8 Y8
;TYPE:WALL-INNER
G1 F1200 X26.387 Y168.123 E120.15287
G1 X27.025 Y168.434 E120.25202
G1 X27.678 Y168.634 E120.34742
G1 X28.338 Y168.756 E120.44118
G1 X29.033 Y168.828 E120.53879
G1 X63.655 Y168.828 E125.37522
G1 X64.358 Y168.756 E125.47394
G1 X65.019 Y168.634 E125.56784
G1 X65.672 Y168.434 E125.66324
G1 X66.31 Y168.123 E125.76239
G1 X66.898 Y167.666 E125.86642
