;FLAVOR:Marlin
;TIME:2649
;Filament used: 6.94412m
;Layer height: 0.2
;MINX:69.364
;MINY:66.675
;MINZ:0.2
;MAXX:165.636
;MAXY:163.325
;MAXZ:30.6
;TARGET_MACHINE.NAME:ELEGOO NEPTUNE 4 Pro
;Generated with Cura_SteamEngine 5.8.1
M82 ;absolute extrusion mode
;ELEGOO NEPTUNE 4 / 4 PRO
M220 S100 ;Set the feed speed to 100%
M221 S100 ;Set the flow rate to 100%
M104 S140 ;Start heating extruder
M190 S60 ;Wait for the bed to reach print temp
G90
G28 ;home
G1 Z10 F300
G1 X67.5 Y0 F6000
G1 Z0 F300
M109 S225.0 ;Wait for extruder to reach print temp
G92 E0 ;Reset Extruder
G1 X67.5 Y0 Z0.4 F300 ;Move to start position
G1 X167.5 E30 F400 ;Draw the first line
G1 Z0.6 F120.0 ;Move to side a little
G1 X162.5 F3000
G92 E0 ;Reset Extruder
G92 E0
G92 E0
G1 F2700 E-0.5
;LAYER_COUNT:153
;LAYER:0
M107
M204 S500
G0 F7200 X120.4 Y76.871 Z0.2
;TYPE:SKIRT
G1 F2700 E0
G1 F3600 X120.75 Y76.363 E0.02693
G1 X121.116 Y75.921 E0.05198
G1 X121.544 Y75.488 E0.07856
G1 X121.977 Y75.12 E0.10337
G1 X122.479 Y74.764 E0.13023
G1 X122.964 Y74.48 E0.15477
G1 X123.487 Y74.231 E0.18005
G1 X124.013 Y74.034 E0.20457
G1 X124.637 Y73.86 E0.23285
G1 X125.228 Y73.753 E0.25907
G1 X128.996 Y73.422 E0.42419
G1 X131.771 Y73.095 E0.54617
G1 X134.432 Y72.704 E0.66358
G1 X137.142 Y72.229 E0.78369
G1 X139.795 Y71.686 E0.9019
G1 X142.514 Y71.047 E1.02383
G1 X145.112 Y70.359 E1.14115
G1 X147.77 Y69.575 E1.26213
G1 X150.35 Y68.733 E1.3806
G1 X153.736 Y67.506 E1.53782
G1 X154.863 Y67.075 E1.59049
G1 X155.614 Y66.864 E1.62454
G1 X156.192 Y66.757 E1.6502
G1 X156.913 Y66.69 E1.68181
G1 X157.862 Y66.675 E1.72325
G1 X158.967 Y66.685 E1.77149
G1 X159.747 Y66.751 E1.80566
G1 X160.298 Y66.845 E1.83006
G1 X160.867 Y66.994 E1.85574
G1 X161.397 Y67.183 E1.8803
G1 X161.955 Y67.438 E1.90708
G1 X162.455 Y67.722 E1.93218
G1 X162.961 Y68.072 E1.95904
G1 X163.397 Y68.434 E1.98378
G1 X163.81 Y68.842 E2.00912
G1 X164.172 Y69.267 E2.03349
G1 X164.532 Y69.771 E2.06053
G1 X164.825 Y70.269 E2.08576
G1 X165.1 Y70.849 E2.11378
G1 X165.301 Y71.392 E2.13905
G1 X165.452 Y71.948 E2.1642
G1 X165.551 Y72.491 E2.1883
G1 X165.621 Y73.22 E2.22027
G1 X165.636 Y74.153 E2.261
G1 X165.636 Y77.755 E2.41824
G1 X165.623 Y78.666 E2.45802
G1 X165.091 Y82.628 E2.63253
G1 X164.808 Y85.36 E2.75243
G1 X164.602 Y88.107 E2.87268
G1 X164.475 Y90.816 E2.99107
G1 X164.425 Y93.53 E3.10957
G1 X164.452 Y96.279 E3.22958
G1 X164.557 Y99.027 E3.34962
G1 X164.741 Y101.775 E3.46985
G1 X164.994 Y104.45 E3.58715
G1 X165.5 Y108.349 E3.75878
G1 X165.588 Y108.936 E3.78469
G1 X165.633 Y109.572 E3.81253
G1 X165.636 Y113.784 E3.9964
G1 X165.622 Y114.709 E4.03678
G1 X165.516 Y115.444 E4.0692
G1 X165.402 Y116.08 E4.09741
G1 X165.238 Y116.706 E4.12566
G1 X164.593 Y117.989 E4.18834
G1 X164.271 Y118.508 E4.21501
G1 X161.863 Y121.709 E4.38987
G1 X160.261 Y123.901 E4.50839
G1 X158.683 Y126.192 E4.62983
G1 X157.214 Y128.458 E4.74771
G1 X155.777 Y130.821 E4.86845
G1 X154.435 Y133.175 E4.98673
G1 X153.154 Y135.576 E5.10553
G1 X151.921 Y138.055 E5.2264
G1 X150.776 Y140.53 E5.34544
G1 X149.692 Y143.058 E5.46552
G1 X148.685 Y145.604 E5.58504
G1 X147.75 Y148.177 E5.70454
G1 X146.9 Y150.741 E5.82246
G1 X146.104 Y153.389 E5.94317
G1 X145.396 Y156.013 E6.06181
G1 X144.553 Y159.597 E6.22254
G1 X144.306 Y160.742 E6.27367
G1 X144.16 Y161.231 E6.29595
G1 X143.939 Y161.691 E6.31823
G1 X143.649 Y162.111 E6.34051
G1 X143.297 Y162.481 E6.3628
G1 X142.891 Y162.791 E6.3851
G1 X142.442 Y163.034 E6.40739
G1 X141.961 Y163.204 E6.42966
G1 X141.459 Y163.297 E6.45195
G1 X140.729 Y163.325 E6.48384
G1 X73.291 Y163.325 E9.42777
G1 X72.593 Y163.316 E9.45824
G1 X72.085 Y163.269 E9.48051
G1 X71.59 Y163.144 E9.5028
G1 X71.121 Y162.943 E9.52508
G1 X70.688 Y162.671 E9.5474
G1 X70.304 Y162.336 E9.56964
G1 X69.976 Y161.944 E9.59196
G1 X69.714 Y161.506 E9.61424
G1 X69.523 Y161.033 E9.6365
G1 X69.409 Y160.535 E9.65881
G1 X69.365 Y160.042 E9.68041
G1 X69.364 Y156.609 E9.83028
G1 X69.374 Y155.92 E9.86036
G1 X69.422 Y155.411 E9.88268
G1 X69.548 Y154.917 E9.90493
G1 X69.749 Y154.448 E9.92721
G1 X70.022 Y154.016 E9.94951
G1 X70.358 Y153.632 E9.97179
G1 X70.964 Y153.166 E10.00516
G1 X71.529 Y152.829 E10.03388
G1 X72.89 Y152.042 E10.10251
G1 X75.203 Y150.615 E10.22115
G1 X77.507 Y149.104 E10.34143
G1 X79.74 Y147.545 E10.46032
G1 X81.956 Y145.904 E10.58069
G1 X84.108 Y144.213 E10.70017
G1 X86.182 Y142.488 E10.81793
G1 X88.255 Y140.659 E10.93861
G1 X90.248 Y138.802 E11.05753
G1 X92.172 Y136.904 E11.17551
G1 X94.095 Y134.895 E11.29691
G1 X95.923 Y132.873 E11.4159
G1 X97.723 Y130.767 E11.53684
G1 X99.425 Y128.656 E11.65521
G1 X101.072 Y126.49 E11.774
G1 X102.676 Y124.254 E11.89413
G1 X104.205 Y121.99 E12.01339
G1 X105.663 Y119.693 E12.13215
G1 X107.079 Y117.316 E12.25294
G1 X108.4 Y114.949 E12.37127
G1 X109.667 Y112.522 E12.49078
G1 X110.87 Y110.045 E12.61099
G1 X111.99 Y107.564 E12.72982
G1 X113.058 Y105.008 E12.85075
G1 X114.026 Y102.492 E12.96843
G1 X114.937 Y99.914 E13.08779
G1 X115.791 Y97.255 E13.20971
G1 X116.536 Y94.688 E13.32639
G1 X117.228 Y92.029 E13.44633
G1 X117.853 Y89.314 E13.56795
G1 X118.381 Y86.679 E13.68527
G1 X118.839 Y84.003 E13.80379
G1 X119.231 Y81.246 E13.92535
G1 X119.467 Y79.272 E14.01214
G1 X119.682 Y78.439 E14.04969
G1 X119.878 Y77.89 E14.07514
G1 X120.123 Y77.358 E14.10071
G1 X120.4 Y76.871 E14.12517
G1 F2700 E13.62517
;MESH:camera-mount.stl
G0 F7200 X121.964 Y80.356
G0 X123.053 Y80.45
G0 X125.175 Y107.515
G0 X125.35 Y108.01
G0 X129.246 Y109.387
G0 X160.386 Y109.416
G0 X160.91 Y109.44
G0 X160.921 Y114.331
G0 X160.801 Y115.071
G0 X160.435 Y115.762
G0 X139.675 Y144.142
G0 X139.812 Y158.748
;TYPE:WALL-INNER
G1 F2700 E14.12517
G1 F3600 X139.813 Y144.162 E14.7619
G1 X139.991 Y143.339 E14.79866
G1 X140.111 Y143.041 E14.81268
G1 X140.344 Y142.663 E14.83207
G1 X160.553 Y115.837 E16.29824
G1 X160.935 Y115.117 E16.33382
G1 X161.06 Y114.342 E16.36809
G1 X161.06 Y109.525 E16.57837
G1 X161.029 Y109.354 E16.58596
G1 X160.971 Y109.292 E16.58966
G1 X159.717 Y109.256 E16.64443
G1 X159.118 Y109.248 E16.67058
G1 X156.201 Y109.255 E16.79792
G1 X156.088 Y109.248 E16.80286
G1 X126.12 Y109.248 E18.11108
G1 X125.847 Y109.22 E18.12306
G1 X125.405 Y109.098 E18.14308
G1 X124.918 Y108.769 E18.16873
G1 X124.491 Y108.174 E18.2007
G1 X124.384 Y107.866 E18.21494
G1 F3873 X124.35 Y107.164 E18.24346
G1 F4218.8 X124.356 Y80.321 E19.24339
G1 F4144.7 X124.47 Y79.869 E19.26107
G1 F3970.6 X124.631 Y79.588 E19.27389
G1 F3978.9 X125.009 Y79.086 E19.29871
G1 F4126.6 X125.248 Y78.901 E19.31022
G1 F4200 X125.517 Y78.773 E19.32136
G1 F4218.8 X126.12 Y78.663 E19.3442
G1 X150.12 Y78.662 E20.23823
G1 F3873 X151.739 Y78.624 E20.30394
G1 F3600 X160.892 Y78.624 E20.70351
G1 X160.996 Y78.56 E20.70884
G1 X161.06 Y78.456 E20.71417
G1 X161.06 Y73.492 E20.93087
G1 X161.019 Y73.051 E20.9502
G1 X160.926 Y72.701 E20.96601
G1 X160.761 Y72.348 E20.98302
G1 X160.537 Y72.025 E21.00018
G1 X160.281 Y71.77 E21.01595
G1 X159.963 Y71.548 E21.03288
G1 X159.614 Y71.383 E21.04974
G1 X159.256 Y71.29 E21.06588
G1 X158.812 Y71.248 E21.08535
G1 X157.188 Y71.248 E21.15624
G1 X156.738 Y71.289 E21.17597
G1 X156.386 Y71.382 E21.19186
G1 X156.036 Y71.546 E21.20874
G1 X155.708 Y71.773 E21.22615
G1 X155.455 Y72.026 E21.24177
G1 X155.236 Y72.34 E21.25848
G1 X155.066 Y72.701 E21.2759
G1 X154.974 Y73.048 E21.29157
G1 X154.861 Y74.271 E21.34519
G1 X154.653 Y75.077 E21.38153
G1 X154.291 Y75.846 E21.41863
G1 X153.811 Y76.533 E21.45521
G1 X153.222 Y77.122 E21.49158
G1 X152.53 Y77.61 E21.52854
G1 X151.762 Y77.966 E21.56549
G1 F3662.8 X151 Y78.152 E21.59915
G1 F3937.5 X150.237 Y78.207 E21.62968
G1 F4181.4 X126.176 Y78.211 E22.53399
G1 F4190.7 X125.73 Y78.252 E22.55078
G1 X125.368 Y78.347 E22.56482
G1 F4200 X125.015 Y78.514 E22.57943
G1 F4126.6 X124.692 Y78.745 E22.59455
G1 F3987.3 X124.438 Y79.016 E22.60919
G1 F3905 X124.219 Y79.33 E22.6246
G1 F3970.6 X124.04 Y79.687 E22.64041
G1 F4108.7 X123.938 Y80.042 E22.65453
G1 F4181.4 X123.898 Y80.503 E22.67192
G1 X123.898 Y107.293 E23.6788
G1 F4004.2 X123.805 Y108.019 E23.70753
G1 F3841.5 X121.832 Y113.146 E23.93227
G1 F3795.2 X119.858 Y118.273 E24.15976
G1 F3764.9 X117.885 Y123.4 E24.38907
G1 F3720.5 X115.911 Y128.528 E24.62117
G1 F3691.4 X113.937 Y133.655 E24.85506
G1 F3648.6 X111.964 Y138.782 E25.09168
G1 F3620.7 X109.99 Y143.91 E25.33018
G1 F3600 X109.937 Y144.19 E25.34262
G1 X109.936 Y155.96 E25.85643
G1 X109.904 Y156.248 E25.86908
G1 X109.782 Y156.578 E25.88443
G1 X109.529 Y156.911 E25.90269
G1 X109.129 Y157.172 E25.92354
G1 X108.786 Y157.272 E25.93914
G1 X73.936 Y157.272 E27.46048
G1 X73.936 Y158.748 E27.52491
G1 X139.812 Y158.748 E30.40066
G1 F2700 E29.90066
G0 F7200 X74.086 Y158.598
G0 X74.086 Y157.422
G0 X109.167 Y156.872
G0 X109.167 Y156.53
G1 F2700 E30.40066
G1 F3600 X108.927 Y156.687 E30.41318
G1 X108.723 Y156.747 E30.42246
G1 X73.411 Y156.747 E31.96397
G1 X73.411 Y159.273 E32.07424
G1 X140.337 Y159.273 E34.99582
G1 X140.338 Y144.226 E35.65268
G1 X140.508 Y143.428 E35.6883
G1 X140.778 Y142.959 E35.71192
G1 X160.997 Y116.12 E37.17881
G1 X161.439 Y115.286 E37.22001
G1 X161.585 Y114.384 E37.2599
G1 X161.585 Y109.491 E37.4735
G1 X161.553 Y109.247 E37.48424
G1 X161.37 Y108.938 E37.49992
G1 X161.096 Y108.771 E37.51393
G1 X159.724 Y108.731 E37.57385
G1 X159.117 Y108.723 E37.60035
G1 X156.229 Y108.73 E37.72642
G1 X156.102 Y108.723 E37.73197
G1 X126.021 Y108.723 E39.04513
G1 X125.616 Y108.617 E39.0634
G1 X125.242 Y108.356 E39.08331
G1 X124.986 Y107.999 E39.10249
G1 X124.837 Y107.436 E39.12791
G1 X124.839 Y80.362 E40.3098
G1 X124.926 Y80.053 E40.32381
G1 X125.33 Y79.459 E40.35517
G1 X125.674 Y79.234 E40.37312
G1 X126.048 Y79.152 E40.38983
G1 X160.817 Y79.149 E41.90763
G1 X161.061 Y79.117 E41.91838
G1 X161.37 Y78.934 E41.93405
G1 X161.553 Y78.625 E41.94973
G1 X161.585 Y78.381 E41.96047
G1 X161.585 Y73.468 E42.17494
G1 X161.538 Y72.959 E42.19726
G1 X161.421 Y72.522 E42.21701
G1 X161.218 Y72.086 E42.238
G1 X160.941 Y71.687 E42.25921
G1 X160.62 Y71.366 E42.27902
G1 X160.228 Y71.092 E42.2999
G1 X159.794 Y70.888 E42.32084
G1 X159.347 Y70.771 E42.34101
G1 X158.836 Y70.723 E42.36341
G1 X157.164 Y70.723 E42.4364
G1 X156.646 Y70.77 E42.45911
G1 X156.206 Y70.887 E42.47898
G1 X155.774 Y71.089 E42.4998
G1 X155.37 Y71.368 E42.52123
G1 X155.051 Y71.688 E42.54096
G1 X154.78 Y72.076 E42.56162
G1 X154.571 Y72.52 E42.58304
G1 X154.455 Y72.957 E42.60278
G1 X154.344 Y74.18 E42.65639
G1 X154.155 Y74.902 E42.68897
G1 X153.834 Y75.583 E42.72183
G1 X153.407 Y76.195 E42.75441
G1 X152.885 Y76.717 E42.78663
G1 X152.269 Y77.151 E42.81953
G1 X151.593 Y77.466 E42.85209
G1 X150.868 Y77.656 E42.8848
G1 X150.192 Y77.72 E42.91445
G1 X126.164 Y77.723 E43.96336
G1 X125.645 Y77.77 E43.98611
G1 X125.202 Y77.887 E44.00611
G1 X124.771 Y78.089 E44.02689
G1 X124.373 Y78.365 E44.04804
G1 X124.05 Y78.691 E44.06807
G1 X123.78 Y79.076 E44.0886
G1 X123.574 Y79.516 E44.10981
G1 X123.455 Y79.957 E44.12975
G1 X123.411 Y80.474 E44.1524
G1 X123.411 Y107.243 E45.32097
G1 X123.283 Y107.913 E45.35074
G1 X109.481 Y143.768 E47.02792
G1 X109.412 Y144.141 E47.04448
G1 X109.411 Y156.081 E47.5657
G1 X109.319 Y156.331 E47.57733
G1 X109.167 Y156.53 E47.58826
G0 F7200 X108.805 Y156.15
;TYPE:WALL-OUTER
G1 F3600 X108.67 Y156.219 E47.59488
G1 X72.886 Y156.222 E49.157
G1 X72.886 Y159.798 E49.3131
G1 X140.862 Y159.798 E52.28052
G1 X140.863 Y144.284 E52.95777
G1 X141.012 Y143.579 E52.98922
G1 X141.218 Y143.246 E53.00632
G1 X161.442 Y116.402 E54.47351
G1 X161.944 Y115.455 E54.5203
G1 X162.11 Y114.427 E54.56576
G1 X162.11 Y109.457 E54.78272
G1 X162.064 Y109.109 E54.79804
G1 X161.943 Y108.821 E54.81168
G1 X161.745 Y108.563 E54.82588
G1 X161.487 Y108.365 E54.84007
G1 X161.208 Y108.249 E54.85326
G1 X159.731 Y108.206 E54.91777
G1 X159.115 Y108.198 E54.94466
G1 X156.257 Y108.206 E55.06942
G1 X156.116 Y108.198 E55.07559
G1 X126.065 Y108.193 E56.38743
G1 X125.826 Y108.137 E56.39815
G1 X125.566 Y107.943 E56.41231
G1 X125.48 Y107.822 E56.41879
G1 X125.362 Y107.436 E56.43641
G1 X125.362 Y80.352 E57.61873
G1 X125.712 Y79.83 E57.64617
G1 X125.843 Y79.731 E57.65334
G1 X126.096 Y79.675 E57.66465
G1 X160.851 Y79.674 E59.18184
G1 X161.199 Y79.628 E59.19717
G1 X161.487 Y79.507 E59.2108
G1 X161.745 Y79.309 E59.225
G1 X161.943 Y79.051 E59.2392
G1 X162.064 Y78.763 E59.25283
G1 X162.11 Y78.415 E59.26816
G1 X162.11 Y73.444 E59.48516
G1 X162.057 Y72.867 E59.51046
G1 X161.916 Y72.342 E59.53419
G1 X161.675 Y71.823 E59.55917
G1 X161.346 Y71.349 E59.58435
G1 X160.959 Y70.962 E59.60825
G1 X160.492 Y70.636 E59.63311
G1 X159.974 Y70.392 E59.6581
G1 X159.438 Y70.252 E59.68229
G1 X158.86 Y70.198 E59.70763
G1 X157.14 Y70.198 E59.78271
G1 X156.554 Y70.251 E59.8084
G1 X156.026 Y70.392 E59.83226
G1 X155.511 Y70.633 E59.85708
G1 X155.033 Y70.963 E59.88243
G1 X154.646 Y71.349 E59.9063
G1 X154.324 Y71.812 E59.93091
G1 X154.076 Y72.339 E59.95634
G1 X153.936 Y72.866 E59.98014
G1 X153.827 Y74.09 E60.03379
G1 X153.666 Y74.7 E60.06133
G1 X153.367 Y75.335 E60.09197
G1 X152.986 Y75.874 E60.12078
G1 X152.528 Y76.327 E60.1489
G1 X151.983 Y76.706 E60.17788
G1 X151.388 Y76.978 E60.20644
G1 X150.778 Y77.139 E60.23398
G1 X150.144 Y77.197 E60.26177
G1 X126.14 Y77.198 E61.30964
G1 X125.554 Y77.251 E61.33533
G1 X125.022 Y77.392 E61.35935
G1 X124.508 Y77.632 E61.38412
G1 X124.034 Y77.962 E61.40933
G1 X123.646 Y78.353 E61.43338
G1 X123.324 Y78.812 E61.45785
G1 X123.079 Y79.335 E61.48307
G1 X122.936 Y79.866 E61.50707
G1 X122.886 Y80.452 E61.53275
G1 X122.882 Y107.213 E62.70097
G1 X122.769 Y107.787 E62.72651
G1 X108.974 Y143.624 E64.40284
G1 X108.887 Y144.093 E64.42366
G1 X108.88 Y156.018 E64.94423
G1 X108.805 Y156.15 E64.95086
G0 F7200 X108.67 Y156.219
G0 X108.622 Y156.219
G1 F2700 E64.45086
G0 F7200 X108.622 Y156.872
G0 X109.462 Y156.8
G0 X110.123 Y143.95
G0 X124.019 Y107.047
G0 X124.126 Y107.167
;TYPE:SKIN
G1 F2700 E64.95086
G1 F5558.8 X124.104 Y107.951 E64.97303
G1 F2700 E64.47303
G0 F7200 X123.894 Y107.928
G0 X109.475 Y144.149
G0 X109.462 Y156.8
G0 X74.086 Y157.422
G0 X74.014 Y158.288
G0 X74.392 Y158.288
G1 F2700 E64.97303
G1 F3375 X74.392 Y157.728 E64.99911
G1 F3363 X108.853 Y157.726 E66.60949
G1 F3474.3 X109.34 Y157.552 E66.63288
G1 F3600 X109.792 Y157.256 E66.65647
G1 X110.148 Y156.821 E66.68101
G1 X110.337 Y156.31 E66.70479
G1 X110.373 Y155.994 E66.71867
G1 X110.374 Y144.23 E67.23222
G1 X110.413 Y144.033 E67.24098
G1 X124.126 Y108.402 E68.90764
G1 X124.628 Y109.106 E68.94538
G1 X125.186 Y109.478 E68.97466
G1 X125.586 Y109.612 E68.99307
G1 X126.086 Y109.684 E69.01512
G1 X156.074 Y109.686 E70.32422
G1 X156.269 Y109.694 E70.33274
G1 X159.094 Y109.686 E70.45606
G1 X160.618 Y109.721 E70.52261
G1 X160.618 Y114.314 E70.72311
G1 X160.512 Y114.967 E70.75199
G1 X160.177 Y115.603 E70.78337
G1 X139.973 Y142.419 E72.24906
G1 X139.6 Y143.066 E72.28166
G1 X139.375 Y144.108 E72.3282
G1 X139.37 Y158.305 E72.94795
G1 X109.375 Y158.306 E74.25735
G1 F3474.3 X108.901 Y158.286 E74.27881
G1 F3363 X74.392 Y158.288 E75.89144
G1 F2700 E75.39144
G0 F7200 X74.014 Y158.288
G0 X74.086 Y157.422
G0 X109.161 Y157.24
G0 X109.5 Y157.76
G1 F2700 E75.89144
G1 F3600 X109.783 Y158.043 E75.90891
G0 F7200 X109.945 Y157.463
G1 F3600 X110.526 Y158.043 E75.94474
G0 F7200 X111.268 Y158.043
G1 F3600 X110.287 Y157.062 E76.00531
G0 F7200 X110.528 Y156.561
G1 F3600 X112.011 Y158.043 E76.09683
G0 F7200 X112.753 Y158.043
G1 F3600 X110.633 Y155.923 E76.22771
G0 F7200 X110.633 Y155.181
G1 F3600 X113.496 Y158.043 E76.40443
G0 F7200 X114.238 Y158.043
G1 F3600 X110.633 Y154.438 E76.62699
G0 F7200 X110.633 Y153.696
G1 F3600 X114.981 Y158.043 E76.89539
G0 F7200 X115.723 Y158.043
G1 F3600 X110.634 Y152.954 E77.20956
G0 F7200 X110.634 Y152.212
G1 F3600 X116.465 Y158.043 E77.56954
G0 F7200 X117.208 Y158.043
G1 F3600 X110.634 Y151.469 E77.97539
G0 F7200 X110.634 Y150.727
G1 F3600 X117.95 Y158.043 E78.42706
G0 F7200 X118.693 Y158.043
G1 F3600 X110.635 Y149.985 E78.92452
G0 F7200 X110.635 Y149.243
G1 F3600 X119.435 Y158.043 E79.4678
G0 F7200 X120.178 Y158.043
G1 F3600 X110.635 Y148.5 E80.05695
G0 F7200 X110.635 Y147.758
G1 F3600 X120.92 Y158.043 E80.6919
G0 F7200 X121.663 Y158.043
G1 F3600 X110.635 Y147.016 E81.37269
G0 F7200 X110.635 Y146.274
