;FLAVOR:Marlin
;TIME:2627
;Filament used: 13.146m
;Layer height: 0.4
;MINX:-44.2
;MINY:-31.644
;MINZ:0.6
;MAXX:44.2
;MAXY:27.043
;MAXZ:75.8
;Generated with Cura_SteamEngine 4.10.0
M104 S220
M105
M109 S220
M82 ;absolute extrusion mode
G21        ;metric values
G90        ;absolute positioning
M107       ;start with the fan off
G28   ;move to endstops

;Z-Offset Reset und dann Z +0,1 für PLA
;MacroZOffset0
;MacroZOffsetPlus0100

G92 E0                  ;zero the extruded length
G1 F200 E3              ;extrude 3mm of feed stock
G92 E0                  ;zero the extruded length again
G1 F120
;Put printing message on LCD screen
M117 Printing...
G92 E0
G92 E0
G1 F2400 E-6
;LAYER_COUNT:190
;LAYER:0
M107
G0 F1200 X-34.353 Y26.756 Z0.6
;TYPE:SKIRT
G1 F2400 E0
G1 F600 X-35.05 Y26.746 E0.1252
G1 X-35.626 Y26.705 E0.22891
G1 X-36.162 Y26.639 E0.32591
G1 X-36.867 Y26.537 E0.45385
G1 X-37.434 Y26.414 E0.55805
G1 X-37.801 Y26.289 E0.62768
G1 X-38.542 Y25.998 E0.77067
G1 X-38.669 Y25.946 E0.79531
G1 X-39.133 Y25.746 E0.88606
G1 X-39.648 Y25.481 E0.99009
G1 X-39.969 Y25.265 E1.05958
G1 X-40.623 Y24.781 E1.20571
G1 X-41.103 Y24.405 E1.31522
G1 X-41.532 Y24.016 E1.41923
G1 X-41.793 Y23.717 E1.49051
G1 X-42.372 Y22.985 E1.65814
G1 X-42.678 Y22.575 E1.75002
G1 X-42.992 Y22.088 E1.8541
G1 X-43.166 Y21.733 E1.9251
G1 X-43.511 Y20.933 E2.08158
G1 X-43.709 Y20.438 E2.17733
G1 X-43.886 Y19.886 E2.28144
G1 X-43.962 Y19.502 E2.35175
G1 X-44.079 Y18.723 E2.49323
G1 X-44.098 Y18.582 E2.51878
G1 X-44.163 Y18.021 E2.62022
G1 X-44.197 Y17.422 E2.72797
G1 X-44.199 Y17.288 E2.75204
G1 X-44.2 Y-21.796 E9.77171
G1 X-44.19 Y-22.494 E9.89709
G1 X-44.149 Y-23.07 E10.00081
G1 X-44.083 Y-23.603 E10.09727
G1 X-43.982 Y-24.305 E10.22465
G1 X-43.86 Y-24.871 E10.32864
G1 X-43.732 Y-25.249 E10.40031
G1 X-43.443 Y-25.981 E10.54166
G1 X-43.396 Y-26.095 E10.56381
G1 X-43.19 Y-26.575 E10.65762
G1 X-42.925 Y-27.091 E10.76181
G1 X-42.704 Y-27.42 E10.83299
G1 X-42.164 Y-28.146 E10.9955
G1 X-41.847 Y-28.549 E11.08759
G1 X-41.458 Y-28.978 E11.1916
G1 X-41.159 Y-29.24 E11.263
G1 X-40.535 Y-29.736 E11.40616
G1 X-40.426 Y-29.82 E11.43088
G1 X-40.022 Y-30.12 E11.52126
G1 X-39.534 Y-30.432 E11.62529
G1 X-39.195 Y-30.599 E11.69316
G1 X-38.46 Y-30.919 E11.83714
G1 X-37.866 Y-31.157 E11.95207
G1 X-37.314 Y-31.333 E12.05613
G1 X-36.942 Y-31.407 E12.12425
G1 X-36.193 Y-31.52 E12.2603
G1 X-36.058 Y-31.538 E12.28476
G1 X-35.481 Y-31.606 E12.38911
G1 X-34.893 Y-31.639 E12.49488
G1 X-34.543 Y-31.644 E12.55775
G1 X34.353 Y-31.644 E24.9318
G1 X35.051 Y-31.634 E25.05717
G1 X35.639 Y-31.592 E25.16305
G1 X36.219 Y-31.519 E25.26804
G1 X36.87 Y-31.425 E25.38618
G1 X37.437 Y-31.303 E25.49034
G1 X37.815 Y-31.174 E25.56208
G1 X38.518 Y-30.896 E25.69785
G1 X39.129 Y-30.635 E25.81719
G1 X39.644 Y-30.37 E25.92121
G1 X39.969 Y-30.152 E25.9915
G1 X40.73 Y-29.587 E26.16173
G1 X41.112 Y-29.285 E26.24919
G1 X41.54 Y-28.895 E26.35319
G1 X41.793 Y-28.605 E26.42231
G1 X42.364 Y-27.885 E26.58735
G1 X42.678 Y-27.463 E26.68182
G1 X42.991 Y-26.976 E26.7858
G1 X43.158 Y-26.634 E26.85416
G1 X43.47 Y-25.918 E26.99443
G1 X43.521 Y-25.796 E27.01818
G1 X43.71 Y-25.322 E27.10983
G1 X43.887 Y-24.77 E27.21395
G1 X43.962 Y-24.39 E27.28351
G1 X44.079 Y-23.611 E27.42499
G1 X44.097 Y-23.48 E27.44874
G1 X44.161 Y-22.938 E27.54676
G1 X44.197 Y-22.315 E27.65885
G1 X44.199 Y-22.175 E27.68399
G1 X44.2 Y16.909 E34.70366
G1 X44.19 Y17.606 E34.82886
G1 X44.149 Y18.182 E34.93258
G1 X44.083 Y18.715 E35.02904
G1 X43.982 Y19.417 E35.15642
G1 X43.86 Y19.983 E35.26041
G1 X43.732 Y20.361 E35.33208
G1 X43.443 Y21.093 E35.47343
G1 X43.187 Y21.692 E35.59043
G1 X42.922 Y22.207 E35.69445
G1 X42.705 Y22.531 E35.76449
G1 X42.249 Y23.147 E35.90214
G1 X41.85 Y23.657 E36.01844
G1 X41.461 Y24.087 E36.12258
G1 X41.161 Y24.351 E36.19436
G1 X40.522 Y24.859 E36.34097
G1 X40.024 Y25.231 E36.45262
G1 X39.537 Y25.544 E36.55659
G1 X39.195 Y25.712 E36.62503
G1 X38.46 Y26.032 E36.769
G1 X37.871 Y26.268 E36.88297
G1 X37.319 Y26.445 E36.98708
G1 X36.943 Y26.519 E37.05591
G1 X36.186 Y26.633 E37.1934
G1 X36.048 Y26.652 E37.21842
G1 X35.474 Y26.719 E37.32221
G1 X34.862 Y26.753 E37.4323
G1 X34.731 Y26.755 E37.45583
G1 X-34.353 Y26.756 E49.86365
G0 F1200 X-34.342 Y25.956
G1 F600 X-35.039 Y25.946 E49.98884
G1 X-35.552 Y25.908 E50.08123
G1 X-36.048 Y25.847 E50.17099
G1 X-36.753 Y25.745 E50.29893
G1 X-37.261 Y25.631 E50.39244
G1 X-37.509 Y25.545 E50.43958
G1 X-38.25 Y25.254 E50.58256
G1 X-38.817 Y25.011 E50.69336
G1 X-39.494 Y24.622 E50.83359
G1 X-40.148 Y24.138 E50.97972
G1 X-40.608 Y23.777 E51.08474
G1 X-40.991 Y23.424 E51.17829
G1 X-41.167 Y23.22 E51.22668
G1 X-41.731 Y22.507 E51.38996
G1 X-42.037 Y22.097 E51.48185
G1 X-42.316 Y21.656 E51.57557
G1 X-42.432 Y21.415 E51.62361
G1 X-42.768 Y20.636 E51.77598
G1 X-42.966 Y20.141 E51.87174
G1 X-43.122 Y19.643 E51.96547
G1 X-43.171 Y19.383 E52.01299
G1 X-43.288 Y18.604 E52.15447
G1 X-43.303 Y18.49 E52.17512
G1 X-43.368 Y17.929 E52.27655
G1 X-43.397 Y17.397 E52.37224
G1 X-43.399 Y17.288 E52.39182
G1 X-43.4 Y-21.785 E59.40952
G1 X-43.39 Y-22.483 E59.53489
G1 X-43.352 Y-22.996 E59.62728
G1 X-43.291 Y-23.489 E59.7165
G1 X-43.19 Y-24.191 E59.84389
G1 X-43.077 Y-24.7 E59.93753
G1 X-42.987 Y-24.956 E59.98627
G1 X-42.66 Y-25.78 E60.14549
G1 X-42.454 Y-26.26 E60.2393
G1 X-42.213 Y-26.722 E60.33289
G1 X-42.061 Y-26.944 E60.38121
G1 X-41.535 Y-27.651 E60.53948
G1 X-41.218 Y-28.054 E60.63157
G1 X-40.866 Y-28.438 E60.72513
G1 X-40.662 Y-28.614 E60.77352
G1 X-40.038 Y-29.11 E60.91669
G1 X-39.545 Y-29.478 E61.02718
G1 X-38.875 Y-29.865 E61.16615
G1 X-38.039 Y-30.228 E61.32984
G1 X-37.571 Y-30.414 E61.42029
G1 X-36.822 Y-30.616 E61.55962
G1 X-35.964 Y-30.744 E61.71543
G1 X-35.387 Y-30.812 E61.81978
G1 X-34.87 Y-30.84 E61.91277
G1 X-34.535 Y-30.844 E61.97294
G1 X34.342 Y-30.844 E74.34358
G1 X35.04 Y-30.834 E74.46895
G1 X35.564 Y-30.795 E74.56333
G1 X36.105 Y-30.727 E74.66126
G1 X36.756 Y-30.633 E74.77939
G1 X37.264 Y-30.519 E74.8729
G1 X37.52 Y-30.43 E74.92158
G1 X38.315 Y-30.114 E75.07523
G1 X38.813 Y-29.9 E75.17258
G1 X39.275 Y-29.658 E75.26626
G1 X39.494 Y-29.509 E75.31383
G1 X40.148 Y-29.025 E75.45996
G1 X40.616 Y-28.657 E75.56689
G1 X41.167 Y-28.107 E75.70671
G1 X41.722 Y-27.408 E75.86702
G1 X42.036 Y-26.986 E75.96149
G1 X42.425 Y-26.314 E76.10095
G1 X42.737 Y-25.598 E76.24122
G1 X42.967 Y-25.025 E76.35212
G1 X43.123 Y-24.528 E76.44568
G1 X43.171 Y-24.271 E76.49263
G1 X43.303 Y-23.386 E76.65334
G1 X43.367 Y-22.844 E76.75136
G1 X43.397 Y-22.288 E76.85137
G1 X43.399 Y-22.175 E76.87167
G1 X43.4 Y16.898 E83.88936
G1 X43.39 Y17.595 E84.01456
G1 X43.352 Y18.108 E84.10695
G1 X43.291 Y18.601 E84.19617
G1 X43.19 Y19.303 E84.32355
G1 X43.077 Y19.812 E84.4172
G1 X42.987 Y20.068 E84.46593
G1 X42.659 Y20.895 E84.62572
G1 X42.452 Y21.376 E84.71977
G1 X42.21 Y21.838 E84.81344
G1 X42.062 Y22.055 E84.86062
G1 X41.606 Y22.671 E84.99827
G1 X41.221 Y23.163 E85.11048
G1 X40.868 Y23.547 E85.20416
G1 X40.663 Y23.724 E85.2528
G1 X40.024 Y24.232 E85.39942
G1 X39.547 Y24.589 E85.50643
G1 X38.875 Y24.978 E85.64588
G1 X38.04 Y25.34 E85.80934
G1 X37.575 Y25.525 E85.89922
G1 X36.824 Y25.728 E86.03895
G1 X36.067 Y25.842 E86.17644
G1 X35.955 Y25.857 E86.19674
G1 X35.381 Y25.924 E86.30053
G1 X34.837 Y25.953 E86.39837
G1 X34.731 Y25.955 E86.41742
G1 X-34.342 Y25.956 E98.82325
G1 F2400 E92.82325
;MESH:Kopfhoerer_Halter.CATPart.stl
G0 F1200 X-34.342 Y21.336
G0 X37.882 Y-23.214
;TYPE:WALL-INNER
G1 F2400 E98.82325
G1 F600 X38 Y-22.313 E98.98646
G1 X38 Y17.425 E106.12359
G1 X37.882 Y18.327 E106.28698
G1 X37.583 Y19.048 E106.42716
G1 X37.106 Y19.669 E106.5678
G1 X36.495 Y20.139 E106.70625
G1 X35.772 Y20.438 E106.84677
G1 X34.869 Y20.556 E107.01034
G1 X-34.869 Y20.556 E119.53561
G1 X-35.772 Y20.438 E119.69917
G1 X-36.495 Y20.139 E119.83969
G1 X-37.106 Y19.669 E119.97814
G1 X-37.583 Y19.048 E120.11878
G1 X-37.882 Y18.327 E120.25897
G1 X-38 Y17.425 E120.42235
G1 X-38 Y-22.313 E127.55949
G1 X-37.882 Y-23.214 E127.72269
G1 X-37.582 Y-23.936 E127.86312
G1 X-37.111 Y-24.55 E128.0021
G1 X-36.489 Y-25.028 E128.14299
G1 X-35.772 Y-25.325 E128.28238
G1 X-34.867 Y-25.444 E128.44632
G1 X34.867 Y-25.444 E140.97088
G1 X35.772 Y-25.325 E141.13482
G1 X36.489 Y-25.028 E141.27421
G1 X37.111 Y-24.55 E141.4151
G1 X37.582 Y-23.936 E141.55409
G1 X37.882 Y-23.214 E141.69451
G0 F1200 X38.661 Y-23.424
G1 F600 X38.8 Y-22.364 E141.88652
G1 X38.8 Y17.476 E149.04197
G1 X38.661 Y18.536 E149.23398
G1 X38.281 Y19.453 E149.41226
G1 X37.679 Y20.237 E149.5898
G1 X36.897 Y20.838 E149.76693
G1 X35.981 Y21.217 E149.94498
G1 X34.92 Y21.356 E150.13717
G1 X-34.92 Y21.356 E162.68076
G1 X-35.981 Y21.217 E162.87295
G1 X-36.897 Y20.838 E163.05099
G1 X-37.679 Y20.237 E163.22813
G1 X-38.281 Y19.453 E163.40567
G1 X-38.661 Y18.536 E163.58394
G1 X-38.8 Y17.476 E163.77596
G1 X-38.8 Y-22.364 E170.93141
G1 X-38.661 Y-23.424 E171.12342
G1 X-38.281 Y-24.34 E171.30153
G1 X-37.682 Y-25.121 E171.47831
G1 X-36.894 Y-25.726 E171.65674
G1 X-35.981 Y-26.104 E171.83422
G1 X-34.919 Y-26.244 E172.02661
G1 X34.919 Y-26.244 E184.56984
G1 X35.981 Y-26.104 E184.76223
G1 X36.894 Y-25.726 E184.93971
G1 X37.682 Y-25.121 E185.11814
G1 X38.281 Y-24.34 E185.29492
G1 X38.661 Y-23.424 E185.47303
G0 F1200 X39.44 Y-23.633
;TYPE:WALL-OUTER
G1 F600 X39.6 Y-22.415 E185.69367
G1 X39.6 Y17.527 E192.86744
G1 X39.44 Y18.745 E193.08808
G1 X38.979 Y19.858 E193.30445
G1 X38.252 Y20.805 E193.51887
G1 X37.299 Y21.537 E193.7347
G1 X36.19 Y21.996 E193.95027
G1 X34.971 Y22.156 E194.17108
G1 X-34.971 Y22.156 E206.733
G1 X-36.19 Y21.996 E206.95381
G1 X-37.299 Y21.537 E207.16938
G1 X-38.252 Y20.805 E207.38521
G1 X-38.979 Y19.858 E207.59964
G1 X-39.44 Y18.745 E207.816
G1 X-39.6 Y17.527 E208.03664
G1 X-39.6 Y-22.415 E215.21041
G1 X-39.44 Y-23.633 E215.43105
G1 X-38.979 Y-24.745 E215.64726
G1 X-38.253 Y-25.692 E215.86157
G1 X-37.299 Y-26.424 E216.07754
G1 X-36.189 Y-26.883 E216.29327
G1 X-34.971 Y-27.044 E216.51394
G1 X34.971 Y-27.044 E229.07585
G1 X36.189 Y-26.883 E229.29651
G1 X37.299 Y-26.424 E229.51225
G1 X38.253 Y-25.692 E229.72822
G1 X38.979 Y-24.745 E229.94253
G1 X39.44 Y-23.633 E230.15873
G0 F1200 X39.492 Y-23.237
G0 X38.6 Y-23.121
G0 X37.11 Y-23.014
;TYPE:SKIN
G1 F600 X37.21 Y-22.256 E230.31131
G1 X37.21 Y17.368 E238.21871
G1 X37.11 Y18.127 E238.37149
G1 X36.896 Y18.645 E238.48333
G1 X36.542 Y19.106 E238.59932
G1 X36.096 Y19.449 E238.71161
G1 X35.569 Y19.667 E238.82542
G1 X34.813 Y19.766 E238.97757
G1 X-34.813 Y19.766 E252.87219
G1 X-35.569 Y19.667 E253.02435
G1 X-36.096 Y19.449 E253.13816
G1 X-36.542 Y19.106 E253.25044
G1 X-36.896 Y18.645 E253.36643
G1 X-37.11 Y18.127 E253.47828
G1 X-37.21 Y17.368 E253.63106
G1 X-37.21 Y-22.256 E261.53845
G1 X-37.11 Y-23.014 E261.69103
G1 X-36.893 Y-23.537 E261.80403
G1 X-36.549 Y-23.985 E261.91675
G1 X-36.09 Y-24.338 E262.0323
G1 X-35.569 Y-24.554 E262.14486
G1 X-34.81 Y-24.654 E262.29763
G1 X34.81 Y-24.654 E276.19105
G1 X35.569 Y-24.554 E276.34383
G1 X36.09 Y-24.338 E276.45638
G1 X36.549 Y-23.985 E276.57194
G1 X36.893 Y-23.537 E276.68466
G1 X37.11 Y-23.014 E276.79765
G0 F1200 X36.367 Y-22.816
G1 F600 X36.229 Y-23.152 E276.87014
G1 X36.006 Y-23.442 E276.94315
G1 X35.707 Y-23.672 E277.01843
G1 X35.368 Y-23.812 E277.09162
G1 X34.965 Y-23.865 E277.17273
G1 X36.422 Y-22.408 E277.58393
G1 X36.449 Y-22.202 E277.62539
G1 X36.449 Y-21.25 E277.81537
G1 X33.806 Y-23.893 E278.56129
G1 X32.674 Y-23.893 E278.78719
G1 X36.449 Y-20.119 E279.85243
G1 X36.449 Y-18.987 E280.07834
G1 X31.543 Y-23.893 E281.46292
G1 X30.411 Y-23.893 E281.68882
G1 X36.449 Y-17.856 E283.39273
G1 X36.449 Y-16.725 E283.61844
G1 X29.28 Y-23.893 E285.64154
G1 X28.149 Y-23.893 E285.86724
G1 X36.449 Y-15.593 E288.20968
G1 X36.449 Y-14.462 E288.43539
G1 X27.017 Y-23.893 E291.09716
G1 X25.886 Y-23.893 E291.32286
G1 X36.449 Y-13.331 E294.30383
G1 X36.449 Y-12.199 E294.52973
G1 X24.755 Y-23.893 E297.83003
G1 X23.623 Y-23.893 E298.05593
G1 X36.449 Y-11.068 E301.67557
G1 X36.449 Y-9.936 E301.90147
G1 X22.492 Y-23.893 E305.84044
G1 X21.36 Y-23.893 E306.06634
G1 X36.449 Y-8.805 E310.32464
G1 X36.449 Y-7.674 E310.55034
G1 X20.229 Y-23.893 E315.12784
G1 X19.098 Y-23.893 E315.35354
G1 X36.449 Y-6.542 E320.25037
G1 X36.449 Y-5.411 E320.47607
G1 X17.966 Y-23.893 E325.69223
G1 X16.835 Y-23.893 E325.91794
G1 X36.449 Y-4.28 E331.45329
G1 X36.449 Y-3.148 E331.67919
G1 X15.704 Y-23.893 E337.53388
G1 X14.572 Y-23.893 E337.75978
G1 X36.449 Y-2.017 E343.9338
G1 X36.449 Y-.886 E344.15951
G1 X13.441 Y-23.893 E350.65272
G1 X12.31 Y-23.893 E350.87842
G1 X36.449 Y0.245 E357.69083
G1 X36.449 Y1.376 E357.91653
G1 X11.178 Y-23.893 E365.04827
G1 X10.047 Y-23.893 E365.27398
G1 X36.449 Y2.508 E372.72505
G1 X36.449 Y3.639 E372.95075
G1 X8.915 Y-23.893 E380.72116
G1 X7.784 Y-23.893 E380.94686
G1 X36.449 Y4.77 E389.03646
G1 X36.449 Y5.902 E389.26237
G1 X6.653 Y-23.893 E397.6713
G1 X5.521 Y-23.893 E397.8972
G1 X36.449 Y7.033 E406.62547
G1 X36.449 Y8.164 E406.85117
G1 X4.39 Y-23.893 E415.89863
G1 X3.259 Y-23.893 E416.12434
G1 X36.449 Y9.296 E425.49113
G1 X36.449 Y10.427 E425.71683
G1 X2.127 Y-23.893 E435.40296
G1 X0.996 Y-23.893 E435.62866
G1 X36.449 Y11.559 E445.63413
G1 X36.449 Y12.69 E445.85983
G1 X-.135 Y-23.893 E456.18448
G1 X-1.266 Y-23.893 E456.41019
G1 X36.449 Y13.821 E467.05403
G1 X36.449 Y14.953 E467.27994
G1 X-2.397 Y-23.893 E478.24312
G1 X-3.529 Y-23.893 E478.46902
G1 X36.449 Y16.084 E489.75153
G1 X36.449 Y17.215 E489.97724
G1 X-4.66 Y-23.893 E501.57894
G1 X-5.791 Y-23.893 E501.80465
G1 X36.27 Y18.168 E513.67517
G1 X36.23 Y18.263 E513.69574
G1 X35.999 Y18.563 E513.7713
G1 X35.735 Y18.765 E513.83764
G1 X-6.923 Y-23.893 E525.87665
G1 X-8.054 Y-23.893 E526.10235
G1 X34.834 Y18.995 E538.20627
G1 X34.759 Y19.006 E538.2214
G1 X33.714 Y19.006 E538.42994
G1 X-9.186 Y-23.893 E550.5371
G1 X-10.317 Y-23.893 E550.76281
G1 X32.582 Y19.006 E562.86983
G1 X31.451 Y19.006 E563.09554
G1 X-11.448 Y-23.893 E575.20256
G1 X-12.58 Y-23.893 E575.42846
G1 X30.32 Y19.006 E587.53563
G1 X29.188 Y19.006 E587.76153
G1 X-13.711 Y-23.893 E599.86856
G1 X-14.842 Y-23.893 E600.09426
G1 X28.057 Y19.006 E612.20128
G1 X26.925 Y19.006 E612.42719
G1 X-15.974 Y-23.893 E624.53421
G1 X-17.105 Y-23.893 E624.75991
G1 X25.794 Y19.006 E636.86694
G1 X24.663 Y19.006 E637.09264
G1 X-18.236 Y-23.893 E649.19967
G1 X-19.368 Y-23.893 E649.42557
G1 X23.531 Y19.006 E661.53259
G1 X22.4 Y19.006 E661.7583
G1 X-20.499 Y-23.893 E673.86532
G1 X-21.631 Y-23.893 E674.09123
G1 X21.269 Y19.006 E686.19839
G1 X20.137 Y19.006 E686.42429
G1 X-22.762 Y-23.893 E698.53132
G1 X-23.893 Y-23.893 E698.75702
G1 X19.006 Y19.006 E710.86405
G1 X17.874 Y19.006 E711.08995
G1 X-25.025 Y-23.893 E723.19697
G1 X-26.156 Y-23.893 E723.42268
G1 X16.743 Y19.006 E735.5297
G1 X15.612 Y19.006 E735.7554
G1 X-27.287 Y-23.893 E747.86243
G1 X-28.419 Y-23.893 E748.08833
G1 X14.48 Y19.006 E760.19536
G1 X13.349 Y19.006 E760.42106
G1 X-29.55 Y-23.893 E772.52808
G1 X-30.682 Y-23.893 E772.75399
G1 X12.218 Y19.006 E784.86115
G1 X11.086 Y19.006 E785.08706
G1 X-31.813 Y-23.893 E797.19408
G1 X-32.944 Y-23.893 E797.41978
G1 X9.955 Y19.006 E809.52681
G1 X8.823 Y19.006 E809.75271
G1 X-34.076 Y-23.893 E821.85974
G1 X-34.756 Y-23.893 E821.99544
G1 X-35.154 Y-23.84 E822.07556
G1 X7.692 Y19.006 E834.16763
G1 X6.561 Y19.006 E834.39333
G1 X-35.938 Y-23.493 E846.38747
G1 X-36.006 Y-23.442 E846.40443
G1 X-36.229 Y-23.152 E846.47744
G1 X-36.367 Y-22.816 E846.54992
G1 X-36.371 Y-22.795 E846.55419
G1 X5.429 Y19.006 E858.35119
G1 X4.298 Y19.006 E858.5769
G1 X-36.449 Y-21.741 E870.07658
G1 X-36.449 Y-20.61 E870.30229
G1 X3.167 Y19.006 E881.48278
G1 X2.035 Y19.006 E881.70868
G1 X-36.449 Y-19.478 E892.5697
G1 X-36.449 Y-18.347 E892.7954
G1 X0.904 Y19.006 E903.33722
G1 X-.226 Y19.006 E903.56273
G1 X-36.449 Y-17.215 E913.78536
G1 X-36.449 Y-16.084 E914.01106
G1 X-1.358 Y19.006 E923.91436
G1 X-2.489 Y19.006 E924.14006
G1 X-36.449 Y-14.953 E933.72417
G1 X-36.449 Y-13.821 E933.95007
G1 X-3.621 Y19.006 E943.2147
G1 X-4.752 Y19.006 E943.4404
G1 X-36.449 Y-12.69 E952.38584
G1 X-36.449 Y-11.559 E952.61154
G1 X-5.883 Y19.006 E961.23779
G1 X-7.015 Y19.006 E961.46369
G1 X-36.449 Y-10.427 E969.77046
