;FLAVOR:Marlin
;TIME:10786
;Filament used: 33.7817m
;Layer height: 0.3
;MINX:-54.05
;MINY:-93.24
;MINZ:0.4
;MAXX:54.05
;MAXY:93.229
;MAXZ:49.6
;Generated with Cura_SteamEngine 4.10.0
M104 S220
M105
M109 S220
M82 ;absolute extrusion mode
G21        ;metric values
G90        ;absolute positioning
M107       ;start with the fan off
G28   ;move to endstops

;Z-Offset Reset und dann Z +0,1 für PLA
;MacroZOffset0
;MacroZOffsetPlus0100

G92 E0                  ;zero the extruded length
G1 F200 E3              ;extrude 3mm of feed stock
G92 E0                  ;zero the extruded length again
G1 F120
;Put printing message on LCD screen
M117 Printing...
G92 E0
G92 E0
G1 F2400 E-6
;LAYER_COUNT:166
;LAYER:0
M106 S76.5
G0 F1200 X-1.458 Y84.859 Z0.4
;TYPE:SKIRT
G1 F2400 E0
G1 F600 X-4.255 Y84.899 E0.29307
G1 X-6.921 Y85.012 E0.57264
G1 X-9.663 Y85.206 E0.86063
G1 X-12.347 Y85.472 E1.14321
G1 X-15.036 Y85.816 E1.42723
G1 X-17.708 Y86.235 E1.7106
G1 X-20.399 Y86.735 E1.99736
G1 X-23.04 Y87.305 E2.28042
G1 X-25.665 Y87.947 E2.56355
G1 X-28.271 Y88.665 E2.84675
G1 X-30.899 Y89.469 E3.13468
G1 X-33.466 Y90.334 E3.41848
G1 X-35.988 Y91.266 E3.70018
G1 X-39.016 Y92.49 E4.04236
G1 X-39.613 Y92.742 E4.11025
G1 X-40.152 Y92.926 E4.16992
G1 X-40.483 Y92.999 E4.20543
G1 X-41.054 Y93.1 E4.26618
G1 X-41.649 Y93.188 E4.3292
G1 X-42.216 Y93.229 E4.38876
G1 X-42.802 Y93.188 E4.4503
G1 X-43.495 Y93.087 E4.52368
G1 X-43.942 Y93.011 E4.57118
G1 X-44.495 Y92.876 E4.63082
G1 X-45.044 Y92.655 E4.69282
G1 X-45.571 Y92.397 E4.7543
G1 X-46.099 Y92.12 E4.81677
G1 X-46.582 Y91.82 E4.87634
G1 X-47.028 Y91.445 E4.93739
G1 X-47.451 Y91.034 E4.99918
G1 X-47.855 Y90.62 E5.05978
G1 X-48.221 Y90.185 E5.11934
G1 X-48.525 Y89.699 E5.1794
G1 X-48.803 Y89.175 E5.24155
G1 X-49.055 Y88.666 E5.30105
G1 X-49.15 Y88.459 E5.32492
G1 X-49.455 Y87.74 E5.40674
G1 X-49.929 Y86.575 E5.53852
G1 X-51.021 Y84.089 E5.82299
G1 X-52.776 Y80.447 E6.24655
G1 X-52.999 Y79.991 E6.29974
G1 X-53.342 Y79.2 E6.39006
G1 X-53.392 Y79.079 E6.40378
G1 X-53.576 Y78.614 E6.45617
G1 X-53.748 Y78.072 E6.51575
G1 X-53.815 Y77.729 E6.55236
G1 X-53.932 Y76.954 E6.63448
G1 X-53.95 Y76.818 E6.64885
G1 X-54.014 Y76.269 E6.70676
G1 X-54.046 Y75.687 E6.76783
G1 X-54.05 Y75.356 E6.80251
G1 X-54.049 Y-83.552 E23.45121
G1 X-54.039 Y-84.25 E23.52435
G1 X-54.001 Y-84.784 E23.58044
G1 X-53.94 Y-85.291 E23.63394
G1 X-53.833 Y-86.035 E23.71269
G1 X-53.711 Y-86.591 E23.77232
G1 X-53.592 Y-86.937 E23.81066
G1 X-53.244 Y-87.816 E23.90971
G1 X-53.048 Y-88.271 E23.96161
G1 X-52.786 Y-88.777 E24.02131
G1 X-52.581 Y-89.082 E24.05981
G1 X-52.062 Y-89.779 E24.15086
G1 X-51.736 Y-90.194 E24.20615
G1 X-51.354 Y-90.615 E24.26571
G1 X-51.068 Y-90.865 E24.3055
G1 X-50.395 Y-91.399 E24.39551
G1 X-49.928 Y-91.749 E24.45666
G1 X-49.448 Y-92.055 E24.5163
G1 X-49.126 Y-92.212 E24.55383
G1 X-48.302 Y-92.569 E24.64791
G1 X-47.808 Y-92.765 E24.70359
G1 X-47.265 Y-92.937 E24.76327
G1 X-46.919 Y-93.005 E24.80021
G1 X-46.144 Y-93.122 E24.88233
G1 X-46.007 Y-93.14 E24.89681
G1 X-45.457 Y-93.204 E24.95482
G1 X-44.878 Y-93.236 E25.01557
G1 X-44.585 Y-93.24 E25.04627
G1 X49.351 Y-93.24 E34.88789
G1 X50.049 Y-93.23 E34.96103
G1 X50.616 Y-93.182 E35.02065
G1 X51.17 Y-93.054 E35.08022
G1 X51.702 Y-92.851 E35.13987
G1 X52.199 Y-92.575 E35.19944
G1 X52.653 Y-92.232 E35.25905
G1 X53.054 Y-91.829 E35.31861
G1 X53.395 Y-91.374 E35.37818
G1 X53.669 Y-90.875 E35.43783
G1 X53.87 Y-90.343 E35.49741
G1 X53.995 Y-89.788 E35.55701
G1 X54.048 Y-88.974 E35.64248
G1 X54.05 Y-88.86 E35.65442
G1 X54.05 Y80.124 E53.35878
G1 X54.041 Y80.851 E53.43495
G1 X53.994 Y81.418 E53.49456
G1 X53.868 Y81.973 E53.55419
G1 X53.665 Y82.504 E53.61375
G1 X53.39 Y83.002 E53.67335
G1 X53.048 Y83.457 E53.73298
G1 X52.646 Y83.859 E53.79255
G1 X52.191 Y84.201 E53.85218
G1 X51.693 Y84.476 E53.91178
G1 X51.162 Y84.678 E53.9713
G1 X50.607 Y84.804 E54.03093
G1 X50.105 Y84.849 E54.08374
G1 X49.67 Y84.86 E54.12932
G1 X-1.23 Y84.859 E59.46209
G0 F540 X-1.458 Y84.859
G0 F1200 X-1.468 Y84.159
G1 F600 X-4.259 Y84.198 E59.75453
G1 X-6.966 Y84.313 E60.0384
G1 X-9.709 Y84.508 E60.3265
G1 X-12.435 Y84.778 E60.6135
G1 X-15.125 Y85.122 E60.89763
G1 X-17.841 Y85.548 E61.18566
G1 X-20.53 Y86.048 E61.47221
G1 X-23.209 Y86.625 E61.75933
G1 X-25.816 Y87.263 E62.04052
G1 X-28.506 Y88.004 E62.33285
G1 X-31.084 Y88.793 E62.61531
G1 X-33.72 Y89.682 E62.90677
G1 X-36.232 Y90.61 E63.18733
G1 X-39.278 Y91.841 E63.53153
G1 X-39.885 Y92.097 E63.60055
G1 X-40.605 Y92.31 E63.67922
G1 X-41.176 Y92.411 E63.73997
G1 X-41.748 Y92.495 E63.80054
G1 X-42.264 Y92.529 E63.85472
G1 X-42.702 Y92.495 E63.90075
G1 X-43.378 Y92.397 E63.97231
G1 X-43.825 Y92.321 E64.01982
G1 X-44.326 Y92.195 E64.07394
G1 X-44.736 Y92.027 E64.12036
G1 X-45.263 Y91.769 E64.18184
G1 X-45.772 Y91.501 E64.2421
G1 X-46.209 Y91.225 E64.29626
G1 X-46.54 Y90.943 E64.34181
G1 X-47.034 Y90.461 E64.41412
G1 X-47.352 Y90.133 E64.46199
G1 X-47.683 Y89.735 E64.51622
G1 X-47.906 Y89.371 E64.56095
G1 X-48.23 Y88.757 E64.63368
G1 X-48.506 Y88.186 E64.70013
G1 X-48.806 Y87.477 E64.78078
G1 X-49.284 Y86.302 E64.91368
G1 X-50.386 Y83.793 E65.20079
G1 X-52.147 Y80.138 E65.62585
G1 X-52.356 Y79.713 E65.67547
G1 X-52.741 Y78.822 E65.77716
G1 X-52.925 Y78.357 E65.82955
G1 X-53.122 Y77.624 E65.90908
G1 X-53.239 Y76.849 E65.99119
G1 X-53.254 Y76.737 E66.00303
G1 X-53.318 Y76.188 E66.06094
G1 X-53.347 Y75.666 E66.11571
G1 X-53.35 Y75.356 E66.14819
G1 X-53.349 Y-83.542 E82.79585
G1 X-53.339 Y-84.24 E82.86898
G1 X-53.294 Y-84.817 E82.92962
G1 X-53.236 Y-85.275 E82.97799
G1 X-53.14 Y-85.934 E83.04776
G1 X-52.941 Y-86.68 E83.12865
G1 X-52.601 Y-87.539 E83.22544
G1 X-52.405 Y-87.994 E83.27734
G1 X-52.019 Y-88.665 E83.35845
G1 X-51.568 Y-89.273 E83.43776
G1 X-51.185 Y-89.761 E83.50275
G1 X-50.835 Y-90.142 E83.55695
G1 X-50.633 Y-90.316 E83.58489
G1 X-49.876 Y-90.915 E83.68602
G1 X-49.51 Y-91.187 E83.7338
G1 X-48.847 Y-91.57 E83.81402
G1 X-48.043 Y-91.918 E83.9058
G1 X-47.549 Y-92.114 E83.96149
G1 X-46.814 Y-92.312 E84.04124
G1 X-45.926 Y-92.445 E84.13531
G1 X-45.376 Y-92.509 E84.19332
G1 X-44.857 Y-92.536 E84.24777
G1 X-44.578 Y-92.54 E84.277
G1 X49.341 Y-92.54 E94.11684
G1 X50.039 Y-92.53 E94.18998
G1 X50.554 Y-92.482 E94.24417
G1 X51.056 Y-92.356 E94.2984
G1 X51.532 Y-92.154 E94.35257
G1 X51.972 Y-91.882 E94.40677
G1 X52.364 Y-91.545 E94.46093
G1 X52.7 Y-91.151 E94.51518
G1 X52.971 Y-90.71 E94.56941
G1 X53.171 Y-90.233 E94.6236
G1 X53.295 Y-89.731 E94.67777
G1 X53.349 Y-88.954 E94.75937
G1 X53.35 Y80.115 E112.47264
G1 X53.341 Y80.842 E112.54881
G1 X53.294 Y81.358 E112.60309
G1 X53.169 Y81.86 E112.65729
G1 X52.968 Y82.336 E112.71143
G1 X52.697 Y82.776 E112.76557
G1 X52.36 Y83.169 E112.81981
G1 X51.967 Y83.506 E112.87405
G1 X51.527 Y83.778 E112.92824
G1 X51.051 Y83.979 E112.98238
G1 X50.549 Y84.104 E113.03658
G1 X49.764 Y84.159 E113.11902
G1 X-1.24 Y84.159 E118.46268
G0 F540 X-1.468 Y84.159
G1 F2400 E112.46268
;MESH:Halter_Feilen.stl
G0 F1200 X-38.344 Y86.797
G0 X-40.057 Y86.526
G0 X-41.55 Y87.919
G0 X-41.52 Y88.014
;TYPE:WALL-INNER
G1 F2400 E118.46268
G1 F600 X-42.234 Y88.127 E118.53842
G1 X-42.948 Y88.014 E118.61416
G1 X-43.588 Y87.688 E118.68941
G1 X-44.104 Y87.172 E118.76586
G1 X-44.43 Y86.532 E118.84111
G1 X-44.543 Y85.818 E118.91685
G1 X-44.43 Y85.104 E118.99258
G1 X-44.103 Y84.462 E119.06807
G1 X-43.59 Y83.948 E119.14415
G1 X-42.948 Y83.621 E119.21964
G1 X-42.234 Y83.508 E119.29537
G1 X-41.52 Y83.621 E119.37111
G1 X-40.878 Y83.948 E119.44659
G1 X-40.365 Y84.462 E119.52268
G1 X-40.038 Y85.104 E119.59816
G1 X-39.925 Y85.818 E119.6739
G1 X-40.038 Y86.532 E119.74963
G1 X-40.364 Y87.172 E119.82488
G1 X-40.88 Y87.688 E119.90134
G1 X-41.317 Y87.911 E119.95274
G0 F540 X-41.52 Y88.014
G0 F1200 X-41.317 Y88.64
;TYPE:WALL-OUTER
G1 F600 X-42.234 Y88.785 E120.05001
G1 X-43.151 Y88.64 E120.14727
G1 X-43.977 Y88.219 E120.24441
G1 X-44.635 Y87.561 E120.3419
G1 X-45.056 Y86.735 E120.43903
G1 X-45.201 Y85.818 E120.5363
G1 X-45.056 Y84.901 E120.63357
G1 X-44.635 Y84.075 E120.7307
G1 X-43.977 Y83.416 E120.82826
G1 X-43.151 Y82.995 E120.9254
G1 X-42.234 Y82.85 E121.02266
G1 X-41.317 Y82.995 E121.11993
G1 X-40.491 Y83.416 E121.21706
G1 X-39.833 Y84.075 E121.31463
G1 X-39.412 Y84.901 E121.41176
G1 X-39.267 Y85.818 E121.50903
G1 X-39.412 Y86.735 E121.6063
G1 X-39.833 Y87.561 E121.70343
G1 X-40.491 Y88.219 E121.80092
G1 X-41.114 Y88.537 E121.8742
G0 F540 X-41.317 Y88.64
G0 F1200 X-41.712 Y88.702
G0 X-41.828 Y87.962
G0 X-41.736 Y87.349
;TYPE:SKIN
G1 F600 X-42.234 Y87.428 E121.9329
G1 X-42.732 Y87.349 E121.9916
G1 X-43.182 Y87.12 E122.05038
G1 X-43.536 Y86.766 E122.10866
G1 X-43.765 Y86.316 E122.16743
G1 X-43.844 Y85.818 E122.22613
G1 X-43.765 Y85.32 E122.28483
G1 X-43.537 Y84.872 E122.34335
G1 X-43.18 Y84.514 E122.4022
G1 X-42.732 Y84.286 E122.46072
G1 X-42.234 Y84.207 E122.51941
G1 X-41.736 Y84.286 E122.57811
G1 X-41.288 Y84.514 E122.63663
G1 X-40.931 Y84.872 E122.69548
G1 X-40.703 Y85.32 E122.754
G1 X-40.624 Y85.818 E122.8127
G1 X-40.703 Y86.316 E122.8714
G1 X-40.932 Y86.766 E122.93017
G1 X-41.286 Y87.12 E122.98845
G1 X-41.533 Y87.246 E123.02073
G0 F540 X-41.736 Y87.349
G0 F1200 X-43.17 Y85.817
G1 F600 X-43.125 Y86.105 E123.05466
G1 X-42.989 Y86.37 E123.08934
G1 X-42.787 Y86.573 E123.12268
G1 X-42.522 Y86.708 E123.1573
G1 X-42.234 Y86.753 E123.19123
G1 X-41.98 Y86.713 E123.22116
G1 X-43.13 Y85.562 E123.41057
G1 X-43.125 Y85.528 E123.41457
G1 X-42.991 Y85.265 E123.44893
G1 X-42.785 Y85.059 E123.48284
G1 X-42.691 Y85.011 E123.49513
G1 X-41.428 Y86.274 E123.70306
G0 F1200 X-41.343 Y86.105
G1 F600 X-41.297 Y85.817 E123.73701
G1 X-41.343 Y85.528 E123.77107
G1 X-41.476 Y85.265 E123.80538
G1 X-41.682 Y85.059 E123.8393
G1 X-41.944 Y84.925 E123.87355
G1 X-42.234 Y84.879 E123.90773
G1 X-42.523 Y84.925 E123.9418
G1 X-42.691 Y85.011 E123.96377
G1 F2400 E117.96377
G0 F1200 X-43.579 Y83.964
G0 X-44.367 Y82.42
G0 X-46.245 Y81.316
G0 X-46.017 Y79.596
G0 X-48.851 Y75.736
G0 X-48.95 Y75.742
;TYPE:WALL-INNER
G1 F2400 E123.96377
G1 F600 X-48.949 Y-84.132 E140.71368
G1 X-48.806 Y-85.213 E140.82792
G1 X-48.412 Y-86.161 E140.93548
G1 X-47.786 Y-86.977 E141.04323
G1 X-46.971 Y-87.602 E141.15083
G1 X-46.015 Y-87.997 E141.25921
G1 X-44.932 Y-88.14 E141.37366
G1 X48.95 Y-88.14 E151.20962
G1 X48.95 Y79.41 E168.76374
G1 X48.95 Y79.76 E168.80041
G1 X48.6 Y79.76 E168.82414
G1 X-44.94 Y79.759 E178.62427
G1 X-46.022 Y79.615 E178.73863
G1 X-46.97 Y79.222 E178.84615
G1 X-47.79 Y78.593 E178.95442
G1 X-48.412 Y77.781 E179.06159
G1 X-48.807 Y76.825 E179.16996
G1 X-48.921 Y75.968 E179.26054
G0 F540 X-48.95 Y75.742
G0 F1200 X-48.851 Y75.736
G0 X-41.795 Y72.592
G0 X-41.737 Y72.512
G1 F600 X-40.5 Y72.915 E179.39684
G1 X-39.263 Y72.512 E179.53314
G1 X-38.499 Y71.46 E179.66936
G1 X-38.499 Y70.16 E179.80556
G1 X-39.263 Y69.108 E179.94178
G1 X-40.5 Y68.705 E180.07808
G1 X-41.737 Y69.108 E180.21439
G1 X-42.501 Y70.16 E180.3506
G1 X-42.501 Y71.46 E180.4868
G1 X-41.87 Y72.328 E180.59923
G0 F540 X-41.737 Y72.512
G0 F1200 X-41.795 Y72.592
G0 X-40.63 Y72.918
G0 X38.705 Y72.592
G0 X38.763 Y72.512
G1 F600 X40 Y72.915 E180.73554
G1 X41.237 Y72.512 E180.87184
G1 X42.001 Y71.46 E181.00806
G1 X42.001 Y70.16 E181.14426
G1 X41.237 Y69.108 E181.28047
G1 X40 Y68.705 E181.41678
G1 X38.763 Y69.108 E181.55308
G1 X37.999 Y70.16 E181.6893
G1 X37.999 Y71.46 E181.8255
G1 X38.63 Y72.328 E181.93793
G0 F540 X38.763 Y72.512
G0 F1200 X38.705 Y72.592
G0 X37.961 Y71.472
G0 X38.705 Y-77.408
G0 X38.763 Y-77.488
G1 F600 X40 Y-77.085 E182.07423
G1 X41.237 Y-77.488 E182.21054
G1 X42.001 Y-78.54 E182.34675
G1 X42.001 Y-79.84 E182.48295
G1 X41.237 Y-80.892 E182.61917
G1 X40 Y-81.295 E182.75547
G1 X38.763 Y-80.892 E182.89178
G1 X37.999 Y-79.84 E183.02799
G1 X37.999 Y-78.54 E183.16419
G1 X38.63 Y-77.672 E183.27662
G0 F540 X38.763 Y-77.488
G0 F1200 X38.705 Y-77.408
G0 X-40.5 Y-77.045
G0 X-41.795 Y-77.408
G0 X-41.737 Y-77.488
G1 F600 X-40.5 Y-77.085 E183.41293
G1 X-39.263 Y-77.488 E183.54923
G1 X-38.499 Y-78.54 E183.68545
G1 X-38.499 Y-79.84 E183.82165
G1 X-39.263 Y-80.892 E183.95787
G1 X-40.5 Y-81.295 E184.09417
G1 X-41.737 Y-80.892 E184.23047
G1 X-42.501 Y-79.84 E184.36669
G1 X-42.501 Y-78.54 E184.50289
G1 X-41.87 Y-77.672 E184.61532
G0 F540 X-41.737 Y-77.488
G0 F1200 X-41.335 Y-78.041
;TYPE:WALL-OUTER
G1 F600 X-40.5 Y-77.769 E184.70733
G1 X-39.665 Y-78.041 E184.79933
G1 X-39.149 Y-78.751 E184.89129
G1 X-39.149 Y-79.629 E184.98328
G1 X-39.665 Y-80.339 E185.07523
G1 X-40.5 Y-80.611 E185.16724
G1 X-41.335 Y-80.339 E185.25925
G1 X-41.851 Y-79.629 E185.3512
G1 X-41.851 Y-78.751 E185.44319
G1 X-41.469 Y-78.225 E185.5113
G0 F540 X-41.335 Y-78.041
G0 F1200 X-40.955 Y-77.918
G0 X-41.188 Y-77.204
G0 X38.932 Y-77.328
G0 X39.165 Y-78.041
G1 F600 X40 Y-77.769 E185.60331
G1 X40.835 Y-78.041 E185.69531
G1 X41.351 Y-78.751 E185.78727
G1 X41.351 Y-79.629 E185.87926
G1 X40.835 Y-80.339 E185.97121
G1 X40 Y-80.611 E186.06322
G1 X39.165 Y-80.339 E186.15523
G1 X38.649 Y-79.629 E186.24718
G1 X38.649 Y-78.751 E186.33917
G1 X39.031 Y-78.225 E186.40728
G0 F540 X39.165 Y-78.041
G0 F1200 X39.545 Y-77.918
G0 X39.312 Y-77.204
G0 X37.961 Y71.472
G0 X38.662 Y72.436
G0 X39.165 Y71.959
G1 F600 X40 Y72.231 E186.49929
G1 X40.835 Y71.959 E186.59129
G1 X41.351 Y71.249 E186.68325
G1 X41.351 Y70.371 E186.77524
G1 X40.835 Y69.661 E186.86719
G1 X40 Y69.389 E186.9592
G1 X39.165 Y69.661 E187.05121
G1 X38.649 Y70.371 E187.14316
G1 X38.649 Y71.249 E187.23515
G1 X39.031 Y71.775 E187.30326
G0 F540 X39.165 Y71.959
G0 F1200 X39.545 Y72.082
G0 X39.312 Y72.796
G0 X-40.5 Y72.955
G0 X-41.568 Y72.672
G0 X-41.335 Y71.959
G1 F600 X-40.5 Y72.231 E187.39526
G1 X-39.665 Y71.959 E187.48727
G1 X-39.149 Y71.249 E187.57923
G1 X-39.149 Y70.371 E187.67122
G1 X-39.665 Y69.661 E187.76317
G1 X-40.5 Y69.389 E187.85518
G1 X-41.335 Y69.661 E187.94719
G1 X-41.851 Y70.371 E188.03914
G1 X-41.851 Y71.249 E188.13113
G1 X-41.469 Y71.775 E188.19924
G0 F540 X-41.335 Y71.959
G0 F1200 X-40.955 Y72.082
G0 X-41.188 Y72.796
G0 X-48.851 Y75.736
G0 X-49.6 Y75.781
G1 F600 X-49.599 Y-84.172 E204.95742
G1 X-49.439 Y-85.385 E205.08561
G1 X-48.98 Y-86.488 E205.21077
G1 X-48.25 Y-87.441 E205.33655
G1 X-47.297 Y-88.171 E205.46232
G1 X-46.187 Y-88.63 E205.58816
G1 X-44.971 Y-88.79 E205.71666
G1 X49.6 Y-88.79 E215.62481
G1 X49.6 Y80.06 E233.31513
G1 X49.6 Y80.41 E233.3518
G1 X49.25 Y80.41 E233.37553
G1 X-44.981 Y80.409 E243.24805
G1 X-46.192 Y80.248 E243.37605
G1 X-47.301 Y79.788 E243.50183
G1 X-48.252 Y79.058 E243.62744
G1 X-48.981 Y78.107 E243.75298
G1 X-49.44 Y76.997 E243.87883
G1 X-49.571 Y76.007 E243.98345
G0 F540 X-49.6 Y75.781
G0 F1200 X-49.6 Y75.381
G0 X-48.85 Y75.382
G0 X-48.26 Y75.698
;TYPE:SKIN
G1 F600 X-48.259 Y-84.087 E262.5841
G1 X-48.134 Y-85.033 E262.69518
G1 X-47.81 Y-85.811 E262.79329
G1 X-47.293 Y-86.484 E262.89208
G1 X-46.62 Y-87.001 E262.99087
G1 X-45.836 Y-87.325 E263.08963
G1 X-44.888 Y-87.45 E263.20094
G1 X48.26 Y-87.45 E274.04434
G1 X48.26 Y79.07 E293.42901
G1 X-44.895 Y79.069 E304.27323
G1 X-45.843 Y78.943 E304.38456
G1 X-46.619 Y78.621 E304.48236
G1 X-47.297 Y78.1 E304.5819
G1 X-47.811 Y77.43 E304.6802
G1 X-48.135 Y76.646 E304.77895
G1 X-48.231 Y75.924 E304.86374
G0 F540 X-48.26 Y75.698
G0 F1200 X-43.191 Y71.684
G1 F600 X-42.163 Y73.099 E305.06734
G1 X-40.5 Y73.641 E305.27096
G1 X-38.837 Y73.099 E305.47457
G1 X-37.809 Y71.684 E305.67817
G1 X-37.809 Y69.936 E305.88166
G1 X-38.837 Y68.521 E306.08526
G1 X-40.5 Y67.979 E306.28887
G1 X-42.163 Y68.521 E306.49249
G1 X-43.191 Y69.936 E306.69609
G1 X-43.191 Y71.456 E306.87303
G0 F540 X-43.191 Y71.684
G0 F1200 X-41.76 Y72.544
G0 X-40.5 Y72.955
G0 X37.309 Y71.684
G1 F600 X38.337 Y73.099 E307.07663
G1 X40 Y73.641 E307.28025
G1 X41.663 Y73.099 E307.48386
G1 X42.691 Y71.684 E307.68746
G1 X42.691 Y69.936 E307.89095
G1 X41.663 Y68.521 E308.09455
G1 X40 Y67.979 E308.29816
G1 X38.337 Y68.521 E308.50178
G1 X37.309 Y69.936 E308.70538
G1 X37.309 Y71.456 E308.88232
G0 F540 X37.309 Y71.684
G0 F1200 X38.337 Y-76.901
G1 F600 X40 Y-76.359 E309.08593
G1 X41.663 Y-76.901 E309.28955
G1 X42.691 Y-78.316 E309.49315
G1 X42.691 Y-80.064 E309.69663
G1 X41.663 Y-81.479 E309.90024
G1 X40 Y-82.021 E310.10385
