;FLAVOR:Marlin
;TIME:5806
;Filament used: 29.2712m
;Layer height: 0.4
;MINX:-36.7
;MINY:-75.7
;MINZ:0.6
;MAXX:36.7
;MAXY:75.7
;MAXZ:49
;Generated with Cura_SteamEngine 4.10.0
M104 S220
M105
M109 S220
M82 ;absolute extrusion mode
G21        ;metric values
G90        ;absolute positioning
M107       ;start with the fan off
G28   ;move to endstops

;Z-Offset Reset und dann Z +0,1 für PLA
;MacroZOffset0
;MacroZOffsetPlus0100

G92 E0                  ;zero the extruded length
G1 F200 E3              ;extrude 3mm of feed stock
G92 E0                  ;zero the extruded length again
G1 F120
;Put printing message on LCD screen
M117 Printing...
G92 E0
G92 E0
G1 F2400 E-6
;LAYER_COUNT:122
;LAYER:0
M107
G0 F1200 X-36.7 Y68.818 Z0.6
;TYPE:SKIRT
G1 F2400 E0
G1 F600 X-36.699 Y-68.894 E24.73373
G1 X-36.689 Y-69.547 E24.85102
G1 X-36.653 Y-70.117 E24.9536
G1 X-36.538 Y-70.827 E25.08278
G1 X-36.445 Y-71.197 E25.1513
G1 X-36.205 Y-71.891 E25.28319
G1 X-36.022 Y-72.288 E25.36171
G1 X-35.72 Y-72.815 E25.4708
G1 X-35.525 Y-73.104 E25.53341
G1 X-35.055 Y-73.682 E25.66721
G1 X-34.814 Y-73.93 E25.72932
G1 X-34.259 Y-74.409 E25.861
G1 X-33.972 Y-74.616 E25.92455
G1 X-33.334 Y-74.996 E26.05792
G1 X-32.897 Y-75.203 E26.14477
G1 X-32.319 Y-75.411 E26.2551
G1 X-32.014 Y-75.496 E26.31197
G1 X-31.311 Y-75.628 E26.44044
G1 X-30.565 Y-75.689 E26.57487
G1 X-29.759 Y-75.7 E26.71964
G1 X29.868 Y-75.699 E37.42893
G1 X30.552 Y-75.689 E37.5518
G1 X31.109 Y-75.654 E37.65203
G1 X31.212 Y-75.644 E37.67062
G1 X31.825 Y-75.539 E37.78232
G1 X32.197 Y-75.446 E37.85119
G1 X32.943 Y-75.182 E37.99332
G1 X33.228 Y-75.05 E38.04973
G1 X33.798 Y-74.73 E38.16713
G1 X34.091 Y-74.534 E38.23045
G1 X34.689 Y-74.049 E38.36873
G1 X34.936 Y-73.808 E38.43071
G1 X35.409 Y-73.259 E38.56087
G1 X35.616 Y-72.972 E38.62442
G1 X35.996 Y-72.334 E38.75779
G1 X36.176 Y-71.956 E38.83299
G1 X36.407 Y-71.331 E38.95266
G1 X36.494 Y-71.021 E39.01049
G1 X36.628 Y-70.314 E39.13973
G1 X36.689 Y-69.567 E39.27435
G1 X36.7 Y-68.821 E39.40834
G1 X36.7 Y68.854 E64.13543
G1 X36.69 Y69.545 E64.25955
G1 X36.655 Y70.111 E64.3614
G1 X36.645 Y70.213 E64.3798
G1 X36.538 Y70.827 E64.49174
G1 X36.445 Y71.197 E64.56026
G1 X36.205 Y71.891 E64.69215
G1 X36.015 Y72.302 E64.77348
G1 X35.73 Y72.798 E64.87622
G1 X35.534 Y73.091 E64.93953
G1 X35.049 Y73.689 E65.07782
G1 X34.808 Y73.936 E65.1398
G1 X34.259 Y74.409 E65.26995
G1 X33.972 Y74.616 E65.33351
G1 X33.334 Y74.996 E65.46688
G1 X32.839 Y75.228 E65.56506
G1 X32.321 Y75.41 E65.66368
G1 X32.017 Y75.495 E65.72037
G1 X31.311 Y75.628 E65.8494
G1 X30.565 Y75.689 E65.98383
G1 X29.759 Y75.7 E66.12861
G1 X-29.87 Y75.699 E76.83826
G1 X-30.548 Y75.689 E76.96004
G1 X-31.159 Y75.651 E77.06999
G1 X-31.228 Y75.644 E77.08245
G1 X-31.841 Y75.535 E77.19428
G1 X-32.214 Y75.44 E77.26341
G1 X-32.891 Y75.204 E77.39218
G1 X-33.302 Y75.015 E77.47342
G1 X-33.801 Y74.728 E77.57681
G1 X-34.095 Y74.531 E77.64037
G1 X-34.69 Y74.048 E77.77802
G1 X-34.936 Y73.808 E77.83974
G1 X-35.409 Y73.259 E77.9699
G1 X-35.616 Y72.972 E78.03345
G1 X-35.987 Y72.352 E78.16322
G1 X-36.205 Y71.891 E78.25481
G1 X-36.406 Y71.336 E78.36082
G1 X-36.482 Y71.068 E78.41086
G1 X-36.62 Y70.337 E78.54447
G1 X-36.673 Y69.803 E78.64085
G1 X-36.694 Y69.432 E78.70759
G1 X-36.7 Y68.818 E78.81787
G0 F1200 X-35.9 Y68.818
G1 F600 X-35.899 Y-68.882 E103.54944
G1 X-35.889 Y-69.535 E103.66674
G1 X-35.855 Y-70.057 E103.76069
G1 X-35.762 Y-70.632 E103.8653
G1 X-35.669 Y-71.002 E103.93382
G1 X-35.475 Y-71.563 E104.04044
G1 X-35.056 Y-72.368 E104.20343
G1 X-34.861 Y-72.657 E104.26605
G1 X-34.481 Y-73.125 E104.37432
G1 X-34.24 Y-73.373 E104.43643
G1 X-33.791 Y-73.761 E104.54301
G1 X-33.504 Y-73.968 E104.60657
G1 X-32.987 Y-74.275 E104.71456
G1 X-32.104 Y-74.64 E104.88617
G1 X-31.799 Y-74.725 E104.94303
G1 X-31.23 Y-74.833 E105.04705
G1 X-30.553 Y-74.889 E105.16906
G1 X-29.759 Y-74.9 E105.31168
G1 X29.857 Y-74.899 E116.019
G1 X30.541 Y-74.889 E116.14186
G1 X31.135 Y-74.848 E116.2488
G1 X31.631 Y-74.762 E116.33921
G1 X32.003 Y-74.669 E116.40808
G1 X32.607 Y-74.456 E116.52311
G1 X32.892 Y-74.324 E116.57952
G1 X33.353 Y-74.065 E116.67449
G1 X33.646 Y-73.869 E116.7378
G1 X34.13 Y-73.477 E116.84967
G1 X34.377 Y-73.236 E116.91165
G1 X34.761 Y-72.791 E117.01721
G1 X34.968 Y-72.504 E117.08077
G1 X35.275 Y-71.987 E117.18876
G1 X35.45 Y-71.621 E117.26163
G1 X35.637 Y-71.115 E117.35851
G1 X35.724 Y-70.805 E117.41634
G1 X35.832 Y-70.232 E117.52107
G1 X35.889 Y-69.555 E117.64309
G1 X35.9 Y-68.809 E117.77709
G1 X35.9 Y68.842 E142.49986
G1 X35.89 Y69.533 E142.62398
G1 X35.859 Y70.033 E142.71396
G1 X35.849 Y70.135 E142.73236
G1 X35.762 Y70.632 E142.82298
G1 X35.669 Y71.002 E142.8915
G1 X35.475 Y71.563 E142.99812
G1 X35.065 Y72.353 E143.15798
G1 X34.869 Y72.646 E143.22129
G1 X34.477 Y73.13 E143.33315
G1 X34.236 Y73.377 E143.39513
G1 X33.791 Y73.761 E143.5007
G1 X33.504 Y73.968 E143.56426
G1 X32.987 Y74.275 E143.67225
G1 X32.528 Y74.491 E143.76336
G1 X31.802 Y74.724 E143.9003
G1 X31.23 Y74.833 E144.00488
G1 X30.553 Y74.889 E144.12689
G1 X29.759 Y74.9 E144.26951
G1 X-29.858 Y74.899 E154.97701
G1 X-30.536 Y74.889 E155.09879
G1 X-31.078 Y74.855 E155.19633
G1 X-31.147 Y74.848 E155.20879
G1 X-31.643 Y74.76 E155.29926
G1 X-32.016 Y74.665 E155.36839
G1 X-32.565 Y74.474 E155.47279
G1 X-33.356 Y74.064 E155.63281
G1 X-33.65 Y73.867 E155.69637
G1 X-34.131 Y73.476 E155.8077
G1 X-34.377 Y73.236 E155.86943
G1 X-34.761 Y72.791 E155.975
G1 X-34.968 Y72.504 E156.03855
G1 X-35.268 Y72.002 E156.14359
G1 X-35.636 Y71.118 E156.31557
G1 X-35.712 Y70.85 E156.3656
G1 X-35.824 Y70.258 E156.47381
G1 X-35.877 Y69.724 E156.57019
G1 X-35.894 Y69.424 E156.62416
G1 X-35.9 Y68.818 E156.733
G1 F2400 E150.733
;MESH:Halter_Flache_Schraubendreher.stl
G0 F1200 X-31.28 Y68.82
G0 X-22.5 Y70.245
G0 X27.5 Y70.245
G0 X30.484 Y69.468
;TYPE:WALL-INNER
G1 F2400 E156.733
G1 F600 X30.365 Y69.5 E156.75514
G1 X30.418 Y69.423
G1 X30.5 Y69.306 E156.77677
G1 X30.484 Y69.468 E156.7807
G0 F1200 X30.468 Y-69.484
G1 F600 X30.5 Y-69.306 E156.81319
G1 X30.407 Y-69.441 E156.8136
G1 X30.366 Y-69.499
G1 X30.468 Y-69.484
G0 F1200 X27.975 Y-70.202
G0 X-23.108 Y-64.046
G1 F600 X-22.5 Y-63.992 E156.92323
G1 X-21.892 Y-64.046 E157.03286
G1 X-21.301 Y-64.203 E157.14269
G1 X-20.747 Y-64.463 E157.2526
G1 X-20.247 Y-64.811 E157.36201
G1 X-19.811 Y-65.247 E157.47276
G1 X-19.463 Y-65.747 E157.58217
G1 X-19.203 Y-66.301 E157.69208
G1 X-19.046 Y-66.892 E157.80191
G1 X-18.992 Y-67.5 E157.91154
G1 X-19.046 Y-68.108 E158.02117
G1 X-19.203 Y-68.699 E158.131
G1 X-19.278 Y-68.859 E158.16274
G1 X-19.463 Y-69.253 E158.24091
G1 X-19.635 Y-69.5 E158.29497
G1 X-19.463 Y-69.5
G1 X-19.028 Y-69.5 E158.35032
G1 X24.028 Y-69.5 E166.08338
G1 X24.463 Y-69.5 E166.16151
G1 X24.634 Y-69.499 E166.19222
G1 X24.463 Y-69.253 E166.21407
G1 X24.278 Y-68.859 E166.26945
G1 X24.203 Y-68.699 E166.30119
G1 X24.046 Y-68.108 E166.41102
G1 X23.992 Y-67.5 E166.52065
G1 X24.046 Y-66.892 E166.63028
G1 X24.203 Y-66.301 E166.7401
G1 X24.463 Y-65.747 E166.85002
G1 X24.811 Y-65.247 E166.95943
G1 X25.247 Y-64.811 E167.07017
G1 X25.747 Y-64.463 E167.17959
G1 X26.301 Y-64.203 E167.2895
G1 X26.892 Y-64.046 E167.39933
G1 X27.5 Y-63.992 E167.50896
G1 X28.108 Y-64.046 E167.61859
G1 X28.699 Y-64.203 E167.72841
G1 X29.253 Y-64.463 E167.83833
G1 X29.712 Y-64.783 E167.93882
G1 X29.753 Y-64.811 E167.94774
G1 X30.189 Y-65.247 E168.05848
G1 X30.5 Y-65.694 E168.15629
G1 X30.5 Y-65.247 E168.16813
G1 X30.5 Y-64.811 E168.21681
G1 X30.5 Y-64.761 E168.22553
G1 X30.5 Y64.761 E191.48829
G1 X30.5 Y64.811 E191.49727
G1 X30.5 Y65.247 E191.57558
G1 X30.5 Y65.694 E191.65586
G1 X30.189 Y65.247 E191.68516
G1 X29.753 Y64.811 E191.76624
G1 X29.712 Y64.783 E191.77489
G1 X29.253 Y64.463 E191.87539
G1 X28.699 Y64.203 E191.9853
G1 X28.108 Y64.046 E192.09513
G1 X27.5 Y63.992 E192.20476
G1 X26.892 Y64.046 E192.31439
G1 X26.301 Y64.203 E192.42422
G1 X25.747 Y64.463 E192.53413
G1 X25.247 Y64.811 E192.64354
G1 X24.811 Y65.247 E192.75429
G1 X24.463 Y65.747 E192.8637
G1 X24.203 Y66.301 E192.97361
G1 X24.046 Y66.892 E193.08344
G1 X23.992 Y67.5 E193.19307
G1 X24.046 Y68.108 E193.3027
G1 X24.203 Y68.699 E193.41253
G1 X24.278 Y68.859 E193.44427
G1 X24.463 Y69.253 E193.52244
G1 X24.635 Y69.5 E193.5765
G1 X24.463 Y69.5
G1 X24.028 Y69.5 E193.63185
G1 X-19.028 Y69.5 E201.36491
G1 X-19.463 Y69.5 E201.44304
G1 X-19.634 Y69.499 E201.47375
G1 X-19.463 Y69.253 E201.4956
G1 X-19.278 Y68.859 E201.55098
G1 X-19.203 Y68.699 E201.58272
G1 X-19.046 Y68.108 E201.69255
G1 X-18.992 Y67.5 E201.80218
G1 X-19.046 Y66.892 E201.91181
G1 X-19.203 Y66.301 E202.02163
G1 X-19.463 Y65.747 E202.13155
G1 X-19.811 Y65.247 E202.24096
G1 X-20.247 Y64.811 E202.3517
G1 X-20.747 Y64.463 E202.46112
G1 X-21.301 Y64.203 E202.57103
G1 X-21.892 Y64.046 E202.68086
G1 X-22.5 Y63.992 E202.79049
G1 X-23.108 Y64.046 E202.90012
G1 X-23.699 Y64.203 E203.00995
G1 X-24.253 Y64.463 E203.11986
G1 X-24.753 Y64.811 E203.22927
G1 X-25.189 Y65.247 E203.34001
G1 X-25.537 Y65.747 E203.44943
G1 X-25.797 Y66.301 E203.55934
G1 X-25.954 Y66.892 E203.66917
G1 X-26.008 Y67.5 E203.7788
G1 X-25.954 Y68.108 E203.88843
G1 X-25.797 Y68.699 E203.99826
G1 X-25.537 Y69.253 E204.10817
G1 X-25.366 Y69.499 E204.16198
G1 X-25.537 Y69.499
G1 X-25.797 Y69.499 E204.17883
G1 X-30.042 Y69.499 E204.94125
G1 X-30.356 Y69.499 E204.99765
G1 X-30.481 Y69.477 E205.02045
G1 X-30.5 Y69.405 E205.03382
G1 X-30.5 Y69.091 E205.09022
G1 X-30.499 Y-69.356 E229.95595
G1 X-30.477 Y-69.481 E229.97875
G1 X-30.409 Y-69.5 E229.99143
G1 X-25.972 Y-69.5 E230.78834
G1 X-25.537 Y-69.5 E230.86646
G1 X-25.365 Y-69.5 E230.89736
G1 X-25.537 Y-69.253 E230.91919
G1 X-25.722 Y-68.859 E230.97457
G1 X-25.797 Y-68.699 E231.0063
G1 X-25.954 Y-68.108 E231.11613
G1 X-26.008 Y-67.5 E231.22576
G1 X-25.954 Y-66.892 E231.33539
G1 X-25.797 Y-66.301 E231.44522
G1 X-25.537 Y-65.747 E231.55513
G1 X-25.189 Y-65.247 E231.66455
G1 X-24.753 Y-64.811 E231.77529
G1 X-24.253 Y-64.463 E231.8847
G1 X-23.699 Y-64.203 E231.99462
G1 X-23.108 Y-64.046 E232.10444
G0 F1200 X-22.969 Y-64.837
G1 F600 X-22.5 Y-64.795 E232.18901
G1 X-22.031 Y-64.837 E232.27359
G1 X-21.576 Y-64.958 E232.35815
G1 X-21.148 Y-65.159 E232.44307
G1 X-20.762 Y-65.427 E232.52747
G1 X-20.427 Y-65.762 E232.61256
G1 X-20.159 Y-66.148 E232.69696
G1 X-19.958 Y-66.576 E232.78189
G1 X-19.837 Y-67.031 E232.86645
G1 X-19.795 Y-67.5 E232.95102
G1 X-19.837 Y-67.969 E233.03559
G1 X-19.958 Y-68.424 E233.12015
G1 X-20.159 Y-68.852 E233.20508
G1 X-20.427 Y-69.238 E233.28948
G1 X-20.7 Y-69.511 E233.35882
G1 X-20.762 Y-69.573 E233.37456
G1 X-21.148 Y-69.841 E233.45896
G1 X-21.576 Y-70.042 E233.54389
G1 X-22.031 Y-70.163 E233.62845
G1 X-22.5 Y-70.205 E233.71302
G1 X-22.969 Y-70.163 E233.79759
G1 X-23.424 Y-70.042 E233.88215
G1 X-23.852 Y-69.841 E233.96708
G1 X-24.238 Y-69.573 E234.05148
G1 X-24.3 Y-69.511 E234.06723
G1 X-24.573 Y-69.238 E234.13657
G1 X-24.841 Y-68.852 E234.22097
G1 X-25.042 Y-68.424 E234.30589
G1 X-25.163 Y-67.969 E234.39045
G1 X-25.205 Y-67.5 E234.47503
G1 X-25.163 Y-67.031 E234.5596
G1 X-25.042 Y-66.576 E234.64416
G1 X-24.841 Y-66.148 E234.72908
G1 X-24.573 Y-65.762 E234.81348
G1 X-24.238 Y-65.427 E234.89857
G1 X-23.852 Y-65.159 E234.98297
G1 X-23.424 Y-64.958 E235.0679
G1 X-22.969 Y-64.837 E235.15246
G0 F1200 X-22.986 Y-64.739
G0 X27.014 Y-64.739
G0 X27.031 Y-64.837
G1 F600 X27.5 Y-64.795 E235.23703
G1 X27.969 Y-64.837 E235.3216
G1 X28.424 Y-64.958 E235.40616
G1 X28.852 Y-65.159 E235.49109
G1 X29.238 Y-65.427 E235.57549
G1 X29.573 Y-65.762 E235.66058
G1 X29.841 Y-66.148 E235.74497
G1 X30.042 Y-66.576 E235.8299
G1 X30.163 Y-67.031 E235.91446
G1 X30.205 Y-67.5 E235.99903
G1 X30.163 Y-67.969 E236.0836
G1 X30.042 Y-68.424 E236.16816
G1 X29.841 Y-68.852 E236.25309
G1 X29.573 Y-69.238 E236.33749
G1 X29.3 Y-69.511 E236.40683
G1 X29.238 Y-69.573 E236.42258
G1 X28.852 Y-69.841 E236.50698
G1 X28.424 Y-70.042 E236.5919
G1 X27.969 Y-70.163 E236.67646
G1 X27.5 Y-70.205 E236.76104
G1 X27.031 Y-70.163 E236.84561
G1 X26.576 Y-70.042 E236.93017
G1 X26.148 Y-69.841 E237.01509
G1 X25.762 Y-69.573 E237.09949
G1 X25.7 Y-69.511 E237.11524
G1 X25.427 Y-69.238 E237.18458
G1 X25.159 Y-68.852 E237.26898
G1 X24.958 Y-68.424 E237.35391
G1 X24.837 Y-67.969 E237.43847
G1 X24.795 Y-67.5 E237.52304
G1 X24.837 Y-67.031 E237.60761
G1 X24.958 Y-66.576 E237.69217
G1 X25.159 Y-66.148 E237.7771
G1 X25.427 Y-65.762 E237.8615
G1 X25.762 Y-65.427 E237.94659
G1 X26.148 Y-65.159 E238.03098
G1 X26.576 Y-64.958 E238.11591
G1 X27.031 Y-64.837 E238.20047
G0 F1200 X27.014 Y-64.739
G0 X24.755 Y67.5
G0 X25.125 Y68.871
G0 X25.958 Y69.756
G0 X27.014 Y70.261
G0 X27.031 Y70.163
G1 F600 X27.5 Y70.205 E238.28504
G1 X27.969 Y70.163 E238.36961
G1 X28.424 Y70.042 E238.45417
G1 X28.852 Y69.841 E238.5391
G1 X29.238 Y69.573 E238.6235
G1 X29.3 Y69.511 E238.63925
G1 X29.573 Y69.238 E238.70859
G1 X29.841 Y68.852 E238.79299
G1 X30.042 Y68.424 E238.87791
G1 X30.163 Y67.969 E238.96247
G1 X30.205 Y67.5 E239.04705
G1 X30.163 Y67.031 E239.13162
G1 X30.042 Y66.576 E239.21618
G1 X29.841 Y66.148 E239.3011
G1 X29.573 Y65.762 E239.3855
G1 X29.238 Y65.427 E239.47059
G1 X28.852 Y65.159 E239.55499
G1 X28.424 Y64.958 E239.63992
G1 X27.969 Y64.837 E239.72448
G1 X27.5 Y64.795 E239.80905
G1 X27.031 Y64.837 E239.89362
G1 X26.576 Y64.958 E239.97818
G1 X26.148 Y65.159 E240.06311
G1 X25.762 Y65.427 E240.14751
G1 X25.427 Y65.762 E240.2326
G1 X25.159 Y66.148 E240.31699
G1 X24.958 Y66.576 E240.40192
G1 X24.837 Y67.031 E240.48648
G1 X24.795 Y67.5 E240.57105
G1 X24.837 Y67.969 E240.65562
G1 X24.958 Y68.424 E240.74018
G1 X25.159 Y68.852 E240.82511
G1 X25.427 Y69.238 E240.90951
G1 X25.7 Y69.511 E240.97885
G1 X25.762 Y69.573 E240.9946
G1 X26.148 Y69.841 E241.079
G1 X26.576 Y70.042 E241.16392
G1 X27.031 Y70.163 E241.24848
G0 F1200 X27.014 Y70.261
G0 X-22.986 Y70.261
G0 X-22.969 Y70.163
G1 F600 X-22.5 Y70.205 E241.33306
G1 X-22.031 Y70.163 E241.41763
G1 X-21.576 Y70.042 E241.50219
G1 X-21.148 Y69.841 E241.58711
G1 X-20.762 Y69.573 E241.67151
G1 X-20.7 Y69.511 E241.68726
G1 X-20.427 Y69.238 E241.7566
G1 X-20.159 Y68.852 E241.841
G1 X-19.958 Y68.424 E241.92593
G1 X-19.837 Y67.969 E242.01049
G1 X-19.795 Y67.5 E242.09506
G1 X-19.837 Y67.031 E242.17963
G1 X-19.958 Y66.576 E242.26419
G1 X-20.159 Y66.148 E242.34912
G1 X-20.427 Y65.762 E242.43352
G1 X-20.762 Y65.427 E242.51861
G1 X-21.148 Y65.159 E242.603
G1 X-21.576 Y64.958 E242.68793
G1 X-22.031 Y64.837 E242.77249
G1 X-22.5 Y64.795 E242.85706
G1 X-22.969 Y64.837 E242.94163
G1 X-23.424 Y64.958 E243.02619
G1 X-23.852 Y65.159 E243.11112
G1 X-24.238 Y65.427 E243.19552
G1 X-24.573 Y65.762 E243.28061
G1 X-24.841 Y66.148 E243.36501
G1 X-25.042 Y66.576 E243.44993
G1 X-25.163 Y67.031 E243.53449
G1 X-25.205 Y67.5 E243.61907
G1 X-25.163 Y67.969 E243.70364
G1 X-25.042 Y68.424 E243.7882
G1 X-24.841 Y68.852 E243.87312
G1 X-24.573 Y69.238 E243.95752
G1 X-24.3 Y69.511 E244.02686
G1 X-24.238 Y69.573 E244.04261
G1 X-23.852 Y69.841 E244.12701
G1 X-23.424 Y70.042 E244.21194
G1 X-22.969 Y70.163 E244.2965
G0 F1200 X-22.986 Y70.261
G0 X-31.201 Y69.427
G0 X-31.3 Y69.43
G1 F600 X-31.299 Y-69.43 E269.23641
G1 X-31.239 Y-69.766 E269.29771
G1 X-31.102 Y-70.006 E269.34735
G1 X-30.894 Y-70.18 E269.39605
G1 X-30.605 Y-70.286 E269.45134
G1 X-30.445 Y-70.3 E269.48018
G1 X-24.326 Y-70.3 E270.57919
G1 X-24.238 Y-70.3 E270.58778
G1 X-23.852 Y-70.3 E270.63812
G1 X-23.424 Y-70.3 E270.67143
G1 X-22.969 Y-70.3 E270.69106
G1 X-22.5 Y-70.3 E270.70328
G1 X-22.031 Y-70.3 E270.71549
G1 X-21.576 Y-70.3 E270.73513
G1 X-21.148 Y-70.3 E270.76843
G1 X-20.762 Y-70.3 E270.81878
G1 X-20.674 Y-70.3 E270.83392
G1 X25.674 Y-70.3 E279.15824
G1 X25.762 Y-70.3 E279.16683
G1 X26.148 Y-70.3 E279.21717
G1 X26.576 Y-70.3 E279.25048
G1 X27.031 Y-70.3 E279.27012
G1 X27.5 Y-70.3 E279.28233
G1 X27.969 Y-70.3 E279.29454
G1 X28.424 Y-70.3 E279.31418
G1 X28.852 Y-70.3 E279.34749
G1 X29.238 Y-70.3 E279.39783
G1 X29.326 Y-70.3 E279.41297
G1 X30.457 Y-70.299 E279.6161
G1 X30.605 Y-70.286 E279.64279
G1 X30.894 Y-70.18 E279.69808
G1 X31.102 Y-70.006 E279.74678
G1 X31.283 Y-69.642 E279.81979
G1 X31.3 Y-69.446 E279.85513
G1 X31.3 Y69.443 E304.80025
G1 X31.286 Y69.605 E304.82945
