;FLAVOR:Marlin
;TIME:7604
;Filament used: 9.77555m
;Layer height: 0.3
;MINX:107.42
;MINY:228.431
;MINZ:0.3
;MAXX:256.98
;MAXY:272.741
;MAXZ:20.1
;Generated with Cura_SteamEngine 4.10.0
M104 S230
M105
M109 S230
M82 ;absolute extrusion mode
G28 ; home all axes
 M117 Purge extruder
 G92 E0 ; reset extruder
 G1 Z1.0 F3000 ; move z up little to prevent scratching of surface
 G1 X2 Y20 Z0.3 F5000.0 ; move to start-line position
 G1 X2 Y200.0 Z0.3 F1500.0 E15 ; draw 1st line
 G1 X2 Y200.0 Z0.4 F5000.0 ; move to side a little
 G1 X2 Y20 Z0.4 F1500.0 E30 ; draw 2nd line
 G92 E0 ; reset extruder
 G1 Z1.0 F3000 ; move z up little to prevent scratching of surface
G92 E0
G92 E0
G1 F1500 E-2
;LAYER_COUNT:67
;LAYER:0
M107
M204 S2500
;MESH:Tablette.stl
G0 F6000 X114.206 Y235.117 Z0.3
;TYPE:WALL-INNER
G1 F1500 E0
G1 F900 X250.194 Y235.117 E9.40327
G1 X250.195 Y265.649 E11.5145
G1 X250.195 Y265.956 E11.53572
G1 X249.888 Y265.956 E11.54945
G1 X114.206 Y265.955 E20.93156
G1 X114.206 Y235.117 E23.06394
G0 F6000 X113.59 Y234.501
G1 F900 X250.81 Y234.501 E32.55241
G1 X250.811 Y266.265 E34.74882
G1 X250.811 Y266.572 E34.77005
G1 X250.504 Y266.572 E34.78377
G1 X113.59 Y266.571 E44.25108
G1 X113.59 Y234.501 E46.46865
G0 F6000 X112.974 Y233.885
G1 F900 X251.426 Y233.885 E56.0423
G1 X251.427 Y266.881 E58.32391
G1 X251.427 Y267.188 E58.34513
G1 X251.12 Y267.188 E58.35886
G1 X112.974 Y267.187 E67.91135
G1 X112.974 Y233.885 E70.21411
G0 F6000 X112.358 Y233.269
;TYPE:WALL-OUTER
G1 F900 X252.042 Y233.269 E79.87296
G1 X252.043 Y267.804 E82.26098
G1 X112.358 Y267.803 E91.91989
G1 X112.358 Y233.269 E94.30784
G0 F6000 X113.044 Y233.955
G0 X114.812 Y235.723
;TYPE:SKIN
G1 F900 X249.588 Y235.723 E103.62731
G1 X249.589 Y265.35 E105.67595
G1 X114.812 Y265.349 E114.99549
G1 X114.812 Y235.723 E117.04406
G0 F6000 X115.384 Y264.776
G1 F900 X115.808 Y264.776 E117.07338
G1 X115.384 Y264.351 E117.11489
G0 F6000 X115.808 Y264.776
G1 F900 X116.679 Y264.776 E117.17512
G1 X115.384 Y263.48 E117.30181
G1 X115.384 Y262.609 E117.36203
G1 X117.55 Y264.776 E117.5739
G1 X118.422 Y264.776 E117.63419
G1 X115.384 Y261.738 E117.93128
G1 X115.384 Y260.867 E117.99151
G1 X119.293 Y264.776 E118.37377
G1 X120.164 Y264.776 E118.43399
G1 X115.384 Y259.996 E118.90143
G1 X115.384 Y259.124 E118.96173
G1 X121.035 Y264.776 E119.51438
G1 X121.906 Y264.776 E119.57461
G1 X115.384 Y258.253 E120.21245
G1 X115.384 Y257.382 E120.27267
G1 X122.777 Y264.776 E120.99568
G1 X123.648 Y264.776 E121.05591
G1 X115.384 Y256.511 E121.86409
G1 X115.384 Y255.64 E121.92432
G1 X124.52 Y264.776 E122.81773
G1 X125.391 Y264.776 E122.87796
G1 X115.384 Y254.769 E123.85654
G1 X115.384 Y253.898 E123.91677
G1 X126.262 Y264.776 E124.98052
G1 X127.133 Y264.776 E125.04075
G1 X115.384 Y253.026 E126.18973
G1 X115.384 Y252.155 E126.24996
G1 X128.004 Y264.776 E127.48412
G1 X128.875 Y264.776 E127.54435
G1 X115.384 Y251.284 E128.86368
G1 X115.384 Y250.413 E128.9239
G1 X129.747 Y264.776 E130.32846
G1 X130.618 Y264.776 E130.38869
G1 X115.384 Y249.542 E131.87842
G1 X115.384 Y248.671 E131.93864
G1 X131.489 Y264.776 E133.51355
G1 X132.36 Y264.776 E133.57378
G1 X115.384 Y247.799 E135.2339
G1 X115.384 Y246.928 E135.29413
G1 X133.231 Y264.776 E137.03944
G1 X134.102 Y264.776 E137.09966
G1 X115.384 Y246.057 E138.93014
G1 X115.384 Y245.186 E138.99037
G1 X134.973 Y264.776 E140.90602
G1 X135.845 Y264.776 E140.96632
G1 X115.384 Y244.315 E142.9672
G1 X115.384 Y243.444 E143.02742
G1 X136.716 Y264.776 E145.11348
G1 X137.587 Y264.776 E145.1737
G1 X115.384 Y242.572 E147.34498
G1 X115.384 Y241.701 E147.40521
G1 X138.458 Y264.776 E149.66166
G1 X139.329 Y264.776 E149.72188
G1 X115.384 Y240.83 E152.06351
G1 X115.384 Y239.959 E152.12374
G1 X140.2 Y264.776 E154.55054
G1 X141.072 Y264.776 E154.61083
G1 X115.384 Y239.088 E157.12286
G1 X115.384 Y238.217 E157.18309
G1 X141.943 Y264.776 E159.78029
G1 X142.814 Y264.776 E159.84051
G1 X115.384 Y237.346 E162.52289
G1 X115.384 Y236.474 E162.58318
G1 X143.685 Y264.776 E165.35078
G1 X144.556 Y264.776 E165.41101
G1 X116.075 Y236.294 E168.19621
G1 X116.946 Y236.294 E168.25644
G1 X145.427 Y264.776 E171.04164
G1 X146.298 Y264.776 E171.10186
G1 X117.817 Y236.294 E173.88706
G1 X118.688 Y236.294 E173.94729
G1 X147.17 Y264.776 E176.73254
G1 X148.041 Y264.776 E176.79277
G1 X119.559 Y236.294 E179.57802
G1 X120.43 Y236.294 E179.63824
G1 X148.912 Y264.776 E182.42349
G1 X149.783 Y264.776 E182.48372
G1 X121.302 Y236.294 E185.26892
G1 X122.173 Y236.294 E185.32915
G1 X150.654 Y264.776 E188.11435
G1 X151.525 Y264.776 E188.17458
G1 X123.044 Y236.294 E190.95978
G1 X123.915 Y236.294 E191.02
G1 X152.397 Y264.776 E193.80525
G1 X153.268 Y264.776 E193.86548
G1 X124.786 Y236.294 E196.65073
G1 X125.657 Y236.294 E196.71096
G1 X154.139 Y264.776 E199.49621
G1 X155.01 Y264.776 E199.55643
G1 X126.528 Y236.294 E202.34168
G1 X127.4 Y236.294 E202.40198
G1 X155.881 Y264.776 E205.18718
G1 X156.752 Y264.776 E205.24741
G1 X128.271 Y236.294 E208.03261
G1 X129.142 Y236.294 E208.09283
G1 X157.624 Y264.776 E210.87808
G1 X158.495 Y264.776 E210.93831
G1 X130.013 Y236.294 E213.72356
G1 X130.884 Y236.294 E213.78379
G1 X159.366 Y264.776 E216.56904
G1 X160.237 Y264.776 E216.62926
G1 X131.755 Y236.294 E219.41451
G1 X132.627 Y236.294 E219.47481
G1 X161.108 Y264.776 E222.26001
G1 X161.979 Y264.776 E222.32024
G1 X133.498 Y236.294 E225.10544
G1 X134.369 Y236.294 E225.16566
G1 X162.85 Y264.776 E227.95086
G1 X163.722 Y264.776 E228.01116
G1 X135.24 Y236.294 E230.79641
G1 X136.111 Y236.294 E230.85664
G1 X164.593 Y264.776 E233.64189
G1 X165.464 Y264.776 E233.70211
G1 X136.982 Y236.294 E236.48736
G1 X137.854 Y236.294 E236.54766
G1 X166.335 Y264.776 E239.33286
G1 X167.206 Y264.776 E239.39309
G1 X138.725 Y236.294 E242.17829
G1 X139.596 Y236.294 E242.23851
G1 X168.077 Y264.776 E245.02371
G1 X168.949 Y264.776 E245.08401
G1 X140.467 Y236.294 E247.86926
G1 X141.338 Y236.294 E247.92949
G1 X169.82 Y264.776 E250.71474
G1 X170.691 Y264.776 E250.77496
G1 X142.209 Y236.294 E253.56021
G1 X143.08 Y236.294 E253.62044
G1 X171.562 Y264.776 E256.40569
G1 X172.433 Y264.776 E256.46592
G1 X143.952 Y236.294 E259.25112
G1 X144.823 Y236.294 E259.31134
G1 X173.304 Y264.776 E262.09654
G1 X174.175 Y264.776 E262.15677
G1 X145.694 Y236.294 E264.94197
G1 X146.565 Y236.294 E265.0022
G1 X175.047 Y264.776 E267.78745
G1 X175.918 Y264.776 E267.84768
G1 X147.436 Y236.294 E270.63292
G1 X148.307 Y236.294 E270.69315
G1 X176.789 Y264.776 E273.4784
G1 X177.66 Y264.776 E273.53863
G1 X149.179 Y236.294 E276.32383
G1 X150.05 Y236.294 E276.38406
G1 X178.531 Y264.776 E279.16926
G1 X179.402 Y264.776 E279.22948
G1 X150.921 Y236.294 E282.01468
G1 X151.792 Y236.294 E282.07491
G1 X180.274 Y264.776 E284.86016
G1 X181.145 Y264.776 E284.92039
G1 X152.663 Y236.294 E287.70564
G1 X153.534 Y236.294 E287.76586
G1 X182.016 Y264.776 E290.55111
G1 X182.887 Y264.776 E290.61134
G1 X154.405 Y236.294 E293.39659
G1 X155.277 Y236.294 E293.45689
G1 X183.758 Y264.776 E296.24209
G1 X184.629 Y264.776 E296.30231
G1 X156.148 Y236.294 E299.08751
G1 X157.019 Y236.294 E299.14774
G1 X185.5 Y264.776 E301.93294
G1 X186.372 Y264.776 E301.99324
G1 X157.89 Y236.294 E304.77849
G1 X158.761 Y236.294 E304.83871
G1 X187.243 Y264.776 E307.62396
G1 X188.114 Y264.776 E307.68419
G1 X159.632 Y236.294 E310.46944
G1 X160.504 Y236.294 E310.52974
G1 X188.985 Y264.776 E313.31494
G1 X189.856 Y264.776 E313.37516
G1 X161.375 Y236.294 E316.16036
G1 X162.246 Y236.294 E316.22059
G1 X190.727 Y264.776 E319.00579
G1 X191.599 Y264.776 E319.06609
G1 X163.117 Y236.294 E321.85134
G1 X163.988 Y236.294 E321.91156
G1 X192.47 Y264.776 E324.69681
G1 X193.341 Y264.776 E324.75704
G1 X164.859 Y236.294 E327.54229
G1 X165.73 Y236.294 E327.60252
G1 X194.212 Y264.776 E330.38777
G1 X195.083 Y264.776 E330.44799
G1 X166.602 Y236.294 E333.23319
G1 X167.473 Y236.294 E333.29342
G1 X195.954 Y264.776 E336.07862
G1 X196.826 Y264.776 E336.13892
G1 X168.344 Y236.294 E338.92417
G1 X169.215 Y236.294 E338.98439
G1 X197.697 Y264.776 E341.76964
G1 X198.568 Y264.776 E341.82987
G1 X170.086 Y236.294 E344.61512
G1 X170.957 Y236.294 E344.67535
G1 X199.439 Y264.776 E347.4606
G1 X200.31 Y264.776 E347.52082
G1 X171.829 Y236.294 E350.30602
G1 X172.7 Y236.294 E350.36625
G1 X201.181 Y264.776 E353.15145
G1 X202.052 Y264.776 E353.21168
G1 X173.571 Y236.294 E355.99688
G1 X174.442 Y236.294 E356.05711
G1 X202.924 Y264.776 E358.84235
G1 X203.795 Y264.776 E358.90258
G1 X175.313 Y236.294 E361.68783
G1 X176.184 Y236.294 E361.74806
G1 X204.666 Y264.776 E364.53331
G1 X205.537 Y264.776 E364.59354
G1 X177.056 Y236.294 E367.37873
G1 X177.927 Y236.294 E367.43896
G1 X206.408 Y264.776 E370.22416
G1 X207.279 Y264.776 E370.28439
G1 X178.798 Y236.294 E373.06959
G1 X179.669 Y236.294 E373.12982
G1 X208.151 Y264.776 E375.91507
G1 X209.022 Y264.776 E375.97529
G1 X180.54 Y236.294 E378.76054
G1 X181.411 Y236.294 E378.82077
G1 X209.893 Y264.776 E381.60602
G1 X210.764 Y264.776 E381.66625
G1 X182.282 Y236.294 E384.4515
G1 X183.154 Y236.294 E384.51179
G1 X211.635 Y264.776 E387.29699
G1 X212.506 Y264.776 E387.35722
G1 X184.025 Y236.294 E390.14242
G1 X184.896 Y236.294 E390.20265
G1 X213.377 Y264.776 E392.98785
G1 X214.249 Y264.776 E393.04814
G1 X185.767 Y236.294 E395.83339
G1 X186.638 Y236.294 E395.89362
G1 X215.12 Y264.776 E398.67887
G1 X215.991 Y264.776 E398.7391
G1 X187.509 Y236.294 E401.52435
G1 X188.381 Y236.294 E401.58464
G1 X216.862 Y264.776 E404.36984
G1 X217.733 Y264.776 E404.43007
G1 X189.252 Y236.294 E407.21527
G1 X190.123 Y236.294 E407.2755
G1 X218.604 Y264.776 E410.0607
G1 X219.476 Y264.776 E410.12099
G1 X190.994 Y236.294 E412.90624
G1 X191.865 Y236.294 E412.96647
G1 X220.347 Y264.776 E415.75172
G1 X221.218 Y264.776 E415.81195
G1 X192.736 Y236.294 E418.5972
G1 X193.607 Y236.294 E418.65742
G1 X222.089 Y264.776 E421.44267
G1 X222.96 Y264.776 E421.5029
G1 X194.479 Y236.294 E424.2881
G1 X195.35 Y236.294 E424.34833
G1 X223.831 Y264.776 E427.13353
G1 X224.702 Y264.776 E427.19376
G1 X196.221 Y236.294 E429.97896
G1 X197.092 Y236.294 E430.03918
G1 X225.574 Y264.776 E432.82443
G1 X226.445 Y264.776 E432.88466
G1 X197.963 Y236.294 E435.66991
G1 X198.834 Y236.294 E435.73014
G1 X227.316 Y264.776 E438.51538
G1 X228.187 Y264.776 E438.57561
G1 X199.706 Y236.294 E441.36081
G1 X200.577 Y236.294 E441.42104
G1 X229.058 Y264.776 E444.20624
G1 X229.929 Y264.776 E444.26647
G1 X201.448 Y236.294 E447.05167
G1 X202.319 Y236.294 E447.11189
G1 X230.801 Y264.776 E449.89714
G1 X231.672 Y264.776 E449.95737
G1 X203.19 Y236.294 E452.74262
G1 X204.061 Y236.294 E452.80285
G1 X232.543 Y264.776 E455.5881
G1 X233.414 Y264.776 E455.64832
G1 X204.932 Y236.294 E458.43357
G1 X205.804 Y236.294 E458.49387
G1 X234.285 Y264.776 E461.27907
G1 X235.156 Y264.776 E461.3393
G1 X206.675 Y236.294 E464.1245
G1 X207.546 Y236.294 E464.18472
G1 X236.028 Y264.776 E466.96997
G1 X236.899 Y264.776 E467.0302
G1 X208.417 Y236.294 E469.81545
G1 X209.288 Y236.294 E469.87568
G1 X237.77 Y264.776 E472.66093
G1 X238.641 Y264.776 E472.72115
G1 X210.159 Y236.294 E475.5064
G1 X211.031 Y236.294 E475.5667
G1 X239.512 Y264.776 E478.3519
G1 X240.383 Y264.776 E478.41213
G1 X211.902 Y236.294 E481.19733
G1 X212.773 Y236.294 E481.25755
G1 X241.254 Y264.776 E484.04275
G1 X242.126 Y264.776 E484.10305
G1 X213.644 Y236.294 E486.8883
G1 X214.515 Y236.294 E486.94853
G1 X242.997 Y264.776 E489.73378
G1 X243.868 Y264.776 E489.794
G1 X215.386 Y236.294 E492.57925
G1 X216.258 Y236.294 E492.63955
G1 X244.739 Y264.776 E495.42475
G1 X245.61 Y264.776 E495.48498
G1 X217.129 Y236.294 E498.27018
G1 X218 Y236.294 E498.33041
G1 X246.481 Y264.776 E501.1156
G1 X247.353 Y264.776 E501.1759
G1 X218.871 Y236.294 E503.96115
G1 X219.742 Y236.294 E504.02138
G1 X248.224 Y264.776 E506.80663
G1 X249.016 Y264.776 E506.86139
G1 X249.016 Y264.697 E506.86685
G1 X220.613 Y236.294 E509.64438
G1 X221.484 Y236.294 E509.70461
G1 X249.016 Y263.826 E512.39695
G1 X249.016 Y262.955 E512.45718
G1 X222.356 Y236.294 E515.06431
G1 X223.227 Y236.294 E515.12453
G1 X249.016 Y262.084 E517.64648
G1 X249.016 Y261.213 E517.70671
G1 X224.098 Y236.294 E520.14349
G1 X224.969 Y236.294 E520.20371
G1 X249.016 Y260.341 E522.55527
G1 X249.016 Y259.47 E522.61549
G1 X225.84 Y236.294 E524.88187
G1 X226.711 Y236.294 E524.9421
G1 X249.016 Y258.599 E527.1233
G1 X249.016 Y257.728 E527.18353
G1 X227.583 Y236.294 E529.2795
G1 X228.454 Y236.294 E529.33973
G1 X249.016 Y256.857 E531.35053
G1 X249.016 Y255.986 E531.41076
G1 X229.325 Y236.294 E533.33639
G1 X230.196 Y236.294 E533.39662
G1 X249.016 Y255.114 E535.23702
G1 X249.016 Y254.243 E535.29725
G1 X231.067 Y236.294 E537.05248
G1 X231.938 Y236.294 E537.1127
G1 X249.016 Y253.372 E538.78276
G1 X249.016 Y252.501 E538.84299
G1 X232.809 Y236.294 E540.42787
G1 X233.681 Y236.294 E540.48816
G1 X249.016 Y251.63 E541.98782
G1 X249.016 Y250.759 E542.04805
G1 X234.552 Y236.294 E543.46253
G1 X235.423 Y236.294 E543.52275
G1 X249.016 Y249.887 E544.85201
G1 X249.016 Y249.016 E544.91224
G1 X236.294 Y236.294 E546.15632
G1 X237.165 Y236.294 E546.21655
G1 X249.016 Y248.144 E547.3754
G1 X249.016 Y247.273 E547.43563
G1 X238.036 Y236.294 E548.50932
G1 X238.908 Y236.294 E548.56961
G1 X249.016 Y246.402 E549.55807
G1 X249.016 Y245.531 E549.6183
G1 X239.779 Y236.294 E550.52158
G1 X240.65 Y236.294 E550.58181
G1 X249.016 Y244.66 E551.39992
G1 X249.016 Y243.789 E551.46015
G1 X241.521 Y236.294 E552.19308
G1 X242.392 Y236.294 E552.25331
G1 X249.016 Y242.918 E552.90107
G1 X249.016 Y242.046 E552.96137
G1 X243.263 Y236.294 E553.5239
G1 X244.134 Y236.294 E553.58413
G1 X249.016 Y241.175 E554.06149
G1 X249.016 Y240.304 E554.12172
G1 X245.006 Y236.294 E554.51386
G1 X245.877 Y236.294 E554.57408
G1 X249.016 Y239.433 E554.88105
G1 X249.016 Y238.562 E554.94127
G1 X246.748 Y236.294 E555.16306
G1 X247.619 Y236.294 E555.22329
G1 X249.016 Y237.691 E555.3599
G1 X249.016 Y236.819 E555.4202
G1 X248.49 Y236.294 E555.47159
G1 X249.015 Y236.294 E555.50789
G1 F1500 E553.50789
;MESH:NONMESH
G0 F300 X249.015 Y236.294 Z0.6
G0 F6000 X113.29 Y234.501
;TIME_ELAPSED:545.764358
;LAYER:1
M106 S44.6
;TYPE:WALL-INNER
;MESH:Tablette.stl
G1 F1500 E555.50789
G1 F2250 X251.11 Y234.501 E562.315
G1 X251.111 Y266.653 E563.90303
G1 X251.111 Y266.872 E563.91384
G1 X250.892 Y266.872 E563.92085
G1 X113.29 Y266.871 E570.71719
G1 X113.29 Y234.501 E572.31598
G0 F7500 X112.85 Y234.061
G1 F2250 X251.55 Y234.061 E579.16656
G1 X251.551 Y267.093 E580.79805
G1 X251.551 Y267.312 E580.80887
G1 X251.332 Y267.312 E580.81587
G1 X112.85 Y267.311 E587.65567
G1 X112.85 Y234.061 E589.29794
G0 F7500 X112.41 Y233.621
G1 F2250 X251.99 Y233.621 E596.19197
G1 X251.991 Y267.533 E597.86693
G1 X251.991 Y267.752 E597.87775
G1 X251.772 Y267.752 E597.88475
G1 X112.41 Y267.751 E604.76802
G1 X112.41 Y233.621 E606.45374
G0 F7500 X111.97 Y233.181
;TYPE:WALL-OUTER
G1 F2250 X252.43 Y233.181 E613.39125
G1 X252.431 Y268.192 E615.12049
G1 X111.97 Y268.191 E622.05804
G1 X111.97 Y233.181 E623.78723
G0 F7500 X112.48 Y233.691
G0 X113.72 Y234.931
;TYPE:SKIN
G1 F1050 X250.68 Y234.931 E630.55186
G1 X250.681 Y266.442 E632.10823
G1 X113.72 Y266.441 E638.87291
G1 X113.72 Y234.931 E640.42923
G0 F7500 X114.115 Y235.326
G1 F1050 X114.115 Y235.591 E640.44232
G1 X114.38 Y235.326 E640.46083
G1 X115.002 Y235.326 E640.49155
G1 X114.115 Y236.213 E640.55351
G1 X114.115 Y236.835 E640.58423
G1 X115.624 Y235.326 E640.68963
G1 X116.246 Y235.326 E640.72035
G1 X114.115 Y237.457 E640.8692
G1 X114.115 Y238.08 E640.89997
G1 X116.869 Y235.326 E641.09234
G1 X117.491 Y235.326 E641.12306
G1 X114.115 Y238.702 E641.35887
G1 X114.115 Y239.324 E641.3896
G1 X118.113 Y235.326 E641.66886
G1 X118.735 Y235.326 E641.69958
G1 X114.115 Y239.946 E642.02228
G1 X114.115 Y240.569 E642.05305
G1 X119.358 Y235.326 E642.41928
G1 X119.98 Y235.326 E642.45
G1 X114.115 Y241.191 E642.85967
G1 X114.115 Y241.813 E642.89039
G1 X120.602 Y235.326 E643.34351
G1 X121.224 Y235.326 E643.37423
G1 X114.115 Y242.435 E643.87079
G1 X114.115 Y243.058 E643.90156
G1 X121.847 Y235.326 E644.44164
G1 X122.469 Y235.326 E644.47236
G1 X114.115 Y243.68 E645.05589
G1 X114.115 Y244.302 E645.08661
G1 X123.091 Y235.326 E645.71358
G1 X123.713 Y235.326 E645.7443
G1 X114.115 Y244.924 E646.41472
