;FLAVOR:Marlin
;TIME:2527
;Filament used: 1.99857m
;Layer height: 0.3
;MINX:185.304
;MINY:200.434
;MINZ:0.3
;MAXX:207.016
;MAXY:237.434
;MAXZ:57.3
;Generated with Cura_SteamEngine 4.10.0
M104 S228
M105
M109 S228
M82 ;absolute extrusion mode
G28 ; home all axes
 M117 Purge extruder
 G92 E0 ; reset extruder
 G1 Z1.0 F3000 ; move z up little to prevent scratching of surface
 G1 X2 Y20 Z0.3 F5000.0 ; move to start-line position
 G1 X2 Y200.0 Z0.3 F1500.0 E15 ; draw 1st line
 G1 X2 Y200.0 Z0.4 F5000.0 ; move to side a little
 G1 X2 Y20 Z0.4 F1500.0 E30 ; draw 2nd line
 G92 E0 ; reset extruder
 G1 Z1.0 F3000 ; move z up little to prevent scratching of surface
G92 E0
G92 E0
G1 F1500 E-2.5
;LAYER_COUNT:191
;LAYER:0
M107
M204 S2500
G1 F300 Z0.5
G0 F6000 X201.021 Y214.764 Z0.5
;TYPE:SKIRT
G1 F300 Z0.3
G1 F1500 E0
G1 F600 X201.479 Y214.803 E0.03178
G1 X201.816 Y214.817 E0.05511
G1 X202.217 Y214.816 E0.08284
G1 X202.536 Y214.803 E0.10491
G1 X202.937 Y214.771 E0.13273
G1 X203.013 Y214.762 E0.13802
G1 X203.013 Y222.607 E0.68049
G1 X202.927 Y222.597 E0.68647
G1 X202.536 Y222.567 E0.71359
G1 X202.23 Y222.555 E0.73476
G1 X201.83 Y222.555 E0.76242
G1 X201.528 Y222.566 E0.78332
G1 X201.118 Y222.597 E0.81175
G1 X201.021 Y222.607 E0.81849
G1 X201.021 Y215.109 E1.33696
G0 F540 X201.021 Y214.764
G0 F6000 X201.085 Y214.151
G1 F600 X201.531 Y214.189 E1.36792
G1 X201.816 Y214.201 E1.38764
G1 X202.217 Y214.2 E1.41537
G1 X202.487 Y214.189 E1.43405
G1 X202.888 Y214.157 E1.46187
G1 X203.153 Y214.125 E1.48033
G1 X203.519 Y214.068 E1.50594
G1 X203.629 Y214.048 E1.51367
G1 X203.629 Y223.322 E2.15495
G1 X203.572 Y223.311 E2.15896
G1 X203.156 Y223.244 E2.1881
G1 X202.88 Y223.211 E2.20732
G1 X202.489 Y223.181 E2.23444
G1 X202.23 Y223.171 E2.25236
G1 X201.83 Y223.171 E2.28002
G1 X201.575 Y223.181 E2.29766
G1 X201.165 Y223.212 E2.3261
G1 X200.916 Y223.239 E2.34341
G1 X200.462 Y223.312 E2.37521
G1 X200.405 Y223.323 E2.37922
G1 X200.405 Y214.047 E3.02064
G1 X200.743 Y214.105 E3.04435
G0 F540 X200.819 Y214.117
G0 X201.085 Y214.151
G0 F6000 X201.185 Y213.542
G1 F600 X201.583 Y213.575 E3.07197
G1 X201.876 Y213.585 E3.09224
G1 X202.217 Y213.584 E3.11582
G1 X202.438 Y213.575 E3.13111
G1 X202.839 Y213.543 E3.15893
G1 X203.106 Y213.509 E3.17754
G1 X203.493 Y213.447 E3.20464
G1 X203.702 Y213.404 E3.2194
G1 X204.081 Y213.311 E3.24638
G1 X204.245 Y213.264 E3.25818
G1 X204.245 Y224.105 E4.00781
G1 X204.127 Y224.072 E4.01628
G1 X203.683 Y223.961 E4.04793
G1 X203.473 Y223.919 E4.06274
G1 X203.059 Y223.852 E4.09174
G1 X202.833 Y223.825 E4.10748
G1 X202.442 Y223.795 E4.13459
G1 X202.23 Y223.787 E4.14926
G1 X201.83 Y223.787 E4.17692
G1 X201.621 Y223.795 E4.19139
G1 X201.211 Y223.826 E4.21982
G1 X200.924 Y223.861 E4.23981
G1 X200.56 Y223.92 E4.26531
G1 X200.313 Y223.971 E4.28275
G1 X199.936 Y224.063 E4.30958
G1 X199.789 Y224.105 E4.32015
G1 X199.789 Y213.264 E5.06978
G1 X199.897 Y213.295 E5.07755
G1 X200.313 Y213.399 E5.1072
G1 X200.527 Y213.444 E5.12233
G1 X200.843 Y213.497 E5.14448
G0 F540 X200.921 Y213.51
G0 X201.185 Y213.542
G0 F6000 X201.244 Y212.928
G1 F600 X201.635 Y212.961 E5.17161
G1 X201.874 Y212.969 E5.18815
G1 X202.217 Y212.968 E5.21187
G1 X202.389 Y212.961 E5.22377
G1 X202.79 Y212.929 E5.25159
G1 X203.003 Y212.902 E5.26643
G1 X203.381 Y212.842 E5.2929
G1 X203.555 Y212.806 E5.30519
G1 X203.934 Y212.713 E5.33217
G1 X204.136 Y212.653 E5.34674
G1 X204.469 Y212.544 E5.37097
G1 X204.861 Y212.39 E5.40009
G1 X204.861 Y224.98 E6.27066
G1 X204.588 Y224.867 E6.29109
G1 X204.489 Y224.832 E6.29835
G1 X204.174 Y224.727 E6.32131
G1 X203.976 Y224.67 E6.33556
G1 X203.499 Y224.551 E6.36956
G1 X203.374 Y224.527 E6.37836
G1 X202.962 Y224.46 E6.40722
G1 X202.786 Y224.439 E6.41948
G1 X202.395 Y224.409 E6.44659
G1 X202.23 Y224.403 E6.45801
G1 X201.83 Y224.403 E6.48567
G1 X201.667 Y224.409 E6.49695
G1 X201.257 Y224.44 E6.52538
G1 X201.023 Y224.469 E6.54168
G1 X200.659 Y224.528 E6.56718
G1 X200.446 Y224.573 E6.58224
G1 X200.082 Y224.662 E6.60815
G1 X199.864 Y224.726 E6.62386
G1 X199.526 Y224.839 E6.6485
G1 X199.173 Y224.981 E6.67481
G1 X199.173 Y212.39 E7.54545
G1 X199.424 Y212.494 E7.56424
G1 X199.535 Y212.534 E7.5724
G1 X199.885 Y212.651 E7.59791
G1 X200.046 Y212.698 E7.60951
G1 X200.462 Y212.802 E7.63916
G1 X200.629 Y212.836 E7.65095
G1 X200.902 Y212.882 E7.67009
G0 F540 X201.023 Y212.902
G0 X201.244 Y212.928
G0 F6000 X201.295 Y212.315
G1 F600 X201.686 Y212.348 E7.69722
G1 X201.872 Y212.353 E7.71009
G1 X202.217 Y212.352 E7.73395
G1 X202.34 Y212.347 E7.74246
G1 X202.741 Y212.315 E7.77027
G1 X202.911 Y212.292 E7.78214
G1 X203.319 Y212.227 E7.81071
G1 X203.408 Y212.208 E7.817
G1 X203.787 Y212.115 E7.84398
G1 X203.944 Y212.068 E7.85531
G1 X204.324 Y211.942 E7.883
G1 X204.435 Y211.9 E7.8912
G1 X204.824 Y211.737 E7.92037
G1 X204.954 Y211.674 E7.93036
G1 X205.348 Y211.464 E7.96123
G1 X205.477 Y211.385 E7.97169
G1 X205.477 Y225.986 E8.98132
G1 X205.317 Y225.891 E8.99418
G1 X204.931 Y225.686 E9.02441
G1 X204.8 Y225.623 E9.03446
G1 X204.455 Y225.476 E9.06039
G1 X204.294 Y225.416 E9.07227
G1 X203.979 Y225.311 E9.09523
G1 X203.825 Y225.267 E9.1063
G1 X203.364 Y225.152 E9.13916
G1 X203.275 Y225.135 E9.14542
G1 X202.864 Y225.068 E9.17422
G1 X202.739 Y225.054 E9.18292
G1 X202.348 Y225.024 E9.21003
G1 X202.23 Y225.019 E9.2182
G1 X201.83 Y225.019 E9.24586
G1 X201.714 Y225.023 E9.25388
G1 X201.304 Y225.054 E9.28232
G1 X201.122 Y225.077 E9.295
G1 X200.758 Y225.136 E9.3205
G1 X200.592 Y225.171 E9.33223
G1 X200.228 Y225.26 E9.35814
G1 X200.06 Y225.311 E9.37028
G1 X199.717 Y225.425 E9.39527
G1 X199.588 Y225.473 E9.40479
G1 X199.176 Y225.651 E9.43583
G1 X199.098 Y225.689 E9.44183
G1 X198.688 Y225.905 E9.47387
G1 X198.557 Y225.985 E9.48448
G1 X198.557 Y211.385 E10.49404
G1 X198.801 Y211.528 E10.5136
G1 X199.123 Y211.694 E10.53865
G1 X199.237 Y211.748 E10.54737
G1 X199.574 Y211.891 E10.57269
G1 X199.731 Y211.95 E10.58428
G1 X200.081 Y212.067 E10.6098
G1 X200.195 Y212.1 E10.61801
G1 X200.611 Y212.204 E10.64766
G1 X200.731 Y212.229 E10.65613
G1 X200.954 Y212.267 E10.67178
G0 F540 X201.125 Y212.295
G0 X201.295 Y212.315
G0 F6000 X201.347 Y211.701
G1 F600 X201.738 Y211.734 E10.69891
G1 X201.87 Y211.737 E10.70804
G1 X202.217 Y211.736 E10.73203
G1 X202.291 Y211.733 E10.73715
G1 X202.692 Y211.701 E10.76497
G1 X202.812 Y211.685 E10.77334
G1 X203.208 Y211.621 E10.80108
G1 X203.64 Y211.516 E10.83182
G1 X203.757 Y211.48 E10.84029
G1 X204.114 Y211.363 E10.86626
G1 X204.198 Y211.332 E10.87246
G1 X204.566 Y211.177 E10.90007
G1 X204.664 Y211.13 E10.90758
G1 X205.052 Y210.923 E10.93799
G1 X205.105 Y210.892 E10.94224
G1 X205.446 Y210.674 E10.97022
G1 X205.517 Y210.624 E10.97623
G1 X205.833 Y210.384 E11.00367
G1 X205.9 Y210.328 E11.0097
G1 X206.093 Y210.157 E11.02753
G1 X206.093 Y227.213 E12.20692
G1 X205.847 Y226.995 E12.22965
G1 X205.786 Y226.947 E12.23502
G1 X205.466 Y226.71 E12.26255
G1 X205.126 Y226.493 E12.29044
G1 X205.027 Y226.435 E12.29837
G1 X204.609 Y226.214 E12.33107
G1 X204.558 Y226.19 E12.33497
G1 X204.167 Y226.025 E12.36431
G1 X204.099 Y226 E12.36932
G1 X203.784 Y225.895 E12.39228
G1 X203.674 Y225.864 E12.40018
G1 X203.229 Y225.753 E12.4319
G1 X202.82 Y225.685 E12.46057
G1 X202.692 Y225.668 E12.4695
G1 X202.301 Y225.638 E12.49661
G1 X202.23 Y225.635 E12.50153
G1 X201.83 Y225.635 E12.52919
G1 X201.76 Y225.638 E12.53403
G1 X201.297 Y225.674 E12.56614
G1 X200.856 Y225.744 E12.59702
G1 X200.739 Y225.769 E12.60529
G1 X200.375 Y225.858 E12.6312
G1 X200.255 Y225.895 E12.63989
G1 X199.908 Y226.011 E12.66519
G1 X199.83 Y226.04 E12.67094
G1 X199.43 Y226.212 E12.70105
G1 X199.054 Y226.407 E12.73034
G1 X198.944 Y226.47 E12.7391
G1 X198.591 Y226.695 E12.76805
G1 X198.532 Y226.737 E12.77306
G1 X198.216 Y226.974 E12.80037
G1 X198.149 Y227.029 E12.80636
G1 X197.941 Y227.213 E12.82557
G1 X197.941 Y210.157 E14.00495
G1 X198.137 Y210.332 E14.02312
G1 X198.233 Y210.41 E14.03167
G1 X198.547 Y210.647 E14.05888
G1 X198.652 Y210.716 E14.06756
G1 X198.978 Y210.922 E14.09423
G1 X199.085 Y210.981 E14.10268
G1 X199.393 Y211.14 E14.12665
G1 X199.478 Y211.181 E14.13317
G1 X199.854 Y211.339 E14.16137
G1 X199.926 Y211.365 E14.16667
G1 X200.276 Y211.482 E14.19218
G1 X200.345 Y211.502 E14.19715
G1 X200.761 Y211.606 E14.2268
G1 X200.832 Y211.621 E14.23182
G1 X201.005 Y211.65 E14.24395
G0 F540 X201.226 Y211.687
G0 X201.347 Y211.701
G0 F6000 X201.328 Y211.08
G1 F600 X201.789 Y211.12 E14.27595
G1 X202.217 Y211.12 E14.30554
G1 X202.643 Y211.087 E14.33509
G1 X203.048 Y211.024 E14.36343
G1 X203.114 Y211.011 E14.36808
G1 X203.517 Y210.911 E14.39679
G1 X203.903 Y210.784 E14.42489
G1 X203.961 Y210.763 E14.42916
G1 X204.309 Y210.618 E14.45523
G1 X204.375 Y210.587 E14.46027
G1 X204.774 Y210.373 E14.49158
G1 X205.095 Y210.167 E14.51795
G1 X205.145 Y210.133 E14.52213
G1 X205.445 Y209.905 E14.54819
G1 X205.492 Y209.867 E14.55237
G1 X205.777 Y209.613 E14.57876
G1 X206.078 Y209.302 E14.60869
G1 X206.393 Y208.915 E14.64319
G1 X206.59 Y208.629 E14.66721
G1 X206.709 Y208.427 E14.68342
G1 X206.709 Y228.94 E16.10185
G1 X206.6 Y228.756 E16.11664
G1 X206.37 Y228.424 E16.14457
G1 X206.107 Y228.101 E16.17337
G1 X205.819 Y227.798 E16.20227
G1 X205.767 Y227.747 E16.20731
G1 X205.464 Y227.477 E16.23537
G1 X205.156 Y227.245 E16.26204
G1 X205.1 Y227.206 E16.26676
G1 X204.738 Y226.978 E16.29634
G1 X204.38 Y226.788 E16.32436
G1 X204.317 Y226.757 E16.32922
G1 X203.956 Y226.604 E16.35633
G1 X203.589 Y226.48 E16.38312
G1 X203.523 Y226.461 E16.38787
G1 X203.094 Y226.354 E16.41844
G1 X202.671 Y226.285 E16.44808
G1 X202.254 Y226.252 E16.477
G1 X201.83 Y226.251 E16.50632
G1 X201.379 Y226.285 E16.53759
G1 X201.319 Y226.293 E16.54178
G1 X200.932 Y226.356 E16.56889
G1 X200.499 Y226.463 E16.59973
G1 X200.073 Y226.606 E16.63081
G1 X199.668 Y226.781 E16.66131
G1 X199.332 Y226.957 E16.68754
G1 X199.274 Y226.99 E16.69216
G1 X198.945 Y227.199 E16.71911
G1 X198.605 Y227.451 E16.74837
G1 X198.558 Y227.49 E16.75259
G1 X198.251 Y227.762 E16.78096
G1 X197.962 Y228.061 E16.80971
G1 X197.672 Y228.416 E16.84141
G1 X197.435 Y228.755 E16.87001
G1 X197.325 Y228.943 E16.88507
G1 X197.325 Y208.428 E18.30364
G1 X197.442 Y208.625 E18.31948
G1 X197.675 Y208.96 E18.3477
G1 X197.921 Y209.261 E18.37458
G1 X197.961 Y209.305 E18.37869
G1 X198.177 Y209.53 E18.40026
G1 X198.244 Y209.602 E18.40706
G1 X198.561 Y209.884 E18.4364
G1 X198.918 Y210.155 E18.46739
G1 X199.331 Y210.415 E18.50113
G1 X199.719 Y210.614 E18.53129
G1 X200.069 Y210.762 E18.55756
G1 X200.471 Y210.898 E18.58691
G1 X200.91 Y211.009 E18.61822
G1 X200.988 Y211.023 E18.6237
G0 F540 X201.328 Y211.08
G1 F1500 E16.1237
G1 F300 Z0.5
G0 F6000 X194.997 Y212.601 Z0.5
G1 F300 Z0.3
G1 F1500 E18.6237
G1 F600 X194.842 Y212.348 E18.64422
G1 X194.621 Y212.038 E18.67054
G1 X194.42 Y211.794 E18.6924
G1 X194.383 Y211.75 E18.69638
G1 X194.16 Y211.51 E18.71903
G1 X194.099 Y211.456 E18.72466
G1 X193.903 Y211.271 E18.7433
G1 X193.621 Y211.036 E18.76868
G1 X193.375 Y210.862 E18.78952
G1 X193.333 Y210.831 E18.79313
G1 X193.025 Y210.638 E18.81826
G1 X192.712 Y210.47 E18.84282
G1 X192.348 Y210.306 E18.87043
G1 X192.043 Y210.195 E18.89287
G1 X191.72 Y210.096 E18.91623
G1 X191.352 Y210.009 E18.94238
G1 X190.722 Y209.924 E18.98634
G1 X190.69 Y209.921 E18.98856
G1 X190.347 Y209.909 E19.0123
G1 X190.283 Y209.909 E19.01672
G1 X189.953 Y209.921 E19.03955
G1 X189.583 Y209.958 E19.06527
G1 X189.232 Y210.016 E19.08987
G1 X188.886 Y210.098 E19.11445
G1 X188.546 Y210.202 E19.13904
G1 X188.214 Y210.327 E19.16357
G1 X187.886 Y210.475 E19.18845
G1 X187.834 Y210.505 E19.1926
G1 X187.58 Y210.641 E19.21253
G1 X187.271 Y210.835 E19.23776
G1 X186.984 Y211.041 E19.26218
G1 X186.71 Y211.266 E19.2867
G1 X186.488 Y211.472 E19.30764
G1 X186.228 Y211.746 E19.33376
G1 X186.006 Y212.016 E19.35793
G1 X185.969 Y212.064 E19.36212
G1 X185.792 Y212.314 E19.3833
G1 X185.613 Y212.598 E19.40652
G1 X185.613 Y202.655 E20.09405
G1 X194.997 Y202.655 E20.74294
G1 X194.997 Y212.256 E21.40682
G0 F540 X194.997 Y212.601
G0 F6000 X194.381 Y210.875
G1 F600 X194.265 Y210.77 E21.41764
G1 X194.014 Y210.562 E21.44018
G1 X193.719 Y210.35 E21.4653
G1 X193.661 Y210.31 E21.47018
G1 X193.346 Y210.113 E21.49587
G1 X193.302 Y210.087 E21.4994
G1 X193.023 Y209.937 E21.5213
G1 X192.938 Y209.896 E21.52783
G1 X192.619 Y209.752 E21.55203
G1 X192.56 Y209.728 E21.55644
G1 X192.224 Y209.606 E21.58115
G1 X191.862 Y209.497 E21.60729
G1 X191.494 Y209.41 E21.63344
G1 X191.342 Y209.385 E21.64409
G1 X190.807 Y209.314 E21.68141
G1 X190.711 Y209.306 E21.68807
G1 X190.294 Y209.293 E21.71692
G1 X189.894 Y209.308 E21.7446
G1 X189.535 Y209.343 E21.76954
G1 X189.146 Y209.405 E21.79678
G1 X188.771 Y209.491 E21.82338
G1 X188.428 Y209.592 E21.84811
G1 X188.331 Y209.625 E21.85519
G1 X188.002 Y209.749 E21.87951
G1 X187.633 Y209.914 E21.90746
G1 X187.314 Y210.084 E21.93245
G1 X187.219 Y210.141 E21.94011
G1 X186.96 Y210.301 E21.96116
G1 X186.64 Y210.529 E21.98833
G1 X186.594 Y210.564 E21.99233
G1 X186.319 Y210.79 E22.01694
G1 X186.229 Y210.873 E22.02541
G1 X186.229 Y203.271 E22.55107
G1 X194.381 Y203.271 E23.11476
G1 X194.381 Y210.53 E23.61671
G0 F540 X194.381 Y210.875
G0 F6000 X193.765 Y209.648
G1 F600 X193.593 Y209.545 E23.63057
G1 X193.314 Y209.395 E23.65247
G1 X193.188 Y209.334 E23.66215
G1 X192.871 Y209.189 E23.68626
G1 X192.773 Y209.149 E23.69358
G1 X192.473 Y209.04 E23.71565
G1 X192.146 Y208.938 E23.73933
G1 X192.003 Y208.897 E23.74962
G1 X191.635 Y208.81 E23.77577
G1 X191.423 Y208.774 E23.79064
G1 X190.893 Y208.704 E23.8276
G1 X190.733 Y208.69 E23.83871
G1 X190.336 Y208.677 E23.86618
G1 X190.24 Y208.678 E23.87281
G1 X189.928 Y208.689 E23.8944
G1 X189.792 Y208.699 E23.90383
G1 X189.471 Y208.73 E23.92613
G1 X189.385 Y208.742 E23.93214
G1 X189.043 Y208.798 E23.9561
G1 X188.952 Y208.816 E23.96251
G1 X188.631 Y208.891 E23.98531
G1 X188.252 Y209.002 E24.01262
G1 X188.116 Y209.048 E24.02254
G1 X187.776 Y209.176 E24.04766
G1 X187.708 Y209.204 E24.05275
G1 X187.38 Y209.352 E24.07763
G1 X187.025 Y209.54 E24.10541
G1 X186.845 Y209.648 E24.11992
G1 X186.845 Y203.887 E24.51828
G1 X193.765 Y203.887 E24.99679
G1 X193.765 Y209.303 E25.37129
G0 F540 X193.765 Y209.648
G0 F6000 X193.149 Y208.639
G1 F600 X192.985 Y208.571 E25.38357
G1 X192.668 Y208.456 E25.40689
G1 X192.584 Y208.428 E25.41301
G1 X192.317 Y208.346 E25.43232
G1 X192.145 Y208.298 E25.44467
G1 X191.777 Y208.211 E25.47082
G1 X191.506 Y208.164 E25.48984
G1 X190.978 Y208.094 E25.52667
G1 X190.754 Y208.074 E25.54222
G1 X190.336 Y208.061 E25.57113
G1 X190.218 Y208.062 E25.57929
G1 X189.906 Y208.073 E25.60088
G1 X189.733 Y208.086 E25.61288
G1 X189.406 Y208.118 E25.6356
G1 X189.286 Y208.134 E25.64397
G1 X188.939 Y208.191 E25.66828
G1 X188.811 Y208.217 E25.67732
G1 X188.49 Y208.292 E25.70011
G1 X188.336 Y208.334 E25.71115
G1 X188.077 Y208.411 E25.72983
G1 X187.901 Y208.47 E25.74267
G1 X187.549 Y208.603 E25.76869
G1 X187.461 Y208.64 E25.77529
G1 X187.461 Y204.503 E26.06135
G1 X193.149 Y204.503 E26.45467
G1 X193.149 Y208.294 E26.71681
G0 F540 X193.149 Y208.639
G0 F6000 X192.533 Y207.768
G1 F600 X192.287 Y207.698 E26.73449
G1 X191.919 Y207.611 E26.76064
G1 X191.647 Y207.561 E26.77976
G1 X191.063 Y207.484 E26.82049
G1 X190.776 Y207.459 E26.84041
G1 X190.336 Y207.445 E26.87085
G1 X190.196 Y207.447 E26.88054
G1 X189.884 Y207.458 E26.90212
G1 X189.674 Y207.473 E26.91668
G1 X189.342 Y207.505 E26.93975
G1 X189.187 Y207.526 E26.95056
G1 X188.835 Y207.584 E26.97523
G1 X188.671 Y207.617 E26.9868
G1 X188.35 Y207.692 E27.00959
G1 X188.077 Y207.769 E27.02921
G1 X188.077 Y205.119 E27.21245
G1 X192.533 Y205.119 E27.52057
G1 X192.533 Y207.423 E27.67989
G0 F540 X192.533 Y207.768
G0 F6000 X191.917 Y206.986
G1 F600 X191.669 Y206.943 E27.69729
G1 X191.149 Y206.874 E27.73356
G1 X190.797 Y206.843 E27.758
G1 X190.454 Y206.831 E27.78173
G1 X190.175 Y206.831 E27.80102
G1 X189.863 Y206.842 E27.82261
G1 X189.615 Y206.86 E27.8398
G1 X189.277 Y206.893 E27.86329
G1 X189.088 Y206.918 E27.87647
G1 X188.732 Y206.976 E27.90141
G1 X188.693 Y206.984 E27.90416
G1 X188.693 Y205.735 E27.99053
G1 X191.917 Y205.735 E28.21346
G1 X191.917 Y206.641 E28.27611
G0 F540 X191.917 Y206.986
G1 F1500 E25.77611
G1 F300 Z0.5
