;FLAVOR:Marlin
;TIME:1904
;Filament used: 3.36199m
;Layer height: 0.3
;Generated with Cura_SteamEngine 3.6.0
M104 S205
M105
M109 S205
M82 ;absolute extrusion mode
G21 ;metric values
G90 ;absolute positioning
M82 ;set extruder to absolute mode
M107 ;start with the fan off
G28 X0 Y0 ;move X/Y to min endstops
G28 Z0 ;move Z to min endstops
G1 Z15.0 F120 ;move the platform down 15mm
G92 E0 ;zero the extruded length
G1 F200 E3 ;extrude 3mm of feed stock
G92 E0 ;zero the extruded length again
G1 F120
M117 Printing...
G5
G92 E0
G1 F2400 E-6
;LAYER_COUNT:35
;LAYER:0
M106 S127.5
M204 S3000
M205 X10 Y10
G0 F1800 X91.144 Y102.803 Z0.3
M204 S1000
M205 X8 Y8
;TYPE:SUPPORT
G1 F2400 E0
G1 F1200 X94.072 Y102.803 E0.20451
G1 X94.141 Y102.873 E0.21138
G1 X94.138 Y103.115 E0.22828
G1 X94.153 Y103.431 E0.25038
G1 X94.12 Y104.685 E0.33799
G1 X94.154 Y105.33 E0.38311
G1 X94.149 Y106.074 E0.43507
G1 X94.134 Y106.578 E0.47029
G1 X94.156 Y107.086 E0.50581
G1 X94.137 Y107.703 E0.54892
G1 X94.138 Y107.849 E0.55912
G1 X94.111 Y108.34 E0.59347
G1 X94.22 Y109.743 E0.69176
G1 X91.097 Y109.742 E0.90989
G1 X91.055 Y108.428 E1.00171
G1 X91.062 Y108.322 E1.00913
G1 X91.055 Y108.151 E1.02108
G1 X91.078 Y107.704 E1.05235
G1 X91.059 Y107.271 E1.08262
G1 X91.067 Y107.086 E1.09555
G1 X91.058 Y106.879 E1.11002
G1 X91.075 Y106.48 E1.13792
G1 X91.057 Y106.118 E1.16323
G1 X91.067 Y105.895 E1.17883
G1 X91.058 Y105.677 E1.19407
G1 X91.074 Y105.301 E1.22035
G1 X91.057 Y104.914 E1.24741
G1 X91.064 Y104.739 E1.25964
G1 X91.059 Y104.623 E1.26775
G1 X91.078 Y104.182 E1.29858
G1 X91.061 Y103.712 E1.33143
G1 X91.064 Y103.612 E1.33842
G1 X91.053 Y103.354 E1.35645
G1 X91.069 Y102.875 E1.38993
G1 X91.144 Y102.803 E1.39719
M204 S3000
M205 X10 Y10
G0 F1800 X91.276 Y108.124
M204 S1000
M205 X8 Y8
G1 F1200 X93.697 Y109.521 E1.59242
M204 S3000
M205 X10 Y10
G1 F2400 E-4.40758
G0 F1800 X94.639 Y110.061
G0 X95.179 Y110.555
G0 X95.253 Y111.36
G0 X95.211 Y116.611
G0 X94.762 Y117.072
G0 X94.193 Y117.501
M204 S1000
M205 X8 Y8
G1 F2400 E1.59242
G1 F1200 X94.131 Y118.797 E1.68305
G1 X94.146 Y119.174 E1.7094
G1 X94.137 Y119.359 E1.72234
G1 X94.149 Y119.673 E1.74428
G1 X94.133 Y120.03 E1.76924
G1 X94.151 Y121.482 E1.87067
G1 X94.148 Y134.992 E2.81429
G1 X94.155 Y135.519 E2.8511
G1 X94.145 Y140.019 E3.16541
G1 X94.151 Y147.074 E3.65818
G1 X94.143 Y150.374 E3.88867
G1 X94.151 Y152.158 E4.01328
G1 X94.143 Y158.69 E4.46952
G1 X94.152 Y163.12 E4.77894
G1 X94.143 Y165.036 E4.91276
G1 X94.153 Y165.333 E4.93352
G1 X94.148 Y165.743 E4.96216
G1 X94.114 Y166.248 E4.99751
G1 X94.199 Y167.743 E5.1021
G1 X90.997 Y167.743 E5.32575
G1 X91.07 Y166.344 E5.42359
G1 X91.058 Y166.04 E5.44484
G1 X91.07 Y165.794 E5.46205
G1 X91.054 Y165.412 E5.48875
G1 X91.063 Y165.194 E5.50399
G1 X91.058 Y165.004 E5.51727
G1 X91.075 Y164.619 E5.54418
G1 X91.05 Y164.056 E5.58355
G1 X91.07 Y163.448 E5.62604
G1 X91.064 Y163.235 E5.64092
G1 X91.075 Y162.865 E5.66677
G1 X91.061 Y162.48 E5.69368
G1 X91.063 Y162.305 E5.70591
G1 X91.048 Y161.853 E5.73749
G1 X91.076 Y161.252 E5.77952
G1 X91.064 Y160.907 E5.80363
G1 X91.071 Y159.655 E5.89108
G1 X91.064 Y156.352 E6.12178
G1 X91.055 Y156.136 E6.13688
G1 X91.085 Y155.747 E6.16413
G1 X91.063 Y155.511 E6.18069
G1 X91.075 Y154.091 E6.27987
G1 X91.065 Y153.017 E6.35489
G1 X91.063 Y150.166 E6.55402
G1 X91.073 Y148.954 E6.63868
G1 X91.066 Y148.746 E6.65321
G1 X91.074 Y148.069 E6.7005
G1 X91.068 Y124.891 E8.3194
G1 X91.073 Y124.444 E8.35062
G1 X91.062 Y124.027 E8.37976
G1 X91.074 Y123.886 E8.38964
G1 X91.062 Y123.705 E8.40231
G1 X91.077 Y123.226 E8.43579
G1 X91.052 Y122.652 E8.47592
G1 X91.076 Y122.099 E8.51458
G1 X91.051 Y121.495 E8.5568
G1 X91.074 Y120.991 E8.59204
G1 X91.052 Y120.384 E8.63446
G1 X91.075 Y119.941 E8.66545
G1 X91.053 Y119.422 E8.70173
G1 X91.052 Y119.26 E8.71305
G1 X91.078 Y118.801 E8.74516
G1 X90.991 Y117.501 E8.83616
G1 X94.193 Y117.501 E9.05981
M204 S3000
M205 X10 Y10
G0 F1800 X91.29 Y135.844
M204 S1000
M205 X8 Y8
G1 F1200 X93.93 Y137.369 E9.27276
M204 S3000
M205 X10 Y10
G0 F1800 X93.923 Y139.762
M204 S1000
M205 X8 Y8
G1 F1200 X91.291 Y141.282 E9.48504
M204 S3000
M205 X10 Y10
G0 F1800 X91.285 Y163.554
M204 S1000
M205 X8 Y8
G1 F1200 X93.924 Y165.078 E9.6979
M204 S3000
M205 X10 Y10
G0 F1800 X93.962 Y167.453
M204 S1000
M205 X8 Y8
G1 F1200 X93.841 Y167.522 E9.70763
M204 S3000
M205 X10 Y10
G1 F2400 E3.70763
G0 F1800 X94.643 Y168.061
G0 X95.189 Y168.557
G0 X95.25 Y169.441
G0 X95.256 Y173.879
G0 X95.177 Y174.692
G0 X94.196 Y175.501
M204 S1000
M205 X8 Y8
G1 F2400 E9.70763
G1 F1200 X94.137 Y176.806 E9.79887
G1 X94.124 Y177.623 E9.85594
G1 X94.143 Y177.864 E9.87283
G1 X94.137 Y178.035 E9.88478
G1 X94.131 Y179.093 E9.95868
G1 X94.142 Y179.207 E9.96667
G1 X94.14 Y179.775 E10.00635
G1 X94.147 Y179.944 E10.01816
G1 X94.132 Y180.287 E10.04214
G1 X94.142 Y180.528 E10.05899
G1 X94.124 Y180.878 E10.08347
G1 X94.146 Y181.238 E10.10866
G1 X94.135 Y181.445 E10.12314
G1 X94.145 Y181.678 E10.13943
G1 X94.13 Y182.024 E10.16362
G1 X94.146 Y182.366 E10.18753
G1 X94.072 Y182.443 E10.19499
G1 X91.128 Y182.443 E10.40062
G1 X91.061 Y182.378 E10.40714
G1 X91.051 Y182.205 E10.41924
G1 X91.058 Y182.064 E10.4291
G1 X91.052 Y181.918 E10.43931
G1 X91.075 Y181.489 E10.46931
G1 X91.053 Y181.082 E10.49778
G1 X91.061 Y180.892 E10.51107
G1 X91.055 Y180.721 E10.52302
G1 X91.075 Y180.279 E10.55392
G1 X91.055 Y179.904 E10.58015
G1 X91.061 Y179.751 E10.59084
G1 X91.055 Y179.598 E10.60154
G1 X91.074 Y179.157 E10.63237
G1 X91.05 Y178.63 E10.66922
G1 X91.077 Y177.982 E10.71452
G1 X91.051 Y177.403 E10.755
G1 X91.075 Y176.854 E10.79338
G1 X91.014 Y175.501 E10.88798
G1 X94.196 Y175.501 E11.11023
M204 S3000
M205 X10 Y10
G1 F2400 E5.11023
;MESH:AI3M_Ipad_Stand_Frame_PETG_06nz_0h28m_v01.3mf
G0 F1800 X95.177 Y174.692
G0 X95.256 Y173.879
G0 X95.25 Y170.195
G0 X93.771 Y117.186
G0 X93.771 Y115.768
G0 X50.045 Y112.45
G0 X49.955 Y112.493
M204 S1000
M205 X8 Y8
;TYPE:WALL-INNER
G1 F2400 E11.11023
G1 F1200 X49.546 Y111.812 E11.16571
G1 X49.307 Y111.507 E11.19278
G1 X49.178 Y111.358 E11.20654
G1 X48.846 Y111.028 E11.23924
G1 X48.551 Y110.782 E11.26607
G1 X48.256 Y110.57 E11.29144
G1 X47.989 Y110.41 E11.31318
G1 X47.756 Y110.284 E11.33168
G1 X47.489 Y110.165 E11.3521
G1 X47.191 Y110.048 E11.37446
G1 X46.905 Y109.959 E11.39538
G1 X46.556 Y109.875 E11.42046
G1 X46.145 Y109.81 E11.44952
G1 X45.767 Y109.783 E11.47599
G1 X20.868 Y109.779 E13.21509
G1 X20.845 Y109.779 E13.2167
G1 X20.844 Y109.265 E13.2526
G1 X20.844 Y109.242 E13.25421
G1 X20.855 Y108.758 E13.28802
G1 X20.864 Y107.797 E13.35515
G1 X20.851 Y107.384 E13.38401
G1 X20.851 Y105.739 E13.4989
G1 X20.851 Y105.459 E13.51846
G1 X21.131 Y105.459 E13.53112
G1 X49.808 Y105.461 E15.5341
G1 X50.518 Y105.535 E15.58396
G1 X51.177 Y105.753 E15.63244
G1 X51.253 Y105.793 E15.63844
G1 X51.784 Y106.12 E15.682
G1 X51.856 Y106.18 E15.68854
G1 X52.279 Y106.598 E15.73008
G1 X52.342 Y106.68 E15.7373
G1 X52.647 Y107.149 E15.77638
G1 X52.706 Y107.287 E15.78686
G1 X52.943 Y107.909 E15.83335
G1 X53.14 Y108.47 E15.87488
G1 X53.233 Y108.706 E15.8926
G1 X53.506 Y109.191 E15.93147
G1 X53.625 Y109.379 E15.94701
G1 X53.871 Y109.7 E15.97526
G1 X54.011 Y109.866 E15.99043
G1 X54.365 Y110.218 E16.0253
G1 X54.565 Y110.387 E16.04359
G1 X54.85 Y110.6 E16.06844
G1 X55.097 Y110.761 E16.08903
G1 X55.324 Y110.89 E16.10727
G1 X55.69 Y111.069 E16.13572
G1 X56 Y111.186 E16.15887
G1 X56.38 Y111.305 E16.18668
G1 X56.649 Y111.368 E16.20598
G1 X57.035 Y111.427 E16.23325
G1 X57.376 Y111.456 E16.25716
G1 X59.427 Y111.461 E16.40041
G1 X93.53 Y111.463 E18.78238
G1 X93.531 Y111.463 E18.78245
G1 X93.835 Y111.463 E18.80368
G1 X93.809 Y111.766 E18.8171
G1 X93.783 Y112.06 E18.83771
G1 X93.799 Y112.464 E18.86595
G1 X93.787 Y112.858 E18.89348
G1 X93.796 Y113.337 E18.92695
G1 X93.775 Y113.674 E18.95053
G1 X93.779 Y114.336 E18.99677
G1 X93.799 Y114.622 E19.01679
G1 X93.806 Y115.057 E19.04718
G1 X93.772 Y115.319 E19.06563
G1 X93.785 Y115.781 E19.09792
G1 X93.772 Y115.781
G1 X53.391 Y115.781 E21.91838
G1 X52.766 Y115.715 E21.96228
G1 X52.63 Y115.691 E21.97192
G1 X52.044 Y115.491 E22.01517
G1 X51.944 Y115.444 E22.02289
G1 X51.442 Y115.135 E22.06406
G1 X51.382 Y115.086 E22.06947
G1 X50.942 Y114.663 E22.1121
G1 X50.889 Y114.598 E22.11796
G1 X50.553 Y114.083 E22.16091
G1 X50.515 Y114.01 E22.16666
G1 X49.955 Y112.493 E22.2796
M204 S3000
M205 X10 Y10
G0 F1800 X50.045 Y112.45
G0 X93.714 Y115.712
G0 X94.251 Y115.953
M204 S1000
M205 X8 Y8
;TYPE:WALL-OUTER
G1 F1200 X94.252 Y115.954 E22.2797
G1 X94.259 Y116.241 E22.29975
G1 X93.972 Y116.241 E22.31264
G1 X93.971 Y116.241 E22.31271
G1 X53.37 Y116.241 E25.14854
G1 X52.702 Y116.17 E25.19546
G1 X52.515 Y116.138 E25.20871
G1 X51.867 Y115.916 E25.25655
G1 X51.726 Y115.85 E25.26743
G1 X51.177 Y115.512 E25.31246
G1 X51.077 Y115.431 E25.32145
G1 X50.604 Y114.977 E25.36724
G1 X50.52 Y114.873 E25.37658
G1 X50.155 Y114.314 E25.42321
G1 X50.092 Y114.194 E25.43267
G1 X49.538 Y112.693 E25.54442
G1 X49.166 Y112.073 E25.59493
G1 X48.952 Y111.8 E25.61915
G1 X48.841 Y111.672 E25.63099
G1 X48.536 Y111.368 E25.66107
G1 X48.269 Y111.146 E25.68532
G1 X48.003 Y110.955 E25.70819
G1 X47.761 Y110.81 E25.7279
G1 X47.552 Y110.697 E25.74449
G1 X47.311 Y110.589 E25.76294
G1 X47.039 Y110.482 E25.78335
G1 X46.783 Y110.403 E25.80207
G1 X46.466 Y110.326 E25.82485
G1 X46.093 Y110.267 E25.85123
G1 X45.751 Y110.243 E25.87517
G1 X20.386 Y110.239 E27.64682
G1 X20.384 Y109.255 E27.71555
G1 X20.395 Y108.751 E27.75076
G1 X20.404 Y107.802 E27.81705
G1 X20.391 Y107.384 E27.84626
G1 X20.391 Y105.279 E27.99329
G1 X20.391 Y104.999 E28.01284
G1 X20.671 Y104.999 E28.0255
G1 X49.837 Y105.001 E30.06264
G1 X50.613 Y105.082 E30.11714
G1 X51.356 Y105.327 E30.17178
G1 X51.494 Y105.401 E30.18272
G1 X52.057 Y105.748 E30.22891
G1 X52.156 Y105.831 E30.23793
G1 X52.628 Y106.297 E30.28426
G1 X52.714 Y106.408 E30.29407
G1 X53.056 Y106.935 E30.33795
G1 X53.129 Y107.105 E30.35087
G1 X53.373 Y107.745 E30.39871
G1 X53.571 Y108.31 E30.44053
G1 X53.649 Y108.508 E30.45539
G1 X53.901 Y108.955 E30.49123
G1 X54.003 Y109.116 E30.50454
G1 X54.229 Y109.411 E30.5305
G1 X54.35 Y109.554 E30.54359
G1 X54.676 Y109.879 E30.57574
G1 X54.851 Y110.027 E30.59175
G1 X55.113 Y110.222 E30.61456
G1 X55.337 Y110.368 E30.63323
G1 X55.539 Y110.483 E30.64947
G1 X55.873 Y110.646 E30.67543
G1 X56.15 Y110.751 E30.69612
G1 X56.501 Y110.861 E30.72181
G1 X56.736 Y110.916 E30.73867
G1 X57.089 Y110.97 E30.76361
G1 X57.396 Y110.996 E30.78513
G1 X59.428 Y111.001 E30.92706
G1 X94.158 Y111.003 E33.35282
G1 X94.274 Y111.003 E33.36092
G1 X94.306 Y111.349 E33.38519
G1 X94.297 Y111.464 E33.39325
G1 X94.244 Y112.07 E33.43574
G1 X94.26 Y112.46 E33.463
G1 X94.247 Y112.861 E33.49102
G1 X94.256 Y113.344 E33.52476
G1 X94.235 Y113.687 E33.54877
G1 X94.239 Y114.319 E33.59291
G1 X94.259 Y114.608 E33.61314
G1 X94.266 Y115.079 E33.64604
G1 X94.233 Y115.341 E33.66449
G1 X94.251 Y115.953 E33.70725
M204 S3000
M205 X10 Y10
G0 F1800 X94.252 Y115.954
G0 X94.259 Y116.241
G0 X94.247 Y116.241
G0 X93.228 Y115.231
M204 S1000
M205 X8 Y8
;TYPE:SKIN
G1 F1200 X53.42 Y115.231 E36.48769
G1 X52.848 Y115.171 E36.52786
G1 X52.76 Y115.155 E36.53411
G1 X52.255 Y114.982 E36.5714
G1 X52.203 Y114.958 E36.5754
G1 X51.749 Y114.676 E36.61273
G1 X51.338 Y114.278 E36.65269
G1 X51.02 Y113.79 E36.69337
G1 X50.453 Y112.254 E36.80773
G1 X50 Y111.5 E36.86917
G1 X49.732 Y111.157 E36.89957
G1 X49.581 Y110.983 E36.91566
G1 X49.217 Y110.621 E36.95152
G1 X48.888 Y110.347 E36.98142
G1 X48.558 Y110.11 E37.0098
G1 X48.262 Y109.932 E37.03393
G1 X47.999 Y109.791 E37.05477
G1 X47.701 Y109.658 E37.07756
G1 X47.374 Y109.529 E37.10212
G1 X47.051 Y109.429 E37.12573
G1 X46.664 Y109.335 E37.15355
G1 X46.208 Y109.264 E37.18578
G1 X45.787 Y109.233 E37.21527
G1 X21.395 Y109.229 E38.91896
G1 X21.414 Y107.791 E39.01941
G1 X21.401 Y107.384 E39.04785
G1 X21.401 Y106.009 E39.14389
G1 X49.78 Y106.011 E41.12605
G1 X50.402 Y106.076 E41.16974
G1 X50.988 Y106.275 E41.21296
G1 X51.483 Y106.585 E41.25376
G1 X51.89 Y106.994 E41.29406
G1 X52.162 Y107.414 E41.32901
G1 X52.427 Y108.099 E41.38031
G1 X52.625 Y108.662 E41.42199
G1 X52.736 Y108.943 E41.44309
G1 X53.034 Y109.473 E41.48556
G1 X53.173 Y109.694 E41.5038
G1 X53.443 Y110.045 E41.53473
G1 X53.606 Y110.239 E41.55243
G1 X53.994 Y110.624 E41.5906
G1 X54.223 Y110.817 E41.61152
G1 X54.535 Y111.051 E41.63876
G1 X54.81 Y111.231 E41.66172
G1 X55.067 Y111.377 E41.68236
G1 X55.472 Y111.574 E41.71382
G1 X55.821 Y111.706 E41.73988
G1 X56.235 Y111.836 E41.77019
G1 X56.545 Y111.908 E41.79242
G1 X56.97 Y111.973 E41.82245
G1 X57.352 Y112.006 E41.84923
G1 X59.425 Y112.011 E41.99402
G1 X93.236 Y112.013 E44.35559
G1 X93.249 Y112.464 E44.38711
G1 X93.237 Y112.854 E44.41436
G1 X93.246 Y113.347 E44.4488
G1 X93.225 Y113.658 E44.47057
G1 X93.229 Y114.357 E44.5194
G1 X93.249 Y114.632 E44.53865
G1 X93.256 Y115.022 E44.5659
G1 X93.228 Y115.231 E44.58063
M204 S3000
M205 X10 Y10
G0 F1800 X92.979 Y112.778
M204 S1000
M205 X8 Y8
G1 F1200 X92.473 Y112.272 E44.63061
M204 S3000
M205 X10 Y10
G0 F1800 X91.681 Y112.272
M204 S1000
M205 X8 Y8
G1 F1200 X92.971 Y113.562 E44.75803
M204 S3000
M205 X10 Y10
G0 F1800 X92.968 Y114.351
M204 S1000
M205 X8 Y8
G1 F1200 X90.889 Y112.272 E44.96339
M204 S3000
M205 X10 Y10
G0 F1800 X90.097 Y112.272
M204 S1000
M205 X8 Y8
G1 F1200 X92.795 Y114.969 E45.22984
M204 S3000
M205 X10 Y10
G0 F1800 X92.003 Y114.969
M204 S1000
M205 X8 Y8
G1 F1200 X89.305 Y112.272 E45.49629
M204 S3000
M205 X10 Y10
G0 F1800 X88.513 Y112.272
M204 S1000
M205 X8 Y8
G1 F1200 X91.211 Y114.969 E45.76275
M204 S3000
M205 X10 Y10
G0 F1800 X90.419 Y114.969
M204 S1000
M205 X8 Y8
G1 F1200 X87.721 Y112.272 E46.0292
M204 S3000
M205 X10 Y10
G0 F1800 X86.929 Y112.272
M204 S1000
M205 X8 Y8
G1 F1200 X89.627 Y114.969 E46.29565
M204 S3000
M205 X10 Y10
G0 F1800 X88.835 Y114.969
M204 S1000
M205 X8 Y8
G1 F1200 X86.137 Y112.272 E46.5621
M204 S3000
M205 X10 Y10
G0 F1800 X85.345 Y112.272
M204 S1000
M205 X8 Y8
G1 F1200 X88.043 Y114.969 E46.82856
M204 S3000
M205 X10 Y10
G0 F1800 X87.251 Y114.969
M204 S1000
M205 X8 Y8
G1 F1200 X84.553 Y112.272 E47.09501
M204 S3000
M205 X10 Y10
G0 F1800 X83.761 Y112.272
M204 S1000
M205 X8 Y8
G1 F1200 X86.459 Y114.969 E47.36146
M204 S3000
M205 X10 Y10
G0 F1800 X85.667 Y114.969
M204 S1000
M205 X8 Y8
G1 F1200 X82.969 Y112.272 E47.62791
M204 S3000
M205 X10 Y10
G0 F1800 X82.177 Y112.272
M204 S1000
M205 X8 Y8
G1 F1200 X84.875 Y114.969 E47.89437
M204 S3000
M205 X10 Y10
G0 F1800 X84.083 Y114.969
M204 S1000
M205 X8 Y8
G1 F1200 X81.385 Y112.271 E48.16087
M204 S3000
M205 X10 Y10
G0 F1800 X80.593 Y112.271
M204 S1000
M205 X8 Y8
G1 F1200 X83.291 Y114.969 E48.42737
M204 S3000
M205 X10 Y10
G0 F1800 X82.499 Y114.969
M204 S1000
M205 X8 Y8
G1 F1200 X79.801 Y112.271 E48.69387
M204 S3000
M205 X10 Y10
G0 F1800 X79.009 Y112.271
M204 S1000
M205 X8 Y8
G1 F1200 X81.707 Y114.969 E48.96037
M204 S3000
M205 X10 Y10
G0 F1800 X80.915 Y114.969
M204 S1000
M205 X8 Y8
G1 F1200 X78.217 Y112.271 E49.22688
M204 S3000
M205 X10 Y10
G0 F1800 X77.425 Y112.271
M204 S1000
M205 X8 Y8
G1 F1200 X80.123 Y114.969 E49.49338
M204 S3000
M205 X10 Y10
G0 F1800 X79.331 Y114.969
M204 S1000
M205 X8 Y8
G1 F1200 X76.633 Y112.271 E49.75988
M204 S3000
M205 X10 Y10
G0 F1800 X75.841 Y112.271
M204 S1000
M205 X8 Y8
G1 F1200 X78.539 Y114.969 E50.02638
M204 S3000
M205 X10 Y10
G0 F1800 X77.747 Y114.969
M204 S1000
M205 X8 Y8
G1 F1200 X75.049 Y112.271 E50.29288
M204 S3000
M205 X10 Y10
G0 F1800 X74.257 Y112.271
M204 S1000
M205 X8 Y8
G1 F1200 X76.955 Y114.969 E50.55939
M204 S3000
M205 X10 Y10
G0 F1800 X76.163 Y114.969
M204 S1000
M205 X8 Y8
G1 F1200 X73.465 Y112.271 E50.82589
M204 S3000
M205 X10 Y10
G0 F1800 X72.673 Y112.271
M204 S1000
M205 X8 Y8
G1 F1200 X75.371 Y114.969 E51.09239
M204 S3000
M205 X10 Y10
G0 F1800 X74.579 Y114.969
M204 S1000
M205 X8 Y8
G1 F1200 X71.881 Y112.271 E51.35889
M204 S3000
M205 X10 Y10
G0 F1800 X71.089 Y112.271
M204 S1000
M205 X8 Y8
G1 F1200 X73.788 Y114.969 E51.62544
M204 S3000
M205 X10 Y10
G0 F1800 X72.996 Y114.969
M204 S1000
M205 X8 Y8
G1 F1200 X70.297 Y112.27 E51.89204
M204 S3000
M205 X10 Y10
G0 F1800 X69.505 Y112.27
M204 S1000
M205 X8 Y8
G1 F1200 X72.204 Y114.969 E52.15864
M204 S3000
