;FLAVOR:Marlin
;TIME:2630
;Filament used: 4.47057m
;Layer height: 0.3
;Generated with Cura_SteamEngine 3.6.0
M140 S30
M105
M190 S30
M104 S220
M105
M109 S220
M82 ;absolute extrusion mode
G21 ;metric values
G90 ;absolute positioning
M82 ;set extruder to absolute mode
M107 ;start with the fan off
G28 X0 Y0 ;move X/Y to min endstops
G28 Z0 ;move Z to min endstops
G1 Z15.0 F120 ;move the platform down 15mm
G92 E0 ;zero the extruded length
G1 F200 E3 ;extrude 3mm of feed stock
G92 E0 ;zero the extruded length again
G1 F120
M117 Printing...
G5
G92 E0
G1 F2400 E-6
;LAYER_COUNT:34
;LAYER:0
M106 S255
M204 S3000
M205 X10 Y10
G0 F2400 X58.334 Y58.248 Z0.3
M204 S1800
M205 X8 Y8
;TYPE:SUPPORT
G1 F2400 E0
G1 F1200 X58.403 Y58.181 E0.00631
G1 X61.038 Y58.181 E0.17932
G1 X61.109 Y58.254 E0.186
G1 X61.102 Y58.451 E0.19895
G1 X61.116 Y58.743 E0.21814
G1 X61.11 Y58.906 E0.22885
G1 X61.116 Y59.036 E0.23739
G1 X61.09 Y59.334 E0.25703
G1 X61.106 Y59.687 E0.28023
G1 X61.098 Y59.878 E0.29278
G1 X61.1 Y60.996 E0.36619
G1 X61.089 Y61.759 E0.41629
G1 X61.124 Y62.292 E0.45136
G1 X61.112 Y64.119 E0.57131
G1 X58.268 Y64.119 E0.75804
G1 X58.35 Y62.797 E0.845
G1 X58.323 Y62.391 E0.87171
G1 X58.32 Y62.069 E0.89286
G1 X58.337 Y61.561 E0.92623
G1 X58.333 Y61.486 E0.93116
G1 X58.35 Y60.973 E0.96486
G1 X58.343 Y60.73 E0.98082
G1 X58.351 Y60.46 E0.99855
G1 X58.337 Y60.067 E1.02437
G1 X58.339 Y59.843 E1.03908
G1 X58.321 Y59.249 E1.0781
G1 X58.334 Y58.248 E1.14382
M204 S3000
M205 X10 Y10
G0 F2400 X58.554 Y61.519
M204 S1800
M205 X8 Y8
G1 F1200 X60.901 Y62.874 E1.32175
M204 S3000
M205 X10 Y10
G1 F2400 E-4.67825
G0 F2400 X49.712 Y64.438
G0 X49.161 Y64.989
G0 X49.161 Y145.011
G0 X49.712 Y145.562
G0 X61.191 Y145.881
M204 S1800
M205 X8 Y8
G1 F2400 E1.32175
G1 F1200 X61.085 Y147.345 E1.41813
G1 X61.126 Y147.961 E1.45866
G1 X61.094 Y148.655 E1.50427
G1 X61.112 Y148.847 E1.51693
G1 X61.092 Y149.214 E1.54107
G1 X61.118 Y149.782 E1.5784
G1 X61.095 Y150.355 E1.61605
G1 X61.12 Y150.777 E1.6438
G1 X61.113 Y150.925 E1.65353
G1 X61.119 Y151.083 E1.66391
G1 X61.098 Y151.488 E1.69054
G1 X61.114 Y151.741 E1.70718
G1 X61.041 Y151.819 E1.7142
G1 X58.4 Y151.819 E1.88759
G1 X58.332 Y151.747 E1.89409
G1 X58.348 Y151.445 E1.91395
G1 X58.327 Y150.993 E1.94366
G1 X58.35 Y150.322 E1.98774
G1 X58.321 Y149.859 E2.0182
G1 X58.35 Y149.324 E2.05337
G1 X58.324 Y148.765 E2.09012
G1 X58.343 Y148.221 E2.12585
G1 X58.334 Y148.014 E2.13946
G1 X58.352 Y147.745 E2.15716
G1 X58.319 Y147.221 E2.19163
G1 X58.39 Y145.881 E2.27973
G1 X61.191 Y145.881 E2.46363
M204 S3000
M205 X10 Y10
G1 F2400 E-3.53637
;MESH:Ipad_Stand_Base.stl
G0 F2400 X61.191 Y144.141
G0 X146.436 Y143.819
G0 X146.372 Y143.895
M204 S1800
M205 X8 Y8
;TYPE:WALL-INNER
G1 F2400 E2.46363
G1 F1200 X146.338 Y143.9 E2.46589
G1 X145.183 Y144.098 E2.54283
G1 X144.689 Y144.161 E2.57552
G1 X50.562 Y144.161 E8.75548
G1 X50.562 Y65.839 E13.89775
G1 X157.236 Y65.839 E20.90149
G1 X157.738 Y65.893 E20.93464
G1 X158.053 Y65.988 E20.95624
G1 X158.131 Y66.019 E20.96175
G1 X158.452 Y66.192 E20.98569
G1 X158.504 Y66.227 E20.9898
G1 X158.787 Y66.46 E21.01387
G1 X158.846 Y66.521 E21.01944
G1 X159.046 Y66.767 E21.04026
G1 X159.098 Y66.846 E21.04647
G1 X159.273 Y67.185 E21.07152
G1 X159.393 Y67.585 E21.09894
G1 X159.438 Y68.042 E21.12909
G1 X159.438 Y141.95 E25.98155
G1 X159.389 Y142.432 E26.01336
G1 X159.263 Y142.84 E26.0414
G1 X159.105 Y143.142 E26.06377
G1 X159.057 Y143.217 E26.06962
G1 X158.842 Y143.481 E26.09197
G1 X158.795 Y143.529 E26.09639
G1 X158.512 Y143.765 E26.12058
G1 X158.459 Y143.801 E26.12479
G1 X158.144 Y143.97 E26.14826
G1 X158.052 Y144.007 E26.15477
G1 X157.728 Y144.105 E26.17699
G1 X157.238 Y144.161 E26.20937
G1 X151.987 Y144.161 E26.55413
G1 X151.54 Y144.103 E26.58372
G1 X151.221 Y144.106 E26.60467
G1 X150.787 Y144.161 E26.63339
G1 X150.742 Y144.161 E26.63634
G1 X150.667 Y144.103 E26.64257
G1 X148.349 Y144.108 E26.79476
G1 X148.108 Y144.103 E26.81058
G1 X146.372 Y144.103 E26.92456
G1 X146.372 Y143.895 E26.93245
M204 S3000
M205 X10 Y10
G0 F2400 X146.436 Y143.819
G0 X149.792 Y140.026
G0 X149.741 Y139.941
M204 S1800
M205 X8 Y8
G1 F1200 X149.877 Y139.692 E26.95108
G1 X150.269 Y139.593 E26.97763
G1 X150.646 Y139.447 E27.00417
G1 X150.937 Y139.19 E27.02966
G1 X151.524 Y138.92 E27.07208
G1 X152.157 Y138.358 E27.12766
G1 X152.838 Y137.641 E27.19258
G1 X153.005 Y137.422 E27.21066
G1 X153.522 Y136.553 E27.27705
G1 X153.634 Y136.325 E27.29373
G1 X153.994 Y135.217 E27.37022
G1 X154.118 Y134.041 E27.44786
G1 X154.118 Y75.959 E31.26126
G1 X154.035 Y75.076 E31.31949
G1 X154.001 Y74.827 E31.33599
G1 X153.749 Y73.973 E31.39445
G1 X153.661 Y73.742 E31.41068
G1 X153.217 Y72.893 E31.47358
G1 X153.088 Y72.692 E31.48927
G1 X152.535 Y72.006 E31.54712
G1 X152.364 Y71.829 E31.56328
G1 X151.676 Y71.254 E31.62214
G1 X151.476 Y71.119 E31.63799
G1 X150.697 Y70.688 E31.69644
G1 X150.374 Y70.245 E31.73243
G1 X150.216 Y70.248 E31.74281
G1 X150.209 Y70.238 E31.74361
G1 X149.768 Y70.001 E31.77648
G1 X147.956 Y70.001 E31.89545
G1 X147.831 Y70.109 E31.9063
G1 X147.682 Y70.001 E31.91838
G1 X146.115 Y70.001 E32.02126
G1 X146.056 Y70.076 E32.02753
G1 X145.449 Y70.079 E32.06738
G1 X144.788 Y70.159 E32.11109
G1 X64.678 Y70.159 E37.37076
G1 X63.567 Y70.271 E37.44407
G1 X63.331 Y70.334 E37.46011
G1 X62.525 Y70.589 E37.51561
G1 X62.293 Y70.695 E37.53236
G1 X61.545 Y71.103 E37.5883
G1 X61.341 Y71.246 E37.60465
G1 X60.674 Y71.789 E37.66112
G1 X60.501 Y71.967 E37.67742
G1 X59.914 Y72.685 E37.73831
G1 X59.778 Y72.894 E37.75468
G1 X59.345 Y73.726 E37.81626
G1 X59.258 Y73.957 E37.83247
G1 X59.004 Y74.815 E37.89122
G1 X58.968 Y75.073 E37.90832
G1 X58.882 Y75.959 E37.96676
G1 X58.882 Y134.041 E41.78017
G1 X59.007 Y135.224 E41.85827
G1 X59.073 Y135.446 E41.87348
G1 X59.416 Y136.44 E41.94251
G1 X59.532 Y136.668 E41.95931
G1 X60.074 Y137.53 E42.02616
G1 X60.241 Y137.738 E42.04368
G1 X60.982 Y138.479 E42.11248
G1 X61.193 Y138.649 E42.13027
G1 X62.053 Y139.189 E42.19694
G1 X62.278 Y139.302 E42.21347
G1 X63.392 Y139.689 E42.2909
G1 X64.671 Y139.839 E42.37545
G1 X145.668 Y139.844 E47.69335
G1 X145.821 Y139.864 E47.70348
G1 X146.104 Y139.941 E47.72273
G1 X149.741 Y139.941 E47.96152
M204 S3000
M205 X10 Y10
G0 F2400 X149.469 Y139.481
M204 S1800
M205 X8 Y8
;TYPE:WALL-OUTER
G1 F1200 X149.571 Y139.295 E47.97545
G1 X150.129 Y139.154 E48.01324
G1 X150.403 Y139.048 E48.03253
G1 X150.669 Y138.813 E48.05583
G1 X150.757 Y138.764 E48.06244
G1 X151.27 Y138.53 E48.09946
G1 X151.837 Y138.027 E48.14923
G1 X152.487 Y137.343 E48.21118
G1 X152.623 Y137.164 E48.22594
G1 X153.117 Y136.334 E48.28935
G1 X153.207 Y136.151 E48.30274
G1 X153.542 Y135.121 E48.37386
G1 X153.658 Y134.017 E48.44674
G1 X153.658 Y75.981 E52.25712
G1 X153.578 Y75.129 E52.31331
G1 X153.55 Y74.924 E52.32689
G1 X153.313 Y74.12 E52.38192
G1 X153.241 Y73.931 E52.3952
G1 X152.819 Y73.125 E52.45493
G1 X152.714 Y72.962 E52.46767
G1 X152.19 Y72.311 E52.52253
G1 X152.05 Y72.166 E52.53577
G1 X151.399 Y71.622 E52.59147
G1 X151.236 Y71.512 E52.60438
G1 X150.466 Y71.086 E52.66215
G1 X150.398 Y71.059 E52.66696
G1 X150.143 Y70.709 E52.69539
G1 X149.981 Y70.712 E52.70603
G1 X149.896 Y70.592 E52.71568
G1 X149.652 Y70.461 E52.73386
G1 X148.128 Y70.461 E52.83392
G1 X147.946 Y70.619 E52.84975
G1 X147.751 Y70.619 E52.86255
G1 X147.533 Y70.461 E52.88023
G1 X146.339 Y70.461 E52.95862
G1 X146.281 Y70.535 E52.96479
G1 X145.478 Y70.539 E53.01751
G1 X144.818 Y70.619 E53.06116
G1 X64.701 Y70.619 E58.32129
G1 X63.65 Y70.725 E58.39064
G1 X63.46 Y70.776 E58.40356
G1 X62.691 Y71.019 E58.45651
G1 X62.499 Y71.107 E58.47037
G1 X61.788 Y71.494 E58.52352
G1 X61.619 Y71.613 E58.53709
G1 X60.985 Y72.129 E58.59076
G1 X60.845 Y72.273 E58.60395
G1 X60.286 Y72.957 E58.66195
G1 X60.176 Y73.126 E58.67518
G1 X59.766 Y73.914 E58.73351
G1 X59.694 Y74.104 E58.74685
G1 X59.455 Y74.913 E58.80223
G1 X59.425 Y75.127 E58.81642
G1 X59.342 Y75.981 E58.87275
G1 X59.342 Y134.017 E62.68313
G1 X59.46 Y135.134 E62.75688
G1 X59.511 Y135.306 E62.76866
G1 X59.84 Y136.26 E62.83491
G1 X59.932 Y136.441 E62.84824
G1 X60.45 Y137.263 E62.91204
G1 X60.584 Y137.431 E62.92614
G1 X61.29 Y138.136 E62.99165
G1 X61.461 Y138.274 E63.00608
G1 X62.28 Y138.788 E63.06956
G1 X62.458 Y138.878 E63.08266
G1 X63.495 Y139.238 E63.15473
G1 X64.698 Y139.379 E63.23425
G1 X145.696 Y139.384 E68.55222
G1 X145.914 Y139.412 E68.56665
G1 X146.166 Y139.481 E68.5838
G1 X147.792 Y139.481 E68.69056
G1 X147.832 Y139.422 E68.69524
G1 X147.908 Y139.481 E68.70156
G1 X149.469 Y139.481 E68.80404
M204 S3000
M205 X10 Y10
G0 F2400 X149.571 Y139.295
G0 X149.656 Y139.274
G0 X149.938 Y139.771
G0 X145.819 Y143.888
G0 X145.912 Y144.44
M204 S1800
M205 X8 Y8
G1 F1200 X145.893 Y144.443 E68.80531
G1 X145.251 Y144.553 E68.84807
G1 X144.715 Y144.621 E68.88354
G1 X50.102 Y144.621 E75.09541
G1 X50.102 Y65.379 E80.29808
G1 X157.261 Y65.379 E87.33366
G1 X157.678 Y65.42 E87.36117
G1 X157.838 Y65.443 E87.37178
G1 X158.21 Y65.555 E87.39729
G1 X158.324 Y65.6 E87.40534
G1 X158.689 Y65.797 E87.43257
G1 X158.783 Y65.86 E87.44
G1 X159.099 Y66.121 E87.46691
G1 X159.187 Y66.211 E87.47517
G1 X159.417 Y66.494 E87.49912
G1 X159.494 Y66.611 E87.50831
G1 X159.657 Y66.917 E87.53107
G1 X159.706 Y67.025 E87.53886
G1 X159.847 Y67.495 E87.57108
G1 X159.898 Y68.018 E87.60558
G1 X159.898 Y141.977 E92.46139
G1 X159.843 Y142.516 E92.49697
G1 X159.729 Y142.905 E92.52358
G1 X159.687 Y143.021 E92.53168
G1 X159.504 Y143.37 E92.55755
G1 X159.431 Y143.486 E92.56655
G1 X159.187 Y143.785 E92.59189
G1 X159.107 Y143.868 E92.59946
G1 X158.791 Y144.132 E92.62649
G1 X158.694 Y144.198 E92.6342
G1 X158.337 Y144.389 E92.66078
G1 X158.211 Y144.439 E92.66968
G1 X157.831 Y144.555 E92.69576
G1 X157.675 Y144.577 E92.70611
G1 X157.257 Y144.621 E92.7337
G1 X151.959 Y144.621 E93.08155
G1 X151.513 Y144.563 E93.11108
G1 X151.252 Y144.566 E93.12821
G1 X150.812 Y144.621 E93.15733
G1 X150.585 Y144.621 E93.17223
G1 X150.51 Y144.563 E93.17846
G1 X149.805 Y144.563 E93.22474
G1 X149.679 Y144.621 E93.23385
G1 X149.664 Y144.621 E93.23483
G1 X149.615 Y144.562 E93.23987
G1 X148.341 Y144.568 E93.32352
G1 X148.103 Y144.563 E93.33914
G1 X145.912 Y144.563 E93.483
G1 X145.912 Y144.44 E93.48735
M204 S3000
M205 X10 Y10
G0 F2400 X145.893 Y144.443
G0 X145.616 Y144.49
G0 X145.114 Y143.552
M204 S1800
M205 X8 Y8
;TYPE:SKIN
G1 F1200 X144.652 Y143.611 E93.51793
G1 X51.112 Y143.611 E99.65935
G1 X51.112 Y66.389 E104.7294
G1 X157.215 Y66.389 E111.69564
G1 X157.626 Y66.433 E111.72278
G1 X157.901 Y66.519 E111.7417
G1 X158.17 Y66.665 E111.7618
G1 X158.411 Y66.862 E111.78223
G1 X158.594 Y67.082 E111.80102
G1 X158.625 Y67.128 E111.80466
G1 X158.761 Y67.393 E111.82422
G1 X158.849 Y67.688 E111.84443
G1 X158.888 Y68.076 E111.87003
G1 X158.888 Y141.915 E116.71797
G1 X158.846 Y142.324 E116.74496
G1 X158.752 Y142.631 E116.76604
G1 X158.611 Y142.894 E116.78564
G1 X158.417 Y143.129 E116.80564
G1 X158.172 Y143.33 E116.82645
G1 X157.905 Y143.474 E116.84637
G1 X157.617 Y143.565 E116.8662
G1 X157.21 Y143.611 E116.89309
G1 X152.026 Y143.611 E117.23345
G1 X151.573 Y143.553 E117.26343
G1 X151.184 Y143.556 E117.28897
G1 X150.904 Y143.591 E117.3075
G1 X150.854 Y143.553 E117.31162
G1 X148.359 Y143.558 E117.47543
G1 X148.114 Y143.553 E117.49152
G1 X146.922 Y143.553 E117.56978
G1 X146.922 Y143.243 E117.59014
G1 X145.114 Y143.552 E117.71056
M204 S3000
M205 X10 Y10
G0 F2400 X146.031 Y140.491
M204 S1800
M205 X8 Y8
G1 F1200 X150.067 Y140.491 E117.97555
G1 X150.244 Y140.166 E117.99985
G1 X150.436 Y140.118 E118.01284
G1 X150.936 Y139.924 E118.04805
G1 X151.241 Y139.656 E118.07471
G1 X151.828 Y139.386 E118.11713
G1 X152.54 Y138.753 E118.17968
G1 X153.257 Y137.998 E118.24804
G1 X153.461 Y137.73 E118.27015
G1 X154.006 Y136.816 E118.34002
G1 X154.145 Y136.533 E118.36072
G1 X154.535 Y135.332 E118.44363
G1 X154.668 Y134.07 E118.52694
G1 X154.668 Y75.933 E122.34396
G1 X154.581 Y75.013 E122.40463
G1 X154.541 Y74.711 E122.42463
G1 X154.27 Y73.797 E122.48722
G1 X154.164 Y73.516 E122.50694
G1 X153.693 Y72.616 E122.57363
G1 X153.534 Y72.37 E122.59287
G1 X152.948 Y71.641 E122.65428
G1 X152.739 Y71.426 E122.67396
G1 X152.007 Y70.814 E122.73661
G1 X151.763 Y70.649 E122.75594
G1 X151.069 Y70.265 E122.80802
G1 X150.649 Y69.689 E122.85482
G1 X150.361 Y69.695 E122.87374
G1 X149.906 Y69.451 E122.90763
G1 X145.847 Y69.451 E123.17413
G1 X145.787 Y69.528 E123.18054
G1 X145.414 Y69.529 E123.20503
G1 X144.755 Y69.609 E123.24861
G1 X64.65 Y69.609 E128.50795
G1 X63.469 Y69.729 E128.58589
G1 X63.178 Y69.806 E128.60565
G1 X62.327 Y70.075 E128.66425
G1 X62.047 Y70.202 E128.68443
G1 X61.254 Y70.635 E128.74375
G1 X61.009 Y70.808 E128.76344
G1 X60.303 Y71.382 E128.82318
G1 X60.09 Y71.6 E128.8432
G1 X59.47 Y72.36 E128.90759
G1 X59.303 Y72.617 E128.92771
G1 X58.842 Y73.501 E128.99317
G1 X58.736 Y73.782 E129.01289
G1 X58.465 Y74.699 E129.07567
G1 X58.422 Y75.008 E129.09615
G1 X58.332 Y75.932 E129.15711
G1 X58.332 Y134.07 E132.97419
G1 X58.465 Y135.332 E133.0575
G1 X58.549 Y135.615 E133.07688
G1 X58.909 Y136.656 E133.1492
G1 X59.053 Y136.939 E133.17005
G1 X59.626 Y137.85 E133.24071
G1 X59.831 Y138.105 E133.26219
G1 X60.614 Y138.889 E133.33494
G1 X60.873 Y139.097 E133.35675
G1 X61.782 Y139.669 E133.42726
G1 X62.064 Y139.809 E133.44793
G1 X63.268 Y140.229 E133.53166
G1 X64.639 Y140.389 E133.62228
G1 X145.627 Y140.394 E138.93959
G1 X145.713 Y140.405 E138.94528
G1 X146.031 Y140.491 E138.96691
M204 S3000
M205 X10 Y10
G0 F2400 X149.761 Y139.975
G0 X151.545 Y138.952
G0 X152.871 Y137.664
G0 X153.672 Y136.335
G0 X154.033 Y135.226
G0 X154.067 Y134.891
G0 X158.468 Y67.392
M204 S1800
M205 X8 Y8
G1 F1200 X157.878 Y66.803 E139.02164
M204 S3000
M205 X10 Y10
G0 F2400 X156.932 Y66.649
M204 S1800
M205 X8 Y8
G1 F1200 X158.627 Y68.343 E139.17898
M204 S3000
M205 X10 Y10
G0 F2400 X158.627 Y69.135
M204 S1800
M205 X8 Y8
G1 F1200 X156.14 Y66.649 E139.40985
M204 S3000
M205 X10 Y10
G0 F2400 X155.348 Y66.649
M204 S1800
M205 X8 Y8
G1 F1200 X158.627 Y69.927 E139.71427
M204 S3000
M205 X10 Y10
G0 F2400 X158.627 Y70.719
M204 S1800
M205 X8 Y8
G1 F1200 X154.556 Y66.649 E140.09222
M204 S3000
M205 X10 Y10
G0 F2400 X153.764 Y66.649
M204 S1800
M205 X8 Y8
G1 F1200 X158.627 Y71.511 E140.5437
M204 S3000
M205 X10 Y10
G0 F2400 X158.627 Y72.303
M204 S1800
M205 X8 Y8
G1 F1200 X152.972 Y66.649 E141.06873
M204 S3000
M205 X10 Y10
G0 F2400 X152.18 Y66.649
M204 S1800
M205 X8 Y8
G1 F1200 X158.627 Y73.095 E141.66729
M204 S3000
M205 X10 Y10
G0 F2400 X158.627 Y73.887
M204 S1800
M205 X8 Y8
G1 F1200 X151.388 Y66.649 E142.33939
M204 S3000
M205 X10 Y10
G0 F2400 X150.596 Y66.649
M204 S1800
M205 X8 Y8
G1 F1200 X158.627 Y74.679 E143.08503
M204 S3000
M205 X10 Y10
G0 F2400 X158.627 Y75.471
M204 S1800
M205 X8 Y8
G1 F1200 X149.804 Y66.649 E143.90421
M204 S3000
M205 X10 Y10
G0 F2400 X149.012 Y66.649
M204 S1800
M205 X8 Y8
G1 F1200 X158.627 Y76.263 E144.79692
M204 S3000
M205 X10 Y10
G0 F2400 X158.627 Y77.055
M204 S1800
M205 X8 Y8
G1 F1200 X153.554 Y71.982 E145.26796
G1 X153.484 Y71.912
M204 S3000
M205 X10 Y10
G0 F2400 X152.249 Y70.678
M204 S1800
M205 X8 Y8
G1 F1200 X148.22 Y66.649 E145.64205
M204 S3000
M205 X10 Y10
G0 F2400 X147.428 Y66.649
M204 S1800
M205 X8 Y8
G1 F1200 X149.97 Y69.19 E145.87803
M204 S3000
M205 X10 Y10
G0 F2400 X149.178 Y69.19
M204 S1800
M205 X8 Y8
G1 F1200 X146.636 Y66.649 E146.11401
M204 S3000
M205 X10 Y10
G0 F2400 X145.845 Y66.649
M204 S1800
M205 X8 Y8
G1 F1200 X148.386 Y69.19 E146.34995
M204 S3000
M205 X10 Y10
G0 F2400 X147.594 Y69.19
M204 S1800
M205 X8 Y8
G1 F1200 X145.053 Y66.649 E146.58588
M204 S3000
M205 X10 Y10
G0 F2400 X144.261 Y66.649
M204 S1800
M205 X8 Y8
G1 F1200 X146.802 Y69.19 E146.82182
M204 S3000
M205 X10 Y10
G0 F2400 X146.01 Y69.19
M204 S1800
M205 X8 Y8
G1 F1200 X143.469 Y66.649 E147.05775
M204 S3000
M205 X10 Y10
G0 F2400 X142.677 Y66.649
M204 S1800
M205 X8 Y8
G1 F1200 X145.307 Y69.279 E147.30195
M204 S3000
M205 X10 Y10
G0 F2400 X144.584 Y69.348
M204 S1800
M205 X8 Y8
G1 F1200 X141.885 Y66.649 E147.55255
M204 S3000
M205 X10 Y10
G0 F2400 X141.093 Y66.649
M204 S1800
M205 X8 Y8
G1 F1200 X143.792 Y69.348 E147.80316
M204 S3000
M205 X10 Y10
G0 F2400 X143.001 Y69.348
M204 S1800
M205 X8 Y8
G1 F1200 X140.301 Y66.649 E148.05381
