;FLAVOR:Marlin
;TIME:11949
;Filament used: 9.71752m
;Layer height: 0.2
;Generated with Cura_SteamEngine 3.6.0
M104 S205
M105
M109 S205
M82 ;absolute extrusion mode
G21        ;metric values
G90        ;absolute positioning
M107       ;start with the fan off
G28   ;move to endstops
G92 E0                  ;zero the extruded length
G1 F200 E3              ;extrude 3mm of feed stock
G92 E0                  ;zero the extruded length again
G1 F120
;Put printing message on LCD screen
M117 Printing...
G92 E0
G1 F2400 E-6
;LAYER_COUNT:156
;LAYER:0
M107
G0 F2400 X31.098 Y-53.791 Z0.3
;TYPE:SKIRT
G1 F2400 E0
G1 F1200 X31.109 Y55.498 E7.32809
G1 X31.098 Y55.793 E7.34789
G1 X30.578 Y62.552 E7.80243
G1 X30.495 Y63.099 E7.83953
G1 X30.335 Y63.63 E7.87672
G1 X30.101 Y64.131 E7.91379
G1 X29.796 Y64.594 E7.95097
G1 X29.47 Y64.967 E7.98419
G1 X29.231 Y65.207 E8.0069
G1 X28.813 Y65.57 E8.04402
G1 X28.347 Y65.869 E8.08114
G1 X27.843 Y66.098 E8.11826
G1 X27.311 Y66.253 E8.15542
G1 X26.535 Y66.337 E8.20776
G1 X25.296 Y66.345 E8.29084
G1 X24.763 Y66.311 E8.32665
G1 X18.032 Y65.413 E8.78198
G1 X12.609 Y65.028 E9.14652
G1 X8.477 Y64.94 E9.42364
G1 X-18.725 Y64.924 E11.2476
G1 X-26.595 Y65.044 E11.77536
G1 X-27.148 Y65.012 E11.81251
G1 X-27.691 Y64.901 E11.84967
G1 X-28.212 Y64.714 E11.88679
G1 X-28.701 Y64.453 E11.92395
G1 X-29.333 Y63.955 E11.9779
G1 X-29.565 Y63.729 E11.99962
G1 X-29.933 Y63.315 E12.03676
G1 X-30.238 Y62.852 E12.07394
G1 X-30.472 Y62.35 E12.11108
G1 X-30.633 Y61.82 E12.14822
G1 X-30.713 Y61.294 E12.18389
G1 X-31.2 Y55.387 E12.58132
G1 X-31.213 Y55.072 E12.60246
G1 X-31.237 Y-54.368 E19.94067
G1 X-31.226 Y-54.661 E19.96033
G1 X-30.71 Y-61.427 E20.41533
G1 X-30.628 Y-61.975 E20.45248
G1 X-30.468 Y-62.505 E20.4896
G1 X-30.234 Y-63.007 E20.52674
G1 X-29.93 Y-63.47 E20.56388
G1 X-29.596 Y-63.85 E20.5978
G1 X-29.355 Y-64.091 E20.62066
G1 X-28.936 Y-64.454 E20.65783
G1 X-28.47 Y-64.752 E20.69492
G1 X-27.965 Y-64.98 E20.73207
G1 X-27.433 Y-65.133 E20.76919
G1 X-26.64 Y-65.216 E20.82265
G1 X-25.41 Y-65.216 E20.90513
G1 X-25.187 Y-65.21 E20.92008
G1 X-22.048 Y-65.027 E21.13092
G1 X-17.934 Y-64.94 E21.40683
G1 X18.322 Y-64.93 E23.83789
G1 X18.822 Y-64.897 E23.87149
G1 X25.214 Y-64.055 E24.30379
G1 X26.866 Y-63.9 E24.41505
G1 X27.413 Y-63.809 E24.45223
G1 X27.94 Y-63.64 E24.48934
G1 X28.438 Y-63.396 E24.52652
G1 X28.895 Y-63.084 E24.56362
G1 X29.158 Y-62.855 E24.58701
G1 X29.4 Y-62.624 E24.60944
G1 X29.772 Y-62.213 E24.64661
G1 X30.082 Y-61.754 E24.68375
G1 X30.321 Y-61.254 E24.72091
G1 X30.487 Y-60.726 E24.75802
G1 X30.576 Y-60.168 E24.79591
G1 X31.085 Y-54.113 E25.20334
G1 X31.098 Y-53.791 E25.22495
G0 F2400 X30.538 Y-53.791
G1 F1200 X30.549 Y55.498 E32.55305
G1 X30.539 Y55.75 E32.56996
G1 X30.019 Y62.509 E33.0245
G1 X29.94 Y63.014 E33.05878
G1 X29.784 Y63.502 E33.09313
G1 X29.553 Y63.959 E33.12746
G1 X29.254 Y64.374 E33.16176
G1 X29.073 Y64.571 E33.1797
G1 X28.834 Y64.811 E33.20241
G1 X28.446 Y65.145 E33.23674
G1 X28.01 Y65.414 E33.27109
G1 X27.538 Y65.612 E33.30541
G1 X27.041 Y65.734 E33.33972
G1 X26.531 Y65.777 E33.37404
G1 X25.292 Y65.785 E33.45712
G1 X24.837 Y65.756 E33.48769
G1 X18.098 Y64.857 E33.94356
G1 X12.62 Y64.468 E34.3118
G1 X8.489 Y64.38 E34.58886
G1 X-18.734 Y64.364 E36.41423
G1 X-26.604 Y64.484 E36.94199
G1 X-27.115 Y64.451 E36.97632
G1 X-27.614 Y64.34 E37.0106
G1 X-28.091 Y64.153 E37.04496
G1 X-28.532 Y63.893 E37.07928
G1 X-28.943 Y63.553 E37.11505
G1 X-29.175 Y63.327 E37.13677
G1 X-29.512 Y62.943 E37.17102
G1 X-29.786 Y62.51 E37.20538
G1 X-29.989 Y62.04 E37.23971
G1 X-30.117 Y61.545 E37.27399
G1 X-30.155 Y61.248 E37.29407
G1 X-30.642 Y55.341 E37.69149
G1 X-30.653 Y55.072 E37.70954
G1 X-30.677 Y-54.368 E45.04776
G1 X-30.668 Y-54.618 E45.06454
G1 X-30.152 Y-61.384 E45.51953
G1 X-30.073 Y-61.89 E45.55387
G1 X-29.917 Y-62.378 E45.58822
G1 X-29.686 Y-62.835 E45.62256
G1 X-29.388 Y-63.25 E45.65682
G1 X-29.2 Y-63.454 E45.67542
G1 X-28.959 Y-63.695 E45.69827
G1 X-28.57 Y-64.028 E45.73261
G1 X-28.134 Y-64.296 E45.76692
G1 X-27.662 Y-64.493 E45.80122
G1 X-27.164 Y-64.614 E45.83558
G1 X-26.64 Y-64.656 E45.87083
G1 X-25.41 Y-64.656 E45.9533
G1 X-25.219 Y-64.65 E45.96612
G1 X-22.091 Y-64.468 E46.17621
G1 X-17.946 Y-64.38 E46.45421
G1 X18.322 Y-64.37 E48.88606
G1 X18.749 Y-64.342 E48.91476
G1 X25.141 Y-63.5 E49.34706
G1 X26.814 Y-63.343 E49.45973
G1 X27.318 Y-63.255 E49.49404
G1 X27.803 Y-63.09 E49.52839
G1 X28.256 Y-62.852 E49.5627
G1 X28.772 Y-62.45 E49.60656
G1 X29.014 Y-62.219 E49.62899
G1 X29.355 Y-61.837 E49.66333
G1 X29.633 Y-61.408 E49.6976
G1 X29.841 Y-60.94 E49.73194
G1 X29.974 Y-60.445 E49.76631
G1 X30.017 Y-60.121 E49.78823
G1 X30.526 Y-54.066 E50.19566
G1 X30.538 Y-53.791 E50.21412
G0 F2400 X26.478 Y-54.755
;TYPE:SUPPORT
G1 F1200 X25.307 Y-54.755 E50.29264
G1 X25.308 Y-59.716 E50.62528
G1 X25.397 Y-59.805 E50.63372
G1 X26.409 Y-59.805 E50.70158
G1 X26.479 Y-59.735 E50.70822
G1 X26.478 Y-54.755 E51.04214
G0 F2400 X26 Y-54.995
G1 F1200 X26 Y-59.565 E51.34857
G0 F2400 X26.237 Y-58
G1 F1200 X25.547 Y-58 E51.39483
G0 F2400 X25.547 Y-56
G1 F1200 X26.237 Y-56 E51.4411
G1 F2400 E45.4411
G0 F2400 X18.44 Y-61.761
G0 X-18.44 Y-61.761
G0 X-25.446 Y-56.056
G1 F2400 E51.4411
G1 F1200 X-26.618 Y-56.056 E51.51969
G1 X-26.617 Y-61.017 E51.85233
G1 X-26.528 Y-61.106 E51.86077
G1 X-25.515 Y-61.106 E51.9287
G1 X-25.445 Y-61.036 E51.93534
G1 X-25.446 Y-56.056 E52.26926
G0 F2400 X-26 Y-56.296
G1 F1200 X-26 Y-60.866 E52.57569
G0 F2400 X-25.685 Y-60
G1 F1200 X-26.376 Y-60 E52.62202
G0 F2400 X-26.376 Y-58
G1 F1200 X-25.685 Y-58 E52.66835
G1 F2400 E46.66835
G0 F2400 X-23.995 Y-55.186
G0 X-23.995 Y55.014
G0 X-24.49 Y55.509
G0 X-25.445 Y55.884
G1 F2400 E52.66835
G1 F1200 X-25.446 Y60.845 E53.001
G1 X-25.535 Y60.934 E53.00944
G1 X-26.547 Y60.934 E53.0773
G1 X-26.617 Y60.864 E53.08393
G1 X-26.617 Y55.884 E53.41785
G1 X-25.445 Y55.884 E53.49644
G0 F2400 X-26 Y56.124
G1 F1200 X-26 Y60.694 E53.80287
G0 F2400 X-25.685 Y60
G1 F1200 X-26.376 Y60 E53.8492
G0 F2400 X-26.376 Y58
G1 F1200 X-25.685 Y58 E53.89554
G1 F2400 E47.89554
G0 F2400 X-18.44 Y61.761
G0 X18.44 Y61.761
G0 X25.308 Y57.185
G1 F2400 E53.89554
G1 F1200 X26.479 Y57.185 E53.97405
G1 X26.478 Y62.146 E54.3067
G1 X26.389 Y62.235 E54.31514
G1 X25.378 Y62.235 E54.38293
G1 X25.308 Y62.165 E54.38957
G1 X25.308 Y57.185 E54.72349
G0 F2400 X26 Y57.425
G1 F1200 X26 Y61.995 E55.02992
G0 F2400 X26.237 Y60
G1 F1200 X25.547 Y60 E55.07619
G0 F2400 X25.547 Y58
G1 F1200 X26.237 Y58 E55.12245
G1 F2400 E49.12245
;MESH:cig_body.stl
G0 F2400 X18.995 Y58
G0 X17.47 Y58
G0 X16.93 Y59.7
;TYPE:WALL-INNER
G1 F2400 E55.12245
G1 F1200 X-16.93 Y59.7 E57.39285
G1 X-16.93 Y-59.7 E65.39891
G1 X16.93 Y-59.7 E67.6693
G1 X16.93 Y59.7 E75.67536
G0 F2400 X17.49 Y60.26
G1 F1200 X-17.49 Y60.26 E78.02086
G1 X-17.49 Y-60.26 E86.10202
G1 X17.49 Y-60.26 E88.44751
G1 X17.49 Y60.26 E96.52867
G0 F2400 X18.05 Y60.82
;TYPE:WALL-OUTER
G1 F1200 X-18.05 Y60.82 E98.94926
G1 X-18.05 Y-60.82 E107.10552
G1 X18.05 Y-60.82 E109.52611
G1 X18.05 Y60.82 E117.68237
G0 F2400 X17.85 Y60.82
G0 X17.42 Y60.19
G0 X16.38 Y59.15
;TYPE:SKIN
G1 F1200 X-16.38 Y59.15 E119.87901
G1 X-16.38 Y-59.15 E127.81131
G1 X16.38 Y-59.15 E130.00795
G1 X16.38 Y59.15 E137.94025
G0 F2400 X-15.554 Y58.889
G1 F1200 X-16.12 Y58.323 E137.99392
G0 F2400 X-16.12 Y57.531
G1 F1200 X-14.762 Y58.889 E138.1227
G0 F2400 X-13.971 Y58.889
G1 F1200 X-16.12 Y56.739 E138.32653
G0 F2400 X-16.12 Y55.947
G1 F1200 X-13.179 Y58.889 E138.60546
G0 F2400 X-12.387 Y58.889
G1 F1200 X-16.12 Y55.155 E138.95949
G0 F2400 X-16.12 Y54.363
G1 F1200 X-11.595 Y58.889 E139.38863
G0 F2400 X-10.803 Y58.889
G1 F1200 X-16.12 Y53.571 E139.89287
G0 F2400 X-16.12 Y52.779
G1 F1200 X-10.011 Y58.889 E140.47221
G0 F2400 X-9.219 Y58.889
G1 F1200 X-16.12 Y51.987 E141.12666
G0 F2400 X-16.12 Y51.195
G1 F1200 X-8.427 Y58.889 E141.85621
G0 F2400 X-7.635 Y58.889
G1 F1200 X-16.12 Y50.403 E142.66086
G0 F2400 X-16.12 Y49.612
G1 F1200 X-6.843 Y58.889 E143.54056
G0 F2400 X-6.051 Y58.889
G1 F1200 X-16.12 Y48.82 E144.49537
G0 F2400 X-16.12 Y48.028
G1 F1200 X-5.259 Y58.889 E145.52528
G0 F2400 X-4.467 Y58.889
G1 F1200 X-16.12 Y47.236 E146.63029
G0 F2400 X-16.12 Y46.444
G1 F1200 X-3.675 Y58.889 E147.81041
G0 F2400 X-2.883 Y58.889
G1 F1200 X-16.12 Y45.652 E149.06562
G0 F2400 X-16.12 Y44.86
G1 F1200 X-2.091 Y58.889 E150.39595
G0 F2400 X-1.299 Y58.889
G1 F1200 X-16.12 Y44.068 E151.80137
G0 F2400 X-16.12 Y43.276
G1 F1200 X-.507 Y58.889 E153.28189
G0 F2400 X0.284 Y58.889
G1 F1200 X-16.12 Y42.484 E154.83747
G0 F2400 X-16.12 Y41.692
G1 F1200 X1.076 Y58.889 E156.46816
G0 F2400 X1.868 Y58.889
G1 F1200 X-16.12 Y40.9 E158.17394
G0 F2400 X-16.12 Y40.108
G1 F1200 X2.66 Y58.889 E159.95483
G0 F2400 X3.452 Y58.889
G1 F1200 X-16.12 Y39.316 E161.81082
G0 F2400 X-16.12 Y38.524
G1 F1200 X4.244 Y58.889 E163.74192
G0 F2400 X5.036 Y58.889
G1 F1200 X-16.12 Y37.732 E165.74811
G0 F2400 X-16.12 Y36.94
G1 F1200 X5.827 Y58.889 E167.82936
G0 F2400 X6.619 Y58.889
G1 F1200 X-16.12 Y36.148 E169.98572
G0 F2400 X-16.12 Y35.356
G1 F1200 X7.411 Y58.889 E172.21717
G0 F2400 X8.203 Y58.889
G1 F1200 X-16.12 Y34.564 E174.52373
G0 F2400 X-16.12 Y33.772
G1 F1200 X8.995 Y58.889 E176.90539
G0 F2400 X9.787 Y58.889
G1 F1200 X-16.12 Y32.98 E179.36216
G0 F2400 X-16.12 Y32.188
G1 F1200 X10.579 Y58.889 E181.89402
G0 F2400 X11.371 Y58.889
G1 F1200 X-16.12 Y31.396 E184.50099
G0 F2400 X-16.12 Y30.604
G1 F1200 X12.163 Y58.889 E187.18306
G0 F2400 X12.955 Y58.889
G1 F1200 X-16.12 Y29.813 E189.94019
G0 F2400 X-16.12 Y29.021
G1 F1200 X13.747 Y58.889 E192.77242
G0 F2400 X14.539 Y58.889
G1 F1200 X-16.12 Y28.229 E195.67975
G0 F2400 X-16.12 Y27.437
G1 F1200 X15.331 Y58.889 E198.66219
G0 F2400 X16.12 Y58.886
G1 F1200 X-16.12 Y26.645 E201.71944
G0 F2400 X-16.12 Y25.853
G1 F1200 X16.12 Y58.094 E204.77669
G0 F2400 X16.12 Y57.302
G1 F1200 X-16.12 Y25.061 E207.83394
G0 F2400 X-16.12 Y24.269
G1 F1200 X16.12 Y56.51 E210.8912
G0 F2400 X16.12 Y55.718
G1 F1200 X-16.12 Y23.477 E213.94845
G0 F2400 X-16.12 Y22.685
G1 F1200 X16.12 Y54.926 E217.0057
G0 F2400 X16.12 Y54.134
G1 F1200 X-16.12 Y21.893 E220.06295
G0 F2400 X-16.12 Y21.101
G1 F1200 X16.12 Y53.342 E223.12021
G0 F2400 X16.12 Y52.55
G1 F1200 X-16.12 Y20.309 E226.17746
G0 F2400 X-16.12 Y19.517
G1 F1200 X16.12 Y51.758 E229.23471
G0 F2400 X16.12 Y50.966
G1 F1200 X-16.12 Y18.725 E232.29196
G0 F2400 X-16.12 Y17.933
G1 F1200 X16.12 Y50.174 E235.34922
G0 F2400 X16.12 Y49.382
G1 F1200 X-16.12 Y17.141 E238.40647
G0 F2400 X-16.12 Y16.349
G1 F1200 X16.12 Y48.59 E241.46372
G0 F2400 X16.12 Y47.799
G1 F1200 X-16.12 Y15.557 E244.52102
G0 F2400 X-16.12 Y14.765
G1 F1200 X16.12 Y47.007 E247.57832
G0 F2400 X16.12 Y46.215
G1 F1200 X-16.12 Y13.973 E250.63562
G0 F2400 X-16.12 Y13.181
G1 F1200 X16.12 Y45.423 E253.69292
G0 F2400 X16.12 Y44.631
G1 F1200 X-16.12 Y12.389 E256.75022
G0 F2400 X-16.12 Y11.597
G1 F1200 X16.12 Y43.839 E259.80752
G0 F2400 X16.12 Y43.047
G1 F1200 X-16.12 Y10.806 E262.86477
G0 F2400 X-16.12 Y10.014
G1 F1200 X16.12 Y42.255 E265.92202
G0 F2400 X16.12 Y41.463
G1 F1200 X-16.12 Y9.222 E268.97928
G0 F2400 X-16.12 Y8.43
G1 F1200 X16.12 Y40.671 E272.03653
G0 F2400 X16.12 Y39.879
G1 F1200 X-16.12 Y7.638 E275.09378
G0 F2400 X-16.12 Y6.846
G1 F1200 X16.12 Y39.087 E278.15103
G0 F2400 X16.12 Y38.295
G1 F1200 X-16.12 Y6.054 E281.20829
G0 F2400 X-16.12 Y5.262
G1 F1200 X16.12 Y37.503 E284.26554
G0 F2400 X16.12 Y36.711
G1 F1200 X-16.12 Y4.47 E287.32279
G0 F2400 X-16.12 Y3.678
G1 F1200 X16.12 Y35.919 E290.38004
G0 F2400 X16.12 Y35.127
G1 F1200 X-16.12 Y2.886 E293.4373
G0 F2400 X-16.12 Y2.094
G1 F1200 X16.12 Y34.335 E296.49455
G0 F2400 X16.12 Y33.543
G1 F1200 X-16.12 Y1.302 E299.5518
G0 F2400 X-16.12 Y0.51
G1 F1200 X16.12 Y32.751 E302.60905
G0 F2400 X16.12 Y31.959
G1 F1200 X-16.12 Y-.281 E305.66626
G0 F2400 X-16.12 Y-1.073
G1 F1200 X16.12 Y31.167 E308.72346
G0 F2400 X16.12 Y30.375
G1 F1200 X-16.12 Y-1.865 E311.78067
G0 F2400 X-16.12 Y-2.657
G1 F1200 X16.12 Y29.583 E314.83787
G0 F2400 X16.12 Y28.791
G1 F1200 X-16.12 Y-3.449 E317.89508
G0 F2400 X-16.12 Y-4.241
G1 F1200 X16.12 Y28 E320.95233
G0 F2400 X16.12 Y27.208
G1 F1200 X-16.12 Y-5.033 E324.00958
G0 F2400 X-16.12 Y-5.825
G1 F1200 X16.12 Y26.416 E327.06684
G0 F2400 X16.12 Y25.624
G1 F1200 X-16.12 Y-6.617 E330.12409
G0 F2400 X-16.12 Y-7.409
G1 F1200 X16.12 Y24.832 E333.18134
G0 F2400 X16.12 Y24.04
G1 F1200 X-16.12 Y-8.201 E336.23859
G0 F2400 X-16.12 Y-8.992
G1 F1200 X16.12 Y23.248 E339.2958
G0 F2400 X16.12 Y22.456
G1 F1200 X-16.12 Y-9.784 E342.353
G0 F2400 X-16.12 Y-10.576
G1 F1200 X16.12 Y21.664 E345.41021
G0 F2400 X16.12 Y20.872
G1 F1200 X-16.12 Y-11.368 E348.46741
G0 F2400 X-16.12 Y-12.16
G1 F1200 X16.12 Y20.08 E351.52462
G0 F2400 X16.12 Y19.288
G1 F1200 X-16.12 Y-12.952 E354.58182
G0 F2400 X-16.12 Y-13.744
G1 F1200 X16.12 Y18.496 E357.63903
G0 F2400 X16.12 Y17.704
G1 F1200 X-16.12 Y-14.536 E360.69623
G0 F2400 X-16.12 Y-15.328
G1 F1200 X16.12 Y16.912 E363.75344
G0 F2400 X16.12 Y16.12
G1 F1200 X-16.12 Y-16.12 E366.81064
G0 F2400 X-16.12 Y-16.912
G1 F1200 X16.12 Y15.328 E369.86785
G0 F2400 X16.12 Y14.536
G1 F1200 X-16.12 Y-17.704 E372.92505
G0 F2400 X-16.12 Y-18.496
G1 F1200 X16.12 Y13.744 E375.98226
G0 F2400 X16.12 Y12.952
G1 F1200 X-16.12 Y-19.288 E379.03946
G0 F2400 X-16.12 Y-20.08
G1 F1200 X16.12 Y12.16 E382.09667
G0 F2400 X16.12 Y11.368
G1 F1200 X-16.12 Y-20.872 E385.15387
G0 F2400 X-16.12 Y-21.664
G1 F1200 X16.12 Y10.576 E388.21108
G0 F2400 X16.12 Y9.784
G1 F1200 X-16.12 Y-22.456 E391.26828
G0 F2400 X-16.12 Y-23.248
G1 F1200 X16.12 Y8.992 E394.32549
G0 F2400 X16.12 Y8.201
G1 F1200 X-16.12 Y-24.04 E397.38274
G0 F2400 X-16.12 Y-24.832
G1 F1200 X16.12 Y7.409 E400.43999
G0 F2400 X16.12 Y6.617
G1 F1200 X-16.12 Y-25.624 E403.49725
G0 F2400 X-16.12 Y-26.416
G1 F1200 X16.12 Y5.825 E406.5545
G0 F2400 X16.12 Y5.033
G1 F1200 X-16.12 Y-27.208 E409.61175
G0 F2400 X-16.12 Y-28
G1 F1200 X16.12 Y4.241 E412.669
G0 F2400 X16.12 Y3.449
G1 F1200 X-16.12 Y-28.791 E415.72621
G0 F2400 X-16.12 Y-29.583
G1 F1200 X16.12 Y2.657 E418.78341
G0 F2400 X16.12 Y1.865
G1 F1200 X-16.12 Y-30.375 E421.84062
G0 F2400 X-16.12 Y-31.167
G1 F1200 X16.12 Y1.073 E424.89782
G0 F2400 X16.12 Y0.281
G1 F1200 X-16.12 Y-31.959 E427.95503
G0 F2400 X-16.12 Y-32.751
G1 F1200 X16.12 Y-.51 E431.01228
G0 F2400 X16.12 Y-1.302
G1 F1200 X-16.12 Y-33.543 E434.06953
G0 F2400 X-16.12 Y-34.335
G1 F1200 X16.12 Y-2.094 E437.12679
G0 F2400 X16.12 Y-2.886
G1 F1200 X-16.12 Y-35.127 E440.18404
G0 F2400 X-16.12 Y-35.919
G1 F1200 X16.12 Y-3.678 E443.24129
G0 F2400 X16.12 Y-4.47
G1 F1200 X-16.12 Y-36.711 E446.29854
G0 F2400 X-16.12 Y-37.503
G1 F1200 X16.12 Y-5.262 E449.3558
G0 F2400 X16.12 Y-6.054
G1 F1200 X-16.12 Y-38.295 E452.41305
G0 F2400 X-16.12 Y-39.087
G1 F1200 X16.12 Y-6.846 E455.4703
G0 F2400 X16.12 Y-7.638
G1 F1200 X-16.12 Y-39.879 E458.52755
G0 F2400 X-16.12 Y-40.671
G1 F1200 X16.12 Y-8.43 E461.58481
G0 F2400 X16.12 Y-9.222
G1 F1200 X-16.12 Y-41.463 E464.64206
G0 F2400 X-16.12 Y-42.255
G1 F1200 X16.12 Y-10.014 E467.69931
G0 F2400 X16.12 Y-10.806
G1 F1200 X-16.12 Y-43.047 E470.75656
G0 F2400 X-16.12 Y-43.839
G1 F1200 X16.12 Y-11.597 E473.81386
G0 F2400 X16.12 Y-12.389
G1 F1200 X-16.12 Y-44.631 E476.87116
G0 F2400 X-16.12 Y-45.423
G1 F1200 X16.12 Y-13.181 E479.92846
G0 F2400 X16.12 Y-13.973
G1 F1200 X-16.12 Y-46.215 E482.98576
G0 F2400 X-16.12 Y-47.007
G1 F1200 X16.12 Y-14.765 E486.04306
G0 F2400 X16.12 Y-15.557
G1 F1200 X-16.12 Y-47.799 E489.10036
G0 F2400 X-16.12 Y-48.59
G1 F1200 X16.12 Y-16.349 E492.15762
G0 F2400 X16.12 Y-17.141
G1 F1200 X-16.12 Y-49.382 E495.21487
G0 F2400 X-16.12 Y-50.174
G1 F1200 X16.12 Y-17.933 E498.27212
G0 F2400 X16.12 Y-18.725
G1 F1200 X-16.12 Y-50.966 E501.32937
G0 F2400 X-16.12 Y-51.758
G1 F1200 X16.12 Y-19.517 E504.38663
G0 F2400 X16.12 Y-20.309
G1 F1200 X-16.12 Y-52.55 E507.44388
G0 F2400 X-16.12 Y-53.342
G1 F1200 X16.12 Y-21.101 E510.50113
G0 F2400 X16.12 Y-21.893
G1 F1200 X-16.12 Y-54.134 E513.55838
G0 F2400 X-16.12 Y-54.926
G1 F1200 X16.12 Y-22.685 E516.61564
G0 F2400 X16.12 Y-23.477
G1 F1200 X-16.12 Y-55.718 E519.67289
G0 F2400 X-16.12 Y-56.51
G1 F1200 X16.12 Y-24.269 E522.73014
G0 F2400 X16.12 Y-25.061
