;FLAVOR:Marlin
;TIME:6856
;Filament used: 17.4716m
;Layer height: 0.4
;MINX:55.851
;MINY:135.3
;MINZ:0.4
;MAXX:244.149
;MAXY:164.7
;MAXZ:126.4
;Generated with Cura_SteamEngine 5.4.0
M140 S90
M105
M190 S90
M104 S230
M105
M109 S230
M82 ;absolute extrusion mode
G28 ; home all axes
 M117 Purge extruder
 G92 E0 ; reset extruder
 G1 Z1.0 F3000 ; move z up little to prevent scratching of surface
 G1 X2 Y20 Z0.3 F5000.0 ; move to start-line position
 G1 X2 Y200.0 Z0.3 F1500.0 E15 ; draw 1st line
 G1 X2 Y200.0 Z0.4 F5000.0 ; move to side a little
 G1 X2 Y20 Z0.4 F1500.0 E30 ; draw 2nd line
 G92 E0 ; reset extruder
 G1 Z1.0 F3000 ; move z up little to prevent scratching of surface
G92 E0
G92 E0
G1 F1500 E-2
;LAYER_COUNT:316
;LAYER:0
M107
G0 F6000 X60.544 Y135.844 Z0.4
;TYPE:SKIRT
G1 F1500 E0
G1 F600 X59.205 Y136.587 E0.20373
G1 X58.007 Y137.554 E0.40855
G1 X57.016 Y138.797 E0.62005
G1 X56.253 Y140.379 E0.85372
G1 X56.126 Y140.804 E0.91273
G1 X55.851 Y142.356 E1.12243
G1 X55.851 Y157.897 E3.19001
G1 X56.293 Y159.815 E3.45187
G1 X57.127 Y161.334 E3.68242
G1 X57.932 Y162.34 E3.85383
G1 X59.045 Y163.329 E4.05192
G1 X59.501 Y163.611 E4.12325
G1 X60.92 Y164.293 E4.3327
G1 X61.597 Y164.479 E4.42611
G1 X62.905 Y164.7 E4.60259
G1 X237.346 Y164.7 E27.81032
G1 X239.264 Y164.258 E28.07218
G1 X240.783 Y163.424 E28.30272
G1 X241.789 Y162.619 E28.47414
G1 X242.778 Y161.506 E28.67222
G1 X243.06 Y161.05 E28.74355
G1 X243.742 Y159.631 E28.95301
G1 X243.928 Y158.954 E29.04642
G1 X244.149 Y157.646 E29.2229
G1 X244.149 Y142.095 E31.29181
G1 X243.783 Y140.504 E31.50901
G1 X243.605 Y139.993 E31.581
G1 X242.862 Y138.654 E31.78473
G1 X241.895 Y137.456 E31.98955
G1 X240.652 Y136.465 E32.20105
G1 X239.07 Y135.702 E32.43472
G1 X238.645 Y135.575 E32.49373
G1 X237.093 Y135.3 E32.70343
G1 X62.646 Y135.3 E55.91195
G1 X61.055 Y135.666 E56.12915
G1 X60.544 Y135.844 E56.20114
G0 F6000 X60.871 Y136.577
G1 F600 X61.234 Y136.446 E56.25248
G1 X62.738 Y136.1 E56.4578
G1 X237.024 Y136.1 E79.6449
G1 X238.417 Y136.342 E79.833
G1 X238.783 Y136.451 E79.88381
G1 X240.22 Y137.145 E80.09612
G1 X241.329 Y138.029 E80.2848
G1 X242.198 Y139.106 E80.46891
G1 X242.872 Y140.32 E80.65364
G1 X243.003 Y140.683 E80.70498
G1 X243.349 Y142.187 E80.9103
G1 X243.349 Y157.578 E82.95793
G1 X243.139 Y158.821 E83.12564
G1 X242.99 Y159.349 E83.19863
G1 X242.339 Y160.703 E83.39851
G1 X242.133 Y161.028 E83.4497
G1 X241.239 Y162.034 E83.62875
G1 X240.334 Y162.758 E83.78294
G1 X238.979 Y163.502 E83.9886
G1 X237.253 Y163.9 E84.22425
G1 X62.973 Y163.9 E107.41056
G1 X61.73 Y163.69 E107.57827
G1 X61.202 Y163.541 E107.65126
G1 X59.848 Y162.89 E107.85113
G1 X59.523 Y162.684 E107.90233
G1 X58.517 Y161.79 E108.08138
G1 X57.793 Y160.885 E108.23557
G1 X57.049 Y159.53 E108.44122
G1 X56.651 Y157.804 E108.67688
G1 X56.651 Y142.425 E110.72291
G1 X56.893 Y141.032 E110.91101
G1 X57.002 Y140.666 E110.96181
G1 X57.696 Y139.229 E111.17412
G1 X58.58 Y138.12 E111.3628
G1 X59.657 Y137.251 E111.54691
G1 X60.871 Y136.577 E111.73165
G0 F6000 X61.203 Y137.307
G1 F600 X61.413 Y137.226 E111.76159
G1 X62.83 Y136.9 E111.95503
G1 X236.956 Y136.9 E135.12085
G1 X238.28 Y137.13 E135.29963
G1 X238.491 Y137.198 E135.32913
G1 X239.788 Y137.824 E135.52073
G1 X240.763 Y138.601 E135.68659
G1 X241.534 Y139.557 E135.84999
G1 X242.142 Y140.652 E136.01662
G1 X242.223 Y140.862 E136.04656
G1 X242.549 Y142.279 E136.24001
G1 X242.549 Y157.51 E138.26635
G1 X242.35 Y158.688 E138.42529
G1 X242.24 Y159.062 E138.47715
G1 X241.618 Y160.356 E138.66817
G1 X241.495 Y160.541 E138.69772
G1 X240.686 Y161.451 E138.85971
G1 X239.885 Y162.092 E138.9962
G1 X238.694 Y162.746 E139.17697
G1 X237.16 Y163.1 E139.38642
G1 X63.041 Y163.1 E162.5513
G1 X61.863 Y162.901 E162.71024
G1 X61.489 Y162.791 E162.76211
G1 X60.195 Y162.169 E162.95312
G1 X60.01 Y162.046 E162.98268
G1 X59.1 Y161.237 E163.14467
G1 X58.459 Y160.436 E163.28115
G1 X57.805 Y159.245 E163.46192
G1 X57.451 Y157.711 E163.67137
G1 X57.451 Y142.493 E165.69598
G1 X57.681 Y141.169 E165.87477
G1 X57.749 Y140.958 E165.90426
G1 X58.375 Y139.661 E166.09586
G1 X59.152 Y138.686 E166.26173
G1 X60.108 Y137.915 E166.42512
G1 X61.203 Y137.307 E166.59175
G0 F6000 X61.592 Y138.006
G1 F600 X62.922 Y137.7 E166.77332
G1 X236.888 Y137.7 E189.91785
G1 X238.143 Y137.918 E190.08731
G1 X239.359 Y138.505 E190.26695
G1 X240.195 Y139.171 E190.40916
G1 X240.868 Y140.006 E190.55184
G1 X241.443 Y141.041 E190.70936
G1 X241.749 Y142.371 E190.89092
G1 X241.749 Y157.442 E192.89598
G1 X241.561 Y158.555 E193.04615
G1 X241.493 Y158.769 E193.07602
G1 X240.897 Y160.009 E193.25906
G1 X240.133 Y160.868 E193.412
G1 X239.436 Y161.426 E193.53079
G1 X238.405 Y161.992 E193.68726
G1 X237.071 Y162.3 E193.86941
G1 X63.109 Y162.3 E217.0134
G1 X61.996 Y162.112 E217.16358
G1 X61.782 Y162.044 E217.19345
G1 X60.542 Y161.448 E217.37649
G1 X59.683 Y160.684 E217.52943
G1 X59.125 Y159.987 E217.64821
G1 X58.559 Y158.956 E217.80469
G1 X58.251 Y157.622 E217.98683
G1 X58.251 Y142.561 E219.99056
G1 X58.469 Y141.306 E220.16002
G1 X59.056 Y140.09 E220.33966
G1 X59.722 Y139.254 E220.48187
G1 X60.557 Y138.581 E220.62454
G1 X61.592 Y138.006 E220.78206
G0 F6000 X61.878 Y138.762
G1 F600 X63.015 Y138.5 E220.9373
G1 X236.82 Y138.5 E244.06041
G1 X237.896 Y138.687 E244.2057
G1 X238.93 Y139.186 E244.35845
G1 X239.627 Y139.741 E244.47699
G1 X240.204 Y140.457 E244.59932
G1 X240.687 Y141.327 E244.73171
G1 X240.949 Y142.464 E244.88694
G1 X240.949 Y157.374 E246.87058
G1 X240.772 Y158.422 E247.01198
G1 X240.225 Y159.56 E247.17996
G1 X239.58 Y160.285 E247.30906
G1 X238.989 Y160.758 E247.40977
G1 X238.118 Y161.237 E247.54201
G1 X236.978 Y161.5 E247.69766
G1 X63.177 Y161.5 E270.82024
G1 X62.129 Y161.323 E270.96164
G1 X60.991 Y160.776 E271.12962
G1 X60.266 Y160.131 E271.25873
G1 X59.793 Y159.54 E271.35943
G1 X59.314 Y158.669 E271.49168
G1 X59.051 Y157.529 E271.64733
G1 X59.051 Y142.629 E273.62963
G1 X59.238 Y141.553 E273.77493
G1 X59.737 Y140.519 E273.92768
G1 X60.292 Y139.822 E274.04621
G1 X61.008 Y139.245 E274.16855
G1 X61.878 Y138.762 E274.30094
G0 F6000 X62.167 Y139.517
G1 F600 X63.108 Y139.3 E274.42941
G1 X236.752 Y139.3 E297.5311
G1 X237.646 Y139.455 E297.65182
G1 X238.504 Y139.869 E297.77856
G1 X239.059 Y140.311 E297.87295
G1 X239.537 Y140.904 E297.97428
G1 X239.932 Y141.616 E298.08261
G1 X240.149 Y142.557 E298.21109
G1 X240.149 Y157.306 E300.1733
G1 X240.002 Y158.177 E300.29082
G1 X239.553 Y159.111 E300.42869
G1 X239.026 Y159.703 E300.53414
G1 X238.541 Y160.092 E300.61685
G1 X237.829 Y160.483 E300.72492
G1 X236.889 Y160.7 E300.85327
G1 X63.245 Y160.7 E323.95496
G1 X62.374 Y160.553 E324.07248
G1 X61.44 Y160.104 E324.21035
G1 X60.848 Y159.577 E324.31579
G1 X60.459 Y159.092 E324.39851
G1 X60.068 Y158.38 E324.50658
G1 X59.851 Y157.44 E324.63492
G1 X59.851 Y142.697 E326.59634
G1 X60.006 Y141.803 E326.71705
G1 X60.42 Y140.945 E326.8438
G1 X60.862 Y140.39 E326.93819
G1 X61.455 Y139.912 E327.03952
G1 X62.167 Y139.517 E327.14785
G0 F6000 X62.457 Y140.271
G1 F600 X63.2 Y140.1 E327.24928
G1 X236.684 Y140.1 E350.32968
G1 X237.4 Y140.224 E350.42636
G1 X238.075 Y140.55 E350.52609
G1 X238.491 Y140.881 E350.59681
G1 X238.87 Y141.351 E350.67714
G1 X239.178 Y141.906 E350.76159
G1 X239.349 Y142.649 E350.86302
G1 X239.349 Y157.237 E352.80381
G1 X239.231 Y157.934 E352.89786
G1 X238.881 Y158.663 E353.00545
G1 X238.473 Y159.122 E353.08715
G1 X238.096 Y159.424 E353.15142
G1 X237.54 Y159.729 E353.23578
G1 X236.8 Y159.9 E353.33683
G1 X63.314 Y159.9 E376.4175
G1 X62.617 Y159.782 E376.51155
G1 X61.888 Y159.432 E376.61913
G1 X61.429 Y159.024 E376.70084
G1 X61.127 Y158.647 E376.7651
G1 X60.822 Y158.091 E376.84947
G1 X60.651 Y157.351 E376.95052
G1 X60.651 Y142.765 E378.89105
G1 X60.775 Y142.049 E378.98772
G1 X61.101 Y141.374 E379.08745
G1 X61.432 Y140.958 E379.15817
G1 X61.902 Y140.579 E379.2385
G1 X62.457 Y140.271 E379.32295
G0 F6000 X62.746 Y141.026
G1 F600 X63.293 Y140.9 E379.39762
G1 X236.616 Y140.9 E402.45661
G1 X237.152 Y140.993 E402.52899
G1 X237.648 Y141.232 E402.60223
G1 X237.923 Y141.451 E402.649
G1 X238.203 Y141.798 E402.70832
G1 X238.423 Y142.195 E402.76871
G1 X238.549 Y142.742 E402.84339
G1 X238.549 Y157.168 E404.76263
G1 X238.46 Y157.692 E404.83334
G1 X238.209 Y158.216 E404.91064
G1 X237.924 Y158.536 E404.96765
G1 X237.649 Y158.756 E405.0145
G1 X237.253 Y158.974 E405.07464
G1 X236.707 Y159.1 E405.14919
G1 X63.383 Y159.1 E428.20831
G1 X62.859 Y159.011 E428.27902
G1 X62.335 Y158.76 E428.35632
G1 X62.015 Y158.475 E428.41333
G1 X61.795 Y158.2 E428.46018
G1 X61.577 Y157.804 E428.52032
G1 X61.451 Y157.258 E428.59487
G1 X61.451 Y142.833 E430.51398
G1 X61.544 Y142.297 E430.58636
G1 X61.783 Y141.801 E430.65961
G1 X62.002 Y141.526 E430.70638
G1 X62.349 Y141.246 E430.7657
G1 X62.746 Y141.026 E430.82608
G1 F1500 E428.82608
G0 F6000 X63.382 Y142.5
G1 F1500 E430.82608
G1 F600 X236.549 Y142.5 E453.86431
G1 X236.722 Y142.54 E453.88794
G1 X236.861 Y142.65 E453.91152
G1 X236.949 Y142.831 E453.9383
G1 X236.949 Y157.1 E455.83665
G1 X236.91 Y157.273 E455.86024
G1 X236.799 Y157.412 E455.88391
G1 X236.618 Y157.5 E455.91069
G1 X63.451 Y157.5 E478.94892
G1 X63.278 Y157.461 E478.97251
G1 X63.139 Y157.35 E478.99618
G1 X63.051 Y157.169 E479.02295
G1 X63.051 Y142.9 E480.92131
G1 X63.091 Y142.727 E480.94493
G1 X63.201 Y142.588 E480.96851
G1 X63.382 Y142.5 E480.99529
G0 F6000 X63.032 Y141.781
G1 F600 X63.382 Y141.7 E481.04308
G1 X236.549 Y141.7 E504.08131
G1 X236.902 Y141.761 E504.12897
G1 X237.3 Y141.953 E504.18776
G1 X237.58 Y142.3 E504.24708
G1 X237.668 Y142.481 E504.27386
G1 X237.749 Y142.831 E504.32165
G1 X237.749 Y157.1 E506.22001
G1 X237.69 Y157.449 E506.2671
G1 X237.535 Y157.772 E506.31476
G1 X237.424 Y157.911 E506.33843
G1 X237.149 Y158.131 E506.38528
G1 X236.968 Y158.219 E506.41206
G1 X236.618 Y158.3 E506.45985
G1 X63.451 Y158.3 E529.49808
G1 X63.102 Y158.241 E529.54517
G1 X62.779 Y158.086 E529.59284
G1 X62.64 Y157.975 E529.6165
G1 X62.42 Y157.7 E529.66336
G1 X62.332 Y157.519 E529.69013
G1 X62.251 Y157.169 E529.73793
G1 X62.251 Y142.9 E531.63628
G1 X62.312 Y142.547 E531.68394
G1 X62.504 Y142.149 E531.74273
G1 X62.851 Y141.869 E531.80205
G1 X63.032 Y141.781 E531.82883
G1 F1500 E529.82883
;MESH:Tablet_Wall_Mount_2.0_-_Right_Panel.stl
G0 F6000 X79.874 Y145.87
;TYPE:WALL-INNER
G1 F1500 E531.82883
G1 F600 X79.922 Y145.533 E531.87411
G1 X80.114 Y145.148 E531.93135
G1 F616.2 X80.52 Y144.828 E531.99832
G1 F662.1 X80.917 Y144.728 E532.04768
G1 F695.7 X83.693 Y144.732 E532.36622
G1 F703.8 X89.199 Y144.715 E532.9907
G1 F716.4 X94.705 Y144.697 E533.60419
G1 X100.206 Y144.714 E534.21712
G1 F703.8 X105.708 Y144.732 E534.84114
G1 F699.7 X108.32 Y144.729 E535.13913
G1 F650.4 X108.885 Y144.814 E535.20925
G1 F603 X109.283 Y145.149 E535.27811
G1 F600 X109.475 Y145.534 E535.33535
G1 X109.523 Y145.871 E535.38064
G1 X109.524 Y154.126 E536.47889
G1 X109.476 Y154.463 E536.52417
G1 X109.284 Y154.848 E536.58141
G1 F615.4 X108.878 Y155.169 E536.64855
G1 F661.2 X108.481 Y155.269 E536.69798
G1 F694.6 X105.705 Y155.265 E537.01698
G1 F702.8 X100.2 Y155.282 E537.64226
G1 F715.4 X94.695 Y155.3 E538.25655
G1 X87.883 Y155.284 E539.01669
G1 F703.8 X81.071 Y155.267 E539.78929
G1 F648.6 X80.509 Y155.178 E539.85931
G1 F603 X80.114 Y154.843 E539.92787
G1 F600 X79.922 Y154.459 E539.98499
G1 X79.875 Y154.123 E540.03013
G1 X79.874 Y145.87 E541.12811
G1 F1500 E539.12811
G0 F6000 X80.334 Y144.079
G1 F1500 E541.12811
G1 F616.2 X79.591 Y144.1 E541.2244
G1 F600 X64.651 Y144.1 E543.21203
G1 X64.651 Y155.9 E544.78191
G1 F603 X80.327 Y155.905 E546.85702
G1 F648.6 X81.07 Y155.955 E546.94866
G1 F703.8 X87.888 Y155.96 E547.72194
G1 F715.4 X94.706 Y155.966 E548.48275
G1 X99.331 Y155.961 E548.99884
G1 F703.8 X103.957 Y155.956 E549.52351
G1 F693.6 X108.583 Y155.951 E550.05587
G1 F658.4 X109.065 Y155.92 E550.11442
G1 F615.4 X109.809 Y155.9 E550.21097
G1 F602.3 X118.561 Y155.903 E551.37097
G1 F640.9 X119.315 Y155.947 E551.46505
G1 F687.7 X123.7 Y155.953 E551.97405
G1 F699.7 X128.085 Y155.959 E552.4743
G1 F696.7 X132.594 Y155.951 E552.99095
G1 F678.9 X137.103 Y155.942 E553.52109
G1 F647.8 X137.589 Y155.918 E553.58106
G1 F613 X138.343 Y155.9 E553.67927
G1 F601.5 X158.577 Y155.901 E556.36448
G1 F603 X178.811 Y155.903 E559.04296
G1 F640 X179.565 Y155.948 E559.13717
G1 F687.7 X184.513 Y155.953 E559.71152
G1 F699.7 X189.461 Y155.959 E560.276
G1 F696.7 X194.532 Y155.951 E560.85705
G1 F678.9 X199.604 Y155.942 E561.45338
G1 F647.8 X200.09 Y155.918 E561.51335
G1 F613 X200.844 Y155.901 E561.61155
G1 F600 X235.349 Y155.9 E566.20212
G1 X235.349 Y144.1 E567.772
G1 F601.5 X217.718 Y144.099 E570.11177
G1 F603.8 X200.087 Y144.097 E572.44275
G1 F643.4 X199.337 Y144.049 E572.53598
G1 F693.6 X194.389 Y144.044 E573.1054
G1 F705.9 X189.441 Y144.038 E573.66494
G1 F702.8 X184.371 Y144.046 E574.24081
G1 F684.7 X179.3 Y144.055 E574.83197
G1 F651.3 X178.815 Y144.081 E574.8915
G1 F613.8 X178.064 Y144.1 E574.9892
G1 F601.5 X157.827 Y144.099 E577.67481
G1 F603.8 X137.59 Y144.097 E580.35032
G1 F640.9 X136.837 Y144.052 E580.44428
G1 F688.7 X132.451 Y144.046 E580.95267
G1 F700.7 X128.065 Y144.04 E581.45231
G1 F697.7 X123.557 Y144.048 E581.96809
G1 F679.9 X119.048 Y144.057 E582.49748
G1 F647.8 X118.563 Y144.082 E582.55733
G1 F613 X117.81 Y144.1 E582.65541
G1 F603 X109.064 Y144.096 E583.81316
G1 F650.4 X108.32 Y144.043 E583.90471
G1 F706.9 X101.506 Y144.038 E584.67413
G1 F717.5 X94.692 Y144.033 E585.43222
G1 X90.067 Y144.038 E585.94678
G1 F705.9 X85.441 Y144.043 E586.46991
G1 F695.7 X80.815 Y144.048 E587.00073
G1 F660.2 X80.334 Y144.079 E587.059
G1 F1500 E585.059
G0 F6000 X128.067 Y155.279
G1 F1500 E587.059
G1 F693.6 X120.346 Y155.241 E587.94755
G1 F681.8 X119.315 Y155.243 E588.06825
G1 F640.9 X118.749 Y155.149 E588.13972
G1 F602.3 X118.351 Y154.813 E588.20875
G1 F600 X118.159 Y154.429 E588.26587
G1 X118.111 Y154.091 E588.31129
G1 X118.11 Y145.907 E589.40009
G1 X118.158 Y145.569 E589.44551
G1 X118.351 Y145.184 E589.50281
G1 F613 X118.756 Y144.861 E589.57026
G1 F650.4 X119.148 Y144.756 E589.62007
G1 F678 X120.348 Y144.758 E589.76136
G1 F686.7 X124.216 Y144.739 E590.211
G1 F700.7 X128.084 Y144.72 E590.65163
G1 X131.945 Y144.739 E591.09146
G1 F686.7 X135.806 Y144.758 E591.54029
G1 F680.9 X136.837 Y144.756 E591.66117
G1 F640.9 X137.403 Y144.85 E591.73263
G1 F602.3 X137.801 Y145.186 E591.80167
G1 F600 X137.993 Y145.571 E591.8589
G1 X138.041 Y145.908 E591.90419
G1 X138.042 Y154.091 E592.99286
G1 X137.994 Y154.429 E593.03828
G1 X137.801 Y154.814 E593.09558
G1 F613 X137.396 Y155.138 E593.16311
G1 F649.5 X137.004 Y155.243 E593.21299
G1 F678 X135.802 Y155.241 E593.35451
G1 F686.7 X131.934 Y155.26 E593.80415
G1 F699.7 X128.066 Y155.279 E594.24542
G1 F1500 E592.24542
G0 F6000 X199.337 Y144.749
G1 F1500 E594.24542
G1 F643.4 X199.903 Y144.84 E594.31654
G1 F602.3 X200.301 Y145.176 E594.38558
G1 F600 X200.493 Y145.561 E594.44282
G1 X200.541 Y145.898 E594.4881
G1 X200.542 Y154.091 E595.57811
G1 X200.494 Y154.429 E595.62352
G1 X200.301 Y154.813 E595.6807
G1 F613 X199.896 Y155.138 E595.74832
G1 F649.5 X199.504 Y155.243 E595.79819
G1 F678 X198.165 Y155.241 E595.95585
G1 F686.7 X193.804 Y155.26 E596.46279
G1 F699.7 X189.443 Y155.279 E596.96031
G1 X185.089 Y155.26 E597.45703
G1 F687.7 X180.734 Y155.241 E597.96255
G1 F680.9 X179.565 Y155.243 E598.09961
G1 F640 X178.999 Y155.149 E598.17117
G1 F602.3 X178.601 Y154.813 E598.24021
G1 F600 X178.409 Y154.429 E598.29733
G1 X178.361 Y154.091 E598.34274
G1 X178.36 Y145.897 E599.43288
G1 X178.408 Y145.559 E599.4783
G1 X178.601 Y145.175 E599.53547
G1 F613.8 X179.006 Y144.852 E599.60284
G1 F653.1 X179.4 Y144.748 E599.65265
G1 F682.8 X180.737 Y144.751 E599.80896
G1 F691.6 X185.098 Y144.732 E600.31228
G1 F705.9 X189.459 Y144.712 E600.80545
G1 X193.813 Y144.731 E601.29782
G1 F691.6 X198.168 Y144.751 E601.80045
G1 F685.7 X199.337 Y144.749 E601.93653
G1 F1500 E599.93653
G0 F6000 X198.688 Y146.553
G0 X198.689 Y153.436
G0 X199.411 Y154.486
;TYPE:WALL-OUTER
G1 F1500 E601.93653
G1 F600 X189.448 Y154.539 E603.26203
G1 X180.733 Y154.489 E604.4215
G1 X179.563 Y154.491 E604.57716
G1 X179.373 Y154.445 E604.60317
G1 X179.241 Y154.332 E604.62628
G1 X179.161 Y154.172 E604.65008
