;FLAVOR:Marlin
;TIME:2580
;Filament used: 4.48523m
;Layer height: 0.35
;Generated with Cura_SteamEngine 3.6.0
M140 S30
M105
M190 S30
M104 S220
M105
M109 S220
M82 ;absolute extrusion mode
G21 ;metric values
G90 ;absolute positioning
M82 ;set extruder to absolute mode
M107 ;start with the fan off
G28 X0 Y0 ;move X/Y to min endstops
G28 Z0 ;move Z to min endstops
G1 Z15.0 F120 ;move the platform down 15mm
G92 E0 ;zero the extruded length
G1 F200 E3 ;extrude 3mm of feed stock
G92 E0 ;zero the extruded length again
G1 F120
M117 Printing...
G5
G92 E0
G1 F2700 E-6
;LAYER_COUNT:37
;LAYER:0
M106 S255
M204 S3000
M205 X10 Y10
;MESH:covid_mask_grid.stl
G0 F2400 X20.875 Y86.176 Z0.3
M204 S1800
M205 X8 Y8
;TYPE:WALL-INNER
G1 F2700 E0
G1 F1200 X18.494 Y89.165 E0.2509
G1 X17.017 Y91.676 E0.44216
G1 X15.903 Y94.369 E0.63351
G1 X15.33 Y96.582 E0.78359
G1 X15.172 Y97.193 E0.82503
G1 X14.773 Y100.809 E1.06388
G1 X14.773 Y97.193 E1.14824
G1 X14.773 Y96.561 E1.18383
G1 X14.774 Y82.344 E2.11725
G1 X14.829 Y81.841 E2.15047
G1 X14.915 Y81.392 E2.18049
G1 X15.025 Y81.04 E2.2047
G1 X15.143 Y80.803 E2.22208
G1 X15.238 Y80.682 E2.23218
G1 X15.376 Y80.574 E2.24369
G1 X15.626 Y80.451 E2.26198
G1 X15.966 Y80.347 E2.28532
G1 X16.42 Y80.263 E2.31564
G1 X16.975 Y80.206 E2.35227
G1 X17.545 Y80.178 E2.38974
G1 X30.843 Y80.178 E3.26282
G1 X31.874 Y80.178 E3.33052
G1 X34.527 Y80.179 E3.5047
G1 X31.874 Y80.475 E3.55175
G1 X30.876 Y80.733 E3.60366
G1 X29.054 Y81.206 E3.72725
G1 X26.362 Y82.32 E3.91853
G1 X23.853 Y83.8 E4.10978
G1 X20.875 Y86.176 E4.35991
M204 S3000
M205 X10 Y10
G0 F2400 X34.734 Y99.461
G0 X36.267 Y100.389
M204 S1800
M205 X8 Y8
G1 F1200 X36.515 Y100.989 E4.40253
G1 X36.265 Y101.596 E4.44563
G1 X35.664 Y101.844 E4.48832
G1 X35.066 Y101.597 E4.5308
G1 X34.815 Y100.99 E4.57393
G1 X35.062 Y100.393 E4.61634
G1 X35.669 Y100.143 E4.65945
G1 X36.267 Y100.389 E4.7019
M204 S3000
M205 X10 Y10
G0 F2400 X50.453 Y86.174
M204 S1800
M205 X8 Y8
G1 F1200 X47.471 Y83.8 E4.95215
G1 X44.962 Y82.32 E5.14341
G1 X42.272 Y81.206 E5.33456
G1 X40.452 Y80.734 E5.45801
G1 X39.45 Y80.475 E5.52596
G1 X36.745 Y80.179 E5.70462
G1 X39.45 Y80.179 E5.75136
G1 X40.486 Y80.179 E5.80349
G1 X53.731 Y80.18 E6.67309
G1 X54.308 Y80.209 E6.71102
G1 X54.851 Y80.267 E6.74688
G1 X55.292 Y80.351 E6.77635
G1 X55.639 Y80.46 E6.80023
G1 X55.882 Y80.583 E6.81811
G1 X56.006 Y80.679 E6.82841
G1 X56.112 Y80.815 E6.83973
G1 X56.231 Y81.06 E6.85761
G1 X56.339 Y81.41 E6.88166
G1 X56.423 Y81.871 E6.91243
G1 X56.48 Y82.41 E6.94801
G1 X56.507 Y82.98 E6.98548
G1 X56.507 Y96.372 E7.86474
G1 X56.507 Y97.205 E7.91943
G1 X56.507 Y100.285 E8.12165
G1 X56.159 Y97.205 E8.18554
G1 X55.951 Y96.399 E8.22992
G1 X55.429 Y94.381 E8.36677
G1 X54.309 Y91.675 E8.55905
G1 X52.83 Y89.165 E8.75033
G1 X50.453 Y86.174 E9.00117
M204 S3000
M205 X10 Y10
G0 F2400 X53.841 Y91.909
G0 X54.933 Y94.544
G0 X55.646 Y97.301
G0 X56.064 Y101.002
G0 X55.646 Y104.697
G0 X54.933 Y107.452
G0 X53.846 Y110.078
G0 X53.439 Y110.77
G0 X50.1 Y116.236
M204 S1800
M205 X8 Y8
G1 F1200 X50.108 Y116.226 E9.00201
G1 X52.837 Y112.821 E9.2885
G1 X54.316 Y110.308 E9.47995
G1 X55.429 Y107.615 E9.67127
G1 X55.951 Y105.599 E9.80799
G1 X56.159 Y104.793 E9.86265
G1 X56.507 Y101.718 E10.06582
G1 X56.507 Y104.793 E10.12835
G1 X56.507 Y105.626 E10.17278
G1 X56.507 Y119.19 E11.06333
G1 X56.48 Y119.745 E11.09981
G1 X56.422 Y120.308 E11.13697
G1 X56.338 Y120.761 E11.16722
G1 X56.232 Y121.107 E11.19098
G1 X56.113 Y121.351 E11.2088
G1 X56.005 Y121.49 E11.22036
G1 X55.86 Y121.603 E11.23243
G1 X55.64 Y121.71 E11.24849
G1 X55.266 Y121.824 E11.27416
G1 X54.788 Y121.911 E11.30606
G1 X40.005 Y121.911 E12.27664
G1 X39.456 Y121.911 E12.31269
G1 X35.931 Y121.911 E12.54413
G1 X39.456 Y121.491 E12.63227
G1 X39.987 Y121.354 E12.6638
G1 X42.272 Y120.762 E12.81878
G1 X44.962 Y119.648 E13.00994
G1 X47.471 Y118.168 E13.20119
G1 X50.008 Y116.144 E13.41427
G1 X50.1 Y116.236 E13.41898
M204 S3000
M205 X10 Y10
G0 F2400 X44.73 Y119.179
G0 X42.106 Y120.267
G0 X39.36 Y120.977
G0 X35.664 Y121.417
G0 X31.975 Y120.995
G0 X29.226 Y120.283
G0 X26.601 Y119.195
G0 X20.876 Y115.804
M204 S1800
M205 X8 Y8
G1 F1200 X23.861 Y118.182 E13.66955
G1 X26.37 Y119.664 E13.86087
G1 X29.06 Y120.778 E14.05203
G1 X31.278 Y121.353 E14.20247
G1 X31.879 Y121.508 E14.24322
G1 X35.391 Y121.91 E14.4753
G1 X31.879 Y121.91 E14.55783
G1 X31.258 Y121.91 E14.59291
G1 X16.419 Y121.905 E15.56717
G1 X15.968 Y121.821 E15.59729
G1 X15.617 Y121.715 E15.62136
G1 X15.38 Y121.599 E15.63868
G1 X15.242 Y121.492 E15.65015
G1 X15.128 Y121.345 E15.66236
G1 X15.016 Y121.115 E15.67916
G1 X14.91 Y120.762 E15.70336
G1 X14.825 Y120.309 E15.73362
G1 X14.772 Y119.797 E15.76741
G1 X14.772 Y105.386 E16.71358
G1 X14.772 Y104.793 E16.75251
G1 X14.773 Y101.185 E16.98939
G1 X15.181 Y104.793 E17.07714
G1 X15.329 Y105.367 E17.11085
G1 X15.911 Y107.615 E17.26331
G1 X17.022 Y110.308 E17.45457
G1 X18.502 Y112.819 E17.64594
G1 X20.876 Y115.804 E17.89634
M204 S3000
M205 X10 Y10
G0 F2400 X36.625 Y100.03
G0 X36.695 Y99.96
M204 S1800
M205 X8 Y8
G1 F1200 X37.121 Y100.99 E17.96953
G1 X36.694 Y102.025 E18.04303
G1 X35.664 Y102.45 E18.11619
G1 X34.639 Y102.027 E18.18899
G1 X34.209 Y100.99 E18.2627
G1 X34.634 Y99.963 E18.33567
G1 X35.669 Y99.537 E18.40916
G1 X36.695 Y99.96 E18.48202
M204 S3000
M205 X10 Y10
G0 F2400 X36.625 Y100.03
G0 X36.09 Y99.248
G0 X35.678 Y80.526
G0 X35.669 Y80.615
M204 S1800
M205 X8 Y8
G1 F1200 X31.976 Y81.027 E18.72599
G1 X29.232 Y81.738 E18.9121
G1 X26.613 Y82.822 E19.0982
G1 X24.171 Y84.262 E19.28433
G1 X21.274 Y86.574 E19.52768
G1 X18.957 Y89.483 E19.77185
G1 X17.519 Y91.926 E19.95797
G1 X16.435 Y94.547 E20.14419
G1 X15.724 Y97.294 E20.33049
G1 X15.315 Y100.998 E20.57515
G1 X15.733 Y104.691 E20.81917
G1 X16.443 Y107.437 E21.00539
G1 X17.525 Y110.058 E21.19156
G1 X18.965 Y112.501 E21.37774
G1 X21.275 Y115.406 E21.62142
G1 X24.179 Y117.72 E21.86521
G1 X26.621 Y119.162 E22.05141
G1 X29.238 Y120.246 E22.23739
G1 X31.982 Y120.956 E22.42348
G1 X35.665 Y121.378 E22.66687
G1 X39.352 Y120.939 E22.91065
G1 X42.094 Y120.23 E23.0966
G1 X44.711 Y119.146 E23.28258
G1 X47.153 Y117.706 E23.46871
G1 X50.05 Y115.394 E23.71206
G1 X50.054 Y115.398 E23.71243
G1 X52.375 Y112.502 E23.9561
G1 X53.813 Y110.058 E24.14228
G1 X54.897 Y107.437 E24.3285
G1 X55.607 Y104.691 E24.51471
G1 X56.024 Y101.002 E24.75846
G1 X55.607 Y97.307 E25.0026
G1 X54.897 Y94.559 E25.18894
G1 X53.807 Y91.926 E25.37604
G1 X52.367 Y89.483 E25.56223
G1 X50.054 Y86.572 E25.80634
G1 X47.153 Y84.262 E26.04981
G1 X44.711 Y82.822 E26.23594
G1 X42.094 Y81.738 E26.42192
G1 X39.349 Y81.027 E26.60809
G1 X35.669 Y80.625 E26.85114
G1 X35.669 Y80.615 E26.8518
M204 S3000
M205 X10 Y10
G0 F2400 X35.678 Y80.526
G0 X53.734 Y79.72
G0 X53.739 Y79.62
M204 S1800
M205 X8 Y8
G1 F1200 X54.361 Y79.651 E26.89269
G1 X54.93 Y79.712 E26.93026
G1 X55.428 Y79.807 E26.96355
G1 X55.853 Y79.941 E26.9928
G1 X56.182 Y80.106 E27.01697
G1 X56.404 Y80.279 E27.03545
G1 X56.591 Y80.52 E27.05547
G1 X56.753 Y80.854 E27.07985
G1 X56.884 Y81.279 E27.10905
G1 X56.978 Y81.79 E27.14316
G1 X57.037 Y82.351 E27.18019
G1 X57.067 Y82.98 E27.22154
G1 X57.067 Y119.19 E29.59892
G1 X57.037 Y119.803 E29.63922
G1 X56.976 Y120.392 E29.6781
G1 X56.884 Y120.89 E29.71135
G1 X56.753 Y121.316 E29.74061
G1 X56.592 Y121.647 E29.76478
G1 X56.404 Y121.889 E29.7849
G1 X56.16 Y122.079 E29.8052
G1 X55.84 Y122.235 E29.82857
G1 X55.408 Y122.367 E29.85823
G1 X54.894 Y122.463 E29.89256
G1 X54.82 Y122.471 E29.89745
G1 X16.43 Y122.47 E32.41796
G1 X16.346 Y122.461 E32.42351
G1 X15.832 Y122.365 E32.45784
G1 X15.414 Y122.239 E32.4865
G1 X15.079 Y122.074 E32.51102
G1 X14.844 Y121.892 E32.53054
G1 X14.652 Y121.645 E32.55108
G1 X14.493 Y121.319 E32.57489
G1 X14.366 Y120.897 E32.60382
G1 X14.27 Y120.384 E32.63809
G1 X14.212 Y119.826 E32.67492
G1 X14.214 Y82.312 E35.13792
G1 X14.274 Y81.759 E35.17444
G1 X14.37 Y81.26 E35.20781
G1 X14.506 Y80.826 E35.23767
G1 X14.665 Y80.505 E35.26119
G1 X14.841 Y80.281 E35.27989
G1 X15.079 Y80.096 E35.29968
G1 X15.415 Y79.931 E35.32426
G1 X15.839 Y79.801 E35.35338
G1 X16.336 Y79.709 E35.38656
G1 X16.926 Y79.648 E35.4255
G1 X17.538 Y79.618 E35.46573
G1 X53.739 Y79.62 E37.84253
M204 S3000
M205 X10 Y10
G0 F2400 X53.742 Y79.16
M204 S1800
M205 X8 Y8
;TYPE:WALL-OUTER
G1 F1200 X54.398 Y79.193 E37.88565
G1 X55.004 Y79.258 E37.92567
G1 X55.544 Y79.361 E37.96176
G1 X56.022 Y79.512 E37.99467
G1 X56.431 Y79.717 E38.02471
G1 X56.73 Y79.95 E38.0496
G1 X56.985 Y80.278 E38.07688
G1 X57.183 Y80.685 E38.10659
G1 X57.33 Y81.164 E38.13949
G1 X57.433 Y81.724 E38.17687
G1 X57.495 Y82.316 E38.21595
G1 X57.527 Y82.98 E38.2596
G1 X57.527 Y119.19 E40.63699
G1 X57.495 Y119.851 E40.68043
G1 X57.433 Y120.446 E40.71971
G1 X57.33 Y121.005 E40.75703
G1 X57.183 Y121.485 E40.78999
G1 X56.985 Y121.892 E40.81971
G1 X56.732 Y122.217 E40.84675
G1 X56.407 Y122.47 E40.87379
G1 X56.008 Y122.665 E40.90295
G1 X55.52 Y122.814 E40.93645
G1 X54.963 Y122.918 E40.97365
G1 X54.84 Y122.931 E40.98177
G1 X16.402 Y122.93 E43.50544
G1 X16.286 Y122.918 E43.51309
G1 X15.725 Y122.813 E43.55056
G1 X15.242 Y122.667 E43.58369
G1 X14.836 Y122.467 E43.61341
G1 X14.515 Y122.218 E43.64008
G1 X14.261 Y121.892 E43.66721
G1 X14.064 Y121.488 E43.69672
G1 X13.918 Y121.004 E43.72992
G1 X13.813 Y120.444 E43.76732
G1 X13.752 Y119.854 E43.80627
G1 X13.754 Y82.289 E46.27262
G1 X13.82 Y81.686 E46.31244
G1 X13.923 Y81.147 E46.34847
G1 X14.077 Y80.656 E46.38226
G1 X14.275 Y80.257 E46.4115
G1 X14.513 Y79.954 E46.4368
G1 X14.836 Y79.703 E46.46366
G1 X15.245 Y79.502 E46.49358
G1 X15.724 Y79.355 E46.52647
G1 X16.282 Y79.252 E46.56373
G1 X16.878 Y79.19 E46.60307
G1 X17.537 Y79.158 E46.64639
G1 X53.742 Y79.16 E49.02344
M204 S3000
M205 X10 Y10
G0 F2400 X54.042 Y79.175
G0 X54.014 Y79.734
G0 X49.719 Y86.178
G0 X49.368 Y86.618
M204 S1800
M205 X8 Y8
G1 F1200 X49.124 Y86.423 E49.04395
G1 X46.891 Y84.642 E49.23148
G1 X44.505 Y83.235 E49.41334
G1 X41.948 Y82.175 E49.59508
G1 X39.266 Y81.481 E49.77697
G1 X36.435 Y81.171 E49.96395
G1 X36.125 Y81.138 E49.98442
G1 X36.125 Y81.449 E49.99724
G1 X36.125 Y81.45 E49.9973
G1 X36.121 Y88.171 E50.43857
G1 X36.152 Y88.175 E50.44062
G1 X38.552 Y88.521 E50.59983
G1 X38.605 Y88.538 E50.60348
G1 X40.535 Y89.158 E50.73657
G1 X40.553 Y89.164 E50.73782
G1 X40.572 Y89.174 E50.73923
G1 X42.372 Y90.101 E50.87216
G1 X42.421 Y90.126 E50.87577
G1 X44.367 Y91.573 E51.03499
G1 X44.396 Y91.595 E51.03738
G1 X49.147 Y86.839 E51.47875
G1 X49.368 Y86.618 E51.49162
M204 S3000
M205 X10 Y10
G0 F2400 X49.134 Y86.431
G0 X49.485 Y85.992
G0 X50.453 Y86.915
G0 X50.015 Y87.262
M204 S1800
M205 X8 Y8
G1 F1200 X49.794 Y87.484 E51.51219
G1 X45.041 Y92.241 E51.95369
G1 X45.063 Y92.271 E51.95613
G1 X46.51 Y94.222 E52.11561
G1 X46.537 Y94.275 E52.11952
G1 X47.467 Y96.085 E52.25312
G1 X47.477 Y96.104 E52.25453
G1 X47.482 Y96.122 E52.25576
G1 X48.101 Y98.054 E52.38896
G1 X48.118 Y98.107 E52.39261
G1 X48.471 Y100.506 E52.55182
G1 X48.477 Y100.542 E52.55421
G1 X55.197 Y100.542 E52.99542
G1 X55.198 Y100.542 E52.99548
G1 X55.51 Y100.542 E53.01597
G1 X55.475 Y100.231 E53.02886
G1 X55.154 Y97.391 E53.21651
G1 X54.46 Y94.705 E53.39865
G1 X53.394 Y92.132 E53.58151
G1 X51.987 Y89.744 E53.76348
G1 X50.21 Y87.507 E53.95105
G1 X50.015 Y87.262 E53.96394
M204 S3000
M205 X10 Y10
G0 F2400 X49.804 Y87.474
G0 X50.474 Y86.941
G0 X50.017 Y87.223
G0 X45.002 Y92.239
G0 X44.998 Y92.431
G0 X44.865 Y92.419
M204 S1800
M205 X8 Y8
G1 F1200 X40.452 Y96.834 E54.37379
G1 X40.47 Y96.862 E54.37597
G1 X41.242 Y98.066 E54.46988
G1 X41.263 Y98.116 E54.47344
G1 X41.65 Y99.054 E54.54006
G1 X41.673 Y99.108 E54.54391
G1 X41.98 Y100.511 E54.63821
G1 X41.987 Y100.542 E54.64029
G1 X48.226 Y100.542 E55.04992
G1 X47.867 Y98.145 E55.12092
G1 X47.864 Y98.131
G1 X47.241 Y96.2 E55.18067
G1 X46.315 Y94.39 E55.24058
G1 X46.304 Y94.375
G1 X44.865 Y92.419 E55.3122
M204 S3000
M205 X10 Y10
G0 F2400 X44.653 Y92.631
G0 X44.972 Y92.397
G0 X44.868 Y92.38
G0 X39.815 Y96.231
G0 X39.678 Y96.178
G0 X39.697 Y96.306
M204 S1800
M205 X8 Y8
G1 F1200 X38.491 Y95.565 E55.40513
G1 X38.468 Y95.551 E55.4069
G1 X37.54 Y95.165 E55.47289
G1 X37.512 Y95.159 E55.47477
G1 X36.125 Y94.835 E55.56829
G1 X36.123 Y99.226 E55.85658
G1 X36.593 Y99.42 E55.88996
G1 X39.697 Y96.306 E56.17864
M204 S3000
M205 X10 Y10
G0 F2400 X39.442 Y96.149
G0 X39.475 Y96.096
G0 X40.342 Y96.909
G0 X41.141 Y98.164
G0 X41.456 Y98.927
G0 X41.907 Y100.437
G0 X41.829 Y100.543
M204 S1800
M205 X8 Y8
G1 F1200 X41.501 Y99.148 E56.20629
G1 X41.494 Y99.119
G1 X41.106 Y98.182 E56.22647
G1 X41.093 Y98.16
G1 X40.338 Y96.948 E56.25425
G1 X37.235 Y100.063 E56.54292
G1 X37.429 Y100.531 E56.57618
G1 X41.829 Y100.543 E56.86507
M204 S3000
M205 X10 Y10
G0 F2400 X41.761 Y100.251
G0 X41.819 Y100.24
G0 X41.904 Y101.563
G0 X41.827 Y101.457
M204 S1800
M205 X8 Y8
G1 F1200 X37.43 Y101.445 E57.15376
G1 X37.234 Y101.915 E57.18719
G1 X40.337 Y105.019 E57.47535
G1 X41.1 Y103.822 E57.56855
G1 X41.113 Y103.802 E57.57012
G1 X41.498 Y102.87 E57.63632
G1 X41.503 Y102.845 E57.638
G1 X41.827 Y101.457 E57.73158
M204 S3000
M205 X10 Y10
G0 F2400 X41.527 Y101.457
G0 X41.869 Y101.535
G0 X41.962 Y101.425
G0 X48.256 Y101.43
G0 X48.31 Y101.559
G0 X48.226 Y101.456
M204 S1800
M205 X8 Y8
G1 F1200 X41.987 Y101.456 E58.1412
G1 X41.98 Y101.489 E58.14342
G1 X41.677 Y102.884 E58.17141
G1 X41.656 Y102.934 E58.17318
G1 X41.271 Y103.867 E58.19334
G1 X41.25 Y103.917 E58.19515
G1 X40.471 Y105.106 E58.22319
G1 X40.452 Y105.134 E58.22542
G1 X44.865 Y109.55 E58.63531
G1 X46.317 Y107.602 E58.79482
G1 X47.241 Y105.798 E58.9279
G1 X47.864 Y103.867 E59.06111
G1 X47.865 Y103.855 E59.06191
G1 X48.226 Y101.456 E59.22119
M204 S3000
M205 X10 Y10
G0 F2400 X47.926 Y101.456
G0 X48.317 Y101.516
G0 X48.451 Y101.426
G0 X55.539 Y101.43
G0 X56.065 Y101.518
G0 X55.51 Y101.456
M204 S1800
M205 X8 Y8
G1 F1200 X55.198 Y101.456 E59.24167
G1 X55.197 Y101.456 E59.24174
G1 X48.477 Y101.456 E59.68294
G1 X48.472 Y101.491 E59.68526
G1 X48.118 Y103.891 E59.75683
G1 X48.102 Y103.942 E59.75916
G1 X47.484 Y105.874 E59.81902
G1 X47.477 Y105.894 E59.82003
G1 X47.467 Y105.913 E59.82144
G1 X46.539 Y107.717 E59.88128
G1 X46.517 Y107.759 E59.88354
G1 X45.06 Y109.695 E59.95402
G1 X45.039 Y109.723 E59.95632
G1 X49.796 Y114.489 E60.39843
G1 X50.016 Y114.709 E60.41886
G1 X50.211 Y114.466 E60.4317
G1 X51.995 Y112.24 E60.61899
G1 X53.4 Y109.852 E60.8009
G1 X54.46 Y107.291 E60.98288
G1 X55.154 Y104.607 E61.16489
G1 X55.475 Y101.767 E61.35254
G1 X55.51 Y101.456 E61.36543
M204 S3000
M205 X10 Y10
G0 F2400 X55.21 Y101.456
G0 X56.062 Y101.552
G0 X55.539 Y101.43
G0 X48.451 Y101.426
G0 X47.888 Y103.895
G0 X47.277 Y105.813
G0 X46.35 Y107.623
G0 X44.867 Y109.589
G0 X39.81 Y105.738
G0 X38.694 Y106.485
G0 X36.231 Y107.241
G0 X36.125 Y107.163
M204 S1800
M205 X8 Y8
G1 F1200 X37.508 Y106.841 E61.45866
G1 X37.541 Y106.833 E61.46089
G1 X38.469 Y106.439 E61.52709
G1 X38.485 Y106.429 E61.52833
G1 X39.69 Y105.66 E61.62218
G1 X36.592 Y102.564 E61.90974
G1 X36.123 Y102.758 E61.94306
G1 X36.125 Y107.163 E62.23227
M204 S3000
M205 X10 Y10
G0 F2400 X36.417 Y107.095
G0 X36.43 Y107.155
G0 X35.107 Y107.24
G0 X35.213 Y107.163
M204 S1800
M205 X8 Y8
G1 F1200 X35.213 Y102.762 E62.52122
G1 X34.744 Y102.568 E62.55455
G1 X31.637 Y105.674 E62.84299
G1 X32.847 Y106.435 E62.93684
G1 X32.87 Y106.449 E62.9386
G1 X33.798 Y106.833 E63.00454
G1 X33.826 Y106.839 E63.00642
G1 X35.213 Y107.163 E63.09994
M204 S3000
M205 X10 Y10
G0 F2400 X35.213 Y106.863
G0 X35.134 Y107.205
G0 X35.244 Y107.299
G0 X35.239 Y113.6
G0 X35.11 Y113.654
G0 X35.213 Y113.57
M204 S1800
M205 X8 Y8
G1 F1200 X35.213 Y107.324 E63.51002
G1 X35.18 Y107.317 E63.51144
G1 X33.787 Y107.012 E63.53936
G1 X33.734 Y106.99 E63.54119
G1 X32.806 Y106.606 E63.56114
G1 X32.754 Y106.584 E63.56294
G1 X31.55 Y105.806 E63.59101
G1 X31.523 Y105.788 E63.59314
G1 X27.111 Y110.205 E64.00304
G1 X29.059 Y111.647 E64.16216
G1 X29.074 Y111.658 E64.16338
G1 X30.877 Y112.582 E64.2964
G1 X32.804 Y113.205 E64.42936
G1 X32.817 Y113.207 E64.43023
G1 X35.213 Y113.57 E64.58933
M204 S3000
M205 X10 Y10
G0 F2400 X35.213 Y113.27
G0 X36.125 Y113.57
M204 S1800
M205 X8 Y8
G1 F1200 X38.522 Y113.207 E64.7485
G1 X38.534 Y113.205 E64.7493
