;FLAVOR:Marlin
;TIME:2024
;Filament used: 3.67285m
;Layer height: 0.4
;Generated with Cura_SteamEngine 3.6.0
M140 S30
M105
M190 S30
M104 S220
M105
M109 S220
M82 ;absolute extrusion mode
G21 ;metric values
G90 ;absolute positioning
M82 ;set extruder to absolute mode
M107 ;start with the fan off
G28 X0 Y0 ;move X/Y to min endstops
G28 Z0 ;move Z to min endstops
G1 Z15.0 F120 ;move the platform down 15mm
G92 E0 ;zero the extruded length
G1 F200 E3 ;extrude 3mm of feed stock
G92 E0 ;zero the extruded length again
G1 F120
M117 Printing...
G5
G92 E0
G1 F2700 E-6
;LAYER_COUNT:32
;LAYER:0
M106 S255
M204 S3000
M205 X10 Y10
;MESH:Object 1
G0 F2400 X21.956 Y86.618 Z0.4
M204 S1800
M205 X8 Y8
;TYPE:WALL-OUTER
G1 F2700 E0
G1 F1200 X22.177 Y86.839 E0.02736
G1 X26.93 Y91.595 E0.61597
G1 X26.958 Y91.575 E0.61899
G1 X28.905 Y90.126 E0.83145
G1 X28.951 Y90.103 E0.83595
G1 X30.752 Y89.175 E1.01331
G1 X30.773 Y89.164 E1.01539
G1 X30.791 Y89.159 E1.01702
G1 X32.721 Y88.538 E1.1945
G1 X32.774 Y88.521 E1.19938
G1 X35.172 Y88.177 E1.41145
G1 X35.209 Y88.171 E1.41473
G1 X35.209 Y81.442 E2.00379
G1 X35.209 Y81.441 E2.00388
G1 X35.209 Y81.129 E2.03119
G1 X34.898 Y81.163 E2.04837
G1 X32.06 Y81.481 E2.29837
G1 X29.378 Y82.175 E2.54089
G1 X26.819 Y83.235 E2.78336
G1 X24.433 Y84.642 E3.02584
G1 X22.2 Y86.423 E3.27588
G1 X21.956 Y86.618 E3.29304
M204 S3000
M205 X10 Y10
G0 F2400 X22.168 Y86.83
G0 X21.311 Y87.262
M204 S1800
M205 X8 Y8
G1 F1200 X21.117 Y87.506 E3.32033
G1 X19.337 Y89.744 E3.57066
G1 X17.932 Y92.132 E3.8132
G1 X16.872 Y94.693 E4.05584
G1 X16.178 Y97.377 E4.29852
G1 X15.863 Y100.23 E4.5498
G1 X15.829 Y100.54 E4.5771
G1 X16.14 Y100.54 E4.59419
G1 X16.141 Y100.54 E4.59428
G1 X22.859 Y100.534 E5.18237
G1 X22.864 Y100.495 E5.18582
G1 X23.218 Y98.099 E5.39784
G1 X23.234 Y98.049 E5.40244
G1 X23.852 Y96.117 E5.58001
G1 X23.859 Y96.096 E5.58194
G1 X23.868 Y96.079 E5.58363
G1 X24.795 Y94.276 E5.7611
G1 X24.822 Y94.223 E5.76631
G1 X26.259 Y92.273 E5.97836
G1 X26.283 Y92.24 E5.98193
G1 X21.532 Y87.483 E6.57048
G1 X21.531 Y87.482 E6.57061
G1 X21.311 Y87.262 E6.58768
M204 S3000
M205 X10 Y10
G0 F2400 X21.124 Y87.497
G0 X21.047 Y87.434
G0 X21.309 Y87.223
G0 X26.453 Y92.321
G0 X26.46 Y92.42
M204 S1800
M205 X8 Y8
G1 F1200 X25.03 Y94.376 E6.68368
G1 X25.019 Y94.39
G1 X24.095 Y96.194 E6.76366
G1 X23.474 Y98.125 E6.84374
G1 X23.473 Y98.136
G1 X23.107 Y100.53 E6.93879
G1 X29.345 Y100.526 E7.48487
G1 X29.351 Y100.497 E7.48746
G1 X29.654 Y99.102 E7.61243
G1 X29.676 Y99.048 E7.61754
G1 X30.063 Y98.118 E7.70572
G1 X30.086 Y98.064 E7.71085
G1 X30.852 Y96.864 E7.83548
G1 X30.872 Y96.833 E7.83871
G1 X26.46 Y92.42 E8.38498
M204 S3000
M205 X10 Y10
G0 F2400 X26.283 Y92.662
G0 X26.204 Y92.602
G0 X26.457 Y92.381
G0 X30.975 Y96.85
G0 X30.986 Y96.949
M204 S1800
M205 X8 Y8
G1 F1200 X30.234 Y98.156 E8.42186
G1 X30.218 Y98.182
G1 X29.834 Y99.112 E8.44836
G1 X29.828 Y99.141
G1 X29.508 Y100.53 E8.48595
G1 X33.901 Y100.532 E8.87052
G1 X34.095 Y100.063 E8.91495
G1 X30.986 Y96.949 E9.30016
M204 S3000
M205 X10 Y10
G0 F2400 X30.828 Y97.203
G0 X30.744 Y97.15
G0 X31.531 Y96.292
G0 X31.63 Y96.304
M204 S1800
M205 X8 Y8
G1 F1200 X34.741 Y99.422 E9.68574
G1 X35.211 Y99.228 E9.73025
G1 X35.213 Y94.835 E10.11481
G1 X33.858 Y95.151 E10.23661
G1 X33.798 Y95.165 E10.24201
G1 X32.872 Y95.55 E10.3298
G1 X32.847 Y95.565 E10.33235
G1 X31.63 Y96.304 E10.45699
M204 S3000
M205 X10 Y10
G0 F2400 X31.841 Y96.516
G0 X31.771 Y96.585
G0 X30.982 Y96.91
G0 X30.183 Y98.164
G0 X29.796 Y99.1
G0 X29.509 Y100.408
G0 X29.428 Y101.381
G0 X29.506 Y101.443
M204 S1800
M205 X8 Y8
G1 F1200 X29.828 Y102.826 E10.5813
G1 X29.836 Y102.858 E10.58419
G1 X30.222 Y103.794 E10.67282
G1 X30.235 Y103.816 E10.67505
G1 X30.989 Y105.027 E10.79994
G1 X34.097 Y101.919 E11.18471
G1 X33.903 Y101.45 E11.22914
G1 X29.506 Y101.443 E11.61406
M204 S3000
M205 X10 Y10
G0 F2400 X29.574 Y101.735
G0 X29.477 Y101.757
G0 X29.798 Y102.87
G0 X30.187 Y103.812
G0 X30.985 Y105.066
G0 X31.598 Y105.678
G0 X32.852 Y106.484
G0 X33.608 Y106.797
G0 X35.275 Y107.241
G0 X35.213 Y107.163
M204 S1800
M205 X8 Y8
G1 F1200 X35.213 Y102.762 E11.99932
G1 X34.744 Y102.568 E12.04375
G1 X31.637 Y105.674 E12.42834
G1 X32.847 Y106.435 E12.55347
G1 X32.87 Y106.449 E12.55583
G1 X33.798 Y106.833 E12.64375
G1 X33.826 Y106.839 E12.64626
G1 X35.213 Y107.163 E12.77094
M204 S3000
M205 X10 Y10
G0 F2400 X35.213 Y106.863
G0 X36.125 Y107.163
M204 S1800
M205 X8 Y8
G1 F1200 X37.508 Y106.841 E12.89525
G1 X37.541 Y106.833 E12.89822
G1 X38.469 Y106.439 E12.98648
G1 X38.485 Y106.429 E12.98813
G1 X39.69 Y105.66 E13.11327
G1 X36.592 Y102.564 E13.49668
G1 X36.123 Y102.758 E13.54111
G1 X36.125 Y107.163 E13.92673
M204 S3000
M205 X10 Y10
G0 F2400 X36.417 Y107.095
G0 X36.439 Y107.192
G0 X36.094 Y107.299
G0 X36.06 Y113.645
G0 X36.125 Y113.57
M204 S1800
M205 X8 Y8
G1 F1200 X38.522 Y113.207 E14.13895
G1 X38.534 Y113.205 E14.14002
G1 X40.463 Y112.582 E14.31747
G1 X42.267 Y111.657 E14.49495
G1 X44.217 Y110.195 E14.7083
G1 X39.806 Y105.777 E15.25482
G1 X39.779 Y105.795 E15.25665
G1 X38.58 Y106.577 E15.29431
G1 X38.536 Y106.595 E15.29645
G1 X37.607 Y106.988 E15.32302
G1 X37.548 Y107.013 E15.32568
G1 X36.159 Y107.316 E15.3626
G1 X36.125 Y107.324 E15.36566
G1 X36.125 Y113.57 E15.91244
M204 S3000
M205 X10 Y10
G0 F2400 X36.421 Y113.526
G0 X36.434 Y113.624
G0 X35.278 Y113.645
G0 X35.213 Y113.57
M204 S1800
M205 X8 Y8
G1 F1200 X35.213 Y107.324 E16.45922
G1 X35.18 Y107.317 E16.46111
G1 X33.787 Y107.012 E16.49834
G1 X33.734 Y106.99 E16.50078
G1 X32.806 Y106.606 E16.52737
G1 X32.754 Y106.584 E16.52978
G1 X31.55 Y105.806 E16.56721
G1 X31.523 Y105.788 E16.57005
G1 X27.111 Y110.205 E17.11657
G1 X29.059 Y111.647 E17.32874
G1 X29.074 Y111.658 E17.33037
G1 X30.877 Y112.582 E17.50772
G1 X32.804 Y113.205 E17.68501
G1 X32.817 Y113.207 E17.68616
G1 X35.213 Y113.57 E17.8983
M204 S3000
M205 X10 Y10
G0 F2400 X35.213 Y113.27
G0 X35.313 Y113.27
G0 X35.279 Y120.934
G0 X35.213 Y120.86
M204 S1800
M205 X8 Y8
G1 F1200 X35.213 Y120.548 E17.92561
G1 X35.213 Y120.547 E17.9257
G1 X35.213 Y113.818 E18.51476
G1 X35.178 Y113.813 E18.51699
G1 X32.78 Y113.461 E18.61193
G1 X32.728 Y113.445 E18.61507
G1 X30.799 Y112.825 E18.69528
G1 X30.779 Y112.818 E18.69663
G1 X30.762 Y112.809 E18.69831
G1 X28.959 Y111.881 E18.77822
G1 X28.907 Y111.854 E18.78148
G1 X26.963 Y110.402 E18.87673
G1 X26.934 Y110.38 E18.87992
G1 X22.184 Y115.146 E19.46897
G1 X21.964 Y115.367 E19.49627
G1 X22.208 Y115.561 E19.51338
G1 X24.441 Y117.34 E19.76331
G1 X26.827 Y118.749 E20.00588
G1 X29.384 Y119.809 E20.24819
G1 X32.066 Y120.503 E20.49071
G1 X34.902 Y120.825 E20.74057
G1 X35.213 Y120.86 E20.75776
M204 S3000
M205 X10 Y10
G0 F2400 X35.213 Y120.56
G0 X36.125 Y120.86
M204 S1800
M205 X8 Y8
G1 F1200 X36.437 Y120.823 E20.78526
G1 X39.267 Y120.486 E21.03475
G1 X41.948 Y119.793 E21.27716
G1 X44.505 Y118.733 E21.51948
G1 X46.891 Y117.326 E21.76196
G1 X49.124 Y115.545 E22.012
G1 X49.368 Y115.35 E22.03934
G1 X49.147 Y115.129 E22.05651
G1 X44.394 Y110.369 E22.64537
G1 X44.366 Y110.39 E22.64843
G1 X42.428 Y111.854 E22.74321
G1 X42.382 Y111.877 E22.74771
G1 X40.58 Y112.808 E22.82737
G1 X40.561 Y112.818 E22.82925
G1 X40.542 Y112.824 E22.83099
G1 X38.611 Y113.444 E22.91107
G1 X38.56 Y113.461 E22.9142
G1 X36.161 Y113.812 E23.00895
G1 X36.125 Y113.818 E23.01214
G1 X36.125 Y120.545 E23.60103
G1 X36.125 Y120.546 E23.60112
G1 X36.125 Y120.86 E23.61834
M204 S3000
M205 X10 Y10
G0 F2400 X36.423 Y120.825
G0 X36.433 Y120.924
G0 X36.099 Y120.889
G0 X35.243 Y113.792
G0 X30.794 Y112.782
G0 X28.046 Y111.111
G0 X26.456 Y109.652
G0 X26.463 Y109.553
M204 S1800
M205 X8 Y8
G1 F1200 X30.876 Y105.14 E24.16468
G1 X30.858 Y105.112 E24.16759
G1 X30.087 Y103.909 E24.20448
G1 X30.067 Y103.86 E24.2067
G1 X29.678 Y102.924 E24.23361
G1 X29.654 Y102.866 E24.23621
G1 X29.353 Y101.477 E24.27334
G1 X29.345 Y101.44 E24.27666
G1 X23.105 Y101.44 E24.82291
G1 X23.468 Y103.839 E25.03531
G1 X23.47 Y103.851 E25.03638
G1 X24.091 Y105.782 E25.21394
G1 X25.015 Y107.587 E25.39146
G1 X25.022 Y107.597 E25.39252
G1 X26.463 Y109.553 E25.6052
M204 S3000
M205 X10 Y10
G0 F2400 X26.675 Y109.341
G0 X26.744 Y109.412
G0 X21.314 Y114.819
G0 X21.319 Y114.72
M204 S1800
M205 X8 Y8
G1 F1200 X21.54 Y114.498 E25.63263
G1 X26.287 Y109.73 E26.22161
G1 X26.265 Y109.701 E26.22391
G1 X24.817 Y107.75 E26.31927
G1 X24.793 Y107.702 E26.32238
G1 X23.864 Y105.897 E26.40242
G1 X23.855 Y105.88 E26.40411
G1 X23.849 Y105.86 E26.40594
G1 X23.231 Y103.929 E26.48596
G1 X23.214 Y103.877 E26.48915
G1 X22.864 Y101.475 E26.58385
G1 X22.859 Y101.445 E26.58651
G1 X16.142 Y101.457 E27.17452
G1 X16.141 Y101.457 E27.17461
G1 X15.83 Y101.457 E27.20184
G1 X15.865 Y101.767 E27.21896
G1 X16.186 Y104.607 E27.46916
G1 X16.88 Y107.291 E27.71184
G1 X17.938 Y109.852 E27.95441
G1 X19.345 Y112.24 E28.19705
G1 X21.124 Y114.475 E28.44712
G1 X21.319 Y114.72 E28.4643
M204 S3000
M205 X10 Y10
G0 F2400 X21.53 Y114.508
G0 X21.599 Y114.579
G0 X31.519 Y105.749
G0 X33.496 Y106.854
G0 X35.237 Y107.194
G0 X36.09 Y102.736
G0 X36.599 Y102.525
G0 X40.341 Y105.058
G0 X41.148 Y103.82
G0 X41.462 Y103.061
G0 X41.905 Y101.395
G0 X41.827 Y101.457
M204 S1800
M205 X8 Y8
G1 F1200 X37.43 Y101.445 E28.84922
G1 X37.234 Y101.915 E28.8938
G1 X40.337 Y105.019 E29.27802
G1 X41.1 Y103.822 E29.40228
G1 X41.113 Y103.802 E29.40437
G1 X41.498 Y102.87 E29.49264
G1 X41.503 Y102.845 E29.49488
G1 X41.827 Y101.457 E29.61965
M204 S3000
M205 X10 Y10
G0 F2400 X41.527 Y101.457
G0 X41.829 Y100.543
M204 S1800
M205 X8 Y8
G1 F1200 X41.501 Y99.148 E29.7451
G1 X41.494 Y99.119 E29.74771
G1 X41.106 Y98.182 E29.83649
G1 X41.093 Y98.16 E29.83873
G1 X40.338 Y96.948 E29.96373
G1 X37.235 Y100.063 E30.34863
G1 X37.429 Y100.531 E30.39298
G1 X41.829 Y100.543 E30.77816
M204 S3000
M205 X10 Y10
G0 F2400 X41.761 Y100.251
G0 X41.858 Y100.23
G0 X41.532 Y99.107
G0 X41.141 Y98.164
G0 X40.422 Y97.035
G0 X39.796 Y96.295
G0 X39.697 Y96.306
M204 S1800
M205 X8 Y8
G1 F1200 X38.491 Y95.565 E30.90207
G1 X38.468 Y95.551 E30.90442
G1 X37.54 Y95.165 E30.99241
G1 X37.512 Y95.159 E30.99492
G1 X36.125 Y94.835 E31.1196
G1 X36.123 Y99.226 E31.50399
G1 X36.593 Y99.42 E31.54851
G1 X39.697 Y96.306 E31.9334
M204 S3000
M205 X10 Y10
G0 F2400 X39.442 Y96.149
G0 X39.495 Y96.065
G0 X39.815 Y96.231
G0 X44.872 Y92.32
G0 X44.865 Y92.419
M204 S1800
M205 X8 Y8
G1 F1200 X40.452 Y96.834 E32.47986
G1 X40.47 Y96.862 E32.48278
G1 X41.242 Y98.066 E32.52006
G1 X41.263 Y98.116 E32.52241
G1 X41.65 Y99.054 E32.54933
G1 X41.673 Y99.108 E32.55177
G1 X41.98 Y100.511 E32.58891
G1 X41.987 Y100.542 E32.59169
G1 X48.226 Y100.542 E33.13785
G1 X47.867 Y98.145 E33.35003
G1 X47.864 Y98.131 E33.35128
G1 X47.241 Y96.2 E33.5289
G1 X46.315 Y94.39 E33.70688
G1 X46.304 Y94.375 E33.70851
G1 X44.865 Y92.419 E33.92109
M204 S3000
M205 X10 Y10
G0 F2400 X44.653 Y92.631
G0 X44.584 Y92.56
G0 X50.02 Y87.163
G0 X50.015 Y87.262
M204 S1800
M205 X8 Y8
G1 F1200 X49.794 Y87.484 E33.94851
G1 X45.041 Y92.241 E34.53719
G1 X45.063 Y92.271 E34.54044
G1 X46.51 Y94.222 E34.63601
G1 X46.537 Y94.275 E34.63936
G1 X47.467 Y96.085 E34.71936
G1 X47.477 Y96.104 E34.72124
G1 X47.482 Y96.122 E34.72288
G1 X48.101 Y98.054 E34.80248
G1 X48.118 Y98.107 E34.80566
G1 X48.471 Y100.506 E34.90043
G1 X48.477 Y100.542 E34.90362
G1 X55.197 Y100.542 E35.4919
G1 X55.198 Y100.542 E35.49198
G1 X55.51 Y100.542 E35.5193
G1 X55.475 Y100.231 E35.53649
G1 X55.154 Y97.391 E35.78668
G1 X54.46 Y94.705 E36.02954
G1 X53.394 Y92.132 E36.27335
G1 X51.987 Y89.744 E36.51598
G1 X50.21 Y87.507 E36.76608
G1 X50.015 Y87.262 E36.78326
M204 S3000
M205 X10 Y10
G0 F2400 X49.804 Y87.474
G0 X49.368 Y86.618
M204 S1800
M205 X8 Y8
G1 F1200 X49.124 Y86.423 E36.81061
G1 X46.891 Y84.642 E37.06065
G1 X44.505 Y83.235 E37.30313
G1 X41.948 Y82.175 E37.54544
G1 X39.266 Y81.481 E37.78796
G1 X36.435 Y81.171 E38.03727
G1 X36.125 Y81.138 E38.06456
G1 X36.125 Y81.449 E38.08165
G1 X36.125 Y81.45 E38.08174
G1 X36.121 Y88.171 E38.6701
G1 X36.152 Y88.175 E38.67284
G1 X38.552 Y88.521 E38.88511
G1 X38.605 Y88.538 E38.88998
G1 X40.535 Y89.158 E39.06744
G1 X40.553 Y89.164 E39.0691
G1 X40.572 Y89.174 E39.07098
G1 X42.372 Y90.101 E39.24822
G1 X42.421 Y90.126 E39.25304
G1 X44.367 Y91.573 E39.46532
G1 X44.396 Y91.595 E39.46851
G1 X49.147 Y86.839 E40.057
G1 X49.368 Y86.618 E40.07416
M204 S3000
M205 X10 Y10
G0 F2400 X49.134 Y86.431
G0 X49.197 Y86.354
G0 X53.77 Y79.259
G0 X53.772 Y79.16
M204 S1800
M205 X8 Y8
G1 F1200 X54.393 Y79.192 E40.1286
G1 X55.01 Y79.26 E40.18294
G1 X55.554 Y79.364 E40.23142
G1 X56.034 Y79.517 E40.27553
G1 X56.407 Y79.7 E40.3119
G1 X56.732 Y79.953 E40.34795
G1 X56.985 Y80.278 E40.38401
G1 X57.183 Y80.685 E40.42363
G1 X57.33 Y81.165 E40.46757
G1 X57.433 Y81.724 E40.51733
G1 X57.495 Y82.316 E40.56944
G1 X57.527 Y82.98 E40.62764
G1 X57.527 Y119.19 E43.79748
G1 X57.495 Y119.851 E43.85542
G1 X57.433 Y120.446 E43.90778
G1 X57.33 Y121.005 E43.95754
G1 X57.183 Y121.485 E44.00149
G1 X56.985 Y121.892 E44.04111
G1 X56.732 Y122.217 E44.07717
G1 X56.407 Y122.47 E44.11322
G1 X56.008 Y122.665 E44.1521
G1 X55.52 Y122.814 E44.19676
G1 X54.962 Y122.918 E44.24645
G1 X54.84 Y122.931 E44.25719
G1 X16.404 Y122.93 E47.62191
G1 X16.286 Y122.918 E47.63229
G1 X15.725 Y122.813 E47.68225
G1 X15.242 Y122.667 E47.72643
G1 X14.836 Y122.467 E47.76604
G1 X14.515 Y122.218 E47.80161
G1 X14.261 Y121.892 E47.83779
G1 X14.064 Y121.488 E47.87713
G1 X13.918 Y121.004 E47.92139
G1 X13.813 Y120.444 E47.97127
G1 X13.752 Y119.854 E48.02319
G1 X13.755 Y82.278 E51.31262
G1 X13.82 Y81.682 E51.3651
G1 X13.927 Y81.138 E51.41364
G1 X14.079 Y80.651 E51.4583
G1 X14.261 Y80.278 E51.49463
G1 X14.515 Y79.952 E51.53081
G1 X14.836 Y79.703 E51.56637
G1 X15.245 Y79.502 E51.60627
G1 X15.724 Y79.355 E51.65013
G1 X16.282 Y79.252 E51.6998
G1 X16.878 Y79.19 E51.75226
G1 X17.537 Y79.158 E51.81001
G1 X53.772 Y79.16 E54.98205
M204 S3000
M205 X10 Y10
G0 F2400 X54.072 Y79.175
G0 X54.067 Y79.275
G0 X36.099 Y81.109
G0 X36.054 Y88.339
G0 X36.119 Y88.414
M204 S1800
M205 X8 Y8
G1 F1200 X36.123 Y94.669 E55.52962
G1 X36.159 Y94.677 E55.53285
G1 X37.551 Y94.986 E55.57052
G1 X37.604 Y95.008 E55.57295
G1 X38.534 Y95.392 E55.5998
G1 X38.584 Y95.413 E55.60213
G1 X39.781 Y96.173 E55.63928
G1 X39.811 Y96.192 E55.64239
G1 X44.219 Y91.772 E56.18885
G1 X42.269 Y90.332 E56.28432
G1 X42.258 Y90.324
G1 X40.457 Y89.4 E56.3639
G1 X38.528 Y88.779 E56.44418
G1 X38.515 Y88.777
G1 X36.119 Y88.414 E56.53865
M204 S3000
M205 X10 Y10
G0 F2400 X36.119 Y88.714
G0 X35.207 Y88.414
M204 S1800
M205 X8 Y8
G1 F1200 X32.812 Y88.776 E56.63256
G1 X32.798 Y88.779
G1 X30.869 Y89.4 E56.71268
G1 X29.066 Y90.324 E56.79217
G1 X27.107 Y91.773 E56.88831
G1 X31.519 Y96.191 E57.43489
G1 X31.546 Y96.174 E57.43769
G1 X32.754 Y95.414 E57.47473
G1 X32.806 Y95.393 E57.47707
G1 X33.736 Y95.012 E57.50348
G1 X33.818 Y94.978 E57.50668
G1 X35.178 Y94.677 E57.54348
G1 X35.211 Y94.669 E57.54645
G1 X35.207 Y88.414 E58.09402
M204 S3000
M205 X10 Y10
G0 F2400 X34.911 Y88.458
G0 X34.898 Y88.36
G0 X35.233 Y88.384
G0 X36.092 Y94.694
G0 X38.566 Y95.448
G0 X40.413 Y96.83
G0 X41.635 Y99.119
G0 X41.962 Y100.573
G0 X48.301 Y101.391
G0 X48.226 Y101.456
M204 S1800
M205 X8 Y8
G1 F1200 X41.987 Y101.456 E58.64018
G1 X41.98 Y101.489 E58.64314
G1 X41.677 Y102.884 E58.68046
G1 X41.656 Y102.934 E58.68282
G1 X41.271 Y103.867 E58.7097
G1 X41.25 Y103.917 E58.71211
G1 X40.471 Y105.106 E58.74951
G1 X40.452 Y105.134 E58.75247
G1 X44.865 Y109.55 E59.29899
G1 X46.317 Y107.602 E59.51168
G1 X47.241 Y105.798 E59.68911
G1 X47.864 Y103.867 E59.86673
G1 X47.865 Y103.855 E59.86779
G1 X48.226 Y101.456 E60.08016
M204 S3000
M205 X10 Y10
G0 F2400 X47.926 Y101.456
G0 X47.926 Y101.356
G0 X55.584 Y101.39
G0 X55.51 Y101.456
M204 S1800
M205 X8 Y8
G1 F1200 X55.198 Y101.456 E60.10747
G1 X55.197 Y101.456 E60.10756
G1 X48.477 Y101.456 E60.69583
G1 X48.472 Y101.491 E60.69893
G1 X48.118 Y103.891 E60.79436
G1 X48.102 Y103.942 E60.79746
G1 X47.484 Y105.874 E60.87728
G1 X47.477 Y105.894 E60.87862
G1 X47.467 Y105.913 E60.8805
G1 X46.539 Y107.717 E60.96029
G1 X46.517 Y107.759 E60.9633
G1 X45.06 Y109.695 E61.05727
G1 X45.039 Y109.723 E61.06034
G1 X49.796 Y114.489 E61.64982
G1 X50.016 Y114.709 E61.67705
G1 X50.211 Y114.466 E61.69418
