;FLAVOR:Marlin
;TIME:3375
;Filament used: 5.43903m
;Layer height: 0.3
;MINX:-54.36
;MINY:-30.76
;MINZ:0.3
;MAXX:54.36
;MAXY:30.76
;MAXZ:21.3
;Generated with Cura_SteamEngine 4.10.0
M140 S60
M105
M190 S60
M104 S205
M105
M109 S205
M82 ;absolute extrusion mode
G21        ;metric values
G90        ;absolute positioning
M107       ;start with the fan off
G28   ;move to endstops

;Z-Offset Reset und dann Z +0,1 für PLA
;MacroZOffset0
;MacroZOffsetPlus0100

G92 E0                  ;zero the extruded length
G1 F200 E3              ;extrude 3mm of feed stock
G92 E0                  ;zero the extruded length again
G1 F120
;Put printing message on LCD screen
M117 Printing...
G92 E0
G92 E0
G1 F2400 E-6
;LAYER_COUNT:71
;LAYER:0
M107
G0 F1200 X53.432 Y6.466 Z0.3
;TYPE:SKIRT
G1 F2400 E0
G1 F600 X53.201 Y9.184 E0.28579
G1 X53.047 Y11.875 E0.56819
G1 X52.97 Y14.573 E0.85097
G1 X52.96 Y15.984 E0.9988
G1 X52.96 Y25.828 E2.03015
G1 X52.949 Y26.555 E2.10633
G1 X52.9 Y27.137 E2.16752
G1 X52.772 Y27.706 E2.22862
G1 X52.568 Y28.253 E2.28979
G1 X52.291 Y28.766 E2.35087
G1 X51.946 Y29.237 E2.41204
G1 X51.54 Y29.656 E2.47316
G1 X51.081 Y30.016 E2.53428
G1 X50.577 Y30.31 E2.59541
G1 X50.037 Y30.532 E2.65658
G1 X49.473 Y30.678 E2.71762
G1 X48.809 Y30.749 E2.78758
G1 X48.37 Y30.76 E2.83359
G1 X-48.248 Y30.76 E12.9562
G1 X-48.946 Y30.751 E13.02934
G1 X-49.527 Y30.703 E13.09042
G1 X-50.097 Y30.577 E13.15158
G1 X-50.644 Y30.374 E13.2127
G1 X-51.158 Y30.098 E13.27383
G1 X-51.63 Y29.754 E13.33502
G1 X-52.05 Y29.349 E13.39615
G1 X-52.411 Y28.891 E13.45725
G1 X-52.706 Y28.388 E13.51834
G1 X-52.929 Y27.849 E13.57945
G1 X-53.077 Y27.284 E13.64064
G1 X-53.149 Y26.606 E13.71208
G1 X-53.16 Y26.158 E13.75903
G1 X-53.16 Y14.792 E14.94984
G1 X-53.199 Y12.004 E15.24196
G1 X-53.314 Y9.312 E15.52426
G1 X-53.504 Y6.622 E15.80679
G1 X-53.772 Y3.923 E16.09096
G1 X-54.127 Y1.157 E16.38312
G1 X-54.308 Y-.107 E16.5169
G1 X-54.358 Y-.91 E16.6012
G1 X-54.36 Y-1.03 E16.61377
G1 X-54.36 Y-25.884 E19.21771
G1 X-54.351 Y-26.549 E19.28739
G1 X-54.303 Y-27.13 E19.34847
G1 X-54.176 Y-27.7 E19.40965
G1 X-53.973 Y-28.246 E19.47068
G1 X-53.696 Y-28.76 E19.53185
G1 X-53.352 Y-29.232 E19.59304
G1 X-52.947 Y-29.652 E19.65417
G1 X-52.489 Y-30.012 E19.71521
G1 X-51.985 Y-30.307 E19.77639
G1 X-51.446 Y-30.53 E19.8375
G1 X-50.881 Y-30.677 E19.89867
G1 X-50.21 Y-30.749 E19.96937
G1 X-49.77 Y-30.76 E20.01549
G1 X49.454 Y-30.76 E30.41113
G1 X50.152 Y-30.75 E30.48426
G1 X50.733 Y-30.701 E30.54535
G1 X51.303 Y-30.574 E30.60653
G1 X51.85 Y-30.37 E30.6677
G1 X52.363 Y-30.093 E30.72878
G1 X52.834 Y-29.749 E30.78989
G1 X53.254 Y-29.344 E30.85101
G1 X53.614 Y-28.885 E30.91213
G1 X53.908 Y-28.381 E30.97326
G1 X54.131 Y-27.842 E31.03437
G1 X54.278 Y-27.277 E31.09554
G1 X54.349 Y-26.61 E31.16582
G1 X54.36 Y-26.17 E31.21193
G1 X54.36 Y-1.362 E33.81105
G1 X54.349 Y-.627 E33.88806
G1 X54.297 Y-0.029 E33.95095
G1 X54.12 Y1.097 E34.07037
G1 X53.741 Y3.756 E34.35177
G1 X53.432 Y6.466 E34.63753
G0 F1200 X52.597 Y6.372
G1 F600 X52.362 Y9.132 E34.92774
G1 X52.209 Y11.805 E35.20825
G1 X52.129 Y14.612 E35.50246
G1 X52.12 Y15.978 E35.64558
G1 X52.12 Y25.816 E36.6763
G1 X52.109 Y26.543 E36.75247
G1 X52.061 Y27.063 E36.80718
G1 X51.934 Y27.57 E36.86194
G1 X51.732 Y28.052 E36.9167
G1 X51.458 Y28.498 E36.97154
G1 X51.12 Y28.896 E37.02625
G1 X50.725 Y29.239 E37.08105
G1 X50.283 Y29.517 E37.13576
G1 X49.803 Y29.724 E37.19053
G1 X49.297 Y29.856 E37.24531
G1 X48.785 Y29.91 E37.29925
G1 X48.37 Y29.92 E37.34275
G1 X-48.237 Y29.92 E47.46421
G1 X-48.935 Y29.911 E47.53734
G1 X-49.456 Y29.864 E47.59215
G1 X-49.963 Y29.739 E47.64686
G1 X-50.445 Y29.537 E47.70161
G1 X-50.892 Y29.265 E47.75643
G1 X-51.291 Y28.928 E47.81115
G1 X-51.634 Y28.533 E47.86596
G1 X-51.913 Y28.092 E47.92063
G1 X-52.122 Y27.612 E47.97548
G1 X-52.255 Y27.107 E48.03019
G1 X-52.31 Y26.583 E48.08539
G1 X-52.32 Y26.158 E48.12993
G1 X-52.32 Y14.78 E49.322
G1 X-52.359 Y11.992 E49.61413
G1 X-52.476 Y9.254 E49.90125
G1 X-52.667 Y6.549 E50.18535
G1 X-52.936 Y3.837 E50.47088
G1 X-53.302 Y0.989 E50.77172
G1 X-53.476 Y-.226 E50.90031
G1 X-53.519 Y-.934 E50.97463
G1 X-53.52 Y-25.872 E53.58737
G1 X-53.511 Y-26.537 E53.65704
G1 X-53.464 Y-27.058 E53.71185
G1 X-53.338 Y-27.565 E53.76659
G1 X-53.136 Y-28.047 E53.82134
G1 X-52.864 Y-28.493 E53.87607
G1 X-52.526 Y-28.892 E53.93086
G1 X-52.132 Y-29.235 E53.98559
G1 X-51.69 Y-29.514 E54.04035
G1 X-51.21 Y-29.723 E54.0952
G1 X-50.705 Y-29.855 E54.14988
G1 X-50.187 Y-29.91 E54.20446
G1 X-49.77 Y-29.92 E54.24816
G1 X49.442 Y-29.92 E64.64255
G1 X50.14 Y-29.91 E64.71568
G1 X50.661 Y-29.862 E64.7705
G1 X51.168 Y-29.736 E64.82523
G1 X51.65 Y-29.534 E64.87999
G1 X52.095 Y-29.261 E64.93468
G1 X52.494 Y-28.923 E64.98947
G1 X52.837 Y-28.529 E65.0442
G1 X53.116 Y-28.086 E65.09905
G1 X53.324 Y-27.607 E65.15376
G1 X53.456 Y-27.101 E65.20855
G1 X53.51 Y-26.586 E65.2628
G1 X53.52 Y-26.17 E65.3064
G1 X53.52 Y-1.375 E67.90416
G1 X53.509 Y-.64 E67.98117
G1 X53.468 Y-.16 E68.03164
G1 X53.291 Y0.966 E68.15106
G1 X52.903 Y3.686 E68.43892
G1 X52.597 Y6.372 E68.72215
G1 F2400 E62.72215
;MESH:CR2032-Organizer.stl
G0 F1200 X49.365 Y6.372
G0 X47.42 Y6.372
G0 X47.37 Y4.63
G0 X47.44 Y4.56
;TYPE:WALL-INNER
G1 F2400 E68.72215
G1 F600 X47.44 Y25.24 E70.88878
G1 X-47.64 Y25.24 E80.85026
G1 X-47.64 Y4.56 E83.01689
G1 X47.44 Y4.56 E92.97837
G0 F1200 X47.37 Y4.63
G0 X48.18 Y3.82
;TYPE:WALL-OUTER
G1 F600 X48.18 Y25.98 E95.30006
G1 X-48.38 Y25.98 E105.41659
G1 X-48.38 Y3.82 E107.73828
G1 X48.18 Y3.82 E117.85482
G0 F1200 X48.18 Y4.22
G0 X47.37 Y4.63
G0 X46.61 Y5.39
;TYPE:SKIN
G1 F600 X46.61 Y24.41 E119.84753
G1 X-46.81 Y24.41 E129.63509
G1 X-46.81 Y5.39 E131.62781
G1 X46.61 Y5.39 E141.41537
G0 F1200 X45.799 Y6.597
G1 F600 X45.401 Y6.199 E141.47434
G1 X45.799 Y6.199 E141.51604
G0 F1200 X45.401 Y6.199
G1 F600 X44.213 Y6.199 E141.6405
G1 X45.799 Y7.785 E141.87549
G1 X45.799 Y8.973 E141.99996
G1 X43.026 Y6.199 E142.4109
G1 X41.838 Y6.199 E142.53537
G1 X45.799 Y10.161 E143.12233
G1 X45.799 Y11.349 E143.24679
G1 X40.65 Y6.199 E144.00977
G1 X39.462 Y6.199 E144.13424
G1 X45.799 Y12.537 E145.07325
G1 X45.799 Y13.724 E145.19761
G1 X38.274 Y6.199 E146.31256
G1 X37.086 Y6.199 E146.43702
G1 X45.799 Y14.912 E147.728
G1 X45.799 Y16.1 E147.85246
G1 X35.898 Y6.199 E149.31946
G1 X34.71 Y6.199 E149.44392
G1 X45.799 Y17.288 E151.08694
G1 X45.799 Y18.476 E151.21141
G1 X33.522 Y6.199 E153.03045
G1 X32.334 Y6.199 E153.15491
G1 X45.799 Y19.664 E155.14997
G1 X45.799 Y20.852 E155.27444
G1 X31.146 Y6.199 E157.44552
G1 X29.958 Y6.199 E157.56999
G1 X45.799 Y22.04 E159.91709
G1 X45.799 Y23.228 E160.04155
G1 X28.77 Y6.199 E162.56468
G1 X27.582 Y6.199 E162.68914
G1 X44.982 Y23.599 E165.26724
G1 X43.794 Y23.599 E165.39171
G1 X26.394 Y6.199 E167.9698
G1 X25.206 Y6.199 E168.09427
G1 X42.606 Y23.599 E170.67236
G1 X41.418 Y23.599 E170.79683
G1 X24.019 Y6.199 E173.37485
G1 X22.831 Y6.199 E173.49931
G1 X40.23 Y23.599 E176.07733
G1 X39.042 Y23.599 E176.2018
G1 X21.643 Y6.199 E178.77982
G1 X20.455 Y6.199 E178.90429
G1 X37.854 Y23.599 E181.48231
G1 X36.667 Y23.599 E181.60667
G1 X19.267 Y6.199 E184.18476
G1 X18.079 Y6.199 E184.30923
G1 X35.479 Y23.599 E186.88732
G1 X34.291 Y23.599 E187.01179
G1 X16.891 Y6.199 E189.58988
G1 X15.703 Y6.199 E189.71435
G1 X33.103 Y23.599 E192.29244
G1 X31.915 Y23.599 E192.41691
G1 X14.515 Y6.199 E194.995
G1 X13.327 Y6.199 E195.11947
G1 X30.727 Y23.599 E197.69756
G1 X29.539 Y23.599 E197.82203
G1 X12.139 Y6.199 E200.40012
G1 X10.951 Y6.199 E200.52459
G1 X28.351 Y23.599 E203.10268
G1 X27.163 Y23.599 E203.22715
G1 X9.763 Y6.199 E205.80524
G1 X8.575 Y6.199 E205.92971
G1 X25.975 Y23.599 E208.50781
G1 X24.787 Y23.599 E208.63227
G1 X7.387 Y6.199 E211.21037
G1 X6.199 Y6.199 E211.33483
G1 X23.599 Y23.599 E213.91293
G1 X22.411 Y23.599 E214.03739
G1 X5.011 Y6.199 E216.61549
G1 X3.824 Y6.199 E216.73985
G1 X21.223 Y23.599 E219.31787
G1 X20.035 Y23.599 E219.44233
G1 X2.636 Y6.199 E222.02035
G1 X1.448 Y6.199 E222.14482
G1 X18.847 Y23.599 E224.72284
G1 X17.659 Y23.599 E224.84731
G1 X0.26 Y6.199 E227.42533
G1 X-.927 Y6.199 E227.54969
G1 X16.472 Y23.599 E230.12771
G1 X15.284 Y23.599 E230.25217
G1 X-2.115 Y6.199 E232.8302
G1 X-3.303 Y6.199 E232.95466
G1 X14.096 Y23.599 E235.53268
G1 X12.908 Y23.599 E235.65715
G1 X-4.491 Y6.199 E238.23517
G1 X-5.679 Y6.199 E238.35963
G1 X11.72 Y23.599 E240.93765
G1 X10.532 Y23.599 E241.06212
G1 X-6.867 Y6.199 E243.64014
G1 X-8.055 Y6.199 E243.76461
G1 X9.344 Y23.599 E246.34263
G1 X8.156 Y23.599 E246.46709
G1 X-9.243 Y6.199 E249.04511
G1 X-10.431 Y6.199 E249.16958
G1 X6.968 Y23.599 E251.7476
G1 X5.78 Y23.599 E251.87207
G1 X-11.619 Y6.199 E254.45009
G1 X-12.807 Y6.199 E254.57455
G1 X4.592 Y23.599 E257.15257
G1 X3.404 Y23.599 E257.27704
G1 X-13.995 Y6.199 E259.85506
G1 X-15.182 Y6.199 E259.97942
G1 X2.216 Y23.599 E262.55737
G1 X1.028 Y23.599 E262.68183
G1 X-16.37 Y6.199 E265.25978
G1 X-17.558 Y6.199 E265.38424
G1 X-.159 Y23.599 E267.96226
G1 X-1.347 Y23.599 E268.08673
G1 X-18.746 Y6.199 E270.66475
G1 X-19.934 Y6.199 E270.78922
G1 X-2.534 Y23.599 E273.36731
G1 X-3.722 Y23.599 E273.49178
G1 X-21.122 Y6.199 E276.06987
G1 X-22.31 Y6.199 E276.19434
G1 X-4.91 Y23.599 E278.77243
G1 X-6.098 Y23.599 E278.8969
G1 X-23.498 Y6.199 E281.47499
G1 X-24.686 Y6.199 E281.59946
G1 X-7.286 Y23.599 E284.17755
G1 X-8.474 Y23.599 E284.30202
G1 X-25.874 Y6.199 E286.88011
G1 X-27.062 Y6.199 E287.00458
G1 X-9.662 Y23.599 E289.58267
G1 X-10.85 Y23.599 E289.70714
G1 X-28.25 Y6.199 E292.28523
G1 X-29.438 Y6.199 E292.4097
G1 X-12.038 Y23.599 E294.98779
G1 X-13.226 Y23.599 E295.11226
G1 X-30.626 Y6.199 E297.69036
G1 X-31.814 Y6.199 E297.81482
G1 X-14.414 Y23.599 E300.39292
G1 X-15.602 Y23.599 E300.51738
G1 X-33.002 Y6.199 E303.09548
G1 X-34.19 Y6.199 E303.21994
G1 X-16.79 Y23.599 E305.79804
G1 X-17.978 Y23.599 E305.9225
G1 X-35.377 Y6.199 E308.50052
G1 X-36.565 Y6.199 E308.62499
G1 X-19.166 Y23.599 E311.20301
G1 X-20.354 Y23.599 E311.32748
G1 X-37.753 Y6.199 E313.9055
G1 X-38.941 Y6.199 E314.02996
G1 X-21.542 Y23.599 E316.60798
G1 X-22.729 Y23.599 E316.73234
G1 X-40.129 Y6.199 E319.31044
G1 X-41.317 Y6.199 E319.4349
G1 X-23.917 Y23.599 E322.013
G1 X-25.105 Y23.599 E322.13746
G1 X-42.505 Y6.199 E324.71556
G1 X-43.693 Y6.199 E324.84002
G1 X-26.293 Y23.599 E327.41812
G1 X-27.481 Y23.599 E327.54259
G1 X-44.881 Y6.199 E330.12068
G1 X-45.998 Y6.199 E330.23771
G1 X-45.999 Y6.269 E330.24504
G1 X-28.669 Y23.599 E332.81276
G1 X-29.857 Y23.599 E332.93723
G1 X-45.999 Y7.457 E335.32893
G1 X-45.999 Y8.645 E335.4534
G1 X-31.045 Y23.599 E337.66908
G1 X-32.233 Y23.599 E337.79354
G1 X-45.999 Y9.833 E339.8332
G1 X-45.999 Y11.021 E339.95767
G1 X-33.421 Y23.599 E341.8213
G1 X-34.609 Y23.599 E341.94577
G1 X-45.999 Y12.209 E343.63338
G1 X-45.999 Y13.397 E343.75785
G1 X-35.797 Y23.599 E345.26944
G1 X-36.985 Y23.599 E345.39391
G1 X-45.999 Y14.585 E346.72948
G1 X-45.999 Y15.773 E346.85395
G1 X-38.173 Y23.599 E348.0135
G1 X-39.361 Y23.599 E348.13796
G1 X-45.999 Y16.961 E349.12149
G1 X-45.999 Y18.149 E349.24596
G1 X-40.549 Y23.599 E350.05346
G1 X-41.736 Y23.599 E350.17782
G1 X-45.999 Y19.337 E350.80938
G1 X-45.999 Y20.525 E350.93385
G1 X-42.924 Y23.599 E351.38939
G1 X-44.112 Y23.599 E351.51385
G1 X-45.999 Y21.713 E351.79337
G1 X-45.999 Y22.901 E351.91784
G1 X-45.3 Y23.599 E352.02133
G1 X-45.999 Y23.599 E352.09456
G1 F2400 E346.09456
G0 F1200 X-39.787 Y4.58
G0 X-39.787 Y2.635
G0 X-40.551 Y-0.035
G0 X-40.551 Y-6.978
G0 X-39.787 Y-8.662
;TYPE:WALL-INNER
G1 F2400 E352.09456
G1 F600 X-39.895 Y-8.496 E352.11531
G1 X-40.765 Y-7.163 E352.28208
G1 X-41.05 Y-6.908 E352.32215
G1 X-41.363 Y-6.766 E352.35816
G1 X-41.781 Y-6.71 E352.40234
G1 X-42.114 Y-6.74 E352.43737
G1 X-42.378 Y-6.82 E352.46627
G1 X-42.595 Y-6.945 E352.49251
G1 X-42.791 Y-7.128 E352.52061
G1 X-42.965 Y-7.377 E352.55243
G1 X-43.098 Y-7.685 E352.58758
G1 X-43.187 Y-8.072 E352.62918
G1 X-43.221 Y-8.562 E352.68065
G1 X-43.189 Y-9.051 E352.73199
G1 X-43.103 Y-9.44 E352.77373
G1 X-42.975 Y-9.741 E352.80799
G1 X-42.822 Y-9.963 E352.83624
G1 X-42.648 Y-10.123 E352.86101
G1 X-42.446 Y-10.236 E352.88526
G1 X-42.167 Y-10.316 E352.91567
G1 X-41.81 Y-10.347 E352.95321
G1 X-41.361 Y-10.294 E353.00058
G1 X-41.068 Y-10.173 E353.03379
G1 X-40.792 Y-9.908 E353.07388
G1 X-40.202 Y-8.696 E353.2151
G1 X-39.839 Y-8.816 E353.23535
G1 X-38.613 Y-9.223 E353.37069
G1 X-38.613 Y-8.075 E353.49097
G1 X-39.787 Y-8.662 E353.62848
G1 F2400 E347.62848
G0 F1200 X-38.323 Y-7.606
G0 X-31.46 Y-7.54
G0 X-30.419 Y-6.982
G1 F2400 E353.62848
G1 F600 X-30.577 Y-6.719 E353.66063
G1 X-30.65 Y-6.829
G1 X-31.063 Y-7.457 E353.73354
G1 X-31.037 Y-7.474
G1 X-30.964 Y-7.545 E353.74421
G1 X-30.594 Y-7.902 E353.79808
G1 X-30.53 Y-7.993 E353.80973
G1 X-30.241 Y-8.404 E353.86237
G1 X-30.177 Y-8.546 E353.87869
G1 X-29.989 Y-8.958 E353.92614
G1 X-29.929 Y-9.2 E353.95226
G1 X-29.199 Y-9.133 E354.02906
G1 X-28.963 Y-9.112 E354.05389
G1 X-28.536 Y-9.072 E354.09882
G1 X-28.333 Y-9.053 E354.12018
G1 X-28.554 Y-8.876 E354.12892
G1 X-29.02 Y-8.483 E354.16723
G1 X-29.195 Y-8.324 E354.18917
G1 X-29.453 Y-8.088 E354.2258
G1 X-29.563 Y-7.973 E354.24248
G1 X-29.67 Y-7.861 E354.2582
G1 X-29.939 Y-7.578 E354.29435
G1 X-30.038 Y-7.455 E354.30883
G1 X-30.419 Y-6.982 E354.35833
G0 F1200 X-27.388 Y-9.915
G1 F600 X-27.695 Y-9.601 E354.40434
G1 X-27.624 Y-9.961 E354.40803
G1 X-27.568 Y-10.245 E354.43449
G1 X-27.563 Y-10.268 E354.43695
G1 X-27.517 Y-10.348 E354.44662
G1 X-27.425 Y-10.355 E354.44873
G1 X-27.24 Y-10.371 E354.46819
G1 X-27.205 Y-10.375 E354.47188
G1 X-27.209 Y-10.322
G1 X-27.217 Y-10.237 E354.47527
G1 X-27.223 Y-10.177
G1 X-27.228 Y-10.168
G1 X-27.278 Y-10.089
G1 X-27.388 Y-9.915 E354.4799
G0 F1200 X-30.485 Y-9.969
G0 X-30.272 Y-11.056
G0 X-30.21 Y-12.339
G0 X-29.216 Y-13.143
G0 X-27.983 Y-13.534
G0 X-26.63 Y-13.536
G0 X-25.357 Y-13.137
G0 X-24.358 Y-12.259
G0 X-24.413 Y-10.935
G0 X-25.082 Y-6.91
G1 F600 X-25.063 Y-6.79 E354.49263
G1 X-25.16 Y-6.79 E354.49484
G1 X-25.84 Y-6.79 E354.54804
G1 X-25.415 Y-7.176 E354.56375
G1 X-25.16 Y-7.408 E354.58518
G1 X-25.082 Y-6.91 E354.60862
G0 F1200 X-24.26 Y-6.078
G0 X-23.548 Y-3.44
G1 F600 X-23.548 Y-3.708 E354.6367
G1 X-23.548 Y-4.054 E354.67295
G1 X-23.261 Y-3.855 E354.68348
G1 X-23.049 Y-3.708 E354.69655
G1 X-22.209 Y-3.416 E354.78972
G1 X-21.317 Y-3.325 E354.88366
G1 X-20.422 Y-3.417 E354.97792
G1 X-19.584 Y-3.71 E355.07093
G1 X-18.852 Y-4.214 E355.16404
G1 X-18.497 Y-4.631 E355.22142
G1 X-18.474 Y-4.657 E355.22506
G1 X-18.454 Y-4.68 E355.22825
G1 X-18.391 Y-4.587
G1 X-17.884 Y-4.109 E355.28454
G1 X-17.295 Y-3.75 E355.35681
G1 X-16.654 Y-3.506 E355.42867
G1 X-15.972 Y-3.371 E355.50151
G1 X-15.259 Y-3.33 E355.57633
G1 X-14.503 Y-3.376 E355.65568
G1 X-13.786 Y-3.528 E355.73247
G1 X-13.164 Y-3.78 E355.80278
G1 X-13.113 Y-3.801 E355.80856
G1 X-13.025 Y-3.861 E355.81972
G1 X-13.025 Y-3.801
G1 X-13.025 Y-3.528 E355.82858
G1 X-13.025 Y-3.44
G1 X-5.444 Y-3.44 E356.62283
G1 X-5.444 Y-6.79 E356.97381
G1 X-6.718 Y-6.79 E357.10729
G1 X-7.372 Y-6.79 E357.17581
G1 X-7.736 Y-6.79 E357.21394
G1 X-7.372 Y-7.103 E357.23047
G1 X-6.901 Y-7.556 E357.27901
G1 X-6.701 Y-7.748 E357.30806
G1 X-6.238 Y-8.328 E357.38581
G1 X-5.878 Y-8.952 E357.46129
G1 X-5.64 Y-9.638 E357.53736
G1 X-5.559 Y-10.359 E357.61337
G1 X-5.616 Y-11.06 E357.68706
G1 X-5.803 Y-11.73 E357.75994
G1 X-6.137 Y-12.343 E357.83308
G1 X-6.606 Y-12.865 E357.9066
G1 X-7.182 Y-13.264 E357.98001
G1 X-7.823 Y-13.528 E358.05264
G1 X-8.504 Y-13.676 E358.12565
G1 X-9.224 Y-13.721 E358.20123
G1 X-9.904 Y-13.675 E358.27264
G1 X-10.56 Y-13.528 E358.34307
G1 X-11.181 Y-13.27 E358.41353
G1 X-11.741 Y-12.898 E358.48396
G1 X-12.217 Y-12.43 E358.5539
G1 X-12.235 Y-12.404 E358.55721
G1 X-12.247 Y-12.416
G1 X-12.701 Y-12.894 E358.60563
G1 X-13.277 Y-13.277 E358.6781
G1 X-13.916 Y-13.535 E358.7503
G1 X-14.592 Y-13.676 E358.82265
G1 X-15.308 Y-13.721 E358.89781
G1 X-15.983 Y-13.676 E358.96869
G1 X-16.633 Y-13.535 E359.03837
G1 X-17.249 Y-13.286 E359.10798
G1 X-17.812 Y-12.925 E359.17805
G1 X-18.297 Y-12.457 E359.24866
G1 X-18.378 Y-12.337 E359.26383
G1 X-18.403 Y-12.367
G1 X-18.432 Y-12.401
G1 X-18.804 Y-12.842 E359.30534
