;FLAVOR:Marlin
;TIME:3157
;Filament used: 5.21113m
;Layer height: 0.3
;MINX:-46.26
;MINY:-61.537
;MINZ:0.3
;MAXX:46.26
;MAXY:-7.817
;MAXZ:17.4
;Generated with Cura_SteamEngine 4.10.0
M140 S60
M105
M190 S60
M104 S205
M105
M109 S205
M82 ;absolute extrusion mode
G21        ;metric values
G90        ;absolute positioning
M107       ;start with the fan off
G28   ;move to endstops

;Z-Offset Reset und dann Z +0,1 für PLA
;MacroZOffset0
;MacroZOffsetPlus0100

G92 E0                  ;zero the extruded length
G1 F200 E3              ;extrude 3mm of feed stock
G92 E0                  ;zero the extruded length again
G1 F120
;Put printing message on LCD screen
M117 Printing...
G92 E0
G92 E0
G1 F2400 E-6
;LAYER_COUNT:58
;LAYER:0
M107
G0 F1200 X40.07 Y-7.817 Z0.3
;TYPE:SKIRT
G1 F2400 E0
G1 F600 X-40.148 Y-7.817 E8.40439
G1 X-40.846 Y-7.826 E8.47753
G1 X-41.427 Y-7.874 E8.53861
G1 X-41.997 Y-8 E8.59977
G1 X-42.544 Y-8.203 E8.6609
G1 X-43.058 Y-8.479 E8.72202
G1 X-43.53 Y-8.823 E8.78321
G1 X-43.95 Y-9.228 E8.84434
G1 X-44.311 Y-9.686 E8.90544
G1 X-44.606 Y-10.189 E8.96653
G1 X-44.829 Y-10.728 E9.02764
G1 X-44.977 Y-11.293 E9.08884
G1 X-45.049 Y-11.971 E9.16027
G1 X-45.06 Y-12.419 E9.20722
G1 X-45.06 Y-19.785 E9.97895
G1 X-45.099 Y-22.573 E10.27108
G1 X-45.214 Y-25.265 E10.55337
G1 X-45.404 Y-27.955 E10.83591
G1 X-45.672 Y-30.654 E11.12007
G1 X-46.027 Y-33.42 E11.41224
G1 X-46.208 Y-34.684 E11.54602
G1 X-46.258 Y-35.487 E11.63031
G1 X-46.26 Y-35.607 E11.64288
G1 X-46.26 Y-56.661 E13.8487
G1 X-46.251 Y-57.326 E13.91838
G1 X-46.203 Y-57.907 E13.97946
G1 X-46.076 Y-58.477 E14.04064
G1 X-45.873 Y-59.023 E14.10167
G1 X-45.596 Y-59.537 E14.16284
G1 X-45.252 Y-60.009 E14.22403
G1 X-44.847 Y-60.429 E14.28516
G1 X-44.389 Y-60.789 E14.3462
G1 X-43.885 Y-61.084 E14.40738
G1 X-43.346 Y-61.307 E14.46849
G1 X-42.781 Y-61.454 E14.52966
G1 X-42.11 Y-61.526 E14.60036
G1 X-41.67 Y-61.537 E14.64648
G1 X41.354 Y-61.537 E23.34485
G1 X42.052 Y-61.527 E23.41799
G1 X42.633 Y-61.478 E23.47908
G1 X43.203 Y-61.351 E23.54026
G1 X43.75 Y-61.147 E23.60142
G1 X44.263 Y-60.87 E23.6625
G1 X44.734 Y-60.526 E23.72361
G1 X45.154 Y-60.121 E23.78474
G1 X45.514 Y-59.662 E23.84586
G1 X45.808 Y-59.158 E23.90699
G1 X46.031 Y-58.619 E23.9681
G1 X46.178 Y-58.054 E24.02927
G1 X46.249 Y-57.387 E24.09954
G1 X46.26 Y-56.947 E24.14565
G1 X46.26 Y-35.939 E26.34665
G1 X46.249 Y-35.21 E26.42304
G1 X46.198 Y-34.617 E26.48539
G1 X46.109 Y-34.048 E26.54573
G1 X45.816 Y-32.342 E26.72709
G1 X45.433 Y-29.644 E27.01259
G1 X45.13 Y-26.974 E27.29412
G1 X44.897 Y-24.243 E27.58128
G1 X44.748 Y-21.585 E27.8602
G1 X44.66 Y-17.467 E28.29174
G1 X44.66 Y-12.754 E28.78551
G1 X44.65 Y-12.027 E28.86169
G1 X44.602 Y-11.446 E28.92277
G1 X44.475 Y-10.876 E28.98395
G1 X44.271 Y-10.33 E29.04502
G1 X43.995 Y-9.816 E29.10614
G1 X43.651 Y-9.345 E29.16725
G1 X43.246 Y-8.925 E29.22838
G1 X42.787 Y-8.564 E29.28956
G1 X42.283 Y-8.27 E29.35069
G1 X41.744 Y-8.047 E29.4118
G1 X41.179 Y-7.9 E29.47297
G1 X40.51 Y-7.828 E29.54346
G1 X40.07 Y-7.817 E29.58957
G0 F1200 X40.07 Y-8.657
G1 F600 X-40.137 Y-8.657 E37.99282
G1 X-40.835 Y-8.666 E38.06595
G1 X-41.356 Y-8.713 E38.12076
G1 X-41.863 Y-8.838 E38.17547
G1 X-42.345 Y-9.04 E38.23022
G1 X-42.792 Y-9.312 E38.28504
G1 X-43.191 Y-9.649 E38.33976
G1 X-43.534 Y-10.044 E38.39457
G1 X-43.813 Y-10.485 E38.44924
G1 X-44.022 Y-10.965 E38.50409
G1 X-44.155 Y-11.47 E38.5588
G1 X-44.21 Y-11.994 E38.614
G1 X-44.22 Y-12.419 E38.65854
G1 X-44.22 Y-19.797 E39.43153
G1 X-44.259 Y-22.585 E39.72366
G1 X-44.376 Y-25.323 E40.01078
G1 X-44.567 Y-28.028 E40.29489
G1 X-44.836 Y-30.74 E40.58041
G1 X-45.202 Y-33.588 E40.88125
G1 X-45.376 Y-34.803 E41.00985
G1 X-45.419 Y-35.511 E41.08416
G1 X-45.42 Y-56.649 E43.29877
G1 X-45.411 Y-57.314 E43.36845
G1 X-45.364 Y-57.835 E43.42326
G1 X-45.238 Y-58.342 E43.47799
G1 X-45.036 Y-58.824 E43.53275
G1 X-44.764 Y-59.27 E43.58748
G1 X-44.426 Y-59.669 E43.64226
G1 X-44.032 Y-60.012 E43.69699
G1 X-43.59 Y-60.291 E43.75176
G1 X-43.11 Y-60.5 E43.80661
G1 X-42.605 Y-60.632 E43.86129
G1 X-42.087 Y-60.687 E43.91587
G1 X-41.67 Y-60.697 E43.95957
G1 X41.342 Y-60.697 E52.65669
G1 X42.04 Y-60.687 E52.72983
G1 X42.561 Y-60.639 E52.78464
G1 X43.068 Y-60.513 E52.83938
G1 X43.55 Y-60.311 E52.89413
G1 X43.995 Y-60.038 E52.94883
G1 X44.394 Y-59.7 E53.00361
G1 X44.737 Y-59.306 E53.05834
G1 X45.016 Y-58.863 E53.11319
G1 X45.224 Y-58.384 E53.1679
G1 X45.356 Y-57.878 E53.22269
G1 X45.41 Y-57.363 E53.27694
G1 X45.42 Y-56.947 E53.32054
G1 X45.42 Y-35.951 E55.52028
G1 X45.409 Y-35.222 E55.59667
G1 X45.368 Y-34.746 E55.64672
G1 X45.281 Y-34.19 E55.70568
G1 X44.984 Y-32.459 E55.88969
G1 X44.6 Y-29.758 E56.17551
G1 X44.294 Y-27.063 E56.45968
G1 X44.061 Y-24.329 E56.74716
G1 X43.907 Y-21.593 E57.03426
G1 X43.82 Y-17.485 E57.46475
G1 X43.82 Y-12.766 E57.95916
G1 X43.81 Y-12.039 E58.03533
G1 X43.763 Y-11.518 E58.09014
G1 X43.637 Y-11.011 E58.14487
G1 X43.435 Y-10.529 E58.19963
G1 X43.162 Y-10.083 E58.25441
G1 X42.825 Y-9.684 E58.30913
G1 X42.43 Y-9.341 E58.36394
G1 X41.988 Y-9.062 E58.4187
G1 X41.509 Y-8.854 E58.47342
G1 X41.003 Y-8.721 E58.52823
G1 X40.486 Y-8.667 E58.58269
G1 X40.07 Y-8.657 E58.62629
G1 F2400 E52.62629
;MESH:CR1620Organizer_20_v02.stl
G0 F1200 X39.126 Y-11.412
G0 X39.126 Y-13.351
G0 X39.07 Y-29.947
G0 X39.14 Y-30.017
;TYPE:WALL-INNER
G1 F2400 E58.62629
G1 F600 X39.14 Y-13.337 E60.37384
G1 X-39.54 Y-13.337 E68.6171
G1 X-39.54 Y-30.017 E70.36465
G1 X39.14 Y-30.017 E78.60791
G0 F1200 X39.07 Y-29.947
G0 X39.88 Y-30.757
;TYPE:WALL-OUTER
G1 F600 X39.88 Y-12.597 E80.51052
G1 X-40.28 Y-12.597 E88.90884
G1 X-40.28 Y-30.757 E90.81145
G1 X39.88 Y-30.757 E99.20977
G0 F1200 X39.88 Y-30.357
G0 X39.07 Y-29.947
G0 X38.31 Y-29.187
;TYPE:SKIN
G1 F600 X38.31 Y-14.167 E100.78341
G1 X-38.71 Y-14.167 E108.85275
G1 X-38.71 Y-29.187 E110.42639
G1 X38.31 Y-29.187 E118.49573
G0 F1200 X37.499 Y-27.837
G1 F600 X36.959 Y-28.376 E118.57566
G1 X37.499 Y-28.377 E118.63224
G0 F1200 X36.959 Y-28.376
G1 F600 X35.771 Y-28.376 E118.7567
G1 X37.499 Y-26.649 E119.01266
G1 X37.499 Y-25.461 E119.13713
G1 X34.583 Y-28.376 E119.56911
G1 X33.395 Y-28.376 E119.69357
G1 X37.499 Y-24.273 E120.30157
G1 X37.499 Y-23.085 E120.42604
G1 X32.208 Y-28.376 E121.20999
G1 X31.02 Y-28.376 E121.33445
G1 X37.499 Y-21.897 E122.29442
G1 X37.499 Y-20.709 E122.41889
G1 X29.832 Y-28.376 E123.55488
G1 X28.644 Y-28.376 E123.67935
G1 X37.499 Y-19.521 E124.99136
G1 X37.499 Y-18.333 E125.11583
G1 X27.456 Y-28.376 E126.60386
G1 X26.268 Y-28.376 E126.72833
G1 X37.499 Y-17.145 E128.39238
G1 X37.499 Y-15.957 E128.51685
G1 X25.08 Y-28.376 E130.35693
G1 X23.892 Y-28.376 E130.48139
G1 X37.292 Y-14.976 E132.46682
G1 X36.104 Y-14.976 E132.59129
G1 X22.704 Y-28.376 E134.57672
G1 X21.516 Y-28.376 E134.70118
G1 X34.916 Y-14.976 E136.68661
G1 X33.728 Y-14.976 E136.81108
G1 X20.328 Y-28.376 E138.79651
G1 X19.14 Y-28.376 E138.92097
G1 X32.541 Y-14.976 E140.90648
G1 X31.353 Y-14.976 E141.03094
G1 X17.952 Y-28.376 E143.01645
G1 X16.764 Y-28.376 E143.14091
G1 X30.165 Y-14.976 E145.12641
G1 X28.977 Y-14.976 E145.25088
G1 X15.576 Y-28.376 E147.23638
G1 X14.388 Y-28.376 E147.36085
G1 X27.789 Y-14.976 E149.34635
G1 X26.601 Y-14.976 E149.47082
G1 X13.2 Y-28.376 E151.45632
G1 X12.013 Y-28.376 E151.58068
G1 X25.413 Y-14.976 E153.56611
G1 X24.225 Y-14.976 E153.69058
G1 X10.825 Y-28.376 E155.67601
G1 X9.637 Y-28.376 E155.80047
G1 X23.037 Y-14.976 E157.7859
G1 X21.849 Y-14.976 E157.91037
G1 X8.449 Y-28.376 E159.8958
G1 X7.261 Y-28.376 E160.02026
G1 X20.661 Y-14.976 E162.00569
G1 X19.473 Y-14.976 E162.13016
G1 X6.073 Y-28.376 E164.11559
G1 X4.885 Y-28.376 E164.24005
G1 X18.285 Y-14.976 E166.22548
G1 X17.097 Y-14.976 E166.34995
G1 X3.697 Y-28.376 E168.33538
G1 X2.509 Y-28.376 E168.45984
G1 X15.909 Y-14.976 E170.44527
G1 X14.721 Y-14.976 E170.56974
G1 X1.321 Y-28.376 E172.55517
G1 X0.133 Y-28.376 E172.67963
G1 X13.534 Y-14.976 E174.66514
G1 X12.346 Y-14.976 E174.7896
G1 X-1.054 Y-28.376 E176.77503
G1 X-2.242 Y-28.376 E176.8995
G1 X11.158 Y-14.976 E178.88493
G1 X9.97 Y-14.976 E179.00939
G1 X-3.43 Y-28.376 E180.99482
G1 X-4.618 Y-28.376 E181.11929
G1 X8.782 Y-14.976 E183.10472
G1 X7.594 Y-14.976 E183.22918
G1 X-5.806 Y-28.376 E185.21461
G1 X-6.993 Y-28.376 E185.33897
G1 X6.406 Y-14.976 E187.32433
G1 X5.218 Y-14.976 E187.44879
G1 X-8.181 Y-28.376 E189.43415
G1 X-9.369 Y-28.376 E189.55862
G1 X4.03 Y-14.976 E191.54397
G1 X2.842 Y-14.976 E191.66844
G1 X-10.557 Y-28.376 E193.65379
G1 X-11.745 Y-28.376 E193.77826
G1 X1.654 Y-14.976 E195.76361
G1 X0.466 Y-14.976 E195.88808
G1 X-12.933 Y-28.376 E197.87343
G1 X-14.121 Y-28.376 E197.9979
G1 X-.721 Y-14.976 E199.98333
G1 X-1.909 Y-14.976 E200.10779
G1 X-15.309 Y-28.376 E202.09322
G1 X-16.497 Y-28.376 E202.21769
G1 X-3.097 Y-14.976 E204.20312
G1 X-4.285 Y-14.976 E204.32759
G1 X-17.685 Y-28.376 E206.31301
G1 X-18.873 Y-28.376 E206.43748
G1 X-5.473 Y-14.976 E208.42291
G1 X-6.66 Y-14.976 E208.54727
G1 X-20.061 Y-28.376 E210.53277
G1 X-21.249 Y-28.376 E210.65724
G1 X-7.848 Y-14.976 E212.64274
G1 X-9.036 Y-14.976 E212.76721
G1 X-22.437 Y-28.376 E214.75271
G1 X-23.625 Y-28.376 E214.87718
G1 X-10.224 Y-14.976 E216.86268
G1 X-11.412 Y-14.976 E216.98715
G1 X-24.813 Y-28.376 E218.97265
G1 X-26.001 Y-28.376 E219.09712
G1 X-12.6 Y-14.976 E221.08262
G1 X-13.788 Y-14.976 E221.20709
G1 X-27.188 Y-28.376 E223.19251
G1 X-28.376 Y-28.376 E223.31698
G1 X-14.976 Y-14.976 E225.30241
G1 X-16.164 Y-14.976 E225.42688
G1 X-29.564 Y-28.376 E227.4123
G1 X-30.752 Y-28.376 E227.53677
G1 X-17.352 Y-14.976 E229.5222
G1 X-18.54 Y-14.976 E229.64667
G1 X-31.94 Y-28.376 E231.63209
G1 X-33.128 Y-28.376 E231.75656
G1 X-19.728 Y-14.976 E233.74199
G1 X-20.916 Y-14.976 E233.86646
G1 X-34.316 Y-28.376 E235.85188
G1 X-35.504 Y-28.376 E235.97635
G1 X-22.104 Y-14.976 E237.96178
G1 X-23.292 Y-14.976 E238.08625
G1 X-36.692 Y-28.376 E240.07167
G1 X-37.88 Y-28.376 E240.19614
G1 X-24.48 Y-14.976 E242.18157
G1 X-25.667 Y-14.976 E242.30593
G1 X-37.899 Y-27.208 E244.1183
G1 X-37.899 Y-26.02 E244.24277
G1 X-26.855 Y-14.976 E245.87912
G1 X-28.043 Y-14.976 E246.00358
G1 X-37.899 Y-24.832 E247.46391
G1 X-37.899 Y-23.644 E247.58838
G1 X-29.231 Y-14.976 E248.87268
G1 X-30.419 Y-14.976 E248.99715
G1 X-37.899 Y-22.456 E250.10543
G1 X-37.899 Y-21.268 E250.2299
G1 X-31.607 Y-14.976 E251.16216
G1 X-32.795 Y-14.976 E251.28663
G1 X-37.899 Y-20.08 E252.04287
G1 X-37.899 Y-18.892 E252.16733
G1 X-33.983 Y-14.976 E252.74755
G1 X-35.171 Y-14.976 E252.87202
G1 X-37.899 Y-17.704 E253.27622
G1 X-37.899 Y-16.516 E253.40068
G1 X-36.359 Y-14.976 E253.62886
G1 X-37.547 Y-14.976 E253.75333
G1 X-37.899 Y-15.328 E253.80548
G0 F1200 X-37.899 Y-14.976
G1 F600 X-37.547 Y-14.976 E253.84236
G1 F2400 E247.84236
G0 F1200 X-31.668 Y-29.997
G0 X-31.668 Y-31.942
G0 X-32.431 Y-34.612
G0 X-32.431 Y-41.537
G0 X-31.668 Y-43.206
;TYPE:WALL-INNER
G1 F2400 E253.84236
G1 F600 X-31.754 Y-43.075 E253.85878
G1 X-32.646 Y-41.722 E254.02856
G1 X-32.932 Y-41.468 E254.06864
G1 X-33.242 Y-41.328 E254.10428
G1 X-33.678 Y-41.271 E254.15035
G1 X-34.001 Y-41.3 E254.18432
G1 X-34.268 Y-41.381 E254.21355
G1 X-34.486 Y-41.508 E254.23999
G1 X-34.684 Y-41.693 E254.26838
G1 X-34.855 Y-41.941 E254.29994
G1 X-34.995 Y-42.267 E254.33711
G1 X-35.084 Y-42.657 E254.37902
G1 X-35.118 Y-43.153 E254.43111
G1 X-35.086 Y-43.653 E254.4836
G1 X-34.998 Y-44.047 E254.5259
G1 X-34.868 Y-44.359 E254.56131
G1 X-34.713 Y-44.583 E254.58985
G1 X-34.534 Y-44.75 E254.61549
G1 X-34.337 Y-44.861 E254.63918
G1 X-34.059 Y-44.942 E254.66952
G1 X-33.699 Y-44.972 E254.70737
G1 X-33.259 Y-44.921 E254.75378
G1 X-32.954 Y-44.793 E254.78843
G1 X-32.682 Y-44.528 E254.82822
G1 X-32.092 Y-43.297 E254.97124
G1 X-31.739 Y-43.415 E254.99363
G1 X-30.51 Y-43.826 E255.1294
G1 X-30.51 Y-42.63 E255.2547
G1 X-31.668 Y-43.206 E255.39021
G1 F2400 E249.39021
G0 F1200 X-30.23 Y-43.308
G0 X-23.37 Y-42.154
G0 X-21.148 Y-43.308
G1 F2400 E255.39021
G1 F600 X-20.788 Y-43.566 E255.43661
G1 X-20.788 Y-43.308 E255.43775
G1 X-20.788 Y-41.369 E255.6409
G1 X-22.493 Y-41.369 E255.81953
G1 X-22.499 Y-41.369 E255.82016
G1 X-22.955 Y-42.068 E255.9076
G1 X-22.923 Y-42.089 E255.91161
G1 X-22.919 Y-42.093 E255.9122
G1 X-22.481 Y-42.516 E255.976
G1 X-22.126 Y-43.016 E256.04024
G1 X-21.873 Y-43.571 E256.10414
G1 X-21.849 Y-43.668 E256.11461
G1 X-21.829 Y-43.658
G1 X-21.804 Y-43.645
G1 X-21.148 Y-43.308 E256.17135
G0 F1200 X-21.811 Y-44.442
G0 X-22.308 Y-46.255
G0 X-19.786 Y-48.049
G0 X-17.995 Y-47.505
G0 X-15.858 Y-40.431
G0 X-15.395 Y-38.843
G0 X-13.91 Y-38.112
G0 X-12.319 Y-38.09
G0 X-10.977 Y-38.619
G0 X-10.476 Y-39.96
G0 X-9.551 Y-43.228
G1 F600 X-9.827 Y-43.828 E256.24054
G1 X-9.5 Y-43.799 E256.24485
G1 X-8.789 Y-43.734 E256.31965
G1 X-8.36 Y-43.694 E256.36479
G1 X-8.131 Y-43.672 E256.38889
G1 X-8.38 Y-43.472 E256.39914
G1 X-8.849 Y-43.075 E256.43949
G1 X-9.155 Y-42.796 E256.48288
G1 X-9.282 Y-42.679 E256.50097
G1 X-9.389 Y-42.566 E256.51727
G1 X-9.409 Y-42.647
G1 X-9.476 Y-42.921 E256.53197
G1 X-9.551 Y-43.228 E256.55296
G0 F1200 X-7.858 Y-43.918
G0 X-7.209 Y-44.519
G1 F600 X-7.528 Y-44.192 E256.60082
G1 X-7.455 Y-44.567 E256.60499
G1 X-7.398 Y-44.855 E256.63184
G1 X-7.39 Y-44.892 E256.63581
G1 X-7.35 Y-44.962 E256.64425
G1 X-7.342 Y-44.975 E256.64585
G1 X-7.244 Y-44.982 E256.64927
G1 X-7.06 Y-44.996 E256.6686
G1 X-7.026 Y-44.999 E256.67218
G1 X-7.029 Y-44.95
G1 X-7.037 Y-44.863 E256.67617
G1 X-7.044 Y-44.786
G1 X-7.092 Y-44.708
G1 X-7.209 Y-44.519 E256.68219
G0 F1200 X-9.676 Y-41.16
G0 X-10.259 Y-40.093
G0 X-10.248 Y-38.729
G0 X-4.079 Y-38.729
G0 X-4.079 Y-40.657
G0 X-4.913 Y-41.489
G1 F600 X-4.894 Y-41.369 E256.69492
G1 X-4.991 Y-41.369 E256.69713
G1 X-5.296 Y-41.369 E256.71636
G1 X-5.682 Y-41.369 E256.75023
G1 X-5.296 Y-41.702 E256.7683
G1 X-5.255 Y-41.742
G1 X-4.991 Y-41.996 E256.7935
G1 X-4.954 Y-41.755 E256.79557
G1 X-4.913 Y-41.489 E256.80593
G0 F1200 X-4.079 Y-40.657
G0 X-3.367 Y-38.017
G1 F600 X-3.367 Y-38.27 E256.83244
G1 X-3.367 Y-38.61 E256.86806
G1 X-3.09 Y-38.417 E256.87781
G1 X-2.878 Y-38.27 E256.89065
G1 X-2.04 Y-37.975 E256.98372
G1 X-1.143 Y-37.882 E257.07821
G1 X-.243 Y-37.975 E257.173
G1 X0.596 Y-38.272 E257.26625
G1 X1.33 Y-38.78 E257.35977
G1 X1.906 Y-39.457 E257.4529
G1 X2.322 Y-40.25 E257.54672
G1 X2.593 Y-41.126 E257.64279
G1 X2.745 Y-42.079 E257.74389
G1 X2.794 Y-43.115 E257.85256
G1 X2.748 Y-44.162 E257.96236
G1 X2.604 Y-45.115 E258.06333
G1 X2.346 Y-45.989 E258.15881
G1 X1.947 Y-46.779 E258.25153
G1 X1.378 Y-47.462 E258.34467
G1 X0.64 Y-47.969 E258.43848
G1 X-.206 Y-48.263 E258.53231
G1 X-1.108 Y-48.35 E258.62725
G1 X-2.021 Y-48.264 E258.72333
G1 X-2.875 Y-47.979 E258.81766
G1 X-3.623 Y-47.478 E258.91198
G1 X-3.999 Y-47.036 E258.97277
G1 X-4.06 Y-46.965 E258.98258
G1 X-4.119 Y-47.031
G1 X-4.528 Y-47.486 E259.02902
G1 X-5.103 Y-47.888 E259.10252
G1 X-5.747 Y-48.155 E259.17556
G1 X-6.43 Y-48.303 E259.24878
G1 X-7.152 Y-48.348 E259.32457
G1 X-7.833 Y-48.302 E259.39608
G1 X-8.491 Y-48.155 E259.46672
G1 X-9.112 Y-47.896 E259.53721
G1 X-9.673 Y-47.525 E259.60768
G1 X-10.15 Y-47.055 E259.67784
G1 X-10.16 Y-47.04 E259.67973
G1 X-10.169 Y-47.049 E259.67974
G1 X-10.827 Y-47.737 E259.77948
G1 X-11.849 Y-48.214 E259.89764
G1 X-12.978 Y-48.353 E260.01682
G1 X-13.898 Y-48.254 E260.11377
G1 X-14.747 Y-47.941 E260.20857
G1 X-15.485 Y-47.415 E260.30352
G1 X-16.07 Y-46.717 E260.39893
G1 X-16.446 Y-45.996 E260.48413
G1 X-16.495 Y-45.902 E260.49523
G1 X-16.779 Y-44.998 E260.59451
G1 X-16.939 Y-44.011 E260.69927
G1 X-16.99 Y-42.934 E260.81223
G1 X-16.94 Y-41.93 E260.91755
G1 X-16.858 Y-41.442 E260.96939
G1 X-16.845 Y-41.369 E260.97716
G1 X-16.94 Y-41.369
G1 X-17.283 Y-41.369 E260.99466
G1 X-17.283 Y-41.93 E261.02371
G1 X-17.283 Y-42.934 E261.06353
G1 X-17.283 Y-44.011 E261.10632
G1 X-17.283 Y-44.998 E261.15836
G1 X-17.283 Y-45.902 E261.23093
G1 X-17.283 Y-46.008 E261.2417
G1 X-17.283 Y-48.217 E261.47314
G1 X-19.839 Y-48.217 E261.74093
G1 X-22.172 Y-46.605 E262.03803
G1 X-22.189 Y-46.593 E262.04021
G1 X-22.331 Y-46.833 E262.05709
G1 X-22.842 Y-47.358 E262.13385
G1 X-23.457 Y-47.759 E262.21077
G1 X-24.143 Y-48.027 E262.28793
G1 X-24.873 Y-48.174 E262.36595
