;FLAVOR:Marlin
;TIME:4982
;Filament used: 8.31122m
;Layer height: 0.3
;MINX:-58.26
;MINY:-67.834
;MINZ:0.3
;MAXX:58.26
;MAXY:-6.114
;MAXZ:21.3
;Generated with Cura_SteamEngine 4.10.0
M140 S60
M105
M190 S60
M104 S205
M105
M109 S205
M82 ;absolute extrusion mode
G21        ;metric values
G90        ;absolute positioning
M107       ;start with the fan off
G28   ;move to endstops

;Z-Offset Reset und dann Z +0,1 für PLA
;MacroZOffset0
;MacroZOffsetPlus0100

G92 E0                  ;zero the extruded length
G1 F200 E3              ;extrude 3mm of feed stock
G92 E0                  ;zero the extruded length again
G1 F120
;Put printing message on LCD screen
M117 Printing...
G92 E0
G92 E0
G1 F2400 E-6
;LAYER_COUNT:71
;LAYER:0
M107
G0 F1200 X52.07 Y-6.114 Z0.3
;TYPE:SKIRT
G1 F2400 E0
G1 F600 X-52.148 Y-6.114 E10.91886
G1 X-52.846 Y-6.123 E10.992
G1 X-53.427 Y-6.171 E11.05307
G1 X-53.997 Y-6.297 E11.11423
G1 X-54.544 Y-6.5 E11.17536
G1 X-55.058 Y-6.776 E11.23649
G1 X-55.53 Y-7.12 E11.29768
G1 X-55.95 Y-7.525 E11.35881
G1 X-56.311 Y-7.983 E11.4199
G1 X-56.606 Y-8.486 E11.481
G1 X-56.829 Y-9.025 E11.54211
G1 X-56.977 Y-9.59 E11.6033
G1 X-57.049 Y-10.268 E11.67474
G1 X-57.06 Y-10.716 E11.72169
G1 X-57.06 Y-22.082 E12.9125
G1 X-57.099 Y-24.87 E13.20462
G1 X-57.214 Y-27.562 E13.48692
G1 X-57.404 Y-30.252 E13.76945
G1 X-57.672 Y-32.951 E14.05361
G1 X-58.027 Y-35.717 E14.34578
G1 X-58.208 Y-36.981 E14.47956
G1 X-58.258 Y-37.784 E14.56385
G1 X-58.26 Y-37.904 E14.57643
G1 X-58.26 Y-62.958 E17.20132
G1 X-58.251 Y-63.623 E17.271
G1 X-58.203 Y-64.204 E17.33208
G1 X-58.076 Y-64.774 E17.39326
G1 X-57.873 Y-65.32 E17.45429
G1 X-57.596 Y-65.834 E17.51546
G1 X-57.252 Y-66.306 E17.57666
G1 X-56.847 Y-66.726 E17.63778
G1 X-56.389 Y-67.086 E17.69882
G1 X-55.885 Y-67.381 E17.76
G1 X-55.346 Y-67.604 E17.82111
G1 X-54.781 Y-67.751 E17.88228
G1 X-54.11 Y-67.823 E17.95298
G1 X-53.67 Y-67.834 E17.9991
G1 X53.354 Y-67.834 E29.21194
G1 X54.052 Y-67.824 E29.28508
G1 X54.633 Y-67.775 E29.34616
G1 X55.203 Y-67.648 E29.40735
G1 X55.75 Y-67.444 E29.46851
G1 X56.263 Y-67.167 E29.52959
G1 X56.734 Y-66.823 E29.5907
G1 X57.154 Y-66.418 E29.65183
G1 X57.514 Y-65.959 E29.71294
G1 X57.808 Y-65.455 E29.77407
G1 X58.031 Y-64.916 E29.83519
G1 X58.178 Y-64.351 E29.89635
G1 X58.249 Y-63.684 E29.96663
G1 X58.26 Y-63.244 E30.01274
G1 X58.26 Y-38.236 E32.63282
G1 X58.249 Y-37.507 E32.7092
G1 X58.198 Y-36.914 E32.77156
G1 X58.109 Y-36.345 E32.8319
G1 X57.816 Y-34.639 E33.01325
G1 X57.433 Y-31.941 E33.29875
G1 X57.13 Y-29.271 E33.58028
G1 X56.897 Y-26.54 E33.86745
G1 X56.748 Y-23.882 E34.14636
G1 X56.66 Y-19.764 E34.5779
G1 X56.66 Y-11.051 E35.49076
G1 X56.65 Y-10.324 E35.56693
G1 X56.602 Y-9.743 E35.62801
G1 X56.475 Y-9.173 E35.68919
G1 X56.271 Y-8.627 E35.75026
G1 X55.995 Y-8.113 E35.81138
G1 X55.651 Y-7.642 E35.87249
G1 X55.246 Y-7.222 E35.93362
G1 X54.787 Y-6.861 E35.9948
G1 X54.283 Y-6.567 E36.05593
G1 X53.744 Y-6.344 E36.11704
G1 X53.179 Y-6.197 E36.17821
G1 X52.51 Y-6.125 E36.2487
G1 X52.07 Y-6.114 E36.29482
G0 F1200 X52.07 Y-6.954
G1 F600 X-52.137 Y-6.954 E47.21252
G1 X-52.835 Y-6.963 E47.28566
G1 X-53.356 Y-7.01 E47.34047
G1 X-53.863 Y-7.135 E47.39517
G1 X-54.345 Y-7.337 E47.44993
G1 X-54.792 Y-7.609 E47.50475
G1 X-55.191 Y-7.946 E47.55947
G1 X-55.534 Y-8.341 E47.61428
G1 X-55.813 Y-8.782 E47.66895
G1 X-56.022 Y-9.262 E47.7238
G1 X-56.155 Y-9.767 E47.77851
G1 X-56.21 Y-10.291 E47.83371
G1 X-56.22 Y-10.716 E47.87825
G1 X-56.22 Y-22.094 E49.07032
G1 X-56.259 Y-24.882 E49.36245
G1 X-56.376 Y-27.62 E49.64957
G1 X-56.567 Y-30.325 E49.93367
G1 X-56.836 Y-33.037 E50.2192
G1 X-57.202 Y-35.885 E50.52004
G1 X-57.376 Y-37.1 E50.64863
G1 X-57.419 Y-37.808 E50.72295
G1 X-57.42 Y-62.946 E53.35664
G1 X-57.411 Y-63.611 E53.42632
G1 X-57.364 Y-64.132 E53.48112
G1 X-57.238 Y-64.639 E53.53586
G1 X-57.036 Y-65.121 E53.59061
G1 X-56.764 Y-65.567 E53.64534
G1 X-56.426 Y-65.966 E53.70013
G1 X-56.032 Y-66.309 E53.75486
G1 X-55.59 Y-66.588 E53.80962
G1 X-55.11 Y-66.797 E53.86447
G1 X-54.605 Y-66.929 E53.91916
G1 X-54.087 Y-66.984 E53.97373
G1 X-53.67 Y-66.994 E54.01743
G1 X53.342 Y-66.994 E65.22902
G1 X54.04 Y-66.984 E65.30216
G1 X54.561 Y-66.936 E65.35697
G1 X55.068 Y-66.81 E65.41171
G1 X55.55 Y-66.608 E65.46646
G1 X55.995 Y-66.335 E65.52116
G1 X56.394 Y-65.997 E65.57594
G1 X56.737 Y-65.603 E65.63067
G1 X57.016 Y-65.16 E65.68552
G1 X57.224 Y-64.681 E65.74024
G1 X57.356 Y-64.175 E65.79502
G1 X57.41 Y-63.66 E65.84928
G1 X57.42 Y-63.244 E65.89287
G1 X57.42 Y-38.248 E68.51169
G1 X57.409 Y-37.519 E68.58807
G1 X57.368 Y-37.043 E68.63813
G1 X57.281 Y-36.487 E68.69709
G1 X56.984 Y-34.756 E68.8811
G1 X56.6 Y-32.055 E69.16692
G1 X56.294 Y-29.36 E69.45109
G1 X56.061 Y-26.626 E69.73857
G1 X55.907 Y-23.89 E70.02567
G1 X55.82 Y-19.782 E70.45616
G1 X55.82 Y-11.063 E71.36965
G1 X55.81 Y-10.336 E71.44582
G1 X55.763 Y-9.815 E71.50063
G1 X55.637 Y-9.308 E71.55536
G1 X55.435 Y-8.826 E71.61012
G1 X55.162 Y-8.38 E71.6649
G1 X54.825 Y-7.981 E71.71962
G1 X54.43 Y-7.638 E71.77443
G1 X53.988 Y-7.359 E71.82919
G1 X53.509 Y-7.151 E71.8839
G1 X53.003 Y-7.018 E71.93872
G1 X52.486 Y-6.964 E71.99318
G1 X52.07 Y-6.954 E72.03677
G1 F2400 E66.03677
;MESH:CR2032Organizer_20_v02.stl
G0 F1200 X51.126 Y-9.709
G0 X51.126 Y-11.648
G0 X51.07 Y-32.244
G0 X51.14 Y-32.314
;TYPE:WALL-INNER
G1 F2400 E72.03677
G1 F600 X51.14 Y-11.634 E74.20341
G1 X-51.54 Y-11.634 E84.96113
G1 X-51.54 Y-32.314 E87.12776
G1 X51.14 Y-32.314 E97.88549
G0 F1200 X51.07 Y-32.244
G0 X51.88 Y-33.054
;TYPE:WALL-OUTER
G1 F600 X51.88 Y-10.894 E100.20718
G1 X-52.28 Y-10.894 E111.11996
G1 X-52.28 Y-33.054 E113.44165
G1 X51.88 Y-33.054 E124.35443
G0 F1200 X51.88 Y-32.654
G0 X51.07 Y-32.244
G0 X50.31 Y-31.484
;TYPE:SKIN
G1 F600 X50.31 Y-12.464 E126.34715
G1 X-50.71 Y-12.464 E136.93096
G1 X-50.71 Y-31.484 E138.92367
G1 X50.31 Y-31.484 E149.50748
G0 F1200 X49.498 Y-30.093
G1 F600 X48.917 Y-30.674 E149.59356
G1 X49.498 Y-30.674 E149.65443
G0 F1200 X48.917 Y-30.674
G1 F600 X47.729 Y-30.674 E149.7789
G1 X49.498 Y-28.905 E150.04101
G1 X49.498 Y-27.717 E150.16547
G1 X46.541 Y-30.674 E150.6036
G1 X45.353 Y-30.674 E150.72807
G1 X49.498 Y-26.529 E151.34221
G1 X49.498 Y-25.341 E151.46668
G1 X44.165 Y-30.674 E152.25685
G1 X42.977 Y-30.674 E152.38132
G1 X49.498 Y-24.153 E153.34751
G1 X49.498 Y-22.965 E153.47198
G1 X41.79 Y-30.674 E154.61412
G1 X40.602 Y-30.674 E154.73858
G1 X49.498 Y-21.777 E156.05675
G1 X49.498 Y-20.589 E156.18121
G1 X39.414 Y-30.674 E157.67539
G1 X38.226 Y-30.674 E157.79986
G1 X49.498 Y-19.401 E159.47007
G1 X49.498 Y-18.213 E159.59453
G1 X37.038 Y-30.674 E161.44076
G1 X35.85 Y-30.674 E161.56522
G1 X49.498 Y-17.025 E163.58747
G1 X49.498 Y-15.837 E163.71194
G1 X34.662 Y-30.674 E165.91021
G1 X33.474 Y-30.674 E166.03468
G1 X49.498 Y-14.649 E168.40897
G1 X49.498 Y-13.461 E168.53343
G1 X32.286 Y-30.674 E171.08375
G1 X31.098 Y-30.674 E171.20821
G1 X48.499 Y-13.273 E173.78645
G1 X47.311 Y-13.273 E173.91092
G1 X29.91 Y-30.674 E176.48916
G1 X28.722 Y-30.674 E176.61363
G1 X46.123 Y-13.273 E179.19187
G1 X44.935 Y-13.273 E179.31634
G1 X27.534 Y-30.674 E181.89458
G1 X26.346 Y-30.674 E182.01905
G1 X43.747 Y-13.273 E184.59729
G1 X42.559 Y-13.273 E184.72175
G1 X25.158 Y-30.674 E187.3
G1 X23.97 Y-30.674 E187.42446
G1 X41.371 Y-13.273 E190.00271
G1 X40.183 Y-13.273 E190.12717
G1 X22.782 Y-30.674 E192.70541
G1 X21.595 Y-30.674 E192.82978
G1 X38.995 Y-13.273 E195.40794
G1 X37.807 Y-13.273 E195.53241
G1 X20.407 Y-30.674 E198.11058
G1 X19.219 Y-30.674 E198.23505
G1 X36.619 Y-13.273 E200.81321
G1 X35.431 Y-13.273 E200.93768
G1 X18.031 Y-30.674 E203.51585
G1 X16.843 Y-30.674 E203.64031
G1 X34.243 Y-13.273 E206.21848
G1 X33.055 Y-13.273 E206.34295
G1 X15.655 Y-30.674 E208.92112
G1 X14.467 Y-30.674 E209.04558
G1 X31.867 Y-13.273 E211.62375
G1 X30.679 Y-13.273 E211.74822
G1 X13.279 Y-30.674 E214.32639
G1 X12.091 Y-30.674 E214.45085
G1 X29.492 Y-13.273 E217.02909
G1 X28.304 Y-13.273 E217.15356
G1 X10.903 Y-30.674 E219.7318
G1 X9.715 Y-30.674 E219.85627
G1 X27.116 Y-13.273 E222.43451
G1 X25.928 Y-13.273 E222.55898
G1 X8.527 Y-30.674 E225.13722
G1 X7.339 Y-30.674 E225.26169
G1 X24.74 Y-13.273 E227.83993
G1 X23.552 Y-13.273 E227.9644
G1 X6.151 Y-30.674 E230.54264
G1 X4.963 Y-30.674 E230.6671
G1 X22.364 Y-13.273 E233.24535
G1 X21.176 Y-13.273 E233.36981
G1 X3.775 Y-30.674 E235.94805
G1 X2.588 Y-30.674 E236.07242
G1 X19.988 Y-13.273 E238.65058
G1 X18.8 Y-13.273 E238.77505
G1 X1.4 Y-30.674 E241.35322
G1 X0.212 Y-30.674 E241.47769
G1 X17.612 Y-13.273 E244.05585
G1 X16.424 Y-13.273 E244.18032
G1 X-.975 Y-30.674 E246.75841
G1 X-2.163 Y-30.674 E246.88288
G1 X15.236 Y-13.273 E249.46097
G1 X14.048 Y-13.273 E249.58544
G1 X-3.351 Y-30.674 E252.16353
G1 X-4.539 Y-30.674 E252.288
G1 X12.86 Y-13.273 E254.8661
G1 X11.672 Y-13.273 E254.99056
G1 X-5.727 Y-30.674 E257.56866
G1 X-6.915 Y-30.674 E257.69312
G1 X10.484 Y-13.273 E260.27122
G1 X9.297 Y-13.273 E260.39558
G1 X-8.103 Y-30.674 E262.97375
G1 X-9.291 Y-30.674 E263.09821
G1 X8.109 Y-13.273 E265.67638
G1 X6.921 Y-13.273 E265.80085
G1 X-10.479 Y-30.674 E268.37902
G1 X-11.667 Y-30.674 E268.50348
G1 X5.733 Y-13.273 E271.08165
G1 X4.545 Y-13.273 E271.20612
G1 X-12.855 Y-30.674 E273.78428
G1 X-14.043 Y-30.674 E273.90875
G1 X3.357 Y-13.273 E276.48692
G1 X2.169 Y-13.273 E276.61138
G1 X-15.231 Y-30.674 E279.18955
G1 X-16.419 Y-30.674 E279.31402
G1 X0.981 Y-13.273 E281.89219
G1 X-.206 Y-13.273 E282.01655
G1 X-17.606 Y-30.674 E284.59472
G1 X-18.794 Y-30.674 E284.71918
G1 X-1.394 Y-13.273 E287.29735
G1 X-2.582 Y-13.273 E287.42182
G1 X-19.982 Y-30.674 E289.99999
G1 X-21.17 Y-30.674 E290.12445
G1 X-3.77 Y-13.273 E292.70262
G1 X-4.958 Y-13.273 E292.82709
G1 X-22.358 Y-30.674 E295.40526
G1 X-23.546 Y-30.674 E295.52972
G1 X-6.146 Y-13.273 E298.10789
G1 X-7.334 Y-13.273 E298.23236
G1 X-24.734 Y-30.674 E300.81052
G1 X-25.922 Y-30.674 E300.93499
G1 X-8.522 Y-13.273 E303.51316
G1 X-9.709 Y-13.273 E303.63752
G1 X-27.11 Y-30.674 E306.21576
G1 X-28.298 Y-30.674 E306.34023
G1 X-10.897 Y-13.273 E308.91847
G1 X-12.085 Y-13.273 E309.04294
G1 X-29.486 Y-30.674 E311.62118
G1 X-30.674 Y-30.674 E311.74565
G1 X-13.273 Y-13.273 E314.32389
G1 X-14.461 Y-13.273 E314.44835
G1 X-31.862 Y-30.674 E317.0266
G1 X-33.05 Y-30.674 E317.15106
G1 X-15.649 Y-13.273 E319.72931
G1 X-16.837 Y-13.273 E319.85377
G1 X-34.238 Y-30.674 E322.43201
G1 X-35.426 Y-30.674 E322.55648
G1 X-18.025 Y-13.273 E325.13472
G1 X-19.213 Y-13.273 E325.25919
G1 X-36.613 Y-30.674 E327.83736
G1 X-37.801 Y-30.674 E327.96182
G1 X-20.401 Y-13.273 E330.53999
G1 X-21.589 Y-13.273 E330.66446
G1 X-38.989 Y-30.674 E333.24263
G1 X-40.177 Y-30.674 E333.36709
G1 X-22.777 Y-13.273 E335.94526
G1 X-23.965 Y-13.273 E336.06973
G1 X-41.365 Y-30.674 E338.6479
G1 X-42.553 Y-30.674 E338.77236
G1 X-25.153 Y-13.273 E341.35053
G1 X-26.341 Y-13.273 E341.475
G1 X-43.741 Y-30.674 E344.05316
G1 X-44.929 Y-30.674 E344.17763
G1 X-27.529 Y-13.273 E346.7558
G1 X-28.717 Y-13.273 E346.88027
G1 X-46.117 Y-30.674 E349.45843
G1 X-47.305 Y-30.674 E349.5829
G1 X-29.904 Y-13.273 E352.16114
G1 X-31.092 Y-13.273 E352.28561
G1 X-48.493 Y-30.674 E354.86385
G1 X-49.681 Y-30.674 E354.98832
G1 X-32.28 Y-13.273 E357.56656
G1 X-33.468 Y-13.273 E357.69103
G1 X-49.899 Y-29.704 E360.12555
G1 X-49.899 Y-28.516 E360.25001
G1 X-34.656 Y-13.273 E362.50851
G1 X-35.844 Y-13.273 E362.63298
G1 X-49.899 Y-27.328 E364.71546
G1 X-49.899 Y-26.14 E364.83992
G1 X-37.032 Y-13.273 E366.74638
G1 X-38.22 Y-13.273 E366.87084
G1 X-49.899 Y-24.952 E368.60128
G1 X-49.899 Y-23.764 E368.72575
G1 X-39.408 Y-13.273 E370.28016
G1 X-40.596 Y-13.273 E370.40462
G1 X-49.899 Y-22.576 E371.78302
G1 X-49.899 Y-21.388 E371.90748
G1 X-41.784 Y-13.273 E373.10985
G1 X-42.972 Y-13.273 E373.23432
G1 X-49.899 Y-20.2 E374.26067
G1 X-49.899 Y-19.012 E374.38513
G1 X-44.16 Y-13.273 E375.23546
G1 X-45.348 Y-13.273 E375.35993
G1 X-49.899 Y-17.824 E376.03423
G1 X-49.899 Y-16.636 E376.1587
G1 X-46.536 Y-13.273 E376.65698
G1 X-47.724 Y-13.273 E376.78145
G1 X-49.899 Y-15.448 E377.10371
G1 X-49.899 Y-14.26 E377.22817
G1 X-48.911 Y-13.273 E377.37449
G1 X-49.899 Y-13.273 E377.478
G1 F2400 E371.478
G0 F1200 X-43.669 Y-32.294
G0 X-43.669 Y-34.239
G0 X-44.434 Y-36.909
G0 X-44.434 Y-43.831
G0 X-43.669 Y-45.504
;TYPE:WALL-INNER
G1 F2400 E377.478
G1 F600 X-43.755 Y-45.374 E377.49433
G1 X-44.646 Y-44.018 E377.66432
G1 X-44.932 Y-43.764 E377.7044
G1 X-45.242 Y-43.624 E377.74003
G1 X-45.676 Y-43.567 E377.7859
G1 X-46.001 Y-43.597 E377.82009
G1 X-46.272 Y-43.68 E377.84978
G1 X-46.484 Y-43.803 E377.87546
G1 X-46.681 Y-43.988 E377.90378
G1 X-46.857 Y-44.241 E377.93607
G1 X-46.993 Y-44.56 E377.9724
G1 X-47.084 Y-44.956 E378.01497
G1 X-47.118 Y-45.45 E378.06685
G1 X-47.086 Y-45.949 E378.11923
G1 X-46.998 Y-46.342 E378.16143
G1 X-46.868 Y-46.654 E378.19684
G1 X-46.713 Y-46.881 E378.22564
G1 X-46.536 Y-47.045 E378.25092
G1 X-46.333 Y-47.159 E378.27531
G1 X-46.063 Y-47.237 E378.30476
G1 X-45.699 Y-47.269 E378.34304
G1 X-45.255 Y-47.217 E378.38987
G1 X-44.959 Y-47.094 E378.42346
G1 X-44.683 Y-46.825 E378.46384
G1 X-44.091 Y-45.594 E378.60695
G1 X-43.739 Y-45.711 E378.62916
G1 X-42.51 Y-46.123 E378.76496
G1 X-42.51 Y-44.928 E378.89016
G1 X-43.669 Y-45.504 E379.02576
G1 F2400 E373.02576
G0 F1200 X-42.22 Y-44.461
G0 X-35.349 Y-44.447
G0 X-34.318 Y-43.862
G1 F2400 E379.02576
G1 F600 X-34.466 Y-43.616 E379.05584
G1 X-34.534 Y-43.72
G1 X-34.954 Y-44.364 E379.13096
G1 X-34.922 Y-44.385 E379.13497
G1 X-34.873 Y-44.433 E379.14216
G1 X-34.481 Y-44.813 E379.19936
G1 X-34.431 Y-44.883 E379.20837
G1 X-34.126 Y-45.313 E379.26361
G1 X-34.071 Y-45.434 E379.27753
G1 X-33.873 Y-45.868 E379.32751
G1 X-33.811 Y-46.117 E379.35439
G1 X-33.059 Y-46.049 E379.4335
G1 X-32.858 Y-46.031 E379.45464
G1 X-32.429 Y-45.991 E379.49979
G1 X-32.198 Y-45.969 E379.5241
G1 X-32.449 Y-45.767 E379.5345
G1 X-32.917 Y-45.372 E379.57475
G1 X-33.066 Y-45.236 E379.59382
G1 X-33.351 Y-44.974 E379.63438
G1 X-33.458 Y-44.862 E379.65061
G1 X-33.549 Y-44.766 E379.6641
G1 X-33.837 Y-44.462 E379.70335
G1 X-33.917 Y-44.362 E379.71523
G1 X-34.299 Y-43.886 E379.7652
G1 X-34.318 Y-43.862
G0 F1200 X-31.28 Y-46.815
G1 F600 X-31.594 Y-46.493 E379.81233
G1 X-31.523 Y-46.862 E379.81628
G1 X-31.466 Y-47.152 E379.84333
G1 X-31.458 Y-47.194 E379.84781
G1 X-31.41 Y-47.271 E379.85732
G1 X-31.322 Y-47.278 E379.85979
G1 X-31.131 Y-47.296 E379.87989
G1 X-31.106 Y-47.299 E379.88253
G1 X-31.106 Y-47.266
G1 X-31.108 Y-47.186 E379.88567
G1 X-31.111 Y-47.084 E379.88582
G1 X-31.159 Y-47.007
G1 X-31.28 Y-46.815 E379.89203
G0 F1200 X-34.383 Y-46.887
G0 X-34.171 Y-47.976
G0 X-34.106 Y-49.26
G0 X-33.111 Y-50.066
G0 X-31.877 Y-50.458
G0 X-30.519 Y-50.457
G0 X-29.241 Y-50.058
G0 X-28.248 Y-49.175
G0 X-28.3 Y-47.847
G0 X-28.981 Y-43.785
G1 F600 X-28.962 Y-43.666 E379.90465
G1 X-29.059 Y-43.666 E379.90685
G1 X-29.365 Y-43.666 E379.92617
G1 X-29.748 Y-43.666 E379.95975
G1 X-29.365 Y-43.999 E379.97782
G1 X-29.323 Y-44.039
G1 X-29.059 Y-44.294 E380.0031
G1 X-29.022 Y-44.052 E380.00519
G1 X-28.981 Y-43.785 E380.01563
G0 F1200 X-28.147 Y-42.954
G0 X-27.435 Y-40.314
G1 F600 X-27.435 Y-40.567 E380.04214
G1 X-27.435 Y-40.906 E380.07765
G1 X-27.158 Y-40.714 E380.08747
G1 X-26.947 Y-40.567 E380.1003
G1 X-26.108 Y-40.271 E380.19351
G1 X-25.211 Y-40.179 E380.28798
G1 X-24.313 Y-40.271 E380.38256
G1 X-23.472 Y-40.568 E380.476
G1 X-22.739 Y-41.076 E380.56944
G1 X-22.393 Y-41.483 E380.62541
G1 X-22.369 Y-41.511 E380.62927
G1 X-22.35 Y-41.533 E380.63232
G1 X-22.29 Y-41.444
G1 X-21.782 Y-40.965 E380.68852
G1 X-21.192 Y-40.604 E380.76099
G1 X-20.548 Y-40.361 E380.83311
G1 X-19.867 Y-40.226 E380.90584
G1 X-19.155 Y-40.184 E380.98057
G1 X-18.394 Y-40.23 E381.06044
G1 X-17.673 Y-40.385 E381.13771
G1 X-17.061 Y-40.638 E381.20709
G1 X-16.998 Y-40.664 E381.21423
G1 X-16.926 Y-40.714 E381.22341
G1 X-16.926 Y-40.664
G1 X-16.926 Y-40.385 E381.23254
G1 X-16.926 Y-40.314
G1 X-9.333 Y-40.314 E382.02805
G1 X-9.333 Y-43.666 E382.37924
G1 X-10.635 Y-43.666 E382.51565
G1 X-11.262 Y-43.666 E382.58134
G1 X-11.646 Y-43.666 E382.62157
G1 X-11.262 Y-43.999 E382.63965
G1 X-10.811 Y-44.434 E382.68691
G1 X-10.592 Y-44.646 E382.71885
