;FLAVOR:Marlin
;TIME:2202
;Filament used: 3.63318m
;Layer height: 0.3
;MINX:-24.26
;MINY:-62.216
;MINZ:0.3
;MAXX:24.26
;MAXY:-0.496
;MAXZ:21.3
;Generated with Cura_SteamEngine 4.10.0
M140 S60
M105
M190 S60
M104 S205
M105
M109 S205
M82 ;absolute extrusion mode
G21        ;metric values
G90        ;absolute positioning
M107       ;start with the fan off
G28   ;move to endstops

;Z-Offset Reset und dann Z +0,1 für PLA
;MacroZOffset0
;MacroZOffsetPlus0100

G92 E0                  ;zero the extruded length
G1 F200 E3              ;extrude 3mm of feed stock
G92 E0                  ;zero the extruded length again
G1 F120
;Put printing message on LCD screen
M117 Printing...
G92 E0
G92 E0
G1 F2400 E-6
;LAYER_COUNT:71
;LAYER:0
M107
G0 F1200 X18.07 Y-.496 Z0.3
;TYPE:SKIRT
G1 F2400 E0
G1 F600 X-18.148 Y-.496 E3.79454
G1 X-18.846 Y-.505 E3.86767
G1 X-19.427 Y-.553 E3.92875
G1 X-19.997 Y-.679 E3.98991
G1 X-20.544 Y-.882 E4.05104
G1 X-21.058 Y-1.158 E4.11216
G1 X-21.53 Y-1.502 E4.17336
G1 X-21.95 Y-1.907 E4.23448
G1 X-22.311 Y-2.365 E4.29558
G1 X-22.606 Y-2.868 E4.35668
G1 X-22.829 Y-3.407 E4.41779
G1 X-22.977 Y-3.972 E4.47898
G1 X-23.049 Y-4.65 E4.55041
G1 X-23.06 Y-5.098 E4.59737
G1 X-23.06 Y-16.464 E5.78817
G1 X-23.099 Y-19.252 E6.0803
G1 X-23.214 Y-21.944 E6.3626
G1 X-23.404 Y-24.634 E6.64513
G1 X-23.672 Y-27.333 E6.92929
G1 X-24.027 Y-30.099 E7.22146
G1 X-24.208 Y-31.363 E7.35524
G1 X-24.258 Y-32.166 E7.43953
G1 X-24.26 Y-32.286 E7.45211
G1 X-24.26 Y-57.34 E10.077
G1 X-24.251 Y-58.005 E10.14668
G1 X-24.203 Y-58.586 E10.20776
G1 X-24.076 Y-59.156 E10.26894
G1 X-23.873 Y-59.702 E10.32997
G1 X-23.596 Y-60.216 E10.39114
G1 X-23.252 Y-60.688 E10.45233
G1 X-22.847 Y-61.108 E10.51346
G1 X-22.389 Y-61.468 E10.5745
G1 X-21.885 Y-61.763 E10.63568
G1 X-21.346 Y-61.986 E10.69679
G1 X-20.781 Y-62.133 E10.75796
G1 X-20.11 Y-62.205 E10.82866
G1 X-19.67 Y-62.216 E10.87478
G1 X19.354 Y-62.216 E14.9633
G1 X20.052 Y-62.206 E15.03643
G1 X20.633 Y-62.157 E15.09752
G1 X21.203 Y-62.03 E15.1587
G1 X21.75 Y-61.826 E15.21987
G1 X22.263 Y-61.549 E15.28095
G1 X22.734 Y-61.205 E15.34206
G1 X23.154 Y-60.8 E15.40319
G1 X23.514 Y-60.341 E15.4643
G1 X23.808 Y-59.837 E15.52543
G1 X24.031 Y-59.298 E15.58655
G1 X24.178 Y-58.733 E15.64771
G1 X24.249 Y-58.066 E15.71799
G1 X24.26 Y-57.626 E15.7641
G1 X24.26 Y-32.618 E18.38417
G1 X24.249 Y-31.889 E18.46056
G1 X24.198 Y-31.296 E18.52292
G1 X24.109 Y-30.727 E18.58326
G1 X23.816 Y-29.021 E18.76461
G1 X23.433 Y-26.323 E19.05011
G1 X23.13 Y-23.653 E19.33164
G1 X22.897 Y-20.922 E19.61881
G1 X22.748 Y-18.264 E19.89772
G1 X22.66 Y-14.146 E20.32926
G1 X22.66 Y-5.433 E21.24212
G1 X22.65 Y-4.706 E21.31829
G1 X22.602 Y-4.125 E21.37937
G1 X22.475 Y-3.555 E21.44055
G1 X22.271 Y-3.009 E21.50162
G1 X21.995 Y-2.495 E21.56274
G1 X21.651 Y-2.024 E21.62385
G1 X21.246 Y-1.604 E21.68498
G1 X20.787 Y-1.243 E21.74616
G1 X20.283 Y-.949 E21.80729
G1 X19.744 Y-.726 E21.8684
G1 X19.179 Y-.579 E21.92957
G1 X18.51 Y-.507 E22.00006
G1 X18.07 Y-.496 E22.04618
G0 F1200 X18.07 Y-1.336
G1 F600 X-18.137 Y-1.336 E25.83956
G1 X-18.835 Y-1.345 E25.9127
G1 X-19.356 Y-1.392 E25.9675
G1 X-19.863 Y-1.517 E26.02221
G1 X-20.345 Y-1.719 E26.07697
G1 X-20.792 Y-1.991 E26.13179
G1 X-21.191 Y-2.328 E26.18651
G1 X-21.534 Y-2.723 E26.24131
G1 X-21.813 Y-3.164 E26.29599
G1 X-22.022 Y-3.644 E26.35084
G1 X-22.155 Y-4.149 E26.40555
G1 X-22.21 Y-4.673 E26.46075
G1 X-22.22 Y-5.098 E26.50529
G1 X-22.22 Y-16.476 E27.69736
G1 X-22.259 Y-19.264 E27.98948
G1 X-22.376 Y-22.002 E28.2766
G1 X-22.567 Y-24.707 E28.56071
G1 X-22.836 Y-27.419 E28.84624
G1 X-23.202 Y-30.267 E29.14708
G1 X-23.376 Y-31.482 E29.27567
G1 X-23.419 Y-32.19 E29.34998
G1 X-23.42 Y-57.328 E31.98368
G1 X-23.411 Y-57.993 E32.05335
G1 X-23.364 Y-58.514 E32.10816
G1 X-23.238 Y-59.021 E32.1629
G1 X-23.036 Y-59.503 E32.21765
G1 X-22.764 Y-59.949 E32.27238
G1 X-22.426 Y-60.348 E32.32717
G1 X-22.032 Y-60.691 E32.3819
G1 X-21.59 Y-60.97 E32.43666
G1 X-21.11 Y-61.179 E32.49151
G1 X-20.605 Y-61.311 E32.54619
G1 X-20.087 Y-61.366 E32.60077
G1 X-19.67 Y-61.376 E32.64447
G1 X19.342 Y-61.376 E36.73174
G1 X20.04 Y-61.366 E36.80487
G1 X20.561 Y-61.318 E36.85969
G1 X21.068 Y-61.192 E36.91442
G1 X21.55 Y-60.99 E36.96918
G1 X21.995 Y-60.717 E37.02387
G1 X22.394 Y-60.379 E37.07866
G1 X22.737 Y-59.985 E37.13339
G1 X23.016 Y-59.542 E37.18824
G1 X23.224 Y-59.063 E37.24295
G1 X23.356 Y-58.557 E37.29774
G1 X23.41 Y-58.042 E37.35199
G1 X23.42 Y-57.626 E37.39559
G1 X23.42 Y-32.63 E40.0144
G1 X23.409 Y-31.901 E40.09079
G1 X23.368 Y-31.425 E40.14085
G1 X23.281 Y-30.869 E40.19981
G1 X22.984 Y-29.138 E40.38381
G1 X22.6 Y-26.437 E40.66964
G1 X22.294 Y-23.742 E40.95381
G1 X22.061 Y-21.008 E41.24129
G1 X21.907 Y-18.272 E41.52839
G1 X21.82 Y-14.164 E41.95888
G1 X21.82 Y-5.445 E42.87236
G1 X21.81 Y-4.718 E42.94854
G1 X21.763 Y-4.197 E43.00334
G1 X21.637 Y-3.69 E43.05808
G1 X21.435 Y-3.208 E43.11283
G1 X21.162 Y-2.762 E43.16762
G1 X20.825 Y-2.363 E43.22234
G1 X20.43 Y-2.02 E43.27714
G1 X19.988 Y-1.741 E43.33191
G1 X19.509 Y-1.533 E43.38662
G1 X19.003 Y-1.4 E43.44143
G1 X18.486 Y-1.346 E43.49589
G1 X18.07 Y-1.336 E43.53949
G1 F2400 E37.53949
;MESH:CR2016Organizer_10_v02.stl
G0 F1200 X17.126 Y-4.091
G0 X17.126 Y-6.03
G0 X17.07 Y-26.626
G0 X17.14 Y-26.696
;TYPE:WALL-INNER
G1 F2400 E43.53949
G1 F600 X17.14 Y-6.016 E45.70612
G1 X-17.54 Y-6.016 E49.33953
G1 X-17.54 Y-26.696 E51.50616
G1 X17.14 Y-26.696 E55.13956
G0 F1200 X17.07 Y-26.626
G0 X17.88 Y-27.436
;TYPE:WALL-OUTER
G1 F600 X17.88 Y-5.276 E57.46125
G1 X-18.28 Y-5.276 E61.24971
G1 X-18.28 Y-27.436 E63.5714
G1 X17.88 Y-27.436 E67.35987
G0 F1200 X17.88 Y-27.036
G0 X17.07 Y-26.626
G0 X16.31 Y-25.866
;TYPE:SKIN
G1 F600 X16.31 Y-6.846 E69.35258
G1 X-16.71 Y-6.846 E72.81207
G1 X-16.71 Y-25.866 E74.80478
G1 X16.31 Y-25.866 E78.26427
G0 F1200 X-15.899 Y-7.655
G1 F600 X-14.783 Y-7.655 E78.38119
G1 X-15.9 Y-8.772 E78.54669
G1 X-15.9 Y-9.96 E78.67116
G1 X-13.595 Y-7.655 E79.01268
G1 X-12.407 Y-7.655 E79.13715
G1 X-15.9 Y-11.148 E79.65469
G1 X-15.9 Y-12.336 E79.77916
G1 X-11.219 Y-7.655 E80.47273
G1 X-10.031 Y-7.655 E80.59719
G1 X-15.9 Y-13.524 E81.46678
G1 X-15.9 Y-14.712 E81.59125
G1 X-8.843 Y-7.655 E82.63686
G1 X-7.655 Y-7.655 E82.76132
G1 X-15.9 Y-15.9 E83.98295
G1 X-15.9 Y-17.087 E84.10731
G1 X-6.467 Y-7.655 E85.50489
G1 X-5.279 Y-7.655 E85.62936
G1 X-15.9 Y-18.275 E87.20296
G1 X-15.9 Y-19.463 E87.32743
G1 X-4.092 Y-7.655 E89.07697
G1 X-2.904 Y-7.655 E89.20144
G1 X-15.9 Y-20.651 E91.12701
G1 X-15.9 Y-21.839 E91.25148
G1 X-1.716 Y-7.655 E93.35307
G1 X-.528 Y-7.655 E93.47753
G1 X-15.9 Y-23.027 E95.75515
G1 X-15.9 Y-24.215 E95.87961
G1 X0.659 Y-7.655 E98.33317
G1 X1.847 Y-7.655 E98.45764
G1 X-15.552 Y-25.055 E101.03566
G1 X-14.364 Y-25.055 E101.16013
G1 X3.035 Y-7.655 E103.73815
G1 X4.223 Y-7.655 E103.86261
G1 X-13.176 Y-25.055 E106.44063
G1 X-11.988 Y-25.055 E106.5651
G1 X5.411 Y-7.655 E109.14312
G1 X6.599 Y-7.655 E109.26759
G1 X-10.8 Y-25.055 E111.84561
G1 X-9.612 Y-25.055 E111.97007
G1 X7.787 Y-7.655 E114.54809
G1 X8.975 Y-7.655 E114.67256
G1 X-8.424 Y-25.055 E117.25058
G1 X-7.236 Y-25.055 E117.37504
G1 X10.163 Y-7.655 E119.95306
G1 X11.351 Y-7.655 E120.07753
G1 X-6.048 Y-25.055 E122.65555
G1 X-4.86 Y-25.055 E122.78002
G1 X12.539 Y-7.655 E125.35804
G1 X13.727 Y-7.655 E125.4825
G1 X-3.672 Y-25.055 E128.06052
G1 X-2.484 Y-25.055 E128.18499
G1 X14.915 Y-7.655 E130.76301
G1 X15.499 Y-7.655 E130.8242
G1 X15.499 Y-8.259 E130.88748
G1 X-1.296 Y-25.055 E133.376
G1 X-.108 Y-25.055 E133.50047
G1 X15.499 Y-9.446 E135.81305
G1 X15.499 Y-10.634 E135.93752
G1 X1.079 Y-25.055 E138.07415
G1 X2.266 Y-25.055 E138.19851
G1 X15.499 Y-11.822 E140.1592
G1 X15.499 Y-13.01 E140.28366
G1 X3.454 Y-25.055 E142.06833
G1 X4.642 Y-25.055 E142.19279
G1 X15.499 Y-14.198 E143.80143
G1 X15.499 Y-15.386 E143.9259
G1 X5.83 Y-25.055 E145.35852
G1 X7.018 Y-25.055 E145.48299
G1 X15.499 Y-16.574 E146.73958
G1 X15.499 Y-17.762 E146.86405
G1 X8.206 Y-25.055 E147.94463
G1 X9.394 Y-25.055 E148.06909
G1 X15.499 Y-18.95 E148.97365
G1 X15.499 Y-20.138 E149.09812
G1 X10.582 Y-25.055 E149.82665
G1 X11.77 Y-25.055 E149.95112
G1 X15.499 Y-21.326 E150.50363
G1 X15.499 Y-22.514 E150.62809
G1 X12.958 Y-25.055 E151.00458
G1 X14.146 Y-25.055 E151.12905
G1 X15.499 Y-23.702 E151.32952
G1 X15.499 Y-24.89 E151.45399
G1 X15.334 Y-25.055 E151.47843
G1 X15.499 Y-25.055 E151.49572
G1 F2400 E145.49572
G0 F1200 X11.862 Y-26.676
G0 X11.862 Y-28.621
G0 X11.905 Y-31.291
G0 X11.905 Y-37.046
G0 X11.914 Y-37.029
;TYPE:WALL-OUTER
G1 F2400 E151.49572
G1 F600 X11.91 Y-37.027 E151.49619
G1 X11.555 Y-37.031 E151.53338
G1 X11.293 Y-37.226 E151.5676
G1 X11.178 Y-37.421 E151.59132
G1 X11.177 Y-37.425 E151.59175
G1 X11.102 Y-37.671 E151.6187
G1 X11.098 Y-38.105 E151.66417
G1 X11.098 Y-38.186 E151.67266
G1 X11.231 Y-38.425 E151.70131
G1 X11.491 Y-38.559 E151.73196
G1 X11.691 Y-38.58 E151.75303
G1 X11.77 Y-38.563 E151.76149
G1 X12.047 Y-38.5 E151.79125
G1 X12.239 Y-38.284 E151.82153
G1 X12.301 Y-38.088 E151.84307
G1 X12.302 Y-37.528 E151.90174
G1 X12.149 Y-37.178 E151.94176
G1 X11.914 Y-37.029 E151.97091
G0 F1200 X11.91 Y-37.027
G0 X11.555 Y-37.031
G0 X11.523 Y-37.055
G0 X11.649 Y-37.564
;TYPE:SKIN
G1 F600 X11.71 Y-37.928 E152.00467
G0 F1200 X11.461 Y-37.903
G1 F2400 E146.00467
G0 F1200 X3.269 Y-38.173
G0 X2.766 Y-37.147
G0 X2.8 Y-37.05
;TYPE:WALL-OUTER
G1 F2400 E152.00467
G1 F600 X2.592 Y-37.016 E152.02675
G1 X2.376 Y-37.05 E152.04966
G1 X2.327 Y-37.079 E152.05563
G1 X2.232 Y-37.136 E152.06723
G1 X2.102 Y-37.307 E152.08974
G1 X2.082 Y-37.361 E152.09577
G1 X1.981 Y-37.634 E152.12627
G1 X1.893 Y-38.157 E152.18183
G1 X1.864 Y-38.825 E152.25188
G1 X1.895 Y-39.546 E152.32749
G1 X1.979 Y-40.063 E152.38237
G1 X2.082 Y-40.344 E152.41373
G1 X2.096 Y-40.382 E152.41797
G1 X2.222 Y-40.542 E152.4393
G1 X2.33 Y-40.603 E152.4523
G1 X2.371 Y-40.626 E152.45723
G1 X2.604 Y-40.661 E152.48191
G1 X2.827 Y-40.626 E152.50556
G1 X2.862 Y-40.606 E152.50978
G1 X2.965 Y-40.545 E152.52233
G1 X3.089 Y-40.38 E152.54395
G1 X3.105 Y-40.335 E152.54895
G1 X3.204 Y-40.058 E152.57977
G1 X3.287 Y-39.534 E152.63536
G1 X3.317 Y-38.826 E152.7096
G1 X3.288 Y-38.171 E152.77829
G1 X3.2 Y-37.654 E152.83324
G1 X3.093 Y-37.366 E152.86542
G1 X3.074 Y-37.313 E152.87132
G1 X2.943 Y-37.137 E152.89431
G1 X2.849 Y-37.08 E152.90583
G1 X2.8 Y-37.05 E152.91185
G0 F1200 X2.592 Y-37.016
G0 X2.404 Y-37.045
G0 X2.535 Y-37.768
;TYPE:SKIN
G1 F600 X2.558 Y-38.17 E152.94361
G1 X2.681 Y-40.168 E153.1015
G0 F1200 X2.397 Y-39.778
G1 F2400 E147.1015
G0 F1200 X-6.073 Y-39.811
G0 X-6.515 Y-39.445
;TYPE:WALL-OUTER
G1 F2400 E153.1015
G1 F600 X-6.812 Y-39.42 E153.13273
G1 X-8.145 Y-39.42 E153.27238
G1 X-8.145 Y-40.51 E153.38658
G1 X-6.848 Y-40.51 E153.52247
G1 X-6.531 Y-40.486 E153.55577
G1 X-6.518 Y-40.486 E153.55714
G1 X-6.255 Y-40.384 E153.58669
G1 X-6.174 Y-40.353 E153.59578
G1 X-6.052 Y-40.166 E153.61917
G1 X-6.054 Y-39.806 E153.65689
G1 X-6.06 Y-39.795 E153.6582
G1 X-6.19 Y-39.584 E153.68417
G1 X-6.27 Y-39.55 E153.69327
G1 X-6.515 Y-39.445 E153.7212
G0 F1200 X-6.812 Y-39.42
G0 X-6.914 Y-39.42
G0 X-6.875 Y-39.968
;TYPE:SKIN
G1 F600 X-7.295 Y-39.964 E153.73171
G1 X-6.501 Y-40.017 E153.75163
G0 F1200 X-6.893 Y-39.67
G1 F2400 E147.75163
G0 F1200 X-3.937 Y-39.07
G0 X-3.543 Y-38.897
;TYPE:WALL-INNER
G1 F2400 E153.75163
G1 F600 X-3.747 Y-38.702 E153.78119
G1 X-3.643 Y-39.001 E153.78644
G1 X-3.452 Y-38.983 E153.80231
G1 X-3.543 Y-38.897
G1 F2400 E147.80231
G0 F1200 X-11.465 Y-38.706
G0 X-12.501 Y-37.856
G1 F2400 E153.80231
G1 F600 X-12.786 Y-37.804 E153.83266
G1 X-13.001 Y-37.83 E153.85535
G1 X-13.279 Y-38.003 E153.88965
G1 X-13.292 Y-38.023 E153.89215
G1 X-13.397 Y-38.185 E153.91238
G1 X-13.485 Y-38.458 E153.94243
G1 X-13.524 Y-38.866 E153.98537
G1 X-13.487 Y-39.27 E154.02787
G1 X-13.402 Y-39.54 E154.05753
G1 X-13.196 Y-39.787 E154.09123
G1 X-13.053 Y-39.846 E154.10743
G1 X-12.789 Y-39.876 E154.13527
G1 X-12.483 Y-39.828 E154.16772
G1 X-12.313 Y-39.724 E154.1886
G1 X-11.796 Y-38.728 E154.30617
G1 X-12.313 Y-37.983 E154.40118
G1 X-12.482 Y-37.869 E154.42254
G1 X-12.501 Y-37.856 E154.42495
G1 F2400 E148.42495
G0 F1200 X-11.465 Y-38.706
G0 X4.863 Y-40.63
G0 X15.328 Y-39.677
G1 F2400 E154.42495
G1 F600 X15.127 Y-40.071 E154.47129
G1 X14.084 Y-42.109 E154.71115
G1 X13.053 Y-42.845 E154.84387
G1 X11.815 Y-43.055 E154.97542
G1 X10.8 Y-42.908 E155.08287
G1 X9.909 Y-42.439 E155.18836
G1 X9.667 Y-42.174 E155.22596
G1 X9.232 Y-41.699 E155.29344
G1 X8.893 Y-41.002 E155.37465
G1 X8.893 Y-41.699 E155.38771
G1 X8.893 Y-42.343 E155.43644
G1 X8.893 Y-42.912 E155.49605
G1 X6.575 Y-42.912 E155.73891
G1 X5.036 Y-41.878 E155.93316
G1 X4.49 Y-42.475 E156.01792
G1 X3.596 Y-42.918 E156.12245
G1 X2.61 Y-43.052 E156.2267
G1 X1.612 Y-42.921 E156.33216
G1 X0.711 Y-42.486 E156.43698
G1 X0.417 Y-42.173 E156.48197
G1 X0.397 Y-42.152 E156.48501
G1 X0.361 Y-42.196
G1 X0.254 Y-42.325 E156.49498
G1 X-.412 Y-42.752 E156.57787
G1 X-1.148 Y-42.977 E156.6585
G1 X-1.924 Y-43.045 E156.74011
G1 X-2.665 Y-42.978 E156.81806
G1 X-3.374 Y-42.755 E156.89593
G1 X-4.012 Y-42.36 E156.97455
G1 X-4.296 Y-42.061 E157.01776
G1 X-4.308 Y-42.049 E157.01953
G1 X-4.331 Y-42.075
G1 X-4.44 Y-42.197 E157.0292
G1 X-5.143 Y-42.622 E157.11526
G1 X-5.921 Y-42.85 E157.2002
G1 X-6.696 Y-42.912 E157.28166
G1 X-10.7 Y-42.912 E157.70115
G1 X-10.7 Y-42.82 E157.71079
G1 X-10.7 Y-42.55 E157.73908
G1 X-10.835 Y-42.61
G1 X-11.3 Y-42.82 E157.77309
G1 X-12.025 Y-42.99 E157.85111
G1 X-12.814 Y-43.045 E157.93398
G1 X-13.894 Y-42.93 E158.04777
G1 X-14.905 Y-42.547 E158.16103
G1 X-15.759 Y-41.884 E158.27431
G1 X-16.382 Y-41.001 E158.38753
G1 X-16.735 Y-39.976 E158.5011
G1 X-16.841 Y-38.881 E158.61636
G1 X-16.792 Y-38.109 E158.69741
G1 X-16.642 Y-37.392 E158.77415
G1 X-16.378 Y-36.715 E158.85028
G1 X-15.998 Y-36.099 E158.92611
G1 X-15.503 Y-35.57 E159.00202
G1 X-14.908 Y-35.151 E159.07826
G1 X-14.243 Y-34.855 E159.15452
G1 X-13.532 Y-34.682 E159.23119
G1 X-12.781 Y-34.628 E159.31007
G1 X-12.032 Y-34.689 E159.3888
G1 X-11.311 Y-34.879 E159.46692
G1 X-10.888 Y-35.083 E159.51612
G1 X-10.7 Y-35.175 E159.53805
G1 X-10.7 Y-34.879 E159.55021
G1 X-10.7 Y-34.696 E159.5557
G1 X-7.405 Y-34.696 E159.90091
G1 X-7.405 Y-35.326 E159.96692
G1 X-7.405 Y-35.327 E159.96702
G1 X-7.405 Y-36.765 E160.11768
G1 X-6.631 Y-35.552 E160.19607
G1 X-6.085 Y-34.696 E160.30244
G1 X1.223 Y-34.696 E161.0681
G1 X1.223 Y-34.756 E161.07438
G1 X1.223 Y-34.946 E161.09429
G1 X1.324 Y-34.895
G1 X1.596 Y-34.756 E161.11041
G1 X2.582 Y-34.62 E161.21469
G1 X3.57 Y-34.757 E161.31919
G1 X4.029 Y-34.99 E161.37312
G1 X4.179 Y-35.066 E161.39074
G1 X4.179 Y-34.757 E161.40312
G1 X4.179 Y-34.696
G1 X10.286 Y-34.696 E162.04295
G1 X10.286 Y-34.75 E162.04861
G1 X10.286 Y-34.99 E162.07375
G1 X10.401 Y-34.935
G1 X10.782 Y-34.75 E162.09932
G1 X11.727 Y-34.623 E162.19921
G1 X12.578 Y-34.715 E162.28889
G1 X13.361 Y-35.017 E162.37682
G1 X14.026 Y-35.541 E162.46552
G1 X14.507 Y-36.229 E162.55347
G1 X14.777 Y-37.011 E162.64014
G1 X14.859 Y-37.845 E162.72794
G1 X14.778 Y-38.637 E162.81135
G1 X14.651 Y-39.001 E162.85174
G1 X14.517 Y-39.386 E162.89445
G1 X14.427 Y-39.514 E162.91085
G1 X14.491 Y-39.525
G1 X14.892 Y-39.597 E162.94003
G1 X14.893 Y-39.598 E162.94017
G1 X15.328 Y-39.677 E162.96792
G0 F1200 X18.74 Y-56.696
G1 F600 X18.74 Y-33.216 E165.42791
G1 X-18.74 Y-33.216 E169.35466
G1 X-18.74 Y-56.696 E171.81465
G1 X18.74 Y-56.696 E175.74141
G0 F1200 X19.48 Y-57.436
;TYPE:WALL-OUTER
G1 F600 X19.48 Y-32.476 E178.35645
G1 X-19.48 Y-32.476 E182.43827
G1 X-19.48 Y-57.436 E185.05331
G1 X19.48 Y-57.436 E189.13513
G0 F1200 X19.48 Y-57.036
G0 X18.97 Y-56.926
G0 X14.696 Y-40.473
G0 X14.215 Y-40.228
G1 F600 X14.209 Y-40.24 E189.13654
G1 X13.507 Y-41.612 E189.298
G1 X12.762 Y-42.144 E189.39391
G1 X11.806 Y-42.306 E189.4955
G1 X11.032 Y-42.194 E189.57744
G1 X10.368 Y-41.844 E189.65608
G1 X9.85 Y-41.279 E189.73639
G1 X9.497 Y-40.552 E189.82106
G1 X9.296 Y-39.692 E189.91359
G1 X9.232 Y-38.701 E190.01763
G1 X9.289 Y-37.863 E190.10563
G1 X9.294 Y-37.779 E190.11445
G1 X9.462 Y-37.098 E190.18793
G1 X9.294 Y-37.098
G1 X9.209 Y-37.098 E190.19623
G1 X8.153 Y-37.098 E190.30686
