;FLAVOR:Marlin
;TIME:4592
;Filament used: 7.66713m
;Layer height: 0.3
;MINX:-51.26
;MINY:-59.202
;MINZ:0.3
;MAXX:51.26
;MAXY:2.518
;MAXZ:21.3
;Generated with Cura_SteamEngine 4.10.0
M140 S60
M105
M190 S60
M104 S205
M105
M109 S205
M82 ;absolute extrusion mode
G21        ;metric values
G90        ;absolute positioning
M107       ;start with the fan off
G28   ;move to endstops

;Z-Offset Reset und dann Z +0,1 für PLA
;MacroZOffset0
;MacroZOffsetPlus0100

G92 E0                  ;zero the extruded length
G1 F200 E3              ;extrude 3mm of feed stock
G92 E0                  ;zero the extruded length again
G1 F120
;Put printing message on LCD screen
M117 Printing...
G92 E0
G92 E0
G1 F2400 E-6
;LAYER_COUNT:71
;LAYER:0
M107
G0 F1200 X45.07 Y2.518 Z0.3
;TYPE:SKIRT
G1 F2400 E0
G1 F600 X-45.148 Y2.518 E9.45209
G1 X-45.846 Y2.509 E9.52522
G1 X-46.427 Y2.461 E9.5863
G1 X-46.997 Y2.335 E9.64746
G1 X-47.544 Y2.132 E9.70859
G1 X-48.058 Y1.856 E9.76971
G1 X-48.53 Y1.512 E9.8309
G1 X-48.95 Y1.107 E9.89203
G1 X-49.311 Y0.649 E9.95313
G1 X-49.606 Y0.146 E10.01423
G1 X-49.829 Y-.393 E10.07534
G1 X-49.977 Y-.958 E10.13653
G1 X-50.049 Y-1.636 E10.20796
G1 X-50.06 Y-2.084 E10.25491
G1 X-50.06 Y-13.45 E11.44572
G1 X-50.099 Y-16.238 E11.73785
G1 X-50.214 Y-18.93 E12.02015
G1 X-50.404 Y-21.62 E12.30268
G1 X-50.672 Y-24.319 E12.58684
G1 X-51.027 Y-27.085 E12.87901
G1 X-51.208 Y-28.349 E13.01279
G1 X-51.258 Y-29.152 E13.09708
G1 X-51.26 Y-29.272 E13.10966
G1 X-51.26 Y-54.326 E15.73455
G1 X-51.251 Y-54.991 E15.80423
G1 X-51.203 Y-55.572 E15.86531
G1 X-51.076 Y-56.142 E15.92649
G1 X-50.873 Y-56.688 E15.98752
G1 X-50.596 Y-57.202 E16.04869
G1 X-50.252 Y-57.674 E16.10988
G1 X-49.847 Y-58.094 E16.17101
G1 X-49.389 Y-58.454 E16.23205
G1 X-48.885 Y-58.749 E16.29323
G1 X-48.346 Y-58.972 E16.35434
G1 X-47.781 Y-59.119 E16.41551
G1 X-47.11 Y-59.191 E16.48621
G1 X-46.67 Y-59.202 E16.53232
G1 X46.354 Y-59.202 E26.2784
G1 X47.052 Y-59.192 E26.35153
G1 X47.633 Y-59.143 E26.41262
G1 X48.203 Y-59.016 E26.4738
G1 X48.75 Y-58.812 E26.53497
G1 X49.263 Y-58.535 E26.59605
G1 X49.734 Y-58.191 E26.65716
G1 X50.154 Y-57.786 E26.71828
G1 X50.514 Y-57.327 E26.7794
G1 X50.808 Y-56.823 E26.84053
G1 X51.031 Y-56.284 E26.90164
G1 X51.178 Y-55.719 E26.96281
G1 X51.249 Y-55.052 E27.03309
G1 X51.26 Y-54.612 E27.0792
G1 X51.26 Y-29.604 E29.69927
G1 X51.249 Y-28.875 E29.77566
G1 X51.198 Y-28.282 E29.83802
G1 X51.109 Y-27.713 E29.89835
G1 X50.816 Y-26.007 E30.07971
G1 X50.433 Y-23.309 E30.36521
G1 X50.13 Y-20.639 E30.64674
G1 X49.897 Y-17.908 E30.9339
G1 X49.748 Y-15.25 E31.21282
G1 X49.66 Y-11.132 E31.64436
G1 X49.66 Y-2.419 E32.55721
G1 X49.65 Y-1.692 E32.63339
G1 X49.602 Y-1.111 E32.69447
G1 X49.475 Y-.541 E32.75565
G1 X49.271 Y0.005 E32.81672
G1 X48.995 Y0.519 E32.87784
G1 X48.651 Y0.99 E32.93895
G1 X48.246 Y1.41 E33.00007
G1 X47.787 Y1.771 E33.06126
G1 X47.283 Y2.065 E33.12239
G1 X46.744 Y2.288 E33.1835
G1 X46.179 Y2.435 E33.24466
G1 X45.51 Y2.507 E33.31516
G1 X45.07 Y2.518 E33.36127
G0 F1200 X45.07 Y1.678
G1 F600 X-45.137 Y1.678 E42.81221
G1 X-45.835 Y1.669 E42.88534
G1 X-46.356 Y1.622 E42.94015
G1 X-46.863 Y1.497 E42.99486
G1 X-47.345 Y1.295 E43.04961
G1 X-47.792 Y1.023 E43.10443
G1 X-48.191 Y0.686 E43.15915
G1 X-48.534 Y0.291 E43.21396
G1 X-48.813 Y-.15 E43.26863
G1 X-49.022 Y-.63 E43.32348
G1 X-49.155 Y-1.135 E43.3782
G1 X-49.21 Y-1.659 E43.4334
G1 X-49.22 Y-2.084 E43.47794
G1 X-49.22 Y-13.462 E44.67
G1 X-49.259 Y-16.25 E44.96213
G1 X-49.376 Y-18.988 E45.24925
G1 X-49.567 Y-21.693 E45.53336
G1 X-49.836 Y-24.405 E45.81889
G1 X-50.202 Y-27.253 E46.11972
G1 X-50.376 Y-28.468 E46.24832
G1 X-50.419 Y-29.176 E46.32263
G1 X-50.42 Y-54.314 E48.95632
G1 X-50.411 Y-54.979 E49.026
G1 X-50.364 Y-55.5 E49.08081
G1 X-50.238 Y-56.007 E49.13554
G1 X-50.036 Y-56.489 E49.1903
G1 X-49.764 Y-56.935 E49.24503
G1 X-49.426 Y-57.334 E49.29981
G1 X-49.032 Y-57.677 E49.35454
G1 X-48.59 Y-57.956 E49.40931
G1 X-48.11 Y-58.165 E49.46416
G1 X-47.605 Y-58.297 E49.51884
G1 X-47.087 Y-58.352 E49.57342
G1 X-46.67 Y-58.362 E49.61712
G1 X46.342 Y-58.362 E59.36193
G1 X47.04 Y-58.352 E59.43507
G1 X47.561 Y-58.304 E59.48988
G1 X48.068 Y-58.178 E59.54462
G1 X48.55 Y-57.976 E59.59937
G1 X48.995 Y-57.703 E59.65407
G1 X49.394 Y-57.365 E59.70886
G1 X49.737 Y-56.971 E59.76359
G1 X50.016 Y-56.528 E59.81844
G1 X50.224 Y-56.049 E59.87315
G1 X50.356 Y-55.543 E59.92794
G1 X50.41 Y-55.028 E59.98219
G1 X50.42 Y-54.612 E60.02578
G1 X50.42 Y-29.616 E62.6446
G1 X50.409 Y-28.887 E62.72099
G1 X50.368 Y-28.411 E62.77104
G1 X50.281 Y-27.855 E62.83
G1 X49.984 Y-26.124 E63.01401
G1 X49.6 Y-23.423 E63.29984
G1 X49.294 Y-20.728 E63.584
G1 X49.061 Y-17.994 E63.87148
G1 X48.907 Y-15.258 E64.15858
G1 X48.82 Y-11.15 E64.58907
G1 X48.82 Y-2.431 E65.50256
G1 X48.81 Y-1.704 E65.57873
G1 X48.763 Y-1.183 E65.63354
G1 X48.637 Y-.676 E65.68827
G1 X48.435 Y-.194 E65.74303
G1 X48.162 Y0.252 E65.79781
G1 X47.825 Y0.651 E65.85253
G1 X47.43 Y0.994 E65.90734
G1 X46.988 Y1.273 E65.9621
G1 X46.509 Y1.481 E66.01681
G1 X46.003 Y1.614 E66.07163
G1 X45.486 Y1.668 E66.12609
G1 X45.07 Y1.678 E66.16969
G1 F2400 E60.16969
;MESH:CR2025Organizer_20_v02.stl
G0 F1200 X44.126 Y-1.077
G0 X44.126 Y-3.016
G0 X44.07 Y-23.612
G0 X44.14 Y-23.682
;TYPE:WALL-INNER
G1 F2400 E66.16969
G1 F600 X44.14 Y-3.002 E68.33632
G1 X-44.54 Y-3.002 E77.62727
G1 X-44.54 Y-23.682 E79.7939
G1 X44.14 Y-23.682 E89.08485
G0 F1200 X44.07 Y-23.612
G0 X44.88 Y-24.422
;TYPE:WALL-OUTER
G1 F600 X44.88 Y-2.262 E91.40654
G1 X-45.28 Y-2.262 E100.85256
G1 X-45.28 Y-24.422 E103.17425
G1 X44.88 Y-24.422 E112.62026
G0 F1200 X44.88 Y-24.022
G0 X44.07 Y-23.612
G0 X43.31 Y-22.852
;TYPE:SKIN
G1 F600 X43.31 Y-3.832 E114.61297
G1 X-43.71 Y-3.832 E123.73001
G1 X-43.71 Y-22.852 E125.72272
G1 X43.31 Y-22.852 E134.83976
G0 F1200 X-42.899 Y-4.642
G1 F600 X-42.656 Y-4.642 E134.86522
G1 X-42.899 Y-4.885 E134.90122
G1 X-42.899 Y-6.073 E135.02569
G1 X-41.468 Y-4.642 E135.23771
G1 X-40.28 Y-4.642 E135.36218
G1 X-42.899 Y-7.261 E135.75023
G1 X-42.899 Y-8.449 E135.87469
G1 X-39.092 Y-4.642 E136.43876
G1 X-37.904 Y-4.642 E136.56323
G1 X-42.899 Y-9.637 E137.30332
G1 X-42.899 Y-10.825 E137.42779
G1 X-36.716 Y-4.642 E138.3439
G1 X-35.528 Y-4.642 E138.46836
G1 X-42.899 Y-12.013 E139.5605
G1 X-42.899 Y-13.2 E139.68486
G1 X-34.34 Y-4.642 E140.95294
G1 X-33.152 Y-4.642 E141.07741
G1 X-42.899 Y-14.388 E142.52151
G1 X-42.899 Y-15.576 E142.64598
G1 X-31.964 Y-4.642 E144.2661
G1 X-30.776 Y-4.642 E144.39057
G1 X-42.899 Y-16.764 E146.18671
G1 X-42.899 Y-17.952 E146.31118
G1 X-29.588 Y-4.642 E148.28335
G1 X-28.4 Y-4.642 E148.40781
G1 X-42.899 Y-19.14 E150.556
G1 X-42.899 Y-20.328 E150.68047
G1 X-27.213 Y-4.642 E153.00461
G1 X-26.025 Y-4.642 E153.12907
G1 X-42.899 Y-21.516 E155.62923
G1 X-42.898 Y-22.041 E155.68424
G1 X-42.236 Y-22.041 E155.75359
G1 X-24.837 Y-4.642 E158.33154
G1 X-23.649 Y-4.642 E158.45601
G1 X-41.048 Y-22.041 E161.03395
G1 X-39.861 Y-22.041 E161.15831
G1 X-22.461 Y-4.642 E163.73633
G1 X-21.273 Y-4.642 E163.8608
G1 X-38.673 Y-22.041 E166.43882
G1 X-37.485 Y-22.041 E166.56329
G1 X-20.085 Y-4.642 E169.14131
G1 X-18.897 Y-4.642 E169.26577
G1 X-36.297 Y-22.041 E171.84379
G1 X-35.109 Y-22.041 E171.96826
G1 X-17.709 Y-4.642 E174.54628
G1 X-16.521 Y-4.642 E174.67074
G1 X-33.921 Y-22.041 E177.24877
G1 X-32.733 Y-22.041 E177.37323
G1 X-15.333 Y-4.642 E179.95125
G1 X-14.145 Y-4.642 E180.07572
G1 X-31.545 Y-22.041 E182.65374
G1 X-30.357 Y-22.041 E182.7782
G1 X-12.957 Y-4.642 E185.35622
G1 X-11.769 Y-4.642 E185.48069
G1 X-29.169 Y-22.041 E188.05871
G1 X-27.981 Y-22.041 E188.18318
G1 X-10.581 Y-4.642 E190.7612
G1 X-9.393 Y-4.642 E190.88566
G1 X-26.793 Y-22.041 E193.46368
G1 X-25.605 Y-22.041 E193.58815
G1 X-8.205 Y-4.642 E196.16617
G1 X-7.018 Y-4.642 E196.29053
G1 X-24.417 Y-22.041 E198.86848
G1 X-23.229 Y-22.041 E198.99294
G1 X-5.83 Y-4.642 E201.57089
G1 X-4.642 Y-4.642 E201.69536
G1 X-22.041 Y-22.041 E204.2733
G1 X-20.853 Y-22.041 E204.39777
G1 X-3.454 Y-4.642 E206.97571
G1 X-2.266 Y-4.642 E207.10018
G1 X-19.666 Y-22.041 E209.6782
G1 X-18.478 Y-22.041 E209.80267
G1 X-1.078 Y-4.642 E212.38069
G1 X0.109 Y-4.642 E212.50505
G1 X-17.29 Y-22.041 E215.08299
G1 X-16.102 Y-22.041 E215.20746
G1 X1.297 Y-4.642 E217.78541
G1 X2.485 Y-4.642 E217.90987
G1 X-14.914 Y-22.041 E220.48782
G1 X-13.726 Y-22.041 E220.61228
G1 X3.673 Y-4.642 E223.19023
G1 X4.861 Y-4.642 E223.3147
G1 X-12.538 Y-22.041 E225.89264
G1 X-11.35 Y-22.041 E226.01711
G1 X6.049 Y-4.642 E228.59506
G1 X7.237 Y-4.642 E228.71952
G1 X-10.162 Y-22.041 E231.29747
G1 X-8.974 Y-22.041 E231.42193
G1 X8.425 Y-4.642 E233.99988
G1 X9.613 Y-4.642 E234.12435
G1 X-7.786 Y-22.041 E236.70229
G1 X-6.598 Y-22.041 E236.82676
G1 X10.801 Y-4.642 E239.4047
G1 X11.988 Y-4.642 E239.52907
G1 X-5.41 Y-22.041 E242.10694
G1 X-4.222 Y-22.041 E242.2314
G1 X13.176 Y-4.642 E244.80928
G1 X14.364 Y-4.642 E244.93374
G1 X-3.034 Y-22.041 E247.51161
G1 X-1.846 Y-22.041 E247.63608
G1 X15.552 Y-4.642 E250.21395
G1 X16.74 Y-4.642 E250.33842
G1 X-.659 Y-22.041 E252.91636
G1 X0.528 Y-22.041 E253.04073
G1 X17.928 Y-4.642 E255.61875
G1 X19.116 Y-4.642 E255.74321
G1 X1.716 Y-22.041 E258.32123
G1 X2.904 Y-22.041 E258.4457
G1 X20.304 Y-4.642 E261.02372
G1 X21.492 Y-4.642 E261.14819
G1 X4.092 Y-22.041 E263.72621
G1 X5.28 Y-22.041 E263.85067
G1 X22.68 Y-4.642 E266.42869
G1 X23.868 Y-4.642 E266.55316
G1 X6.468 Y-22.041 E269.13118
G1 X7.656 Y-22.041 E269.25564
G1 X25.056 Y-4.642 E271.83366
G1 X26.244 Y-4.642 E271.95813
G1 X8.844 Y-22.041 E274.53615
G1 X10.032 Y-22.041 E274.66062
G1 X27.432 Y-4.642 E277.23864
G1 X28.62 Y-4.642 E277.3631
G1 X11.22 Y-22.041 E279.94112
G1 X12.408 Y-22.041 E280.06559
G1 X29.808 Y-4.642 E282.64361
G1 X30.996 Y-4.642 E282.76808
G1 X13.596 Y-22.041 E285.3461
G1 X14.784 Y-22.041 E285.47056
G1 X32.183 Y-4.642 E288.04851
G1 X33.371 Y-4.642 E288.17297
G1 X15.972 Y-22.041 E290.75092
G1 X17.16 Y-22.041 E290.87539
G1 X34.559 Y-4.642 E293.45333
G1 X35.747 Y-4.642 E293.5778
G1 X18.348 Y-22.041 E296.15575
G1 X19.535 Y-22.041 E296.28011
G1 X36.935 Y-4.642 E298.85813
G1 X38.123 Y-4.642 E298.98259
G1 X20.723 Y-22.041 E301.56061
G1 X21.911 Y-22.041 E301.68508
G1 X39.311 Y-4.642 E304.2631
G1 X40.499 Y-4.642 E304.38757
G1 X23.099 Y-22.041 E306.96559
G1 X24.287 Y-22.041 E307.09005
G1 X41.687 Y-4.642 E309.66807
G1 X42.499 Y-4.642 E309.75315
G1 X42.499 Y-5.018 E309.79254
G1 X25.475 Y-22.041 E312.31485
G1 X26.663 Y-22.041 E312.43931
G1 X42.499 Y-6.206 E314.7856
G1 X42.499 Y-7.394 E314.91007
G1 X27.851 Y-22.041 E317.08033
G1 X29.039 Y-22.041 E317.2048
G1 X42.499 Y-8.582 E319.19905
G1 X42.499 Y-9.77 E319.32351
G1 X30.227 Y-22.041 E321.14174
G1 X31.415 Y-22.041 E321.2662
G1 X42.499 Y-10.958 E322.9084
G1 X42.499 Y-12.145 E323.03276
G1 X32.603 Y-22.041 E324.49902
G1 X33.791 Y-22.041 E324.62348
G1 X42.499 Y-13.333 E325.91372
G1 X42.499 Y-14.521 E326.03818
G1 X34.979 Y-22.041 E327.15239
G1 X36.167 Y-22.041 E327.27686
G1 X42.499 Y-15.709 E328.21505
G1 X42.499 Y-16.897 E328.33952
G1 X37.355 Y-22.041 E329.10168
G1 X38.542 Y-22.041 E329.22604
G1 X42.499 Y-18.085 E329.81226
G1 X42.499 Y-19.273 E329.93673
G1 X39.73 Y-22.041 E330.34693
G1 X40.918 Y-22.041 E330.4714
G1 X42.499 Y-20.461 E330.70557
G1 X42.499 Y-21.649 E330.83004
G1 X42.106 Y-22.041 E330.88819
G1 X42.499 Y-22.042 E330.92937
G1 F2400 E324.92937
G0 F1200 X44.126 Y-23.668
G0 X44.126 Y-25.607
G0 X44.126 Y-28.277
G0 X44.126 Y-29.922
G0 X45.74 Y-53.682
;TYPE:WALL-INNER
G1 F2400 E330.92937
G1 F600 X45.74 Y-30.202 E333.38935
G1 X-45.74 Y-30.202 E342.97366
G1 X-45.74 Y-53.682 E345.43365
G1 X45.74 Y-53.682 E355.01795
G0 F1200 X-8.818 Y-41.171
G0 X-9.548 Y-35.527
G0 X-5.965 Y-34.922
G1 F600 X-6.203 Y-34.882 E355.04324
G1 X-6.486 Y-34.938 E355.07346
G1 X-6.508 Y-34.961 E355.0768
G1 X-6.547 Y-35.052 E355.08717
G1 X-6.687 Y-35.372 E355.12377
G1 X-6.742 Y-35.5 E355.13836
G1 X-6.75 Y-35.517 E355.14033
G1 X-6.614 Y-35.595 E355.15384
G1 X-6.409 Y-35.713 E355.17862
G1 X-6.194 Y-35.739 E355.1965
G1 X-5.94 Y-35.698 E355.22051
G1 X-5.821 Y-35.582 E355.23792
G1 X-5.787 Y-35.384 E355.25897
G1 X-5.834 Y-35.073 E355.28982
G1 X-5.965 Y-34.922 E355.31076
G0 F1200 X-6.886 Y-35.351
G0 X-9.861 Y-35.781
G1 F600 X-9.869 Y-35.78 E355.3116
G1 X-9.861 Y-35.787 E355.31177
G1 X-9.861 Y-35.781
G0 F1200 X-10.238 Y-35.16
G1 F600 X-10.202 Y-35.034 E355.3255
G1 X-10.296 Y-35.034 E355.32665
G1 X-10.682 Y-35.034 E355.35166
G1 X-10.407 Y-35.271 E355.35863
G1 X-10.296 Y-35.367
G1 X-10.238 Y-35.16 E355.36455
G0 F1200 X-9.251 Y-38.073
G0 X-9.232 Y-39.216
G0 X-9.635 Y-40.22
G0 X-10.174 Y-41.427
G0 X-11.453 Y-41.828
G0 X-18.178 Y-41.871
G0 X-19.879 Y-41.511
G0 X-21.149 Y-40.383
G0 X-21.246 Y-38.641
G0 X-21.979 Y-36.782
G0 X-21.931 Y-35.751
G0 X-21.007 Y-34.181
G0 X-20.201 Y-32.965
G0 X-19.074 Y-31.781
G0 X-17.347 Y-31.781
G0 X-15.837 Y-32.556
G0 X-12.209 Y-38.184
G1 F600 X-12.527 Y-37.858 E355.41226
G1 X-12.455 Y-38.231 E355.4163
G1 X-12.398 Y-38.52 E355.44319
G1 X-12.39 Y-38.557 E355.44715
G1 X-12.35 Y-38.627 E355.4556
G1 X-12.342 Y-38.64 E355.4572
G1 X-12.244 Y-38.647 E355.46063
G1 X-12.06 Y-38.661 E355.47996
G1 X-12.026 Y-38.664 E355.48354
G1 X-12.029 Y-38.615
G1 X-12.037 Y-38.528 E355.48753
G1 X-12.044 Y-38.451
G1 X-12.092 Y-38.373
G1 X-12.209 Y-38.184 E355.49351
G0 F1200 X-14.06 Y-36.547
G1 F600 X-14.282 Y-36.343 E355.5251
G1 X-14.275 Y-36.746 E355.53928
G1 X-14.274 Y-36.78
G1 X-14.303 Y-37.445 E355.60902
G1 X-14.216 Y-37.438
G1 X-13.789 Y-37.399 E355.63281
G1 X-13.36 Y-37.359 E355.67796
G1 X-13.131 Y-37.337 E355.70206
G1 X-13.38 Y-37.137 E355.71231
G1 X-13.764 Y-36.811 E355.74169
G1 X-13.849 Y-36.739 E355.7436
G1 X-14.06 Y-36.547 E355.75466
G0 F1200 X-15.283 Y-33.204
G0 X-16.54 Y-32.068
G0 X-20.435 Y-31.682
G1 F600 X-20.435 Y-31.935 E355.78117
G1 X-20.435 Y-32.274 E355.81669
G1 X-20.158 Y-32.082 E355.8265
G1 X-19.947 Y-31.935 E355.83933
G1 X-19.107 Y-31.64 E355.93261
G1 X-18.211 Y-31.547 E356.02699
G1 X-17.312 Y-31.64 E356.12168
G1 X-16.472 Y-31.937 E356.21502
G1 X-16.246 Y-32.093 E356.24379
G1 X-15.96 Y-32.292 E356.2803
G1 X-15.96 Y-31.937 E356.29117
G1 X-15.96 Y-31.682 E356.3041
G1 X-8.367 Y-31.682 E357.09961
G1 X-8.367 Y-31.929 E357.12549
G1 X-8.367 Y-32.069 E357.14016
G1 X-8.2 Y-31.973 E357.14598
G1 X-8.124 Y-31.929
G1 X-7.518 Y-31.712 E357.21341
G1 X-6.883 Y-31.591 E357.28114
G1 X-6.21 Y-31.551 E357.35177
G1 X-5.418 Y-31.609 E357.43497
G1 X-4.661 Y-31.793 E357.51659
G1 X-3.957 Y-32.122 E357.59801
G1 X-3.341 Y-32.596 E357.67944
G1 X-2.846 Y-33.193 E357.76069
G1 X-2.496 Y-33.883 E357.84175
G1 X-2.298 Y-34.63 E357.92272
G1 X-2.236 Y-35.419 E358.00563
G1 X-2.296 Y-36.145 E358.08196
G1 X-2.488 Y-36.843 E358.1578
G1 X-2.821 Y-37.486 E358.23367
G1 X-3.284 Y-38.046 E358.30979
G1 X-3.857 Y-38.503 E358.38658
G1 X-3.912 Y-38.53 E358.393
G1 X-3.857 Y-38.53
G1 X-3.284 Y-38.53 E358.40809
G1 X-2.686 Y-38.53 E358.46756
G1 X-2.686 Y-41.882 E358.81875
G1 X-9.487 Y-41.882 E359.53128
G1 X-9.509 Y-41.517 E359.56959
G1 X-9.532 Y-41.154 E359.6077
G1 X-9.843 Y-41.371 E359.62087
G1 X-10.103 Y-41.553 E359.64103
G1 X-10.747 Y-41.82 E359.71407
G1 X-11.43 Y-41.968 E359.78728
G1 X-12.152 Y-42.013 E359.86307
G1 X-12.833 Y-41.967 E359.93459
G1 X-13.491 Y-41.82 E360.00522
G1 X-14.112 Y-41.561 E360.07572
G1 X-14.673 Y-41.19 E360.14618
G1 X-15.15 Y-40.72 E360.21634
G1 X-15.24 Y-40.587 E360.23317
G1 X-15.268 Y-40.621
G1 X-15.304 Y-40.664
G1 X-15.69 Y-41.127 E360.27755
G1 X-16.428 Y-41.634 E360.37136
G1 X-17.275 Y-41.928 E360.46529
G1 X-18.176 Y-42.015 E360.56013
G1 X-19.089 Y-41.929 E360.65621
G1 X-19.943 Y-41.645 E360.7505
G1 X-20.692 Y-41.143 E360.84496
G1 X-21.067 Y-40.702 E360.90561
G1 X-21.129 Y-40.629 E360.91565
G1 X-21.19 Y-40.697
G1 X-21.596 Y-41.151 E360.96188
G1 X-22.172 Y-41.553 E361.03547
G1 X-22.815 Y-41.82 E361.10842
G1 X-23.499 Y-41.968 E361.18174
G1 X-24.22 Y-42.013 E361.25743
G1 X-24.903 Y-41.966 E361.32915
G1 X-25.559 Y-41.819 E361.39959
G1 X-26.179 Y-41.561 E361.46994
G1 X-26.741 Y-41.19 E361.54049
G1 X-27.218 Y-40.721 E361.61058
G1 X-27.273 Y-40.64 E361.62084
G1 X-27.353 Y-40.521 E361.63586
G1 X-27.387 Y-40.556
G1 X-27.842 Y-41.023 E361.68365
G1 X-28.457 Y-41.424 E361.76057
