; generated by PrusaSlicer 2.8.1+win64 on 2024-11-24 at 19:28:57 UTC

; 

; external perimeters extrusion width = 0.42mm
; perimeters extrusion width = 0.45mm
; infill extrusion width = 0.45mm
; solid infill extrusion width = 0.45mm
; top infill extrusion width = 0.42mm
; support material extrusion width = 0.42mm
; first layer extrusion width = 0.50mm

; external perimeters extrusion width = 0.42mm
; perimeters extrusion width = 0.45mm
; infill extrusion width = 0.45mm
; solid infill extrusion width = 0.45mm
; top infill extrusion width = 0.42mm
; support material extrusion width = 0.42mm
; first layer extrusion width = 0.50mm

; external perimeters extrusion width = 0.42mm
; perimeters extrusion width = 0.45mm
; infill extrusion width = 0.45mm
; solid infill extrusion width = 0.45mm
; top infill extrusion width = 0.42mm
; support material extrusion width = 0.42mm
; first layer extrusion width = 0.50mm

M201 X1000 Y1000 Z1000 E5000 ; sets maximum accelerations, mm/sec^2
M203 X200 Y200 Z12 E120 ; sets maximum feedrates, mm / sec
M204 S1250 T1250 ; sets acceleration (S) and retract acceleration (R), mm/sec^2
M205 X8.00 Y8.00 Z0.40 E1.50 ; sets the jerk limits, mm/sec
M205 S0 T0 ; sets the minimum extruding and travel feed rate, mm/sec
;TYPE:Custom
; Initial setups
G90 ; use absolute coordinates
M83 ; extruder relative mode
M220 S100 ; reset speed factor to 100%
M221 S100 ; reset extrusion rate to 100%

; Set the heating
M190 S0 ; wait for bed to heat up
M104 S205 ; start nozzle heating but don't wait

; Home
G1 Z3 F3000 ; move z up little to prevent scratching of surface
G28 ; home all axes
G1 X3 Y3 F5000 ; move to corner of the bed to avoid ooze over centre

; Wait for final heating
M109 S205 ; wait for the nozzle to heat up
M190 S0 ; wait for the bed to heat up

; Return to prime position, Prime line routine
G92 E0 ; Reset Extruder
G1 Z3 F3000 ; move z up little to prevent scratching of surface
G1 X10 Y.5 Z0.25 F5000.0 ; Move to start position
G1 X100 Y.5 Z0.25 F1500.0 E15 ; Draw the first line
G1 X100 Y.2 Z0.25 F5000.0 ; Move to side a little
G1 X10 Y.2 Z0.25 F1500.0 E30 ; Draw the second line
G92 E0 ; Reset Extruder
M221 S95
G21 ; set units to millimeters
G90 ; use absolute coordinates
M83 ; use relative distances for extrusion
; Filament gcode
M107
;LAYER_CHANGE
;Z:0.4
;HEIGHT:0.4
G1 E-.8 F2400
G1 Z1 F4800
G1 X138.053 Y89.032
G1 Z.4
G1 E.8 F2400
M204 S1250
;TYPE:External perimeter
;WIDTH:0.5
G1 F1200
G1 X138.663 Y89.019 E.03992
G1 X139.298 Y89.068 E.04167
G1 X139.931 Y89.166 E.04191
G1 X140.706 Y89.343 E.05201
G1 X141.217 Y89.506 E.0351
G1 X142.072 Y89.843 E.06013
G1 X142.908 Y90.288 E.06197
G1 X143.65 Y90.768 E.05782
G1 X144.08 Y91.105 E.03575
G1 X144.713 Y91.665 E.0553
G1 X145.131 Y92.108 E.03985
G1 X145.669 Y92.758 E.05521
G1 X146.016 Y93.26 E.03993
G1 X146.473 Y94.027 E.05842
G1 X146.705 Y94.507 E.03488
G1 X147.072 Y95.405 E.06347
G1 X147.308 Y96.185 E.05332
G1 X147.428 Y96.744 E.03741
G1 X147.556 Y97.548 E.05327
G1 X147.621 Y98.519 E.06368
G1 X147.599 Y99.358 E.05492
G1 X147.521 Y100.025 E.04394
G1 X147.343 Y101.015 E.06582
G1 X147.041 Y102.05 E.07055
G1 X146.646 Y102.906 E.06168
G1 X146.266 Y103.585 E.05091
G1 X145.93 Y104.069 E.03855
G1 X145.566 Y104.538 E.03885
G1 X145.188 Y104.954 E.03678
G1 X144.378 Y105.747 E.07417
G1 X143.548 Y106.407 E.06938
G1 X142.693 Y106.949 E.06624
G1 X141.73 Y107.433 E.07052
G1 X140.778 Y107.807 E.06692
G1 X139.859 Y108.063 E.06242
G1 X139.169 Y108.198 E.046
G1 X138.518 Y108.282 E.04295
G1 X137.866 Y108.317 E.04272
G1 X136.999 Y108.313 E.05673
G1 X135.936 Y108.209 E.06989
G1 X134.962 Y108.016 E.06497
G1 X134.088 Y107.741 E.05995
G1 X133.277 Y107.374 E.05825
G1 X132.699 Y107.03 E.04401
G1 X131.848 Y106.436 E.0679
G1 X131.226 Y105.915 E.05309
G1 X130.758 Y105.458 E.0428
G1 X130.352 Y105.007 E.03971
G1 X129.724 Y104.183 E.06779
G1 X129.172 Y103.286 E.06891
G1 X128.765 Y102.423 E.06243
G1 X128.441 Y101.549 E.06099
G1 X128.204 Y100.651 E.06077
G1 X128.06 Y99.762 E.05893
G1 X127.997 Y98.771 E.06497
G1 X128.027 Y97.956 E.05336
G1 X128.134 Y97.073 E.0582
G1 X128.33 Y96.192 E.05905
G1 X128.588 Y95.392 E.055
G1 X128.899 Y94.657 E.05222
G1 X129.198 Y94.085 E.04223
G1 X129.506 Y93.582 E.03859
G1 X129.967 Y92.94 E.05171
G1 X130.465 Y92.359 E.05007
G1 X131.016 Y91.821 E.05039
G1 X131.542 Y91.384 E.04474
G1 X132.145 Y90.961 E.04819
G1 X132.668 Y90.658 E.03955
G1 X133.494 Y90.266 E.05982
G1 X134.225 Y89.998 E.05094
G1 X135.073 Y89.634 E.06038
G1 X135.802 Y89.381 E.05049
G1 X136.515 Y89.194 E.04823
G1 X137.029 Y89.106 E.03412
G1 X137.787 Y89.038 E.0498
G1 X137.933 Y89.034 E.00956
M204 S20000
G1 X137.933 Y89.034 F4800
G1 X138.052 Y88.618
M204 S1250
;TYPE:Perimeter
G1 F1200
G1 X138.664 Y88.604 E.04005
G1 X139.33 Y88.655 E.0437
G1 X139.995 Y88.757 E.04402
G1 X140.804 Y88.941 E.05429
G1 X141.343 Y89.111 E.03698
G1 X142.229 Y89.459 E.06228
G1 X143.103 Y89.923 E.06475
G1 X143.881 Y90.423 E.06051
G1 X144.336 Y90.779 E.0378
G1 X144.992 Y91.359 E.05729
G1 X145.433 Y91.824 E.04193
G1 X145.991 Y92.497 E.0572
G1 X146.357 Y93.025 E.04204
G1 X146.832 Y93.82 E.0606
G1 X147.078 Y94.328 E.03693
G1 X147.458 Y95.256 E.06561
G1 X147.705 Y96.067 E.05547
G1 X147.833 Y96.657 E.0395
G1 X147.966 Y97.491 E.05526
G1 X148.035 Y98.528 E.068
G1 X148.013 Y99.369 E.05505
G1 X147.932 Y100.073 E.04637
G1 X147.748 Y101.098 E.06814
G1 X147.437 Y102.172 E.07316
G1 X147.021 Y103.083 E.06553
G1 X146.619 Y103.8 E.05378
G1 X146.27 Y104.306 E.04022
G1 X145.893 Y104.792 E.04025
G1 X145.147 Y105.603 E.0721
G1 X144.534 Y106.167 E.0545
G1 X143.801 Y106.735 E.06068
G1 X142.896 Y107.31 E.07016
G1 X141.907 Y107.807 E.07242
G1 X140.922 Y108.195 E.06927
G1 X139.968 Y108.462 E.06482
G1 X138.94 Y108.646 E.06833
G1 X138.438 Y108.701 E.03304
G1 X137.587 Y108.746 E.05576
G1 X136.984 Y108.727 E.03947
G1 X135.887 Y108.62 E.07212
G1 X134.878 Y108.422 E.06728
G1 X133.964 Y108.136 E.06266
G1 X133.045 Y107.719 E.06603
G1 X132.327 Y107.291 E.05469
G1 X131.605 Y106.771 E.05822
G1 X131.209 Y106.444 E.0336
G1 X130.468 Y105.754 E.06625
G1 X130.044 Y105.284 E.04142
G1 X129.393 Y104.432 E.07016
G1 X128.818 Y103.5 E.07165
G1 X128.39 Y102.599 E.06527
G1 X128.05 Y101.688 E.06362
G1 X127.804 Y100.756 E.06307
G1 X127.651 Y99.828 E.06154
G1 X127.583 Y98.793 E.06787
G1 X127.613 Y97.941 E.05578
G1 X127.723 Y97.018 E.06082
G1 X127.926 Y96.102 E.06139
G1 X128.194 Y95.265 E.0575
G1 X128.518 Y94.496 E.0546
G1 X128.831 Y93.893 E.04445
G1 X129.153 Y93.365 E.04047
G1 X129.63 Y92.699 E.0536
G1 X130.151 Y92.089 E.05249
G1 X130.751 Y91.502 E.05492
G1 X131.278 Y91.065 E.0448
G1 X131.907 Y90.622 E.05034
G1 X132.461 Y90.3 E.04193
G1 X133.323 Y89.888 E.06251
G1 X134.091 Y89.606 E.05353
G1 X134.905 Y89.256 E.05798
G1 X135.675 Y88.987 E.05337
G1 X136.417 Y88.792 E.0502
G1 X136.959 Y88.698 E.03599
G1 X137.753 Y88.625 E.05217
G1 X137.932 Y88.621 E.01172
;WIPE_START
G1 F3840
G1 X138.052 Y88.618 E-.07127
G1 X138.664 Y88.604 E-.36347
G1 X139.278 Y88.651 E-.36526
;WIPE_END
M204 S20000
G1 Z1 F4800
G1 X122.78 Y97.169
G1 Z.4
G1 E.8 F2400
M204 S1250
;TYPE:External perimeter
G1 F1200
G1 X122.781 Y97.107 E.00406
G1 X122.838 Y96.37 E.04837
G1 X122.918 Y95.737 E.04175
G1 X123.044 Y95.003 E.04873
G1 X123.205 Y94.292 E.0477
G1 X123.444 Y93.451 E.05721
G1 X123.621 Y92.916 E.03687
G1 X123.897 Y92.207 E.04978
G1 X124.296 Y91.336 E.06269
G1 X124.907 Y90.221 E.08319
G1 X125.323 Y89.574 E.05033
G1 X125.731 Y89.007 E.04571
G1 X126.255 Y88.354 E.05478
G1 X126.85 Y87.692 E.05824
G1 X127.214 Y87.322 E.03396
G1 X127.938 Y86.664 E.06401
G1 X128.384 Y86.295 E.03788
G1 X128.995 Y85.839 E.04988
G1 X129.724 Y85.358 E.05715
G1 X130.237 Y85.051 E.03912
G1 X131.062 Y84.62 E.0609
G1 X131.519 Y84.405 E.03305
G1 X132.22 Y84.114 E.04966
G1 X133.051 Y83.825 E.05757
G1 X133.545 Y83.676 E.03376
G1 X134.41 Y83.465 E.05826
G1 X134.951 Y83.356 E.03611
G1 X135.697 Y83.246 E.04934
G1 X136.418 Y83.174 E.04741
G1 X137.066 Y83.139 E.04246
G1 X138.312 Y83.155 E.08153
G1 X139.042 Y83.213 E.04792
G1 X139.682 Y83.295 E.04222
G1 X140.402 Y83.421 E.04783
G1 X141.239 Y83.615 E.05622
G1 X141.771 Y83.762 E.03611
G1 X142.588 Y84.037 E.0564
G1 X143.323 Y84.33 E.05177
G1 X143.838 Y84.56 E.0369
G1 X144.527 Y84.91 E.05057
G1 X145.182 Y85.287 E.04945
G1 X145.884 Y85.747 E.05492
G1 X146.397 Y86.113 E.04123
G1 X147.079 Y86.664 E.05737
G1 X147.694 Y87.218 E.05416
G1 X148.078 Y87.595 E.03521
G1 X148.635 Y88.201 E.05386
G1 X149.163 Y88.844 E.05444
G1 X149.515 Y89.317 E.03858
G1 X149.966 Y89.989 E.05295
G1 X150.407 Y90.733 E.05659
G1 X150.662 Y91.211 E.03545
G1 X151.03 Y91.995 E.05667
G1 X151.354 Y92.806 E.05714
G1 X151.522 Y93.283 E.03309
G1 X151.722 Y93.949 E.0455
G1 X151.892 Y94.62 E.04529
G1 X152.033 Y95.32 E.04672
G1 X152.159 Y96.205 E.05849
G1 X152.211 Y96.717 E.03367
G1 X152.249 Y97.367 E.0426
G1 X152.257 Y97.93 E.03684
G1 X152.229 Y98.765 E.05467
G1 X152.185 Y99.35 E.03839
G1 X152.095 Y100.061 E.04689
G1 X151.971 Y100.774 E.04735
G1 X151.825 Y101.424 E.04359
G1 X151.574 Y102.313 E.06044
G1 X151.389 Y102.869 E.03834
G1 X151.099 Y103.609 E.052
G1 X150.83 Y104.214 E.04332
G1 X150.354 Y105.123 E.06714
G1 X150.101 Y105.56 E.03304
G1 X149.727 Y106.141 E.04521
G1 X149.276 Y106.771 E.0507
G1 X148.765 Y107.408 E.05343
G1 X148.33 Y107.903 E.04312
G1 X147.789 Y108.457 E.05067
G1 X147.092 Y109.09 E.06161
G1 X146.683 Y109.43 E.0348
G1 X145.929 Y109.986 E.0613
G1 X145.254 Y110.429 E.05283
G1 X144.773 Y110.718 E.03672
G1 X144.17 Y111.04 E.04473
G1 X143.485 Y111.366 E.04964
G1 X142.861 Y111.624 E.04418
G1 X142.005 Y111.925 E.05937
G1 X141.461 Y112.09 E.0372
G1 X140.697 Y112.28 E.05151
G1 X139.917 Y112.43 E.05197
G1 X139.387 Y112.511 E.03508
G1 X138.657 Y112.586 E.04802
G1 X138.011 Y112.623 E.04234
G1 X136.767 Y112.612 E.0814
G1 X136.026 Y112.556 E.04862
G1 X135.219 Y112.449 E.05327
G1 X134.673 Y112.354 E.03626
G1 X133.731 Y112.134 E.06329
G1 X133.229 Y111.996 E.03406
G1 X132.403 Y111.715 E.05709
G1 X131.865 Y111.507 E.03774
G1 X131.151 Y111.189 E.05114
G1 X130.316 Y110.755 E.06157
G1 X129.874 Y110.5 E.03339
G1 X129.03 Y109.944 E.06613
G1 X128.601 Y109.636 E.03456
G1 X128.061 Y109.204 E.04525
G1 X127.426 Y108.643 E.05544
G1 X126.884 Y108.109 E.04978
G1 X126.443 Y107.631 E.04255
G1 X125.897 Y106.972 E.056
G1 X125.483 Y106.419 E.0452
G1 X125.044 Y105.765 E.05154
G1 X124.697 Y105.187 E.04411
G1 X124.291 Y104.418 E.0569
G1 X124.016 Y103.835 E.04218
G1 X123.685 Y103.013 E.05798
G1 X123.506 Y102.51 E.03493
G1 X123.292 Y101.805 E.04821
G1 X123.135 Y101.181 E.0421
G1 X122.962 Y100.299 E.05881
G1 X122.877 Y99.735 E.03732
G1 X122.808 Y99.072 E.04362
G1 X122.767 Y98.351 E.04725
G1 X122.779 Y97.289 E.06949
M204 S20000
G1 X122.779 Y97.289 F4800
G1 X123.193 Y97.178
M204 S1250
;TYPE:Perimeter
G1 F1200
G1 X123.194 Y97.137 E.00268
G1 X123.249 Y96.42 E.04705
G1 X123.327 Y95.804 E.04063
G1 X123.448 Y95.093 E.04719
G1 X123.605 Y94.401 E.04643
G1 X123.838 Y93.579 E.0559
G1 X124.008 Y93.064 E.03549
G1 X124.276 Y92.374 E.04843
G1 X124.666 Y91.522 E.06131
G1 X125.257 Y90.443 E.0805
G1 X125.661 Y89.814 E.04891
G1 X126.056 Y89.263 E.04436
G1 X126.567 Y88.626 E.05343
G1 X127.025 Y88.107 E.04529
G1 X127.497 Y87.624 E.04419
G1 X128.205 Y86.981 E.06258
G1 X128.633 Y86.626 E.03638
G1 X129.229 Y86.182 E.04863
G1 X129.939 Y85.712 E.05571
G1 X130.434 Y85.415 E.03777
G1 X131.079 Y85.071 E.04783
G1 X131.68 Y84.787 E.04349
G1 X132.36 Y84.503 E.04822
G1 X133.028 Y84.266 E.04638
G1 X133.648 Y84.077 E.04241
G1 X134.494 Y83.87 E.05699
G1 X135.015 Y83.765 E.03478
G1 X135.743 Y83.658 E.04815
G1 X136.443 Y83.588 E.04603
G1 X137.071 Y83.553 E.04115
G1 X138.281 Y83.568 E.07918
G1 X138.992 Y83.624 E.04667
G1 X139.613 Y83.703 E.04096
G1 X140.313 Y83.825 E.04649
G1 X141.131 Y84.015 E.05495
G1 X141.643 Y84.156 E.03475
G1 X142.439 Y84.423 E.05494
G1 X143.156 Y84.709 E.05051
G1 X143.652 Y84.93 E.03553
G1 X144.322 Y85.27 E.04916
G1 X144.96 Y85.636 E.04813
G1 X145.645 Y86.085 E.05359
G1 X146.14 Y86.438 E.03978
G1 X146.806 Y86.975 E.05598
G1 X147.405 Y87.515 E.05277
G1 X147.776 Y87.878 E.03396
G1 X148.318 Y88.467 E.05237
G1 X148.832 Y89.094 E.05305
G1 X149.173 Y89.55 E.03726
G1 X149.613 Y90.204 E.05158
G1 X150.043 Y90.93 E.05521
G1 X150.289 Y91.391 E.03419
G1 X150.648 Y92.155 E.05523
G1 X150.887 Y92.732 E.04086
G1 X151.126 Y93.405 E.04673
G1 X151.321 Y94.052 E.04421
G1 X151.487 Y94.705 E.04409
G1 X151.624 Y95.385 E.04539
G1 X151.725 Y96.038 E.04323
G1 X151.798 Y96.743 E.04638
G1 X151.835 Y97.374 E.04136
G1 X151.843 Y97.919 E.03566
G1 X151.816 Y98.736 E.05349
G1 X151.773 Y99.3 E.03701
G1 X151.687 Y99.991 E.04556
G1 X151.566 Y100.685 E.04609
G1 X151.425 Y101.317 E.04237
G1 X151.18 Y102.185 E.05901
G1 X151.003 Y102.72 E.03687
G1 X150.72 Y103.442 E.05074
G1 X150.46 Y104.028 E.04195
G1 X150.121 Y104.695 E.04896
G1 X149.753 Y105.337 E.04842
G1 X149.389 Y105.902 E.04398
G1 X148.952 Y106.514 E.0492
G1 X148.453 Y107.136 E.05218
G1 X148.032 Y107.615 E.04173
G1 X147.507 Y108.154 E.04923
G1 X146.826 Y108.773 E.06022
G1 X146.433 Y109.1 E.03345
G1 X145.697 Y109.644 E.05988
G1 X145.039 Y110.075 E.05147
G1 X144.576 Y110.353 E.03534
G1 X143.99 Y110.667 E.0435
G1 X143.324 Y110.984 E.04826
G1 X142.719 Y111.235 E.04286
G1 X141.883 Y111.529 E.05798
G1 X141.359 Y111.689 E.03585
G1 X140.612 Y111.875 E.05037
G1 X139.344 Y112.099 E.08425
G1 X138.632 Y112.173 E.04684
G1 X138.005 Y112.209 E.04109
G1 X136.797 Y112.199 E.07904
G1 X136.076 Y112.145 E.04731
G1 X135.289 Y112.041 E.05194
G1 X134.761 Y111.949 E.03507
G1 X133.839 Y111.735 E.06193
G1 X133.357 Y111.602 E.03272
G1 X132.55 Y111.328 E.05576
G1 X132.032 Y111.128 E.03633
G1 X131.338 Y110.82 E.04968
G1 X130.682 Y110.486 E.04817
G1 X130.096 Y110.151 E.04417
G1 X129.269 Y109.606 E.06481
G1 X128.859 Y109.311 E.03305
G1 X128.332 Y108.892 E.04405
G1 X127.714 Y108.346 E.05396
G1 X127.187 Y107.827 E.0484
G1 X126.76 Y107.364 E.04121
G1 X126.227 Y106.722 E.0546
G1 X125.826 Y106.186 E.0438
G1 X125.398 Y105.55 E.05016
G1 X125.061 Y104.99 E.04276
G1 X124.664 Y104.239 E.05558
G1 X124.398 Y103.675 E.0408
G1 X124.074 Y102.871 E.05672
G1 X123.902 Y102.388 E.03355
G1 X123.693 Y101.703 E.04686
G1 X123.54 Y101.095 E.04102
G1 X123.371 Y100.235 E.05735
G1 X123.289 Y99.691 E.036
G1 X123.222 Y99.047 E.04237
G1 X123.181 Y98.345 E.04601
G1 X123.192 Y97.298 E.06851
;WIPE_START
G1 F3840
G1 X123.193 Y97.178 E-.07125
G1 X123.194 Y97.137 E-.02435
G1 X123.249 Y96.42 E-.42697
G1 X123.308 Y95.957 E-.27743
;WIPE_END
M204 S20000
G1 Z1 F4800
G1 X149.02 Y89.62
G1 Z.4
G1 E.8 F2400
M204 S1250
;TYPE:Solid infill
;WIDTH:0.503183
G1 F1200
G1 X147.01 Y87.622 E.18686
G1 X146.456 Y87.137 E.04855
G1 X145.881 Y86.682 E.04835
G1 X145.285 Y86.261 E.04811
G1 X144.7 Y85.89 E.04567
G1 X149.491 Y90.681 E.44674
G1 X149.955 Y91.508 E.06252
G1 X150.166 Y91.946 E.03206
G1 X143.436 Y85.216 E.62754
G1 X142.845 Y84.956 E.04257
G1 X142.424 Y84.795 E.02972
G1 X150.598 Y92.969 E.76218
G1 X150.897 Y93.858 E.06184
G1 X141.528 Y84.489 E.87361
G1 X140.726 Y84.277 E.0547
G1 X151.116 Y94.667 E.96881
G1 X151.272 Y95.413 E.05025
G1 X139.981 Y84.123 E1.05278
G1 X139.283 Y84.015 E.04657
G1 X151.379 Y96.111 E1.12789
G1 X151.447 Y96.768 E.04355
G1 X138.625 Y83.947 E1.19554
G1 X137.998 Y83.91 E.04141
G1 X151.484 Y97.395 E1.25745
G1 X151.489 Y97.991 E.0393
G1 X147.13 Y93.632 E.40645
G1 X147.522 Y94.445 E.05951
G1 X147.628 Y94.72 E.01943
G1 X151.474 Y98.567 E.35867
G1 X151.436 Y99.118 E.03642
G1 X147.938 Y95.621 E.32612
G1 X148.06 Y96.035 E.02846
G1 X148.141 Y96.414 E.02555
G1 X151.376 Y99.649 E.30165
G1 X151.3 Y100.163 E.03426
G1 X148.271 Y97.134 E.28244
G1 X148.315 Y97.448 E.02091
G1 X148.338 Y97.792 E.02273
G1 X151.21 Y100.664 E.2678
G1 X151.104 Y101.148 E.03267
G1 X148.381 Y98.424 E.25395
G1 X148.375 Y99.008 E.03851
G1 X150.981 Y101.614 E.243
G1 X150.847 Y102.071 E.0314
G1 X148.344 Y99.568 E.23339
G1 X148.283 Y100.097 E.03511
G1 X150.702 Y102.516 E.22556
G1 X150.539 Y102.943 E.03014
G1 X148.205 Y100.609 E.21763
G1 X148.104 Y101.098 E.03292
G1 X150.37 Y103.364 E.21129
G1 X150.189 Y103.774 E.02955
G1 X147.989 Y101.574 E.20514
G1 X147.848 Y102.023 E.03103
G1 X149.994 Y104.169 E.2001
G1 X149.794 Y104.559 E.0289
G1 X147.701 Y102.466 E.19516
