;FLAVOR:Marlin
;TIME:2654
;Filament used: 1.95828m
;Layer height: 0.2
;Generated with Cura_SteamEngine 3.6.0
M104 S220
M105
M109 S220
M82 ;absolute extrusion mode
G21 ;metric values
G90 ;absolute positioning
M82 ;set extruder to absolute mode
M107 ;start with the fan off
G28 X0 Y0 ;move X/Y to min endstops
G28 Z0 ;move Z to min endstops
G1 Z15.0 F120 ;move the platform down 15mm
G92 E0 ;zero the extruded length
G1 F200 E3 ;extrude 3mm of feed stock
G92 E0 ;zero the extruded length again
G1 F120
M117 Printing...
G5
G92 E0
G1 F2400 E-6
;LAYER_COUNT:90
;LAYER:0
M106 S127.5
M204 S3000
M205 X10 Y10
;MESH:Object 4
G0 F3600 X68.215 Y120.617 Z0.3
M204 S1800
M205 X8 Y8
;TYPE:WALL-INNER
G1 F2400 E0
G1 F600 X68.111 Y120.325 E0.02544
G1 X68.067 Y120.205 E0.03593
G1 X67.92 Y119.616 E0.08575
G1 X67.831 Y119.024 E0.13488
G1 X67.804 Y118.44 E0.18286
G1 X67.803 Y118.425 E0.18409
G1 X67.803 Y118.409 E0.18541
G1 X67.831 Y117.826 E0.23331
G1 X67.92 Y117.231 E0.28268
G1 X68.065 Y116.65 E0.33183
G1 X68.109 Y116.526 E0.34263
G1 X68.275 Y116.064 E0.38292
G1 X68.515 Y115.557 E0.42895
G1 X68.841 Y115.012 E0.48107
G1 X68.978 Y114.827 E0.49996
G1 X69.182 Y114.552 E0.52806
G1 X69.601 Y114.092 E0.57913
G1 X70.051 Y113.684 E0.62898
G1 X70.325 Y113.48 E0.65702
G1 X70.512 Y113.341 E0.67614
G1 X71.057 Y113.015 E0.72826
G1 X71.564 Y112.775 E0.77429
G1 X72.025 Y112.61 E0.81448
G1 X72.15 Y112.565 E0.82538
G1 X72.731 Y112.42 E0.87453
G1 X73.326 Y112.331 E0.9239
G1 X73.91 Y112.304 E0.97188
G1 X73.925 Y112.303 E0.97311
G1 X73.941 Y112.303 E0.97443
G1 X74.524 Y112.331 E1.02233
G1 X75.119 Y112.42 E1.0717
G1 X75.7 Y112.565 E1.12085
G1 X75.824 Y112.609 E1.13165
G1 X76.286 Y112.775 E1.17193
G1 X76.793 Y113.015 E1.21797
G1 X77.338 Y113.341 E1.27009
G1 X77.524 Y113.479 E1.2891
G1 X77.799 Y113.684 E1.31725
G1 X78.249 Y114.092 E1.3671
G1 X78.668 Y114.552 E1.41816
G1 X78.871 Y114.826 E1.44615
G1 X79.009 Y115.012 E1.46516
G1 X79.335 Y115.557 E1.51728
G1 X79.575 Y116.064 E1.56331
G1 X79.74 Y116.525 E1.6035
G1 X79.785 Y116.65 E1.6144
G1 X79.93 Y117.231 E1.66354
G1 X80.019 Y117.826 E1.71292
G1 X80.046 Y118.41 E1.7609
G1 X80.047 Y118.425 E1.76213
G1 X80.047 Y118.441 E1.76345
G1 X80.019 Y119.024 E1.81135
G1 X79.93 Y119.619 E1.86072
G1 X79.784 Y120.205 E1.91028
G1 X79.742 Y120.323 E1.92056
G1 X79.636 Y120.622 E1.9466
G1 X79.664 Y121.219 E1.99565
G1 X79.674 Y121.423 E2.01241
G1 X79.646 Y122.028 E2.06212
G1 X79.559 Y122.638 E2.11268
G1 X79.418 Y123.224 E2.16215
G1 X79.226 Y123.792 E2.21136
G1 X78.973 Y124.351 E2.26171
G1 X78.687 Y124.854 E2.3092
G1 X78.34 Y125.345 E2.35854
G1 X77.967 Y125.776 E2.40532
G1 X77.532 Y126.191 E2.45466
G1 X77.092 Y126.534 E2.50045
G1 X76.602 Y126.841 E2.5479
G1 X76.096 Y127.093 E2.5943
G1 X75.572 Y127.29 E2.64024
G1 X75.02 Y127.435 E2.68708
G1 X74.477 Y127.52 E2.73218
G1 X73.925 Y127.548 E2.77755
G1 X73.373 Y127.52 E2.82291
G1 X72.83 Y127.435 E2.86801
G1 X72.278 Y127.29 E2.91485
G1 X71.754 Y127.093 E2.96079
G1 X71.248 Y126.841 E3.00719
G1 X70.758 Y126.534 E3.05464
G1 X70.318 Y126.191 E3.10043
G1 X69.883 Y125.776 E3.14977
G1 X69.51 Y125.345 E3.19655
G1 X69.163 Y124.854 E3.24589
G1 X68.877 Y124.351 E3.29338
G1 X68.624 Y123.792 E3.34373
G1 X68.432 Y123.224 E3.39294
G1 X68.291 Y122.638 E3.44241
G1 X68.204 Y122.028 E3.49298
G1 X68.177 Y121.425 E3.54251
G1 X68.187 Y121.223 E3.55911
G1 X68.215 Y120.617 E3.6089
M204 S3000
M205 X10 Y10
G0 F3600 X70.924 Y122.555
G0 X72.348 Y123.281
G0 X73.925 Y123.53
G0 X75.502 Y123.281
G0 X76.926 Y122.555
G0 X79.417 Y120.209
M204 S1800
M205 X8 Y8
G1 F600 X79.426 Y120.15
G1 X79.52 Y119.554 E3.63638
G1 X79.614 Y118.961 E3.66535
G1 X79.699 Y118.425 E3.68868
G1 X79.615 Y117.89 E3.71188
G1 X79.521 Y117.296 E3.74095
G1 X79.428 Y116.708 E3.76796
G1 X79.417 Y116.641 E3.7694
G1 X79.217 Y116.248 E3.78773
G1 X78.962 Y115.748 E3.81498
G1 X78.675 Y115.184 E3.84438
G1 X78.596 Y115.03 E3.85051
G1 X78.393 Y114.827 E3.86178
G1 X77.953 Y114.387 E3.89114
G1 X77.525 Y113.959 E3.91967
G1 X77.32 Y113.754 E3.93103
G1 X77.168 Y113.677 E3.937
G1 X76.603 Y113.389 E3.96707
G1 X76.104 Y113.135 E3.99402
G1 X75.709 Y112.933 E4.01254
G1 X75.644 Y112.923
G1 X75.054 Y112.83 E4.03974
G1 X74.461 Y112.735 E4.06868
G1 X73.925 Y112.65 E4.09195
G1 X73.39 Y112.734 E4.11509
G1 X72.796 Y112.828 E4.14408
G1 X72.207 Y112.922 E4.17111
G1 X72.141 Y112.933 E4.17248
G1 X71.748 Y113.133 E4.19082
G1 X71.248 Y113.388 E4.21807
G1 X70.684 Y113.675 E4.24747
G1 X70.53 Y113.754 E4.25358
G1 X70.326 Y113.958 E4.2649
G1 X69.897 Y114.387 E4.29388
G1 X69.457 Y114.827 E4.32325
G1 X69.254 Y115.03 E4.33449
G1 X69.177 Y115.182 E4.34048
G1 X68.889 Y115.747 E4.37055
G1 X68.635 Y116.246 E4.3975
G1 X68.433 Y116.641 E4.41602
G1 X68.423 Y116.706
G1 X68.33 Y117.296 E4.44322
G1 X68.235 Y117.889 E4.47216
G1 X68.15 Y118.425 E4.49542
G1 X68.234 Y118.96 E4.51857
G1 X68.328 Y119.551 E4.54735
G1 X68.423 Y120.148 E4.57471
G1 X68.433 Y120.209 E4.57588
G1 X68.552 Y120.444 E4.58608
G1 X68.827 Y120.984 E4.62473
G1 X69.254 Y121.82 E4.70178
G1 X70.53 Y123.096 E4.84987
G1 X72.141 Y123.917 E4.99827
G1 X73.925 Y124.199 E5.1465
G1 X75.709 Y123.917 E5.29473
G1 X77.32 Y123.096 E5.44312
G1 X78.596 Y121.82 E5.59122
G1 X79.024 Y120.981 E5.66851
G1 X79.294 Y120.449 E5.70674
G1 X79.417 Y120.209 E5.71731
M204 S3000
M205 X10 Y10
G0 F3600 X76.926 Y122.555
G0 X75.502 Y123.281
G0 X73.925 Y123.53
G0 X72.33 Y123.338
G0 X72.36 Y123.243
M204 S1800
M205 X8 Y8
G1 F600 X73.925 Y123.49 E5.84733
G1 X75.49 Y123.243 E5.97736
G1 X76.903 Y122.523 E6.10751
G1 X78.023 Y121.403 E6.23751
G1 X78.743 Y119.99 E6.36766
G1 X78.99 Y118.425 E6.49768
G1 X78.743 Y116.86 E6.62771
G1 X78.023 Y115.447 E6.75786
G1 X76.903 Y114.327 E6.88786
G1 X75.49 Y113.607 E7.01801
G1 X73.925 Y113.359 E7.14805
G1 X72.36 Y113.607 E7.27809
G1 X70.947 Y114.327 E7.40824
G1 X69.827 Y115.447 E7.53823
G1 X69.107 Y116.86 E7.66838
G1 X68.859 Y118.425 E7.79842
G1 X69.107 Y119.99 E7.92846
G1 X69.827 Y121.403 E8.05862
G1 X70.947 Y122.523 E8.18861
G1 X72.36 Y123.243 E8.31876
M204 S3000
M205 X10 Y10
G0 F3600 X72.33 Y123.338
G0 X67.607 Y120.709
G0 X67.509 Y120.723
M204 S1800
M205 X8 Y8
G1 F600 X67.397 Y120.412 E8.34589
G1 X67.233 Y119.755 E8.40146
G1 X67.134 Y119.093 E8.45639
G1 X67.102 Y118.425 E8.51128
G1 X67.134 Y117.757 E8.56616
G1 X67.233 Y117.095 E8.6211
G1 X67.395 Y116.444 E8.67616
G1 X67.626 Y115.799 E8.73238
G1 X67.902 Y115.217 E8.78525
G1 X68.254 Y114.629 E8.84149
G1 X68.643 Y114.105 E8.89505
G1 X69.101 Y113.601 E8.95094
G1 X69.609 Y113.14 E9.00724
G1 X70.129 Y112.754 E9.06039
G1 X70.717 Y112.402 E9.11663
G1 X71.299 Y112.126 E9.16949
G1 X71.944 Y111.895 E9.22572
G1 X72.595 Y111.733 E9.28078
G1 X73.257 Y111.634 E9.33571
G1 X73.925 Y111.602 E9.39059
G1 X74.593 Y111.634 E9.44548
G1 X75.255 Y111.733 E9.50041
G1 X75.906 Y111.895 E9.55547
G1 X76.551 Y112.126 E9.6117
G1 X77.133 Y112.402 E9.66456
G1 X77.721 Y112.754 E9.7208
G1 X78.241 Y113.14 E9.77395
G1 X78.749 Y113.601 E9.83025
G1 X79.207 Y114.105 E9.88614
G1 X79.596 Y114.629 E9.9397
G1 X79.948 Y115.217 E9.99594
G1 X80.224 Y115.799 E10.04881
G1 X80.455 Y116.444 E10.10503
G1 X80.617 Y117.095 E10.16009
G1 X80.716 Y117.757 E10.21502
G1 X80.748 Y118.425 E10.26991
G1 X80.716 Y119.093 E10.3248
G1 X80.617 Y119.755 E10.37973
G1 X80.454 Y120.409 E10.43504
G1 X80.342 Y120.726 E10.46264
G1 X80.374 Y121.423 E10.5199
G1 X80.343 Y122.097 E10.57527
G1 X80.247 Y122.771 E10.63115
G1 X80.092 Y123.418 E10.68575
G1 X79.878 Y124.048 E10.74035
G1 X79.599 Y124.665 E10.79593
G1 X79.277 Y125.231 E10.84937
G1 X78.892 Y125.777 E10.9042
G1 X78.47 Y126.264 E10.95708
G1 X77.989 Y126.722 E11.01159
G1 X77.497 Y127.106 E11.06281
G1 X76.942 Y127.454 E11.11657
G1 X76.382 Y127.733 E11.16792
G1 X75.781 Y127.959 E11.22062
G1 X75.16 Y128.122 E11.27331
G1 X74.553 Y128.217 E11.32373
G1 X73.925 Y128.249 E11.37534
G1 X73.297 Y128.217 E11.42694
G1 X72.69 Y128.122 E11.47737
G1 X72.069 Y127.959 E11.53006
G1 X71.468 Y127.733 E11.58275
G1 X70.908 Y127.454 E11.6341
G1 X70.353 Y127.106 E11.68786
G1 X69.861 Y126.722 E11.73908
G1 X69.38 Y126.264 E11.79359
G1 X68.958 Y125.777 E11.84648
G1 X68.573 Y125.231 E11.90131
G1 X68.251 Y124.665 E11.95475
G1 X67.972 Y124.048 E12.01032
G1 X67.758 Y123.418 E12.06493
G1 X67.603 Y122.771 E12.11953
G1 X67.507 Y122.097 E12.1754
G1 X67.476 Y121.424 E12.23069
G1 X67.509 Y120.723 E12.28829
M204 S3000
M205 X10 Y10
G0 F3600 X66.854 Y120.822
M204 S1800
M205 X8 Y8
;TYPE:WALL-OUTER
G1 F600 X66.772 Y120.595 E12.30809
G1 X66.595 Y119.887 E12.36799
G1 X66.487 Y119.159 E12.42839
G1 X66.451 Y118.425 E12.4887
G1 X66.487 Y117.691 E12.54901
G1 X66.595 Y116.963 E12.60941
G1 X66.771 Y116.26 E12.66889
G1 X67.023 Y115.555 E12.73033
G1 X67.332 Y114.903 E12.78955
G1 X67.71 Y114.272 E12.84991
G1 X68.145 Y113.686 E12.90981
G1 X68.64 Y113.14 E12.97029
G1 X69.186 Y112.645 E13.03077
G1 X69.772 Y112.21 E13.09067
G1 X70.403 Y111.832 E13.15104
G1 X71.055 Y111.523 E13.21025
G1 X71.76 Y111.271 E13.27169
G1 X72.463 Y111.095 E13.33117
G1 X73.191 Y110.987 E13.39157
G1 X73.925 Y110.951 E13.45188
G1 X74.659 Y110.987 E13.51219
G1 X75.387 Y111.095 E13.57259
G1 X76.09 Y111.271 E13.63207
G1 X76.795 Y111.523 E13.69351
G1 X77.447 Y111.832 E13.75273
G1 X78.078 Y112.21 E13.81309
G1 X78.664 Y112.645 E13.87299
G1 X79.21 Y113.14 E13.93347
G1 X79.705 Y113.686 E13.99396
G1 X80.14 Y114.272 E14.05385
G1 X80.518 Y114.903 E14.11422
G1 X80.827 Y115.555 E14.17343
G1 X81.079 Y116.26 E14.23488
G1 X81.255 Y116.963 E14.29435
G1 X81.363 Y117.691 E14.35475
G1 X81.399 Y118.425 E14.41506
G1 X81.363 Y119.159 E14.47537
G1 X81.255 Y119.887 E14.53577
G1 X81.078 Y120.594 E14.59559
G1 X80.997 Y120.823 E14.61552
G1 X81.024 Y121.424 E14.6649
G1 X80.99 Y122.165 E14.72577
G1 X80.888 Y122.886 E14.78554
G1 X80.718 Y123.596 E14.84545
G1 X80.482 Y124.29 E14.90561
G1 X80.177 Y124.965 E14.9664
G1 X79.828 Y125.578 E15.02429
G1 X79.404 Y126.179 E15.08465
G1 X78.942 Y126.713 E15.1426
G1 X78.416 Y127.213 E15.20216
G1 X77.868 Y127.641 E15.25923
G1 X77.259 Y128.023 E15.31823
G1 X76.642 Y128.33 E15.37479
G1 X75.976 Y128.58 E15.43317
G1 X75.301 Y128.758 E15.49046
G1 X74.618 Y128.864 E15.54719
G1 X73.925 Y128.9 E15.60414
G1 X73.232 Y128.864 E15.66109
G1 X72.549 Y128.758 E15.71781
G1 X71.874 Y128.58 E15.7751
G1 X71.208 Y128.33 E15.83348
G1 X70.591 Y128.023 E15.89004
G1 X69.982 Y127.641 E15.94904
G1 X69.434 Y127.213 E16.00611
G1 X68.908 Y126.713 E16.06567
G1 X68.446 Y126.179 E16.12362
G1 X68.022 Y125.578 E16.18398
G1 X67.673 Y124.965 E16.24187
G1 X67.368 Y124.29 E16.30266
G1 X67.132 Y123.596 E16.36282
G1 X66.962 Y122.886 E16.42274
G1 X66.86 Y122.165 E16.4825
G1 X66.826 Y121.425 E16.54329
G1 X66.854 Y120.822 E16.59283
M204 S3000
M205 X10 Y10
G0 F3600 X66.772 Y120.595
G0 X66.758 Y120.538
G0 X67.487 Y120.357
G0 X68.777 Y118.541
G0 X69.517 Y118.425
M204 S1800
M205 X8 Y8
G1 F600 X69.733 Y119.787 E16.70601
G1 X70.359 Y121.016 E16.8192
G1 X71.334 Y121.991 E16.93237
G1 X72.563 Y122.617 E17.04556
G1 X73.925 Y122.832 E17.15872
G1 X75.287 Y122.617 E17.27188
G1 X76.516 Y121.991 E17.38508
G1 X77.491 Y121.016 E17.49824
G1 X78.117 Y119.787 E17.61143
G1 X78.332 Y118.425 E17.7246
G1 X78.117 Y117.063 E17.83776
G1 X77.491 Y115.834 E17.95095
G1 X76.516 Y114.859 E18.06411
G1 X75.287 Y114.233 E18.17731
G1 X73.925 Y114.017 E18.29048
G1 X72.563 Y114.233 E18.40366
G1 X71.334 Y114.859 E18.51685
G1 X70.359 Y115.834 E18.63002
G1 X69.733 Y117.063 E18.74321
G1 X69.517 Y118.425 E18.85638
M204 S3000
M205 X10 Y10
G0 F3600 X69.563 Y118.721
G0 X68.823 Y118.837
G0 X68.97 Y122.512
M204 S1800
M205 X8 Y8
;TYPE:SKIN
G1 F600 X70.12 Y123.662 E18.98986
G1 X71.926 Y124.581 E19.15616
G1 X73.925 Y124.897 E19.32226
G1 X75.924 Y124.581 E19.48835
G1 X77.73 Y123.662 E19.65465
G1 X78.88 Y122.512 E19.78813
G1 X78.754 Y123.032 E19.83204
G1 X78.582 Y123.54 E19.87605
G1 X78.354 Y124.046 E19.9216
G1 X78.11 Y124.475 E19.9621
G1 X77.798 Y124.917 E20.00651
G1 X77.465 Y125.3 E20.04816
G1 X77.076 Y125.672 E20.09233
G1 X76.698 Y125.967 E20.13168
G1 X76.256 Y126.243 E20.17445
G1 X75.829 Y126.455 E20.21357
G1 X75.365 Y126.63 E20.25427
G1 X74.876 Y126.758 E20.29576
G1 X74.411 Y126.832 E20.3344
G1 X73.925 Y126.856 E20.37433
G1 X73.439 Y126.832 E20.41427
G1 X72.974 Y126.758 E20.45291
G1 X72.485 Y126.63 E20.49439
G1 X72.021 Y126.455 E20.53509
G1 X71.594 Y126.243 E20.57422
G1 X71.152 Y125.967 E20.61698
G1 X70.774 Y125.672 E20.65634
G1 X70.385 Y125.3 E20.70051
G1 X70.052 Y124.917 E20.74216
G1 X69.74 Y124.475 E20.78656
G1 X69.496 Y124.046 E20.82707
G1 X69.268 Y123.54 E20.87261
G1 X69.096 Y123.032 E20.91663
G1 X68.97 Y122.512 E20.96054
M204 S3000
M205 X10 Y10
G0 F3600 X70.581 Y125.028
M204 S1800
M205 X8 Y8
G1 F600 X70.767 Y125.215 E20.98219
M204 S3000
M205 X10 Y10
G0 F3600 X71.034 Y124.491
M204 S1800
M205 X8 Y8
G1 F600 X72.959 Y126.416 E21.20561
M204 S3000
M205 X10 Y10
G0 F3600 X74.055 Y126.522
M204 S1800
M205 X8 Y8
G1 F600 X72.538 Y125.005 E21.38168
M204 S3000
M205 X10 Y10
G0 F3600 X73.713 Y125.191
M204 S1800
M205 X8 Y8
G1 F600 X74.929 Y126.406 E21.52275
M204 S3000
M205 X10 Y10
G0 F3600 X75.676 Y126.164
M204 S1800
M205 X8 Y8
G1 F600 X74.626 Y125.114 E21.64462
M204 S3000
M205 X10 Y10
G0 F3600 X75.481 Y124.979
M204 S1800
M205 X8 Y8
G1 F600 X76.321 Y125.819 E21.74211
M204 S3000
M205 X10 Y10
G0 F3600 X76.89 Y125.397
M204 S1800
M205 X8 Y8
G1 F600 X76.264 Y124.771 E21.81477
M204 S3000
M205 X10 Y10
G0 F3600 X76.92 Y124.438
M204 S1800
M205 X8 Y8
G1 F600 X77.382 Y124.899 E21.86833
M204 S3000
M205 X10 Y10
G0 F3600 X77.809 Y124.336
M204 S1800
M205 X8 Y8
G1 F600 X77.577 Y124.105 E21.8952
M204 S3000
M205 X10 Y10
G1 F2400 E15.8952
;MESH:Object 3
G0 F3600 X73.925 Y128.229
G0 X73.369 Y131.861
G0 X73.026 Y132.809
M204 S1800
M205 X8 Y8
;TYPE:WALL-INNER
G1 F2400 E21.8952
G1 F600 X72.836 Y132.734 E21.91197
G1 X73.07 Y132.694 E21.91551
G1 X73.228 Y132.889 E21.93439
G1 X73.026 Y132.809 E21.93524
M204 S3000
M205 X10 Y10
G0 F3600 X74.825 Y133.731
M204 S1800
M205 X8 Y8
G1 F600 X74.782 Y133.698 E21.93969
G1 X74.842 Y133.708 E21.94016
G1 X74.861 Y133.759 E21.94405
G1 X74.825 Y133.731
M204 S3000
M205 X10 Y10
G0 F3600 X70.896 Y132.558
M204 S1800
M205 X8 Y8
G1 F600 X70.81 Y132.574 E21.95123
G1 X70.451 Y132.641 E21.9812
G1 X70.248 Y132.679 E21.99815
G1 X70.448 Y132.628 E21.99831
G1 X70.793 Y132.487 E22.00089
G1 X70.838 Y132.461
G1 X71.046 Y132.34 E22.01944
G1 X71.299 Y132.487 E22.04346
G1 X71.491 Y132.565 E22.06047
G1 X71.299 Y132.563 E22.06101
G1 X71.044 Y132.56 E22.06777
G1 X70.896 Y132.558 E22.06818
M204 S3000
M205 X10 Y10
G0 F3600 X67.169 Y134.464
M204 S1800
M205 X8 Y8
G1 F600 X66.964 Y134.763 E22.09794
G1 X66.747 Y135.077 E22.12926
G1 X66.666 Y135.194 E22.14094
G1 X66.599 Y135.332 E22.15353
G1 X66.505 Y135.522 E22.17093
G1 X66.422 Y135.712 E22.18794
G1 X66.372 Y135.786 E22.19527
G1 X66.257 Y135.953 E22.21191
G1 X66.225 Y136.028 E22.21861
G1 X66.068 Y136.387 E22.25076
G1 X65.909 Y136.75 E22.28329
G1 X65.881 Y136.813 E22.28894
G1 X65.831 Y137.043 E22.30826
G1 X65.78 Y137.27 E22.32736
G1 X65.733 Y137.481 E22.3451
G1 X65.726 Y137.512 E22.34771
G1 X65.673 Y137.802 E22.3719
G1 X65.661 Y138.164 E22.40162
G1 X65.648 Y138.552 E22.43349
G1 X65.637 Y138.852 E22.45812
G1 X65.639 Y138.867 E22.45937
G1 X65.678 Y139.085 E22.47754
G1 X65.719 Y139.311 E22.49639
G1 X65.782 Y139.657 E22.52525
G1 X65.847 Y140.014 E22.55503
G1 X65.849 Y140.024 E22.55587
G1 X65.99 Y140.374 E22.58684
G1 X66.032 Y140.478 E22.59604
G1 X66.134 Y140.715 E22.61722
G1 X66.227 Y140.93 E22.63644
G1 X66.313 Y141.128 E22.65416
G1 X66.495 Y141.411 E22.68177
G1 X66.544 Y141.486 E22.68913
G1 X66.481 Y141.421
G1 X66.233 Y141.235 E22.69127
G1 X66.175 Y141.191
G1 X65.936 Y141.057 E22.70108
G1 X65.939 Y140.799 E22.70997
G1 X65.901 Y140.494 E22.71786
G1 X65.891 Y140.415 E22.71787
G1 X65.783 Y140.044 E22.72219
G1 X65.778 Y140.027
G1 X65.62 Y139.686 E22.72797
G1 X65.417 Y139.365 E22.74234
G1 X65.259 Y139.184 E22.75323
G1 X65.241 Y139.164
G1 X65.334 Y138.922 E22.76734
G1 X65.363 Y138.792 E22.76918
G1 X65.418 Y138.544 E22.77566
G1 X65.447 Y138.157 E22.78576
G1 X65.422 Y137.821 E22.79423
G1 X65.418 Y137.77
G1 X65.378 Y137.59 E22.7985
G1 X65.334 Y137.392 E22.81082
G1 X65.241 Y137.151 E22.82614
G1 X65.271 Y137.116 E22.82763
G1 X65.415 Y136.952 E22.83986
