;FLAVOR:Marlin
;TIME:677
;Filament used: 0.45837m
;Layer height: 0.2
;Generated with Cura_SteamEngine 3.6.0
M104 S220
M105
M109 S220
M82 ;absolute extrusion mode
G21 ;metric values
G90 ;absolute positioning
M82 ;set extruder to absolute mode
M107 ;start with the fan off
G28 X0 Y0 ;move X/Y to min endstops
G28 Z0 ;move Z to min endstops
G1 Z15.0 F120 ;move the platform down 15mm
G92 E0 ;zero the extruded length
G1 F200 E3 ;extrude 3mm of feed stock
G92 E0 ;zero the extruded length again
G1 F120
M117 Printing...
G5
G92 E0
G1 F2400 E-6
;LAYER_COUNT:15
;LAYER:0
M106 S127.5
M204 S3000
M205 X10 Y10
;MESH:KosselClamp_Nut.stl(2)
G0 F3600 X91.26 Y133.447 Z0.3
M204 S1800
M205 X8 Y8
;TYPE:WALL-INNER
G1 F2400 E0
G1 F600 X91.054 Y133.745 E0.02973
G1 X90.838 Y134.059 E0.06101
G1 X90.753 Y134.182 E0.07328
G1 X90.695 Y134.307 E0.08459
G1 X90.601 Y134.508 E0.1028
G1 X90.514 Y134.695 E0.11973
G1 X90.464 Y134.768 E0.12699
G1 X90.349 Y134.937 E0.14376
G1 X90.317 Y135.011 E0.15038
G1 X90.159 Y135.371 E0.18265
G1 X90.001 Y135.733 E0.21506
G1 X89.973 Y135.796 E0.22072
G1 X89.923 Y136.026 E0.24004
G1 X89.872 Y136.253 E0.25913
G1 X89.825 Y136.464 E0.27687
G1 X89.818 Y136.495 E0.27948
G1 X89.765 Y136.785 E0.30367
G1 X89.753 Y137.147 E0.3334
G1 X89.739 Y137.535 E0.36526
G1 X89.728 Y137.834 E0.38982
G1 X89.73 Y137.85 E0.39114
G1 X89.769 Y138.068 E0.40932
G1 X89.81 Y138.294 E0.42817
G1 X89.872 Y138.64 E0.45702
G1 X89.937 Y138.997 E0.4868
G1 X89.942 Y139.022 E0.48889
G1 X90.083 Y139.355 E0.51857
G1 X90.228 Y139.697 E0.54905
G1 X90.321 Y139.916 E0.56858
G1 X90.399 Y140.099 E0.58491
G1 X90.586 Y140.396 E0.61371
G1 X90.626 Y140.459 E0.61983
G1 X90.573 Y140.404
G1 X90.315 Y140.21 E0.62209
G1 X90.267 Y140.174
G1 X90.028 Y140.04 E0.63235
G1 X90.031 Y139.782 E0.64119
G1 X89.983 Y139.398 E0.65084
G1 X89.879 Y139.041 E0.65497
G1 X89.87 Y139.01
G1 X89.712 Y138.669 E0.66065
G1 X89.509 Y138.348 E0.67217
G1 X89.35 Y138.166 E0.68313
G1 X89.333 Y138.147
G1 X89.426 Y137.905 E0.69721
G1 X89.455 Y137.775 E0.69907
G1 X89.51 Y137.527 E0.70554
G1 X89.539 Y137.14 E0.71589
G1 X89.514 Y136.804 E0.72436
G1 X89.51 Y136.753
G1 X89.47 Y136.573 E0.72863
G1 X89.426 Y136.375 E0.74095
G1 X89.333 Y136.134 E0.75628
G1 X89.363 Y136.099 E0.75777
G1 X89.507 Y135.935 E0.77
G1 X89.704 Y135.625 E0.78872
G1 X89.715 Y135.608
G1 X89.878 Y135.248 E0.80303
G1 X89.985 Y134.867 E0.81859
G1 X90.014 Y134.633 E0.8309
G1 X90.034 Y134.476 E0.83945
G1 X90.028 Y134.241 E0.85571
G1 X90.202 Y134.143 E0.86917
G1 X90.266 Y134.107 E0.87195
G1 X90.541 Y133.901 E0.89197
G1 X90.573 Y133.876
G1 X90.842 Y133.6 E0.9052
G1 X91.062 Y133.302 E0.91629
G1 X91.071 Y133.289 E0.91759
G1 X91.25 Y132.946 E0.94934
G1 X91.34 Y132.691 E0.97153
G1 X91.619 Y132.645 E0.99474
G1 X91.98 Y132.534 E1.02574
G1 X92.089 Y132.482 E1.03565
G1 X92.335 Y132.364 E1.05804
G1 X92.645 Y132.153 E1.08881
G1 X92.889 Y131.938 E1.1155
G1 X92.936 Y131.896 E1.12068
G1 X93.113 Y131.678 E1.14372
G1 X93.406 Y131.727 E1.1681
G1 X93.774 Y131.746 E1.19834
G1 X93.951 Y131.728 E1.21295
G1 X94.025 Y131.72 E1.21905
G1 X93.952 Y131.734
G1 X93.794 Y131.795 E1.21939
G1 X93.479 Y131.916 E1.22617
G1 X93.241 Y132.008 E1.23392
G1 X93.026 Y132.092 E1.24078
G1 X92.736 Y132.252 E1.24909
G1 X92.716 Y132.264
G1 X92.398 Y132.463 E1.25458
G1 X92.154 Y132.616 E1.25961
G1 X92.103 Y132.664
G1 X91.854 Y132.896 E1.27295
G1 X91.681 Y133.057 E1.28654
G1 X91.505 Y133.22 E1.29684
G1 X91.26 Y133.447 E1.30798
M204 S3000
M205 X10 Y10
G0 F3600 X94.988 Y131.541
M204 S1800
M205 X8 Y8
G1 F600 X94.902 Y131.556 E1.31514
G1 X94.543 Y131.623 E1.34511
G1 X94.341 Y131.661 E1.36198
G1 X94.54 Y131.611 E1.36212
G1 X94.885 Y131.47 E1.36467
G1 X94.93 Y131.444
G1 X95.138 Y131.323 E1.38319
G1 X95.391 Y131.47 E1.4072
G1 X95.583 Y131.548 E1.42421
G1 X95.391 Y131.546 E1.42475
G1 X95.136 Y131.543 E1.43151
G1 X94.988 Y131.541 E1.43193
M204 S3000
M205 X10 Y10
G0 F3600 X97.32 Y131.873
M204 S1800
M205 X8 Y8
G1 F600 X97.117 Y131.793 E1.44984
G1 X96.927 Y131.717 E1.46663
G1 X97.162 Y131.677 E1.47024
G1 X97.32 Y131.873 E1.47387
M204 S3000
M205 X10 Y10
G0 F3600 X98.917 Y132.714
M204 S1800
M205 X8 Y8
G1 F600 X98.874 Y132.681 E1.47831
G1 X98.934 Y132.691 E1.47878
G1 X98.953 Y132.742 E1.48267
G1 X98.917 Y132.714
M204 S3000
M205 X10 Y10
G0 F3600 X100.356 Y135.868
G0 X100.568 Y137.019
G0 X100.586 Y137.669
G0 X100.521 Y138.323
G0 X100.215 Y139.453
G0 X99.809 Y140.162
G0 X99.421 Y140.639
G0 X98.497 Y141.441
G0 X97.675 Y141.885
G0 X96.841 Y142.215
G0 X95.902 Y142.339
G0 X93.085 Y142.567
M204 S1800
M205 X8 Y8
G1 F600 X93.122 Y142.579 E1.48587
G1 X93.166 Y142.594 E1.48968
G1 X93.114 Y142.603 E1.49009
G1 X93.085 Y142.567 E1.4906
M204 S3000
M205 X10 Y10
G0 F3600 X91.25 Y141.334
M204 S1800
M205 X8 Y8
G1 F600 X91.163 Y141.168 E1.50598
G1 X91.288 Y141.295 E1.50635
G1 X91.412 Y141.42 E1.52031
G1 X91.453 Y141.455 E1.52473
G1 X91.638 Y141.612 E1.54465
G1 X91.691 Y141.657 E1.55035
G1 X91.619 Y141.635
G1 X91.383 Y141.597 E1.55351
G1 X91.34 Y141.589
G1 X91.295 Y141.462 E1.55519
G1 X91.25 Y141.334 E1.55538
M204 S3000
M205 X10 Y10
G0 F3600 X91.061 Y140.626
G0 X89.378 Y133.847
G0 X89.282 Y133.879
M204 S1800
M205 X8 Y8
G1 F600 X89.254 Y133.8 E1.56226
G1 X89.249 Y133.785 E1.56356
G1 X89.259 Y133.783
G1 X89.375 Y133.757 E1.5688
G1 X89.637 Y133.657 E1.59182
G1 X89.883 Y133.519 E1.61497
G1 X90.109 Y133.349 E1.63818
G1 X90.307 Y133.146 E1.66145
G1 X90.475 Y132.917 E1.68476
G1 X90.607 Y132.665 E1.70811
G1 X90.701 Y132.4 E1.73118
G1 X90.758 Y132.121 E1.75455
G1 X90.763 Y132.007 E1.76392
G1 X90.764 Y131.996 E1.76482
G1 X90.892 Y132.013 E1.77057
G1 X91.181 Y132.008 E1.79429
G1 X91.458 Y131.962 E1.81734
G1 X91.724 Y131.88 E1.84018
G1 X91.985 Y131.755 E1.86393
G1 X92.215 Y131.599 E1.88674
G1 X92.429 Y131.41 E1.91017
G1 X92.612 Y131.185 E1.93398
G1 X92.759 Y130.943 E1.95721
G1 X92.808 Y130.826 E1.96762
G1 X92.929 Y130.888 E1.97878
G1 X93.204 Y130.983 E2.00266
G1 X93.482 Y131.03 E2.0258
G1 X93.757 Y131.044 E2.0484
G1 X94.044 Y131.015 E2.07207
G1 X94.32 Y130.945 E2.09544
G1 X94.575 Y130.84 E2.11807
G1 X94.821 Y130.698 E2.14138
G1 X95.046 Y130.517 E2.16508
G1 X95.131 Y130.426 E2.1753
G1 X95.138 Y130.418 E2.17617
G1 X95.23 Y130.517 E2.18221
G1 X95.455 Y130.698 E2.20591
G1 X95.701 Y130.84 E2.22922
G1 X95.956 Y130.945 E2.25186
G1 X96.232 Y131.015 E2.27522
G1 X96.519 Y131.044 E2.2989
G1 X96.794 Y131.03 E2.3215
G1 X97.072 Y130.983 E2.34463
G1 X97.348 Y130.887 E2.36862
G1 X97.467 Y130.826 E2.37959
G1 X97.521 Y130.949 E2.39062
G1 X97.663 Y131.184 E2.41315
G1 X97.847 Y131.41 E2.43707
G1 X98.061 Y131.599 E2.4605
G1 X98.291 Y131.755 E2.48331
G1 X98.552 Y131.88 E2.50706
G1 X98.818 Y131.962 E2.5299
G1 X99.095 Y132.008 E2.55295
G1 X99.384 Y132.013 E2.57667
G1 X99.5 Y131.998 E2.58627
G1 X99.513 Y131.996 E2.58735
G1 X99.513 Y132.009
G1 X99.517 Y132.125 E2.59252
G1 X99.578 Y132.412 E2.6166
G1 X99.669 Y132.666 E2.63874
G1 X99.801 Y132.917 E2.66201
G1 X99.969 Y133.146 E2.68532
G1 X100.167 Y133.349 E2.70859
G1 X100.393 Y133.519 E2.7318
G1 X100.638 Y133.657 E2.75488
G1 X100.909 Y133.761 E2.7787
G1 X101.027 Y133.787 E2.78862
G1 X101.024 Y133.797
G1 X100.993 Y133.893 E2.7969
G1 X100.948 Y134.176 E2.82042
G1 X100.945 Y134.457 E2.84348
G1 X100.981 Y134.74 E2.86689
G1 X101.063 Y135.023 E2.89107
G1 X101.186 Y135.287 E2.91498
G1 X101.338 Y135.524 E2.93808
G1 X101.52 Y135.729 E2.96058
G1 X101.73 Y135.912 E2.98344
G1 X101.83 Y135.976 E2.99318
G1 X101.761 Y136.066 E3.00249
G1 X101.624 Y136.313 E3.02567
G1 X101.522 Y136.578 E3.04898
G1 X101.46 Y136.856 E3.07235
G1 X101.439 Y137.14 E3.09572
G1 X101.46 Y137.424 E3.11909
G1 X101.522 Y137.702 E3.14247
G1 X101.624 Y137.967 E3.16577
G1 X101.761 Y138.214 E3.18895
G1 X101.823 Y138.296 E3.19739
G1 X101.83 Y138.304 E3.19826
G1 X101.731 Y138.367 E3.2034
G1 X101.517 Y138.553 E3.22667
G1 X101.331 Y138.766 E3.24988
G1 X101.178 Y139.007 E3.27331
G1 X101.06 Y139.268 E3.29682
G1 X100.981 Y139.539 E3.31998
G1 X100.945 Y139.823 E3.34348
G1 X100.948 Y140.104 E3.36654
G1 X100.993 Y140.387 E3.39006
G1 X101.023 Y140.482 E3.39823
G1 X101.027 Y140.494 E3.39927
G1 X100.91 Y140.519 E3.40452
G1 X100.638 Y140.623 E3.42842
G1 X100.393 Y140.761 E3.45149
G1 X100.167 Y140.931 E3.4747
G1 X99.969 Y141.134 E3.49798
G1 X99.801 Y141.363 E3.52129
G1 X99.669 Y141.615 E3.54463
G1 X99.575 Y141.88 E3.56771
G1 X99.518 Y142.159 E3.59108
G1 X99.513 Y142.273 E3.60044
G1 X99.512 Y142.284 E3.60135
G1 X99.384 Y142.267 E3.6071
G1 X99.095 Y142.272 E3.63082
G1 X98.818 Y142.318 E3.65387
G1 X98.552 Y142.4 E3.67671
G1 X98.291 Y142.525 E3.70046
G1 X98.061 Y142.681 E3.72327
G1 X97.847 Y142.87 E3.7467
G1 X97.664 Y143.095 E3.7705
G1 X97.517 Y143.337 E3.79374
G1 X97.468 Y143.454 E3.80415
G1 X97.347 Y143.392 E3.81531
G1 X97.072 Y143.297 E3.83919
G1 X96.794 Y143.25 E3.86232
G1 X96.519 Y143.236 E3.88492
G1 X96.232 Y143.265 E3.9086
G1 X95.956 Y143.335 E3.93197
G1 X95.701 Y143.44 E3.9546
G1 X95.455 Y143.582 E3.97791
G1 X95.23 Y143.763 E4.00161
G1 X95.145 Y143.854 E4.01183
G1 X95.138 Y143.862 E4.0127
G1 X95.046 Y143.763 E4.01874
G1 X94.821 Y143.582 E4.04244
G1 X94.575 Y143.44 E4.06575
G1 X94.32 Y143.335 E4.08838
G1 X94.044 Y143.265 E4.11175
G1 X93.757 Y143.236 E4.13542
G1 X93.482 Y143.25 E4.15802
G1 X93.204 Y143.297 E4.18116
G1 X92.928 Y143.393 E4.20514
G1 X92.809 Y143.454 E4.21612
G1 X92.755 Y143.331 E4.22714
G1 X92.613 Y143.096 E4.24968
G1 X92.429 Y142.87 E4.27359
G1 X92.215 Y142.681 E4.29703
G1 X91.985 Y142.525 E4.31983
G1 X91.724 Y142.4 E4.34358
G1 X91.458 Y142.318 E4.36643
G1 X91.181 Y142.272 E4.38947
G1 X90.892 Y142.267 E4.41319
G1 X90.775 Y142.282 E4.42287
G1 X90.764 Y142.284 E4.42379
G1 X90.758 Y142.159 E4.42931
G1 X90.701 Y141.88 E4.45268
G1 X90.607 Y141.615 E4.47575
G1 X90.475 Y141.363 E4.4991
G1 X90.307 Y141.134 E4.52241
G1 X90.109 Y140.931 E4.54568
G1 X89.883 Y140.761 E4.56889
G1 X89.638 Y140.623 E4.59197
G1 X89.366 Y140.519 E4.61587
G1 X89.26 Y140.497 E4.62475
G1 X89.249 Y140.494 E4.62569
G1 X89.252 Y140.484
G1 X89.286 Y140.378 E4.63065
G1 X89.328 Y140.103 E4.65348
G1 X89.331 Y139.823 E4.67646
G1 X89.295 Y139.54 E4.69987
G1 X89.213 Y139.256 E4.72413
G1 X89.096 Y139.005 E4.74686
G1 X88.946 Y138.767 E4.76995
G1 X88.759 Y138.553 E4.79327
G1 X88.546 Y138.368 E4.81642
G1 X88.446 Y138.304 E4.82617
G1 X88.515 Y138.214 E4.83547
G1 X88.652 Y137.967 E4.85866
G1 X88.754 Y137.702 E4.88196
G1 X88.816 Y137.424 E4.90533
G1 X88.837 Y137.14 E4.92871
G1 X88.816 Y136.856 E4.95208
G1 X88.754 Y136.578 E4.97545
G1 X88.652 Y136.313 E4.99876
G1 X88.515 Y136.066 E5.02194
G1 X88.453 Y135.984 E5.03037
G1 X88.446 Y135.976 E5.03125
G1 X88.546 Y135.912 E5.03645
G1 X88.759 Y135.727 E5.0596
G1 X88.945 Y135.514 E5.08281
G1 X89.098 Y135.274 E5.10617
G1 X89.218 Y135.008 E5.13012
G1 X89.297 Y134.728 E5.154
G1 X89.333 Y134.441 E5.17773
G1 X89.326 Y134.167 E5.20023
G1 X89.282 Y133.879 E5.22414
M204 S3000
M205 X10 Y10
G0 F3600 X89.378 Y133.847
G0 X94.131 Y132.372
G0 X95.047 Y132.203
G0 X95.884 Y132.213
G0 X96.733 Y132.352
G0 X97.656 Y132.702
G0 X98.685 Y133.37
G0 X99.504 Y134.226
G0 X99.737 Y134.58
G0 X100.417 Y135.863
G0 X100.318 Y135.881
M204 S1800
M205 X8 Y8
G1 F600 X99.879 Y134.867 E5.31482
G1 X99.473 Y134.251 E5.37537
G1 X99.187 Y133.901 E5.41246
G1 X98.655 Y133.397 E5.47261
G1 X98.329 Y133.144 E5.50647
G1 X97.641 Y132.738 E5.57204
G1 X97.277 Y132.608 E5.60376
G1 X96.724 Y132.39 E5.65254
G1 X95.882 Y132.252 E5.72256
G1 X95.048 Y132.242 E5.79102
G1 X94.144 Y132.41 E5.86648
G1 X93.323 Y132.728 E5.93873
G1 X93.091 Y132.856 E5.96048
G1 X92.581 Y133.174 E6.0098
G1 X91.793 Y133.907 E6.09813
G1 X91.36 Y134.535 E6.16073
G1 X91.231 Y134.803 E6.18514
G1 X91.131 Y135.032 E6.20565
G1 X90.964 Y135.277 E6.22998
G1 X90.642 Y136.014 E6.29599
G1 X90.504 Y136.633 E6.34804
G1 X90.463 Y136.86 E6.36697
G1 X90.43 Y137.784 E6.44285
G1 X90.617 Y138.821 E6.52933
G1 X91.022 Y139.776 E6.61446
G1 X91.181 Y140.032 E6.63919
G1 X91.656 Y140.67 E6.70447
G1 X91.889 Y140.907 E6.73175
G1 X92.5 Y141.425 E6.79749
G1 X93.372 Y141.924 E6.87994
G1 X94.192 Y142.195 E6.95082
G1 X95.061 Y142.345 E7.02319
G1 X95.678 Y142.33 E7.07384
G1 X95.928 Y142.331 E7.09436
G1 X96.831 Y142.177 E7.16954
G1 X97.667 Y141.846 E7.24333
G1 X97.859 Y141.779 E7.26002
G1 X98.477 Y141.407 E7.31922
G1 X98.923 Y141.061 E7.36554
G1 X99.391 Y140.613 E7.41871
G1 X99.774 Y140.143 E7.46847
G1 X100.053 Y139.71 E7.51075
G1 X100.177 Y139.44 E7.53513
G1 X100.482 Y138.312 E7.63103
G1 X100.547 Y137.669 E7.68407
G1 X100.529 Y137.023 E7.7371
G1 X100.318 Y135.881 E7.83241
M204 S3000
M205 X10 Y10
G0 F3600 X99.692 Y136.072
M204 S1800
M205 X8 Y8
;TYPE:WALL-OUTER
G1 F600 X99.305 Y135.177 E7.91244
G1 X98.948 Y134.636 E7.96563
G1 X98.71 Y134.344 E7.99655
G1 X98.231 Y133.891 E8.05066
G1 X97.963 Y133.683 E8.0785
G1 X97.364 Y133.329 E8.1356
G1 X97.045 Y133.215 E8.1634
G1 X96.55 Y133.02 E8.20707
G1 X95.825 Y132.901 E8.26736
G1 X95.104 Y132.893 E8.32654
G1 X94.322 Y133.038 E8.39181
G1 X93.598 Y133.319 E8.45555
G1 X93.419 Y133.417 E8.4723
G1 X92.978 Y133.692 E8.51495
G1 X92.288 Y134.334 E8.5923
G1 X91.924 Y134.862 E8.64493
G1 X91.822 Y135.074 E8.66424
G1 X91.702 Y135.348 E8.68879
G1 X91.535 Y135.593 E8.71312
G1 X91.263 Y136.217 E8.76898
G1 X91.141 Y136.762 E8.81482
G1 X91.111 Y136.929 E8.82874
G1 X91.082 Y137.737 E8.8951
G1 X91.244 Y138.634 E8.96991
G1 X91.601 Y139.476 E9.04496
G1 X91.719 Y139.666 E9.06332
G1 X92.151 Y140.246 E9.12267
G1 X92.332 Y140.43 E9.14385
G1 X92.875 Y140.891 E9.20231
G1 X93.638 Y141.327 E9.27443
G1 X94.35 Y141.563 E9.33599
G1 X95.109 Y141.694 E9.3992
G1 X95.665 Y141.68 E9.44485
G1 X95.875 Y141.681 E9.46208
G1 X96.655 Y141.548 E9.52702
G1 X97.446 Y141.234 E9.59687
G1 X97.583 Y141.187 E9.60875
G1 X98.109 Y140.87 E9.65916
G1 X98.498 Y140.568 E9.69957
G1 X98.912 Y140.171 E9.74665
G1 X99.247 Y139.76 E9.79016
G1 X99.482 Y139.396 E9.82572
G1 X99.564 Y139.218 E9.8418
G1 X99.841 Y138.194 E9.92886
G1 X99.896 Y137.645 E9.97415
G1 X99.881 Y137.091 E10.01963
G1 X99.692 Y136.072 E10.10468
M204 S3000
M205 X10 Y10
G0 F3600 X99.573 Y135.797
G0 X100.262 Y135.5
G0 X98.213 Y133.835
G0 X92.697 Y130.074
G0 X93.017 Y130.203
M204 S1800
M205 X8 Y8
G1 F600 X93.02 Y130.204 E10.10494
G1 X93.184 Y130.288 E10.12007
G1 X93.366 Y130.351 E10.13587
G1 X93.553 Y130.383 E10.15144
G1 X93.74 Y130.392 E10.16681
G1 X93.931 Y130.373 E10.18256
G1 X94.115 Y130.326 E10.19814
G1 X94.288 Y130.255 E10.21349
G1 X94.453 Y130.16 E10.22912
G1 X94.602 Y130.04 E10.24482
G1 X94.73 Y129.903 E10.26021
G1 X94.837 Y129.751 E10.27546
G1 X94.932 Y129.573 E10.29202
G1 X94.939 Y129.561 E10.29316
G1 X94.967 Y129.547 E10.29573
G1 X95.122 Y129.541 E10.30846
G1 X95.32 Y129.55 E10.32473
G1 X95.338 Y129.563 E10.32655
G1 X95.343 Y129.572
G1 X95.438 Y129.749 E10.34303
G1 X95.546 Y129.903 E10.35847
G1 X95.674 Y130.04 E10.37386
G1 X95.823 Y130.16 E10.38956
G1 X95.988 Y130.255 E10.40519
G1 X96.161 Y130.326 E10.42053
G1 X96.345 Y130.373 E10.43612
G1 X96.536 Y130.392 E10.45187
G1 X96.723 Y130.383 E10.46724
G1 X96.91 Y130.351 E10.48281
G1 X97.092 Y130.288 E10.49861
G1 X97.259 Y130.202 E10.51403
G1 X97.417 Y130.092 E10.52983
G1 X97.545 Y129.971 E10.54428
G1 X97.547 Y129.969 E10.54452
G1 X97.558 Y129.959 E10.54574
G1 X97.591 Y129.947 E10.54862
G1 X97.641 Y129.955 E10.55277
G1 X97.937 Y130.07 E10.57883
G1 X97.952 Y130.089 E10.58082
G1 X97.977 Y130.292 E10.59761
G1 X98.024 Y130.475 E10.61213
G1 X98.025 Y130.477 E10.61232
G1 X98.1 Y130.65 E10.62779
G1 X98.196 Y130.809 E10.64303
G1 X98.317 Y130.958 E10.65879
G1 X98.46 Y131.084 E10.67443
G1 X98.616 Y131.19 E10.68991
G1 X98.789 Y131.273 E10.70565
G1 X98.968 Y131.328 E10.72102
G1 X99.154 Y131.359 E10.7365
G1 X99.347 Y131.362 E10.75234
G1 X99.532 Y131.338 E10.76765
G1 X99.534 Y131.338 E10.76781
G1 X99.718 Y131.288 E10.78346
G1 X99.891 Y131.214 E10.7989
G1 X99.921 Y131.209 E10.8014
G1 X99.98 Y131.238 E10.8068
G1 X100.19 Y131.415 E10.82934
G1 X100.218 Y131.461 E10.83375
G1 X100.216 Y131.475 E10.83492
G1 X100.216 Y131.477 E10.83508
G1 X100.18 Y131.649 E10.8495
G1 X100.158 Y131.836 E10.86495
G1 X100.165 Y132.046 E10.8822
G1 X100.205 Y132.234 E10.89797
G1 X100.266 Y132.404 E10.9128
G1 X100.354 Y132.572 E10.92836
G1 X100.466 Y132.725 E10.94392
G1 X100.598 Y132.86 E10.95942
