;FLAVOR:Marlin
;TIME:2297
;Filament used: 2.60544m
;Layer height: 0.2
;Generated with Cura_SteamEngine 3.6.0
M104 S205
M105
M109 S205
M82 ;absolute extrusion mode
G21        ;metric values
G90        ;absolute positioning
M107       ;start with the fan off
M420 S1  ;bed leveling on
G28   ;move to endstops
G92 E0                  ;zero the extruded length
G1 F200 E3              ;extrude 3mm of feed stock
G92 E0                  ;zero the extruded length again
G1 F120
;Put printing message on LCD screen
M117 Printing...
G92 E0
G1 F2400 E-6
;LAYER_COUNT:90
;LAYER:0
M107
G0 F1200 X-.601 Y3.985 Z0.3
;TYPE:SKIRT
G1 F2400 E0
G1 F600 X0.121 Y4.273 E0.05104
G1 X1.352 Y4.917 E0.14225
G1 X1.952 Y5.306 E0.1892
G1 X3.173 Y6.27 E0.29134
G1 X3.696 Y6.77 E0.33884
G1 X6.875 Y10.441 E0.65768
G1 X10.634 Y14.467 E1.01931
G1 X12.557 Y16.359 E1.19643
G1 X16.687 Y20.091 E1.56189
G1 X17.07 Y20.491 E1.59825
G1 X17.392 Y20.942 E1.63464
G1 X17.699 Y21.566 E1.68029
G1 X18.676 Y24.116 E1.85958
G1 X18.809 Y24.533 E1.88832
G1 X19.177 Y25.963 E1.98527
G1 X19.276 Y26.508 E2.02164
G1 X19.298 Y26.884 E2.04636
G1 X19.396 Y37.381 E2.73558
G1 X19.351 Y38.005 E2.77666
G1 X19.203 Y38.96 E2.8401
G1 X19.066 Y39.54 E2.87923
G1 X18.379 Y41.692 E3.02755
G1 X18.237 Y42.068 E3.05394
G1 X17.526 Y43.687 E3.17003
G1 X17.332 Y44.068 E3.1981
G1 X16.581 Y45.364 E3.29645
G1 X16.404 Y45.643 E3.31814
G1 X15.587 Y46.809 E3.41162
G1 X15.304 Y47.165 E3.44147
G1 X13.963 Y48.664 E3.57353
G1 X13.678 Y48.951 E3.60008
G1 X12.885 Y49.669 E3.67032
G1 X12.535 Y49.95 E3.69979
G1 X10.482 Y51.412 E3.86526
G1 X9.988 Y51.711 E3.90317
G1 X8.41 Y52.509 E4.01927
G1 X8.005 Y52.685 E4.04827
G1 X6.26 Y53.328 E4.17037
G1 X5.747 Y53.478 E4.20546
G1 X3.531 Y53.959 E4.35434
G1 X2.914 Y54.041 E4.3952
G1 X-.216 Y54.203 E4.60098
G1 X-.42 Y54.208 E4.61438
G1 X-8.764 Y54.194 E5.16221
G1 X-9.03 Y54.184 E5.17968
G1 X-10.622 Y54.071 E5.28447
G1 X-10.933 Y54.037 E5.30501
G1 X-11.936 Y53.883 E5.37164
G1 X-12.339 Y53.798 E5.39868
G1 X-14.341 Y53.266 E5.53468
G1 X-14.835 Y53.098 E5.56894
G1 X-16.485 Y52.409 E5.68634
G1 X-16.67 Y52.326 E5.69965
G1 X-21.661 Y49.925 E6.06328
G1 X-26.757 Y47.818 E6.42533
G1 X-29.209 Y46.927 E6.59662
G1 X-34.49 Y45.254 E6.96033
G1 X-37.989 Y44.267 E7.19902
G1 X-38.51 Y44.079 E7.23539
G1 X-38.898 Y43.878 E7.26408
G1 X-41.091 Y42.584 E7.43126
G1 X-41.547 Y42.269 E7.46764
G1 X-42.037 Y41.797 E7.51231
G1 X-43.721 Y39.861 E7.68078
G1 X-44.133 Y39.29 E7.72701
G1 X-44.381 Y38.869 E7.75909
G1 X-44.711 Y38.145 E7.81133
G1 X-45.576 Y35.575 E7.98936
G1 X-45.715 Y35.039 E8.02572
G1 X-45.777 Y34.366 E8.07009
G1 X-45.786 Y32.139 E8.21631
G1 X-45.748 Y31.586 E8.2527
G1 X-45.698 Y31.307 E8.27131
G1 X-44.302 Y24.89 E8.70248
G1 X-43.835 Y22.26 E8.87785
G1 X-43.101 Y16.83 E9.23761
G1 X-42.64 Y11.721 E9.5744
G1 X-42.507 Y11.006 E9.62215
G1 X-42.032 Y9.352 E9.73513
G1 X-41.74 Y8.626 E9.78651
G1 X-41.102 Y7.412 E9.87655
G1 X-40.717 Y6.818 E9.92303
G1 X-39.753 Y5.597 E10.02517
G1 X-39.211 Y5.038 E10.07629
G1 X-37.901 Y3.936 E10.18868
G1 X-37.234 Y3.485 E10.24154
G1 X-35.891 Y2.77 E10.34144
G1 X-35.399 Y2.552 E10.37677
G1 X-34.833 Y2.346 E10.41632
G1 X-34.344 Y2.204 E10.44975
G1 X-32.82 Y1.869 E10.55219
G1 X-32.071 Y1.78 E10.60172
G1 X-30.54 Y1.75 E10.70225
G1 X-29.887 Y1.793 E10.74522
G1 X-24.303 Y2.644 E11.11607
G1 X-18.891 Y3.207 E11.47332
G1 X-13.445 Y3.463 E11.83127
G1 X-7.99 Y3.412 E12.18944
G1 X-5.04 Y3.255 E12.3834
G1 X-4.545 Y3.261 E12.4159
G1 X-3.005 Y3.378 E12.5173
G1 X-2.238 Y3.516 E12.56847
G1 X-.601 Y3.985 E12.68027
G0 F1200 X-.756 Y4.523
G1 F600 X-.139 Y4.77 E12.7239
G1 X1.092 Y5.414 E12.81512
G1 X1.605 Y5.746 E12.85524
G1 X2.826 Y6.71 E12.95738
G1 X3.273 Y7.137 E12.99796
G1 X6.477 Y10.837 E13.31931
G1 X10.215 Y14.841 E13.67895
G1 X12.16 Y16.755 E13.85811
G1 X16.312 Y20.506 E14.22548
G1 X16.664 Y20.878 E14.25911
G1 X16.953 Y21.3 E14.29269
G1 X17.176 Y21.766 E14.32661
G1 X18.153 Y24.316 E14.5059
G1 X18.267 Y24.673 E14.5305
G1 X18.635 Y26.103 E14.62745
G1 X18.723 Y26.607 E14.66104
G1 X18.738 Y26.889 E14.67958
G1 X18.836 Y37.386 E15.36879
G1 X18.797 Y37.919 E15.40388
G1 X18.649 Y38.874 E15.46733
G1 X18.533 Y39.37 E15.50078
G1 X17.846 Y41.522 E15.64909
G1 X17.724 Y41.843 E15.67164
G1 X17.013 Y43.462 E15.78773
G1 X16.848 Y43.788 E15.81172
G1 X16.097 Y45.084 E15.91007
G1 X15.945 Y45.321 E15.92855
G1 X15.128 Y46.487 E16.02203
G1 X14.887 Y46.792 E16.04755
G1 X13.546 Y48.291 E16.1796
G1 X13.302 Y48.535 E16.20226
G1 X12.509 Y49.253 E16.27249
G1 X12.211 Y49.494 E16.29766
G1 X10.158 Y50.956 E16.46313
G1 X9.735 Y51.211 E16.49556
G1 X8.157 Y52.009 E16.61166
G1 X7.811 Y52.16 E16.63644
G1 X6.066 Y52.803 E16.75854
G1 X5.628 Y52.93 E16.78849
G1 X3.412 Y53.411 E16.93737
G1 X2.886 Y53.482 E16.97221
G1 X-.244 Y53.644 E17.17799
G1 X-.42 Y53.648 E17.18955
G1 X-8.764 Y53.634 E17.73738
G1 X-8.99 Y53.626 E17.75223
G1 X-10.582 Y53.513 E17.85701
G1 X-10.848 Y53.483 E17.87459
G1 X-11.851 Y53.329 E17.94121
G1 X-12.195 Y53.257 E17.96429
G1 X-14.197 Y52.725 E18.10029
G1 X-14.619 Y52.582 E18.12955
G1 X-16.269 Y51.893 E18.24694
G1 X-16.427 Y51.822 E18.25832
G1 X-21.448 Y49.407 E18.62412
G1 X-26.536 Y47.303 E18.98561
G1 X-29.04 Y46.393 E19.16053
G1 X-34.326 Y44.718 E19.5246
G1 X-37.837 Y43.728 E19.7641
G1 X-38.317 Y43.551 E19.79769
G1 X-38.614 Y43.396 E19.81968
G1 X-40.807 Y42.102 E19.98686
G1 X-41.226 Y41.808 E20.02047
G1 X-41.615 Y41.43 E20.05608
G1 X-43.299 Y39.494 E20.22455
G1 X-43.65 Y39.006 E20.26402
G1 X-43.898 Y38.585 E20.2961
G1 X-44.181 Y37.966 E20.34078
G1 X-45.046 Y35.396 E20.51882
G1 X-45.171 Y34.9 E20.5524
G1 X-45.217 Y34.363 E20.58779
G1 X-45.226 Y32.136 E20.734
G1 X-45.151 Y31.426 E20.78088
G1 X-43.748 Y24.978 E21.21413
G1 X-43.283 Y22.36 E21.38871
G1 X-42.547 Y16.91 E21.74978
G1 X-42.083 Y11.771 E22.08855
G1 X-41.969 Y11.161 E22.1293
G1 X-41.494 Y9.507 E22.24228
G1 X-41.244 Y8.886 E22.28623
G1 X-40.606 Y7.672 E22.37628
G1 X-40.277 Y7.165 E22.41596
G1 X-39.313 Y5.944 E22.5181
G1 X-38.85 Y5.467 E22.56174
G1 X-37.54 Y4.365 E22.67413
G1 X-36.97 Y3.98 E22.7193
G1 X-35.627 Y3.265 E22.81919
G1 X-35.208 Y3.078 E22.84931
G1 X-34.642 Y2.872 E22.88886
G1 X-34.224 Y2.75 E22.91745
G1 X-32.7 Y2.415 E23.0199
G1 X-32.06 Y2.34 E23.0622
G1 X-30.529 Y2.31 E23.16274
G1 X-29.971 Y2.346 E23.19945
G1 X-24.361 Y3.201 E23.57203
G1 X-18.922 Y3.766 E23.93106
G1 X-13.467 Y4.023 E24.2896
G1 X-7.954 Y3.972 E24.65158
G1 X-5.01 Y3.815 E24.84514
G1 X-4.588 Y3.819 E24.87285
G1 X-3.048 Y3.936 E24.97425
G1 X-2.393 Y4.054 E25.01795
G1 X-.756 Y4.523 E25.12975
G1 F2400 E19.12975
;MESH:kossel_clamp_washer.stl
G0 F1200 X-1.972 Y8.466
G0 X-0.001 Y13.436
G0 X0.237 Y14.948
G0 X-.94 Y23.307
;TYPE:WALL-INNER
G1 F2400 E25.12975
G1 F600 X-.535 Y23.331 E25.15639
G1 X3.361 Y23.565 E25.41264
G1 X6.064 Y23.805 E25.59081
G1 X10.047 Y24.301 E25.85433
G1 X12.749 Y24.708 E26.03373
G1 X12.811 Y24.854 E26.04415
G1 X12.99 Y25.366 E26.07976
G1 X13.142 Y25.803 E26.11014
G1 X12.685 Y25.735 E26.12749
G1 X10.52 Y25.409 E26.27123
G1 X6.488 Y24.905 E26.53802
G1 X3.416 Y24.634 E26.74049
G1 X0.087 Y24.447 E26.95941
G1 X-3.27 Y24.361 E27.17988
G1 X-7.137 Y24.418 E27.4338
G1 X-11.567 Y24.641 E27.72502
G1 X-13.955 Y24.845 E27.88238
G1 X-17.891 Y25.312 E28.14261
G1 X-20.735 Y25.749 E28.33153
G1 X-21.192 Y25.819 E28.36188
G1 X-21.042 Y25.381 E28.37927
G1 X-20.866 Y24.871 E28.41469
G1 X-20.805 Y24.732 E28.42466
G1 X-17.186 Y24.178 E28.66503
G1 X-13.351 Y23.725 E28.91857
G1 X-8.766 Y23.343 E29.22065
G1 X-8.372 Y23.311 E29.2466
G1 X-8.535 Y22.951 E29.26194
G1 X-9.756 Y20.25 E29.45655
G1 X-9.947 Y19.691 E29.49533
G1 X-10.084 Y19.112 E29.5344
G1 X-10.166 Y18.534 E29.57273
G1 X-10.175 Y18.36 E29.58417
G1 X-10.194 Y17.945 E29.61144
G1 X-10.159 Y17.172 E29.66225
G1 X-9.854 Y17.771 E29.67609
G1 X-9.666 Y18.14 E29.69903
G1 X-9.499 Y18.467 E29.72314
G1 X-8.174 Y19.792 E29.84616
G1 X-6.505 Y20.642 E29.96913
G1 X-4.655 Y20.934 E30.0921
G1 X-2.805 Y20.642 E30.21507
G1 X-1.136 Y19.792 E30.33804
G1 X0.189 Y18.467 E30.46107
G1 X0.356 Y18.14 E30.48517
G1 X0.543 Y17.772 E30.51227
G1 X0.849 Y17.172 E30.5565
G1 X0.884 Y17.945 E30.57701
G1 X0.865 Y18.358 E30.59994
G1 X0.856 Y18.534 E30.61151
G1 X0.774 Y19.112 E30.64984
G1 X0.637 Y19.689 E30.68877
G1 X0.447 Y20.245 E30.72735
G1 X-.773 Y22.938 E30.92146
G1 X-.94 Y23.307 E30.9371
G0 F1200 X-0.094 Y22.797
G1 F600 X0.311 Y22.821 E30.96374
G1 X3.411 Y23.007 E31.16764
G1 X6.124 Y23.248 E31.34646
G1 X10.12 Y23.746 E31.61085
G1 X13.141 Y24.201 E31.81143
G1 X13.34 Y24.669 E31.84482
G1 X13.708 Y25.723 E31.91812
G1 X13.8 Y26.074 E31.94194
G1 X13.908 Y26.485 E31.96984
G1 X13.488 Y26.422 E31.98607
G1 X10.444 Y25.964 E32.18817
G1 X6.429 Y25.462 E32.45383
G1 X3.376 Y25.193 E32.65506
G1 X0.064 Y25.007 E32.87285
G1 X-3.273 Y24.921 E33.09202
G1 X-7.119 Y24.978 E33.34455
G1 X-11.529 Y25.2 E33.63446
G1 X-13.898 Y25.402 E33.79056
G1 X-17.815 Y25.867 E34.04954
G1 X-21.55 Y26.441 E34.29764
G1 X-21.975 Y26.506 E34.32587
G1 X-21.863 Y26.092 E34.34221
G1 X-21.862 Y26.091 E34.3423
G1 X-21.799 Y25.86 E34.35802
G1 X-21.389 Y24.669 E34.44072
G1 X-21.194 Y24.225 E34.47256
G1 X-17.271 Y23.624 E34.73313
G1 X-13.407 Y23.168 E34.98858
G1 X-9.603 Y22.851 E35.2392
G1 X-9.209 Y22.819 E35.26515
G1 X-9.372 Y22.459 E35.28049
G1 X-10.278 Y20.455 E35.42489
G1 X-10.486 Y19.846 E35.46714
G1 X-10.634 Y19.221 E35.50931
G1 X-10.724 Y18.587 E35.55135
G1 X-10.754 Y17.946 E35.59348
G1 X-10.72 Y17.197 E35.64271
G1 X-10.849 Y16.831 E35.66819
G1 X-11.005 Y16.208 E35.71035
G1 X-11.096 Y15.582 E35.75189
G1 X-11.129 Y14.948 E35.79357
G1 X-11.096 Y14.314 E35.83525
G1 X-11.005 Y13.69 E35.87665
G1 X-10.846 Y13.058 E35.91944
G1 X-10.639 Y12.477 E35.95993
G1 X-10.364 Y11.897 E36.00208
G1 X-10.039 Y11.354 E36.04363
G1 X-9.654 Y10.834 E36.08611
G1 X-9.233 Y10.37 E36.12724
G1 X-8.769 Y9.949 E36.16838
G1 X-8.249 Y9.564 E36.21086
G1 X-7.706 Y9.239 E36.25241
G1 X-7.126 Y8.964 E36.29455
G1 X-6.545 Y8.757 E36.33504
G1 X-5.913 Y8.598 E36.37783
G1 X-5.289 Y8.507 E36.41923
G1 X-4.655 Y8.474 E36.46092
G1 X-4.021 Y8.507 E36.5026
G1 X-3.397 Y8.598 E36.544
G1 X-2.765 Y8.757 E36.58679
G1 X-2.184 Y8.964 E36.62728
G1 X-1.604 Y9.239 E36.66943
G1 X-1.061 Y9.564 E36.71097
G1 X-.541 Y9.949 E36.75345
G1 X-0.077 Y10.37 E36.79459
G1 X0.344 Y10.834 E36.83572
G1 X0.729 Y11.354 E36.8782
G1 X1.054 Y11.897 E36.91975
G1 X1.329 Y12.477 E36.9619
G1 X1.536 Y13.058 E37.00239
G1 X1.695 Y13.69 E37.04518
G1 X1.786 Y14.314 E37.08658
G1 X1.819 Y14.948 E37.12826
G1 X1.786 Y15.582 E37.16994
G1 X1.695 Y16.208 E37.21148
G1 X1.539 Y16.831 E37.25364
G1 X1.41 Y17.197 E37.27912
G1 X1.444 Y17.946 E37.32835
G1 X1.414 Y18.587 E37.37048
G1 X1.324 Y19.221 E37.41252
G1 X1.176 Y19.845 E37.45463
G1 X0.969 Y20.45 E37.49661
G1 X0.073 Y22.428 E37.63918
G1 X-0.094 Y22.797 E37.65482
G0 F1200 X-6.33 Y20.103
G1 F600 X-4.655 Y20.367 E37.76615
G1 X-2.98 Y20.103 E37.87748
G1 X-1.469 Y19.333 E37.98883
G1 X-.27 Y18.134 E38.10016
G1 X0.5 Y16.623 E38.2115
G1 X0.764 Y14.948 E38.32283
G1 X0.5 Y13.273 E38.43416
G1 X-.27 Y11.762 E38.54551
G1 X-1.469 Y10.563 E38.65683
G1 X-2.98 Y9.793 E38.76818
G1 X-4.655 Y9.528 E38.87952
G1 X-6.33 Y9.793 E38.99086
G1 X-7.841 Y10.563 E39.1022
G1 X-9.04 Y11.762 E39.21353
G1 X-9.81 Y13.273 E39.32488
G1 X-10.075 Y14.948 E39.43622
G1 X-9.81 Y16.623 E39.54756
G1 X-9.04 Y18.134 E39.6589
G1 X-7.841 Y19.333 E39.77023
G1 X-6.33 Y20.103 E39.88157
G0 F1200 X-6.155 Y19.564
G1 F600 X-4.655 Y19.8 E39.98127
G1 X-3.155 Y19.564 E40.08096
G1 X-1.802 Y18.874 E40.18068
G1 X-.729 Y17.801 E40.28031
G1 X-0.039 Y16.448 E40.38003
G1 X0.197 Y14.948 E40.47972
G1 X-0.039 Y13.448 E40.57942
G1 X-.729 Y12.095 E40.67913
G1 X-1.802 Y11.022 E40.77876
G1 X-3.155 Y10.332 E40.87848
G1 X-4.655 Y10.095 E40.97818
G1 X-6.155 Y10.332 E41.07789
G1 X-7.508 Y11.022 E41.1776
G1 X-8.581 Y12.095 E41.27723
G1 X-9.271 Y13.448 E41.37695
G1 X-9.508 Y14.948 E41.47666
G1 X-9.271 Y16.448 E41.57636
G1 X-8.581 Y17.801 E41.67608
G1 X-7.508 Y18.874 E41.77571
G1 X-6.155 Y19.564 E41.87542
G0 F1200 X-6.185 Y19.659
G0 X0.667 Y22.338
G0 X0.752 Y22.287
G1 F600 X1.157 Y22.311 E41.90206
G1 X3.459 Y22.449 E42.05347
G1 X6.187 Y22.691 E42.23328
G1 X10.193 Y23.191 E42.49834
G1 X13.533 Y23.694 E42.7201
G1 X13.865 Y24.472 E42.77564
G1 X14.244 Y25.558 E42.85116
G1 X14.543 Y26.696 E42.92841
G1 X14.613 Y26.964 E42.94659
G1 X14.588 Y27.132 E42.95775
G1 X14.549 Y27.148 E42.96051
G1 X14.276 Y27.107 E42.97369
G1 X10.368 Y26.519 E43.23316
G1 X6.37 Y26.019 E43.4977
G1 X3.336 Y25.752 E43.69767
G1 X0.041 Y25.567 E43.91434
G1 X-3.276 Y25.481 E44.13219
G1 X-7.101 Y25.538 E44.38335
G1 X-11.491 Y25.759 E44.67195
G1 X-13.841 Y25.959 E44.82679
G1 X-17.739 Y26.422 E45.08452
G1 X-22.3 Y27.123 E45.38749
G1 X-22.542 Y27.16 E45.40356
G1 X-22.669 Y27.026 E45.41568
G1 X-22.68 Y26.96 E45.42008
G1 X-22.616 Y26.724 E45.43613
G1 X-22.332 Y25.688 E45.50666
G1 X-21.912 Y24.467 E45.59144
G1 X-21.583 Y23.718 E45.64515
G1 X-17.356 Y23.07 E45.92591
G1 X-13.463 Y22.611 E46.18328
G1 X-10.44 Y22.359 E46.38245
G1 X-10.046 Y22.327 E46.4084
G1 X-10.209 Y21.967 E46.42374
G1 X-10.8 Y20.66 E46.51792
G1 X-11.025 Y20.001 E46.56363
G1 X-11.184 Y19.33 E46.60891
G1 X-11.282 Y18.639 E46.65473
G1 X-11.314 Y17.947 E46.70021
G1 X-11.284 Y17.28 E46.74405
G1 X-11.386 Y16.99 E46.76423
G1 X-11.555 Y16.318 E46.80973
G1 X-11.654 Y15.639 E46.85478
G1 X-11.689 Y14.948 E46.90021
G1 X-11.654 Y14.257 E46.94563
G1 X-11.555 Y13.58 E46.99055
G1 X-11.384 Y12.9 E47.03659
G1 X-11.155 Y12.258 E47.08134
G1 X-10.858 Y11.632 E47.12683
G1 X-10.507 Y11.045 E47.17174
G1 X-10.086 Y10.477 E47.21816
G1 X-9.629 Y9.974 E47.26278
G1 X-9.126 Y9.517 E47.30739
G1 X-8.558 Y9.096 E47.35381
G1 X-7.971 Y8.745 E47.39872
G1 X-7.345 Y8.448 E47.44421
G1 X-6.703 Y8.219 E47.48896
G1 X-6.023 Y8.048 E47.535
G1 X-5.346 Y7.949 E47.57992
G1 X-4.655 Y7.914 E47.62535
G1 X-3.964 Y7.949 E47.67077
G1 X-3.287 Y8.048 E47.71569
G1 X-2.607 Y8.219 E47.76173
G1 X-1.965 Y8.448 E47.80648
G1 X-1.339 Y8.745 E47.85197
G1 X-.752 Y9.096 E47.89688
G1 X-.184 Y9.517 E47.9433
G1 X0.319 Y9.974 E47.98792
G1 X0.776 Y10.477 E48.03253
G1 X1.197 Y11.045 E48.07895
G1 X1.548 Y11.632 E48.12386
G1 X1.845 Y12.258 E48.16935
G1 X2.074 Y12.9 E48.2141
G1 X2.245 Y13.58 E48.26014
G1 X2.344 Y14.257 E48.30506
G1 X2.379 Y14.948 E48.35048
G1 X2.344 Y15.639 E48.39591
G1 X2.245 Y16.318 E48.44096
G1 X2.076 Y16.99 E48.48646
G1 X1.974 Y17.28 E48.50664
G1 X2.004 Y17.947 E48.55048
G1 X1.972 Y18.639 E48.59596
G1 X1.874 Y19.33 E48.64178
G1 X1.715 Y20.001 E48.68706
G1 X1.491 Y20.655 E48.73244
G1 X0.919 Y21.918 E48.82347
G1 X0.752 Y22.287 E48.83912
G0 F1200 X0.667 Y22.338
G0 X1.559 Y22.434
G0 X1.598 Y21.777
;TYPE:WALL-OUTER
G1 F600 X2.003 Y21.801 E48.86575
G1 X3.507 Y21.891 E48.96468
G1 X6.25 Y22.134 E49.14548
G1 X10.266 Y22.636 E49.4112
G1 X13.925 Y23.187 E49.65414
G1 X14.388 Y24.27 E49.73147
G1 X14.781 Y25.397 E49.80984
G1 X15.183 Y26.928 E49.91376
G1 X15.13 Y27.325 E49.94006
G1 X15.032 Y27.486 E49.95243
G1 X14.886 Y27.616 E49.96527
G1 X14.615 Y27.724 E49.98442
G1 X10.292 Y27.074 E50.27144
G1 X6.311 Y26.576 E50.53485
G1 X3.296 Y26.311 E50.73357
G1 X0.018 Y26.127 E50.94912
G1 X-3.279 Y26.041 E51.16566
G1 X-7.083 Y26.098 E51.41545
G1 X-11.453 Y26.318 E51.70272
G1 X-13.784 Y26.516 E51.85632
G1 X-17.663 Y26.977 E52.11279
G1 X-22.55 Y27.731 E52.43744
G1 X-22.83 Y27.67 E52.45626
G1 X-23.186 Y27.296 E52.49016
G1 X-23.247 Y26.998 E52.51013
G1 X-23.232 Y26.857 E52.51944
G1 X-22.865 Y25.516 E52.61072
G1 X-22.434 Y24.261 E52.69784
G1 X-21.972 Y23.211 E52.77316
G1 X-17.441 Y22.516 E53.07412
G1 X-13.519 Y22.054 E53.3334
G1 X-11.277 Y21.867 E53.48112
G1 X-10.883 Y21.835 E53.50707
G1 X-11.045 Y21.474 E53.52243
G1 X-11.323 Y20.86 E53.56668
G1 X-11.564 Y20.154 E53.61566
G1 X-11.736 Y19.433 E53.66432
G1 X-11.839 Y18.7 E53.71292
G1 X-11.874 Y17.948 E53.76235
G1 X-11.848 Y17.364 E53.80073
G1 X-11.922 Y17.155 E53.81528
G1 X-12.105 Y16.426 E53.86463
G1 X-12.212 Y15.696 E53.91307
G1 X-12.249 Y14.948 E53.96224
G1 X-12.212 Y14.2 E54.01141
G1 X-12.105 Y13.47 E54.05985
G1 X-11.922 Y12.742 E54.10914
G1 X-11.671 Y12.039 E54.15815
G1 X-11.352 Y11.367 E54.20699
G1 X-10.972 Y10.731 E54.25563
G1 X-10.522 Y10.125 E54.30519
G1 X-10.025 Y9.578 E54.35371
G1 X-9.478 Y9.081 E54.40224
