;FLAVOR:Marlin
;TIME:2942
;Filament used: 1.23771m
;Layer height: 0.15
;MINX:125.197
;MINY:132.473
;MINZ:0.3
;MAXX:174.969
;MAXY:167.54
;MAXZ:18.9
;Generated with Cura_SteamEngine 4.10.0
M140 S90
M105
M190 S90
M104 S250
M105
M109 S250
M82 ;absolute extrusion mode
G28 ; home all axes
 M117 Purge extruder
 G92 E0 ; reset extruder
 G1 Z1.0 F3000 ; move z up little to prevent scratching of surface
 G1 X2 Y20 Z0.3 F5000.0 ; move to start-line position
 G1 X2 Y200.0 Z0.3 F1500.0 E15 ; draw 1st line
 G1 X2 Y200.0 Z0.4 F5000.0 ; move to side a little
 G1 X2 Y20 Z0.4 F1500.0 E30 ; draw 2nd line
 G92 E0 ; reset extruder
 G1 Z1.0 F3000 ; move z up little to prevent scratching of surface
G92 E0
G92 E0
G1 F2100 E-2
;LAYER_COUNT:125
;LAYER:0
M107
G0 F6000 X127.666 Y135.507 Z0.3
;TYPE:SKIRT
G1 F2100 E0
G1 F600 X128.272 Y134.971 E0.04026
G1 X128.929 Y134.498 E0.08055
G1 X129.628 Y134.091 E0.1208
G1 X130.365 Y133.756 E0.16109
G1 X131.131 Y133.495 E0.20136
G1 X131.919 Y133.311 E0.24163
G1 X132.721 Y133.205 E0.28189
G1 X133.53 Y133.179 E0.32217
G1 X134.405 Y133.242 E0.36583
G1 X137.838 Y133.672 E0.53801
G1 X140.53 Y133.909 E0.6725
G1 X143.603 Y134.08 E0.82566
G1 X146.576 Y134.157 E0.97367
G1 X149.958 Y134.108 E1.14199
G1 X154.09 Y133.905 E1.34787
G1 X156.05 Y133.74 E1.44576
G1 X159.749 Y133.302 E1.63112
G1 X164.564 Y132.56 E1.87357
G1 X165.369 Y132.477 E1.91385
G1 X166.178 Y132.473 E1.95411
G1 X166.984 Y132.549 E1.9944
G1 X167.561 Y132.654 E2.02358
G1 X167.968 Y132.743 E2.04432
G1 X168.749 Y132.955 E2.08459
G1 X169.505 Y133.243 E2.12485
G1 X170.229 Y133.603 E2.16509
G1 X170.914 Y134.034 E2.20536
G1 X171.255 Y134.286 E2.22646
G1 X171.869 Y134.814 E2.26676
G1 X172.156 Y135.101 E2.28696
G1 X172.621 Y135.589 E2.32051
G1 X173.15 Y136.202 E2.3608
G1 X173.615 Y136.864 E2.40106
G1 X174.013 Y137.568 E2.44131
G1 X174.34 Y138.309 E2.48162
G1 X174.592 Y139.078 E2.52189
G1 X174.715 Y139.596 E2.54838
G1 X174.792 Y139.972 E2.56748
G1 X174.785 Y139.973 E2.56784
G1 X174.888 Y140.51 E2.59505
G1 X174.962 Y141.316 E2.63533
G1 X174.956 Y142.125 E2.67559
G1 X174.917 Y142.577 E2.69817
G1 X174.892 Y142.798 E2.70923
G1 X174.762 Y143.596 E2.74947
G1 X174.651 Y144.047 E2.77259
G1 X174.615 Y144.177 E2.7793
G1 X174.711 Y144.574 E2.79962
G1 X174.798 Y144.993 E2.82092
G1 X174.923 Y145.792 E2.86117
G1 X174.969 Y146.6 E2.90144
G1 X174.916 Y147.587 E2.95063
G1 X174.891 Y147.806 E2.9616
G1 X174.76 Y148.604 E3.00185
G1 X174.65 Y149.051 E3.02475
G1 X174.247 Y150.515 E3.10032
G1 X174.087 Y151.029 E3.12711
G1 X173.684 Y152.189 E3.18822
G1 X173.445 Y152.797 E3.22074
G1 X172.724 Y154.437 E3.30989
G1 X172.311 Y155.252 E3.35536
G1 X171.516 Y156.622 E3.43419
G1 X171.118 Y157.242 E3.47085
G1 X170.363 Y158.309 E3.5359
G1 X169.785 Y159.034 E3.58204
G1 X168.439 Y160.541 E3.6826
G1 X167.822 Y161.162 E3.72616
G1 X166.962 Y161.939 E3.78384
G1 X166.395 Y162.407 E3.82043
G1 X165.224 Y163.288 E3.89335
G1 X164.742 Y163.624 E3.92259
G1 X164.031 Y164.083 E3.96471
G1 X163.631 Y164.319 E3.98782
G1 X163.145 Y164.604 E4.01586
G1 X162.621 Y164.882 E4.04538
G1 X161.487 Y165.432 E4.1081
G1 X160.925 Y165.679 E4.13865
G1 X159.706 Y166.161 E4.20389
G1 X159.021 Y166.397 E4.23994
G1 X157.884 Y166.734 E4.29896
G1 X157.119 Y166.922 E4.33816
G1 X155.421 Y167.252 E4.42425
G1 X154.421 Y167.383 E4.47444
G1 X152.414 Y167.521 E4.57455
G1 X151.843 Y167.54 E4.60298
G1 X142.104 Y167.529 E5.08765
G1 X141.53 Y167.508 E5.11623
G1 X140.661 Y167.446 E5.15959
G1 X140.075 Y167.383 E5.18892
G1 X138.639 Y167.176 E5.26112
G1 X137.682 Y166.979 E5.30975
G1 X135.725 Y166.453 E5.41059
G1 X134.844 Y166.162 E5.45677
G1 X133.491 Y165.628 E5.52915
G1 X132.629 Y165.228 E5.57645
G1 X130.976 Y164.342 E5.66978
G1 X130.282 Y163.925 E5.71007
G1 X129.634 Y163.442 E5.75029
G1 X129.036 Y162.897 E5.79056
G1 X128.494 Y162.295 E5.83087
G1 X128.015 Y161.643 E5.87113
G1 X127.602 Y160.947 E5.91141
G1 X127.26 Y160.214 E5.95166
G1 X126.992 Y159.45 E5.99195
G1 X126.801 Y158.664 E6.03221
G1 X126.696 Y157.939 E6.06866
G1 X126.658 Y157.557 E6.08777
G1 X125.232 Y142.121 E6.85922
G1 X125.197 Y141.313 E6.89947
G1 X125.243 Y140.505 E6.93974
G1 X125.368 Y139.706 E6.97999
G1 X125.571 Y138.922 E7.02029
G1 X125.85 Y138.163 E7.06053
G1 X126.203 Y137.435 E7.1008
G1 X126.626 Y136.745 E7.14108
G1 X127.116 Y136.1 E7.18139
G1 X127.666 Y135.507 E7.22164
G0 F6000 X128.093 Y135.681
G1 F600 X128.696 Y135.174 E7.26084
G1 X129.348 Y134.73 E7.3001
G1 X130.041 Y134.355 E7.33931
G1 X130.769 Y134.052 E7.37855
G1 X131.523 Y133.825 E7.41774
G1 X132.297 Y133.675 E7.45698
G1 X133.082 Y133.604 E7.4962
G1 X133.87 Y133.613 E7.53542
G1 X134.353 Y133.658 E7.55956
G1 X137.804 Y134.09 E7.73264
G1 X140.5 Y134.328 E7.86733
G1 X143.603 Y134.5 E8.02199
G1 X146.571 Y134.577 E8.16974
G1 X149.956 Y134.528 E8.33822
G1 X154.116 Y134.324 E8.54549
G1 X156.107 Y134.156 E8.64493
G1 X159.831 Y133.715 E8.83155
G1 X164.628 Y132.976 E9.07309
G1 X165.412 Y132.895 E9.11231
G1 X166.2 Y132.895 E9.15153
G1 X166.985 Y132.974 E9.19079
G1 X167.471 Y133.064 E9.21539
G1 X167.878 Y133.153 E9.23612
G1 X168.638 Y133.361 E9.27533
G1 X169.374 Y133.644 E9.31457
G1 X170.077 Y134 E9.35379
G1 X170.997 Y134.618 E9.40895
G1 X171.852 Y135.391 E9.46631
G1 X172.317 Y135.879 E9.49985
G1 X172.831 Y136.476 E9.53906
G1 X173.282 Y137.123 E9.5783
G1 X173.665 Y137.812 E9.61753
G1 X173.977 Y138.536 E9.65677
G1 X174.213 Y139.288 E9.69599
G1 X174.304 Y139.68 E9.71602
G1 X174.381 Y140.056 E9.73512
G1 X174.374 Y140.057 E9.73547
G1 X174.475 Y140.589 E9.76242
G1 X174.544 Y141.374 E9.80163
G1 X174.5 Y142.529 E9.85916
G1 X174.475 Y142.75 E9.87022
G1 X174.347 Y143.528 E9.90946
G1 X174.246 Y143.936 E9.93038
G1 X174.179 Y144.179 E9.94292
G1 X174.208 Y144.27 E9.94768
G1 X174.3 Y144.659 E9.96757
G1 X174.387 Y145.078 E9.98887
G1 X174.508 Y145.857 E10.0281
G1 X174.549 Y146.644 E10.06732
G1 X174.499 Y147.539 E10.11193
G1 X174.474 Y147.758 E10.1229
G1 X174.345 Y148.536 E10.16214
G1 X174.245 Y148.939 E10.18281
G1 X173.842 Y150.403 E10.25837
G1 X173.691 Y150.891 E10.28379
G1 X173.288 Y152.051 E10.34491
G1 X173.061 Y152.628 E10.37576
G1 X172.34 Y154.268 E10.46492
G1 X171.947 Y155.041 E10.50807
G1 X171.152 Y156.411 E10.5869
G1 X170.775 Y156.999 E10.62166
G1 X170.02 Y158.066 E10.68671
G1 X169.472 Y158.754 E10.73048
G1 X168.126 Y160.261 E10.83104
G1 X167.54 Y160.85 E10.87238
G1 X166.68 Y161.627 E10.93006
G1 X166.142 Y162.071 E10.96478
G1 X164.971 Y162.952 E11.0377
G1 X164.514 Y163.271 E11.06544
G1 X163.803 Y163.73 E11.10755
G1 X163.421 Y163.955 E11.12962
G1 X162.935 Y164.241 E11.15768
G1 X162.438 Y164.504 E11.18566
G1 X161.304 Y165.054 E11.24838
G1 X160.77 Y165.289 E11.27742
G1 X159.551 Y165.771 E11.34265
G1 X158.902 Y165.995 E11.37682
G1 X157.765 Y166.332 E11.43584
G1 X157.039 Y166.509 E11.47303
G1 X155.341 Y166.839 E11.55911
G1 X154.392 Y166.964 E11.60674
G1 X152.385 Y167.102 E11.70686
G1 X151.843 Y167.12 E11.73385
G1 X142.104 Y167.109 E12.21851
G1 X141.56 Y167.089 E12.2456
G1 X140.691 Y167.027 E12.28896
G1 X140.135 Y166.968 E12.31678
G1 X138.699 Y166.761 E12.38899
G1 X137.791 Y166.574 E12.43512
G1 X135.834 Y166.048 E12.53597
G1 X134.998 Y165.771 E12.5798
G1 X133.645 Y165.237 E12.65218
G1 X132.827 Y164.858 E12.69705
G1 X131.174 Y163.972 E12.79038
G1 X130.499 Y163.565 E12.82961
G1 X129.869 Y163.092 E12.86881
G1 X129.29 Y162.557 E12.90805
G1 X128.768 Y161.966 E12.94729
G1 X128.309 Y161.326 E12.98648
G1 X127.917 Y160.642 E13.02572
G1 X127.596 Y159.922 E13.06495
G1 X127.35 Y159.173 E13.10418
G1 X127.181 Y158.404 E13.14336
G1 X127.114 Y157.897 E13.16881
G1 X127.076 Y157.519 E13.18772
G1 X125.65 Y142.083 E13.95917
G1 X125.617 Y141.295 E13.99842
G1 X125.665 Y140.509 E14.03761
G1 X125.791 Y139.731 E14.07683
G1 X125.996 Y138.97 E14.11605
G1 X126.277 Y138.233 E14.1553
G1 X126.632 Y137.529 E14.19454
G1 X127.055 Y136.864 E14.23376
G1 X127.544 Y136.246 E14.27298
G1 X128.093 Y135.681 E14.31219
G0 F6000 X128.519 Y135.861
G1 F600 X129.119 Y135.384 E14.35033
G1 X129.766 Y134.972 E14.3885
G1 X130.452 Y134.63 E14.42665
G1 X131.169 Y134.361 E14.46476
G1 X131.911 Y134.168 E14.50292
G1 X132.669 Y134.053 E14.54107
G1 X133.435 Y134.018 E14.57923
G1 X134.301 Y134.075 E14.62242
G1 X137.744 Y134.506 E14.7951
G1 X140.471 Y134.746 E14.93133
G1 X143.568 Y134.919 E15.0857
G1 X146.591 Y134.997 E15.23619
G1 X149.983 Y134.948 E15.40501
G1 X154.142 Y134.743 E15.61224
G1 X156.132 Y134.576 E15.71162
G1 X159.889 Y134.131 E15.8999
G1 X164.692 Y133.391 E16.14174
G1 X165.455 Y133.314 E16.1799
G1 X166.221 Y133.316 E16.21802
G1 X166.983 Y133.399 E16.25617
G1 X167.381 Y133.475 E16.27633
G1 X167.788 Y133.564 E16.29707
G1 X168.527 Y133.766 E16.33519
G1 X169.242 Y134.045 E16.37339
G1 X169.923 Y134.396 E16.41151
G1 X170.739 Y134.949 E16.46057
G1 X171.548 Y135.681 E16.51486
G1 X172.013 Y136.169 E16.54841
G1 X172.512 Y136.75 E16.58652
G1 X172.948 Y137.381 E16.62469
G1 X173.316 Y138.054 E16.66287
G1 X173.612 Y138.761 E16.70101
G1 X173.893 Y139.764 E16.75285
G1 X173.97 Y140.14 E16.77195
G1 X173.963 Y140.141 E16.7723
G1 X174.062 Y140.668 E16.79898
G1 X174.126 Y141.431 E16.83709
G1 X174.082 Y142.482 E16.88944
G1 X174.057 Y142.703 E16.9005
G1 X173.841 Y143.824 E16.95732
G1 X173.736 Y144.205 E16.97699
G1 X173.889 Y144.745 E17.00492
G1 X173.976 Y145.164 E17.02621
G1 X174.092 Y145.921 E17.06433
G1 X174.129 Y146.687 E17.10249
G1 X174.082 Y147.492 E17.14262
G1 X174.057 Y147.711 E17.15359
G1 X173.84 Y148.828 E17.21022
G1 X173.437 Y150.292 E17.28578
G1 X173.294 Y150.753 E17.3098
G1 X172.891 Y151.913 E17.37092
G1 X172.676 Y152.459 E17.40012
G1 X171.955 Y154.099 E17.48927
G1 X171.584 Y154.83 E17.53007
G1 X170.789 Y156.2 E17.6089
G1 X170.432 Y156.756 E17.64178
G1 X169.677 Y157.823 E17.70683
G1 X169.159 Y158.474 E17.74823
G1 X167.813 Y159.981 E17.84878
G1 X167.258 Y160.539 E17.88795
G1 X166.398 Y161.316 E17.94563
G1 X165.89 Y161.735 E17.9784
G1 X164.719 Y162.616 E18.05133
G1 X164.286 Y162.918 E18.0776
G1 X163.575 Y163.377 E18.11971
G1 X163.21 Y163.592 E18.14079
G1 X162.724 Y163.877 E18.16883
G1 X162.254 Y164.126 E18.1953
G1 X161.12 Y164.676 E18.25802
G1 X160.616 Y164.898 E18.28543
G1 X159.397 Y165.38 E18.35067
G1 X158.783 Y165.592 E18.38299
G1 X157.646 Y165.929 E18.44201
G1 X156.959 Y166.097 E18.4772
G1 X155.261 Y166.427 E18.56329
G1 X154.363 Y166.545 E18.60836
G1 X152.356 Y166.683 E18.70848
G1 X151.844 Y166.7 E18.73397
G1 X142.105 Y166.689 E19.21864
G1 X141.59 Y166.67 E19.24428
G1 X140.721 Y166.608 E19.28764
G1 X140.195 Y166.552 E19.31396
G1 X138.759 Y166.345 E19.38617
G1 X137.9 Y166.168 E19.42981
G1 X135.943 Y165.642 E19.53066
G1 X135.153 Y165.381 E19.57206
G1 X133.8 Y164.847 E19.64445
G1 X133.026 Y164.488 E19.68691
G1 X131.373 Y163.602 E19.78025
G1 X130.717 Y163.205 E19.8184
G1 X130.106 Y162.742 E19.85655
G1 X129.547 Y162.218 E19.89469
G1 X129.045 Y161.639 E19.93282
G1 X128.606 Y161.01 E19.97099
G1 X128.235 Y160.339 E20.00915
G1 X127.937 Y159.633 E20.04729
G1 X127.713 Y158.9 E20.08543
G1 X127.531 Y157.855 E20.13822
G1 X127.494 Y157.48 E20.15697
G1 X126.068 Y142.044 E20.92842
G1 X126.038 Y141.278 E20.96657
G1 X126.087 Y140.513 E21.00472
G1 X126.216 Y139.758 E21.04284
G1 X126.422 Y139.019 E21.08102
G1 X126.705 Y138.307 E21.11915
G1 X127.06 Y137.628 E21.15728
G1 X127.484 Y136.989 E21.19544
G1 X127.972 Y136.398 E21.23358
G1 X128.519 Y135.861 E21.27173
G0 F6000 X128.4 Y136.556
G1 F600 X128.945 Y136.049 E21.30877
G1 X129.541 Y135.603 E21.34582
G1 X130.181 Y135.224 E21.38283
G1 X130.859 Y134.916 E21.41989
G1 X131.565 Y134.682 E21.45691
G1 X132.293 Y134.525 E21.49397
G1 X133.033 Y134.447 E21.531
G1 X133.778 Y134.449 E21.56807
G1 X134.249 Y134.492 E21.59161
G1 X137.707 Y134.925 E21.76504
G1 X140.444 Y135.166 E21.90178
G1 X143.534 Y135.338 E22.05579
G1 X146.587 Y135.417 E22.20778
G1 X149.981 Y135.368 E22.3767
G1 X154.172 Y135.162 E22.58552
G1 X156.184 Y134.993 E22.686
G1 X159.947 Y134.547 E22.87458
G1 X164.756 Y133.806 E23.11672
G1 X165.497 Y133.732 E23.15378
G1 X166.241 Y133.738 E23.19081
G1 X167.291 Y133.885 E23.24357
G1 X167.698 Y133.974 E23.26431
G1 X168.416 Y134.172 E23.30137
G1 X169.108 Y134.445 E23.33839
G1 X169.767 Y134.792 E23.37546
G1 X170.482 Y135.281 E23.41857
G1 X171.244 Y135.97 E23.46969
G1 X171.709 Y136.458 E23.50324
G1 X172.193 Y137.024 E23.5403
G1 X172.613 Y137.638 E23.57732
G1 X172.965 Y138.294 E23.61437
G1 X173.245 Y138.984 E23.65142
G1 X173.481 Y139.849 E23.69604
G1 X173.558 Y140.225 E23.71514
G1 X173.552 Y140.226 E23.71545
G1 X173.649 Y140.745 E23.74172
G1 X173.707 Y141.487 E23.77876
G1 X173.665 Y142.435 E23.82599
G1 X173.64 Y142.656 E23.83705
G1 X173.436 Y143.713 E23.89063
G1 X173.303 Y144.198 E23.91565
G1 X173.477 Y144.83 E23.94828
G1 X173.564 Y145.249 E23.96957
G1 X173.676 Y145.985 E24.00662
G1 X173.709 Y146.729 E24.04368
G1 X173.664 Y147.444 E24.07934
G1 X173.639 Y147.663 E24.09031
G1 X173.435 Y148.716 E24.14368
G1 X173.032 Y150.18 E24.21925
G1 X172.897 Y150.615 E24.24192
G1 X172.494 Y151.775 E24.30303
G1 X172.292 Y152.29 E24.33056
G1 X171.571 Y153.93 E24.41971
G1 X171.221 Y154.619 E24.45817
G1 X170.426 Y155.989 E24.537
G1 X170.089 Y156.514 E24.56805
G1 X169.334 Y157.581 E24.63309
G1 X168.846 Y158.194 E24.67209
G1 X167.5 Y159.701 E24.77264
G1 X166.977 Y160.227 E24.80956
G1 X166.117 Y161.004 E24.86723
G1 X165.637 Y161.4 E24.8982
G1 X164.466 Y162.281 E24.97113
G1 X164.059 Y162.565 E24.99583
G1 X163.348 Y163.024 E25.03794
G1 X163.001 Y163.229 E25.058
G1 X162.514 Y163.513 E25.08606
G1 X162.071 Y163.748 E25.11101
G1 X160.937 Y164.298 E25.17373
G1 X160.461 Y164.508 E25.19962
G1 X159.242 Y164.99 E25.26486
G1 X158.663 Y165.189 E25.29533
G1 X157.526 Y165.526 E25.35434
G1 X156.879 Y165.685 E25.3875
G1 X155.181 Y166.015 E25.47358
G1 X154.334 Y166.126 E25.51609
G1 X152.327 Y166.264 E25.61621
G1 X151.844 Y166.28 E25.64026
G1 X142.105 Y166.269 E26.12493
G1 X141.62 Y166.251 E26.14908
G1 X140.751 Y166.189 E26.19243
G1 X140.255 Y166.136 E26.21726
G1 X138.819 Y165.929 E26.28946
G1 X138.009 Y165.762 E26.33062
G1 X136.052 Y165.236 E26.43147
G1 X135.307 Y164.99 E26.47051
G1 X133.954 Y164.456 E26.5429
G1 X133.224 Y164.118 E26.58293
G1 X131.571 Y163.232 E26.67627
G1 X130.935 Y162.846 E26.71329
G1 X130.344 Y162.393 E26.75035
G1 X129.805 Y161.88 E26.78738
G1 X129.324 Y161.312 E26.82442
G1 X128.906 Y160.696 E26.86147
G1 X128.558 Y160.038 E26.89851
G1 X128.281 Y159.347 E26.93556
G1 X128.081 Y158.63 E26.9726
G1 X127.949 Y157.814 E27.01374
G1 X127.912 Y157.441 E27.03239
G1 X126.486 Y142.005 E27.80384
G1 X126.458 Y141.262 E27.84084
G1 X126.509 Y140.519 E27.87791
G1 X126.64 Y139.786 E27.91496
G1 X126.848 Y139.072 E27.95197
G1 X127.132 Y138.384 E27.98901
G1 X127.489 Y137.73 E28.02609
G1 X127.913 Y137.119 E28.0631
G1 X128.4 Y136.556 E28.10015
G0 F6000 X128.827 Y136.722
G1 F600 X129.369 Y136.246 E28.13605
G1 X129.961 Y135.832 E28.172
G1 X130.594 Y135.487 E28.20787
G1 X131.262 Y135.215 E28.24377
G1 X131.956 Y135.017 E28.27968
G1 X132.667 Y134.898 E28.31556
G1 X133.388 Y134.858 E28.35149
G1 X134.196 Y134.909 E28.39179
G1 X137.644 Y135.341 E28.56472
G1 X140.414 Y135.585 E28.7031
G1 X143.534 Y135.758 E28.85861
G1 X146.582 Y135.837 E29.01035
G1 X150.008 Y135.788 E29.18086
G1 X154.198 Y135.582 E29.38963
G1 X156.212 Y135.412 E29.49021
G1 X160.001 Y134.963 E29.68009
G1 X164.82 Y134.221 E29.92274
G1 X165.538 Y134.151 E29.95864
G1 X166.259 Y134.16 E29.99452
G1 X167.202 Y134.295 E30.04193
G1 X167.609 Y134.384 E30.06266
G1 X168.304 Y134.577 E30.09856
G1 X168.973 Y134.846 E30.13444
G1 X169.609 Y135.187 E30.17036
G1 X170.224 Y135.612 E30.20756
G1 X170.94 Y136.26 E30.25562
G1 X171.405 Y136.748 E30.28916
G1 X171.873 Y137.297 E30.32506
G1 X172.277 Y137.895 E30.36098
G1 X172.613 Y138.533 E30.39686
G1 X172.876 Y139.205 E30.43278
G1 X173.07 Y139.933 E30.47027
G1 X173.147 Y140.309 E30.48937
G1 X173.14 Y140.31 E30.48972
G1 X173.235 Y140.823 E30.51569
G1 X173.288 Y141.542 E30.55156
G1 X173.248 Y142.388 E30.59371
G1 X173.223 Y142.609 E30.60478
G1 X173.031 Y143.602 E30.65511
G1 X172.87 Y144.188 E30.68536
G1 X173.066 Y144.916 E30.72288
G1 X173.153 Y145.335 E30.74417
G1 X173.26 Y146.048 E30.78005
G1 X173.288 Y146.769 E30.81596
G1 X173.247 Y147.396 E30.84723
G1 X173.222 Y147.615 E30.8582
G1 X173.031 Y148.605 E30.90838
