;FLAVOR:Marlin
;TIME:3465
;Filament used: 1.40385m
;Layer height: 0.15
;MINX:123.401
;MINY:114.892
;MINZ:0.3
;MAXX:189.851
;MAXY:181.318
;MAXZ:13.95
;Generated with Cura_SteamEngine 4.10.0
M140 S90
M105
M190 S90
M104 S250
M105
M109 S250
M82 ;absolute extrusion mode
G28 ; home all axes
 M117 Purge extruder
 G92 E0 ; reset extruder
 G1 Z1.0 F3000 ; move z up little to prevent scratching of surface
 G1 X2 Y20 Z0.3 F5000.0 ; move to start-line position
 G1 X2 Y200.0 Z0.3 F1500.0 E15 ; draw 1st line
 G1 X2 Y200.0 Z0.4 F5000.0 ; move to side a little
 G1 X2 Y20 Z0.4 F1500.0 E30 ; draw 2nd line
 G92 E0 ; reset extruder
 G1 Z1.0 F3000 ; move z up little to prevent scratching of surface
G92 E0
G92 E0
G1 F2100 E-2
;LAYER_COUNT:92
;LAYER:0
M107
G0 F6000 X162.628 Y152.845 Z0.3
;TYPE:SKIRT
G1 F2100 E0
G1 F600 X163.366 Y152.15 E0.05045
G1 X163.514 Y152.027 E0.06003
G1 X163.787 Y151.811 E0.07735
G1 X163.959 Y151.68 E0.08811
G1 X164.626 Y151.222 E0.12838
G1 X165.335 Y150.832 E0.16864
G1 X165.873 Y150.602 E0.19776
G1 X166.492 Y150.163 E0.23553
G1 X167.327 Y149.697 E0.28312
G1 X167.389 Y149.667 E0.28654
G1 X168.308 Y149.289 E0.336
G1 X168.665 Y149.167 E0.35477
G1 X169.442 Y148.944 E0.395
G1 X170.238 Y148.798 E0.43527
G1 X171.045 Y148.731 E0.47557
G1 X171.212 Y148.683 E0.48422
G1 X172 Y148.497 E0.52451
G1 X172.504 Y148.421 E0.54988
G1 X172.87 Y148.377 E0.56822
G1 X173.678 Y148.32 E0.60853
G1 X174.16 Y148.324 E0.63252
G1 X174.37 Y148.332 E0.64298
G1 X175.176 Y148.403 E0.68325
G1 X175.971 Y148.553 E0.72351
G1 X176.594 Y148.735 E0.75581
G1 X176.939 Y148.753 E0.773
G1 X177.743 Y148.849 E0.8133
G1 X178.533 Y149.023 E0.85355
G1 X179.118 Y149.206 E0.88406
G1 X179.301 Y149.271 E0.89372
G1 X179.602 Y149.385 E0.90974
G1 X179.797 Y149.463 E0.92019
G1 X180.532 Y149.8 E0.96043
G1 X181.231 Y150.208 E1.00071
G1 X181.773 Y150.601 E1.03403
G1 X182.199 Y150.786 E1.05714
G1 X182.366 Y150.867 E1.06638
G1 X183.076 Y151.256 E1.10666
G1 X183.744 Y151.713 E1.14694
G1 X184.127 Y152.022 E1.17143
G1 X184.41 Y152.265 E1.19
G1 X184.998 Y152.822 E1.2303
G1 X185.527 Y153.434 E1.27056
G1 X185.998 Y154.105 E1.31136
G1 X186.117 Y154.206 E1.31913
G1 X186.643 Y154.749 E1.35675
G1 X186.742 Y154.861 E1.36419
G1 X187.248 Y155.493 E1.40448
G1 X187.687 Y156.169 E1.44459
G1 X187.855 Y156.458 E1.46123
G1 X188.226 Y157.177 E1.50149
G1 X188.525 Y157.929 E1.54176
G1 X188.706 Y158.534 E1.57319
G1 X188.794 Y158.908 E1.59231
G1 X188.956 Y159.218 E1.60972
G1 X189.276 Y159.962 E1.65002
G1 X189.521 Y160.733 E1.69028
G1 X189.649 Y161.303 E1.71935
G1 X189.685 Y161.494 E1.72903
G1 X189.758 Y161.948 E1.75191
G1 X189.786 Y162.162 E1.76265
G1 X189.851 Y162.969 E1.80294
G1 X189.836 Y163.778 E1.84321
G1 X189.769 Y164.347 E1.87172
G1 X189.8 Y164.556 E1.88224
G1 X189.841 Y165.364 E1.9225
G1 X189.826 Y165.867 E1.94754
G1 X189.804 Y166.229 E1.96559
G1 X189.715 Y167.033 E2.00585
G1 X189.631 Y167.475 E2.02824
G1 X189.587 Y167.677 E2.03852
G1 X189.376 Y168.458 E2.07878
G1 X189.089 Y169.215 E2.11907
G1 X188.799 Y169.799 E2.15152
G1 X188.687 Y170.277 E2.17596
G1 X188.426 Y171.042 E2.21618
G1 X188.171 Y171.618 E2.24753
G1 X188.06 Y171.845 E2.2601
G1 X187.673 Y172.548 E2.30004
G1 X187.557 Y172.736 E2.31103
G1 X187.099 Y173.402 E2.35126
G1 X186.577 Y174.021 E2.39155
G1 X186.018 Y174.552 E2.42992
G1 X185.824 Y174.849 E2.44758
G1 X185.337 Y175.495 E2.48784
G1 X184.788 Y176.09 E2.52813
G1 X184.27 Y176.557 E2.56284
G1 X184.01 Y176.772 E2.57962
G1 X183.362 Y177.256 E2.61988
G1 X182.669 Y177.674 E2.66015
G1 X182.11 Y177.947 E2.69111
G1 X181.793 Y178.081 E2.70824
G1 X181.22 Y178.494 E2.74339
G1 X180.352 Y178.984 E2.79299
G1 X180.274 Y179.022 E2.79731
G1 X179.477 Y179.359 E2.84037
G1 X179.259 Y179.438 E2.85191
G1 X178.253 Y179.731 E2.90406
G1 X178.011 Y179.785 E2.9164
G1 X177.213 Y179.922 E2.95669
G1 X176.566 Y179.968 E2.98897
G1 X176.415 Y180.02 E2.99692
G1 X175.627 Y180.203 E3.03718
G1 X175.146 Y180.275 E3.06138
G1 X174.78 Y180.319 E3.07972
G1 X173.972 Y180.376 E3.12004
G1 X173.492 Y180.372 E3.14392
G1 X173.281 Y180.364 E3.15443
G1 X172.475 Y180.294 E3.19469
G1 X171.679 Y180.144 E3.235
G1 X171.085 Y179.969 E3.26582
G1 X170.904 Y179.967 E3.27483
G1 X170.1 Y179.876 E3.3151
G1 X169.341 Y179.715 E3.35371
G1 X169.013 Y179.629 E3.37058
G1 X167.974 Y179.281 E3.42511
G1 X167.782 Y179.202 E3.43544
G1 X167.049 Y178.857 E3.47576
G1 X166.355 Y178.442 E3.516
G1 X165.923 Y178.122 E3.54276
G1 X165.871 Y178.104 E3.5455
G1 X165.139 Y177.76 E3.58575
G1 X164.302 Y177.248 E3.63457
G1 X164.028 Y177.057 E3.6512
G1 X163.387 Y176.562 E3.6915
G1 X162.905 Y176.115 E3.72421
G1 X162.708 Y175.917 E3.73811
G1 X162.166 Y175.315 E3.77843
G1 X161.687 Y174.664 E3.81865
G1 X161.636 Y174.579 E3.82358
G1 X161.124 Y174.077 E3.85927
G1 X160.435 Y173.224 E3.91383
G1 X160.246 Y172.955 E3.9302
G1 X159.668 Y172 E3.98575
G1 X159.569 Y171.808 E3.9965
G1 X159.234 Y171.072 E4.03674
G1 X158.973 Y170.306 E4.07701
G1 X158.864 Y169.838 E4.10093
G1 X158.544 Y169.167 E4.13792
G1 X158.186 Y168.114 E4.19327
G1 X158.1 Y167.791 E4.20991
G1 X157.899 Y166.789 E4.26076
G1 X157.87 Y166.576 E4.27146
G1 X157.8 Y165.77 E4.31172
G1 X157.811 Y164.961 E4.35199
G1 X157.879 Y164.356 E4.38229
G1 X157.806 Y163.635 E4.41835
G1 X157.804 Y162.826 E4.45861
G1 X157.883 Y162.015 E4.49916
G1 X157.92 Y161.765 E4.51174
G1 X158.018 Y161.229 E4.53885
G1 X158.062 Y161.026 E4.54919
G1 X158.272 Y160.245 E4.58944
G1 X158.558 Y159.488 E4.62971
G1 X158.844 Y158.912 E4.66171
G1 X159.041 Y158.164 E4.70021
G1 X159.285 Y157.498 E4.73551
G1 X159.312 Y157.433 E4.73901
G1 X159.793 Y156.461 E4.79298
G1 X159.951 Y156.189 E4.80863
G1 X160.392 Y155.51 E4.84893
G1 X160.897 Y154.878 E4.88919
G1 X161.484 Y154.279 E4.93092
G1 X161.644 Y154.128 E4.94187
G1 X162.104 Y153.462 E4.98215
G1 X162.628 Y152.845 E5.02244
G0 F6000 X162.977 Y153.088
G1 F600 X163.635 Y152.473 E5.06726
G1 X163.783 Y152.35 E5.07684
G1 X164.041 Y152.145 E5.09323
G1 X164.213 Y152.014 E5.10399
G1 X164.864 Y151.569 E5.14324
G1 X165.556 Y151.192 E5.18245
G1 X166.084 Y150.97 E5.21096
G1 X166.124 Y150.936 E5.21357
G1 X166.77 Y150.484 E5.25281
G1 X167.51 Y150.075 E5.29488
G1 X167.572 Y150.045 E5.29831
G1 X168.443 Y149.686 E5.3452
G1 X168.8 Y149.564 E5.36397
G1 X169.558 Y149.348 E5.40319
G1 X170.334 Y149.209 E5.44243
G1 X171.12 Y149.149 E5.48166
G1 X171.15 Y149.15 E5.48315
G1 X171.408 Y149.064 E5.49668
G1 X172.555 Y148.838 E5.55486
G1 X172.921 Y148.794 E5.57321
G1 X173.707 Y148.739 E5.61242
G1 X174.144 Y148.744 E5.63417
G1 X174.354 Y148.752 E5.64463
G1 X175.139 Y148.822 E5.68385
G1 X175.913 Y148.971 E5.72307
G1 X176.517 Y149.152 E5.75445
G1 X176.91 Y149.172 E5.77404
G1 X177.693 Y149.266 E5.81328
G1 X178.462 Y149.439 E5.85251
G1 X178.978 Y149.602 E5.87944
G1 X179.161 Y149.667 E5.8891
G1 X179.446 Y149.775 E5.90427
G1 X179.641 Y149.853 E5.91472
G1 X180.357 Y150.182 E5.95393
G1 X181.036 Y150.582 E5.99315
G1 X181.544 Y150.957 E6.02458
G1 X182.016 Y151.164 E6.05022
G1 X182.183 Y151.245 E6.05946
G1 X182.874 Y151.624 E6.09868
G1 X183.522 Y152.072 E6.13789
G1 X183.854 Y152.341 E6.15915
G1 X184.137 Y152.584 E6.17771
G1 X184.708 Y153.127 E6.21693
G1 X185.221 Y153.725 E6.25614
G1 X185.679 Y154.386 E6.29616
G1 X185.889 Y154.568 E6.30999
G1 X186.329 Y155.027 E6.34163
G1 X186.428 Y155.139 E6.34907
G1 X186.919 Y155.755 E6.38827
G1 X187.323 Y156.38 E6.42531
G1 X187.491 Y156.669 E6.44194
G1 X187.852 Y157.37 E6.48118
G1 X188.141 Y158.103 E6.52039
G1 X188.299 Y158.639 E6.5482
G1 X188.395 Y159.053 E6.56935
G1 X188.579 Y159.403 E6.58903
G1 X188.89 Y160.127 E6.62824
G1 X189.125 Y160.88 E6.6675
G1 X189.237 Y161.381 E6.69305
G1 X189.273 Y161.572 E6.70272
G1 X189.341 Y162.003 E6.72443
G1 X189.369 Y162.217 E6.73518
G1 X189.432 Y163.003 E6.77442
G1 X189.414 Y163.791 E6.81364
G1 X189.344 Y164.354 E6.84188
G1 X189.392 Y164.7 E6.85926
G1 X189.407 Y165.841 E6.91605
G1 X189.385 Y166.203 E6.93409
G1 X189.297 Y166.987 E6.97336
G1 X189.221 Y167.386 E6.99357
G1 X189.177 Y167.588 E7.00386
G1 X188.97 Y168.348 E7.04306
G1 X188.688 Y169.084 E7.08228
G1 X188.406 Y169.641 E7.11335
G1 X188.266 Y170.22 E7.143
G1 X188.005 Y170.964 E7.18223
G1 X187.794 Y171.433 E7.20783
G1 X187.683 Y171.66 E7.2204
G1 X187.316 Y172.327 E7.25829
G1 X187.2 Y172.515 E7.26928
G1 X186.752 Y173.164 E7.30853
G1 X186.241 Y173.764 E7.34775
G1 X185.692 Y174.284 E7.38538
G1 X185.477 Y174.613 E7.40494
G1 X185.001 Y175.242 E7.44419
G1 X184.465 Y175.819 E7.48339
G1 X184.003 Y176.233 E7.51426
G1 X183.743 Y176.448 E7.53105
G1 X183.11 Y176.919 E7.57031
G1 X182.434 Y177.323 E7.6095
G1 X181.94 Y177.563 E7.63684
G1 X181.593 Y177.708 E7.65555
G1 X181.582 Y177.718 E7.65629
G1 X180.939 Y178.174 E7.69552
G1 X180.168 Y178.606 E7.7395
G1 X180.09 Y178.644 E7.74382
G1 X179.334 Y178.964 E7.78467
G1 X179.116 Y179.043 E7.79621
G1 X178.161 Y179.321 E7.84571
G1 X177.919 Y179.375 E7.85805
G1 X177.142 Y179.508 E7.89728
G1 X176.48 Y179.553 E7.9303
G1 X176.221 Y179.638 E7.94387
G1 X175.095 Y179.858 E8.00096
G1 X174.729 Y179.902 E8.01931
G1 X173.943 Y179.957 E8.05852
G1 X173.508 Y179.952 E8.08017
G1 X173.297 Y179.944 E8.09068
G1 X172.512 Y179.875 E8.12989
G1 X171.738 Y179.726 E8.16912
G1 X171.149 Y179.549 E8.19973
G1 X170.849 Y179.542 E8.21466
G1 X170.067 Y179.445 E8.25388
G1 X169.447 Y179.309 E8.28546
G1 X169.119 Y179.223 E8.30234
G1 X168.133 Y178.893 E8.35408
G1 X167.941 Y178.814 E8.36442
G1 X167.229 Y178.477 E8.40362
G1 X166.554 Y178.07 E8.44284
G1 X166.12 Y177.745 E8.46983
G1 X165.974 Y177.692 E8.47755
G1 X165.264 Y177.35 E8.51677
G1 X164.542 Y176.903 E8.55903
G1 X164.268 Y176.712 E8.57566
G1 X163.645 Y176.229 E8.61489
G1 X163.203 Y175.818 E8.64492
G1 X163.006 Y175.62 E8.65882
G1 X162.479 Y175.034 E8.69804
G1 X162.014 Y174.398 E8.73725
G1 X161.935 Y174.288 E8.74399
G1 X161.377 Y173.732 E8.78319
G1 X160.778 Y172.983 E8.83092
G1 X160.589 Y172.714 E8.84728
G1 X160.041 Y171.808 E8.89997
G1 X159.942 Y171.616 E8.91072
G1 X159.617 Y170.898 E8.94995
G1 X159.366 Y170.151 E8.98916
G1 X159.262 Y169.691 E9.01263
G1 X159.234 Y169.644 E9.01536
G1 X158.901 Y168.93 E9.05456
G1 X158.592 Y168.006 E9.10305
G1 X158.506 Y167.683 E9.11968
G1 X158.315 Y166.732 E9.16796
G1 X158.286 Y166.519 E9.17865
G1 X158.219 Y165.734 E9.21786
G1 X158.233 Y164.946 E9.25708
G1 X158.302 Y164.364 E9.28625
G1 X158.296 Y164.336 E9.28767
G1 X158.222 Y163.552 E9.32686
G1 X158.228 Y162.764 E9.36608
G1 X158.299 Y162.076 E9.4005
G1 X158.336 Y161.826 E9.41308
G1 X158.428 Y161.318 E9.43877
G1 X158.472 Y161.115 E9.44911
G1 X158.678 Y160.354 E9.48834
G1 X158.96 Y159.618 E9.52757
G1 X159.245 Y159.052 E9.5591
G1 X159.255 Y158.993 E9.56208
G1 X159.46 Y158.232 E9.6013
G1 X159.672 Y157.659 E9.63171
G1 X159.699 Y157.594 E9.63521
G1 X160.156 Y156.672 E9.68642
G1 X160.314 Y156.4 E9.70207
G1 X160.744 Y155.74 E9.74128
G1 X161.239 Y155.126 E9.78052
G1 X161.769 Y154.588 E9.81811
G1 X161.973 Y154.4 E9.83191
G1 X162.011 Y154.332 E9.83579
G1 X162.462 Y153.685 E9.87504
G1 X162.977 Y153.088 E9.91428
G0 F6000 X163.324 Y153.332
G1 F600 X163.903 Y152.796 E9.95354
G1 X164.051 Y152.673 E9.96312
G1 X164.296 Y152.479 E9.97867
G1 X164.468 Y152.348 E9.98943
G1 X165.101 Y151.916 E10.02757
G1 X165.776 Y151.552 E10.06573
G1 X166.307 Y151.334 E10.0943
G1 X166.415 Y151.242 E10.10136
G1 X167.046 Y150.807 E10.1395
G1 X167.693 Y150.453 E10.1762
G1 X167.755 Y150.423 E10.17963
G1 X168.579 Y150.084 E10.22397
G1 X168.936 Y149.962 E10.24275
G1 X169.673 Y149.752 E10.28088
G1 X170.429 Y149.62 E10.31908
G1 X171.193 Y149.568 E10.35718
G1 X171.219 Y149.569 E10.35848
G1 X171.601 Y149.447 E10.37844
G1 X172.605 Y149.255 E10.42931
G1 X172.971 Y149.211 E10.44765
G1 X173.736 Y149.159 E10.48581
G1 X174.128 Y149.163 E10.50532
G1 X174.338 Y149.171 E10.51578
G1 X175.101 Y149.24 E10.5539
G1 X175.853 Y149.389 E10.59205
G1 X176.437 Y149.568 E10.62245
G1 X176.882 Y149.591 E10.64463
G1 X177.642 Y149.684 E10.68273
G1 X178.39 Y149.855 E10.72092
G1 X178.837 Y149.998 E10.74427
G1 X179.02 Y150.063 E10.75394
G1 X179.29 Y150.165 E10.7683
G1 X179.485 Y150.243 E10.77875
G1 X180.181 Y150.564 E10.81689
G1 X180.839 Y150.956 E10.85501
G1 X181.337 Y151.327 E10.88592
G1 X181.418 Y151.356 E10.8902
G1 X181.833 Y151.542 E10.91283
G1 X182 Y151.623 E10.92207
G1 X182.671 Y151.993 E10.9602
G1 X183.58 Y152.66 E11.01631
G1 X183.863 Y152.903 E11.03487
G1 X184.418 Y153.432 E11.07303
G1 X184.915 Y154.016 E11.11119
G1 X185.357 Y154.663 E11.15018
G1 X185.658 Y154.93 E11.17021
G1 X186.014 Y155.305 E11.19594
G1 X186.113 Y155.417 E11.20338
G1 X186.59 Y156.017 E11.24152
G1 X186.96 Y156.591 E11.27551
G1 X187.128 Y156.88 E11.29215
G1 X187.479 Y157.562 E11.33032
G1 X187.756 Y158.277 E11.36848
G1 X187.892 Y158.744 E11.39268
G1 X187.995 Y159.195 E11.4157
G1 X188.202 Y159.588 E11.43781
G1 X188.503 Y160.293 E11.47596
G1 X188.728 Y161.025 E11.51407
G1 X188.824 Y161.459 E11.53619
G1 X188.86 Y161.65 E11.54586
G1 X188.925 Y162.057 E11.56637
G1 X188.953 Y162.271 E11.57711
G1 X189.013 Y163.036 E11.6153
G1 X188.992 Y163.802 E11.65344
G1 X188.92 Y164.347 E11.68079
G1 X188.982 Y164.841 E11.70557
G1 X188.987 Y165.816 E11.75409
G1 X188.965 Y166.178 E11.77214
G1 X188.811 Y167.296 E11.8283
G1 X188.767 Y167.498 E11.83859
G1 X188.565 Y168.238 E11.87677
G1 X188.287 Y168.952 E11.9149
G1 X188.013 Y169.483 E11.94463
G1 X187.845 Y170.161 E11.97939
G1 X187.584 Y170.882 E12.01755
G1 X187.417 Y171.249 E12.03762
G1 X187.306 Y171.476 E12.05019
G1 X186.958 Y172.107 E12.08606
G1 X186.842 Y172.295 E12.09705
G1 X186.406 Y172.925 E12.13518
G1 X185.907 Y173.507 E12.17333
G1 X185.367 Y174.014 E12.21019
G1 X185.13 Y174.377 E12.23176
G1 X184.666 Y174.988 E12.26995
G1 X184.142 Y175.547 E12.30808
G1 X183.735 Y175.909 E12.33518
G1 X183.475 Y176.124 E12.35197
G1 X182.859 Y176.581 E12.39014
G1 X182.2 Y176.972 E12.42828
G1 X181.77 Y177.179 E12.45203
G1 X181.367 Y177.346 E12.47374
G1 X181.288 Y177.414 E12.47892
G1 X180.66 Y177.854 E12.51708
G1 X179.984 Y178.229 E12.55555
G1 X179.906 Y178.267 E12.55987
G1 X179.191 Y178.569 E12.5985
G1 X178.973 Y178.648 E12.61004
G1 X178.07 Y178.912 E12.65686
G1 X177.828 Y178.966 E12.6692
G1 X177.072 Y179.093 E12.70735
G1 X176.402 Y179.136 E12.74076
G1 X176.029 Y179.255 E12.76024
G1 X175.045 Y179.441 E12.81008
G1 X174.679 Y179.485 E12.82842
G1 X173.914 Y179.537 E12.86658
G1 X173.524 Y179.533 E12.88599
G1 X173.313 Y179.525 E12.8965
G1 X172.549 Y179.456 E12.93468
G1 X171.797 Y179.308 E12.97282
G1 X171.223 Y179.131 E13.00271
G1 X170.796 Y179.117 E13.02397
G1 X170.037 Y179.012 E13.0621
G1 X169.554 Y178.903 E13.08674
G1 X169.226 Y178.817 E13.10362
G1 X168.293 Y178.504 E13.15259
G1 X168.101 Y178.425 E13.16293
G1 X167.409 Y178.097 E13.20104
G1 X166.754 Y177.698 E13.2392
G1 X166.323 Y177.37 E13.26616
G1 X166.079 Y177.28 E13.2791
G1 X165.392 Y176.941 E13.31722
G1 X164.782 Y176.559 E13.35304
G1 X164.508 Y176.368 E13.36966
G1 X163.903 Y175.897 E13.40782
G1 X163.501 Y175.522 E13.43518
G1 X163.304 Y175.324 E13.44908
G1 X162.792 Y174.753 E13.48725
G1 X162.343 Y174.132 E13.52538
G1 X162.169 Y173.934 E13.5385
G1 X161.632 Y173.387 E13.57665
G1 X161.122 Y172.741 E13.61761
G1 X160.933 Y172.472 E13.63397
G1 X160.414 Y171.615 E13.68383
G1 X160.315 Y171.423 E13.69458
G1 X160 Y170.725 E13.73269
G1 X159.759 Y169.997 E13.77085
G1 X159.656 Y169.528 E13.79475
G1 X159.576 Y169.391 E13.80264
G1 X159.259 Y168.693 E13.84079
G1 X158.997 Y167.898 E13.88245
G1 X158.911 Y167.575 E13.89908
G1 X158.731 Y166.676 E13.94471
G1 X158.702 Y166.463 E13.95541
G1 X158.639 Y165.699 E13.99356
G1 X158.655 Y164.932 E14.03174
G1 X158.729 Y164.35 E14.06093
G1 X158.706 Y164.234 E14.06682
G1 X158.639 Y163.47 E14.10499
G1 X158.653 Y162.704 E14.14311
G1 X158.714 Y162.138 E14.17144
G1 X158.751 Y161.888 E14.18402
G1 X158.839 Y161.407 E14.20835
G1 X158.883 Y161.204 E14.21869
G1 X159.084 Y160.464 E14.25685
G1 X159.361 Y159.75 E14.29496
G1 X159.649 Y159.188 E14.32639
G1 X159.674 Y159.041 E14.33381
G1 X159.88 Y158.303 E14.37194
G1 X160.06 Y157.82 E14.39759
G1 X160.087 Y157.755 E14.4011
G1 X160.519 Y156.883 E14.44953
G1 X160.677 Y156.611 E14.46518
G1 X161.097 Y155.969 E14.50336
G1 X161.58 Y155.375 E14.54146
G1 X162.053 Y154.897 E14.57492
G1 X162.256 Y154.71 E14.58866
G1 X162.379 Y154.537 E14.59922
G1 X162.82 Y153.91 E14.63737
