;FLAVOR:Marlin
;TIME:1515
;Filament used: 2.78362m
;Layer height: 0.2
;MINX:87.25
;MINY:86.5
;MINZ:0.26
;MAXX:143.817
;MAXY:143.5
;MAXZ:12.06
;TARGET_MACHINE.NAME:Anycubic Kobra 2
;Generated with Cura_SteamEngine 5.8.1
M104 S215
M105
M109 S215
M82 ;absolute extrusion mode
G90 ; use absolute coordinates
M301 E0 P10.60 I0.54 D51.77 ; PID Tuning - Might not be the same for your printer
M104 S[first_layer_temperature] ; set extruder temp
M140 S[first_layer_bed_temperature] ; set bed temp
M190 S[first_layer_bed_temperature] ; wait for bed temp
M109 S[first_layer_temperature] ; wait for extruder temp
G28 ; home all axis
G1 Z5 F5000 ; lift nozzle
G92 E0 ; zero extruder
G1 Y3 F6000 ; move Y to purge point
G1 Z0.25 F5000 ; lower nozzle
G1 X60 E15 F500 ; Extrude 15mm of filament in a 5cm line. 
G92 E0 ; zero the extruded length again 
G1 E-3 F500 ; Retract a little 
G1 X70 F4000 ; Quickly wipe away from the filament line
M117 ; set LCD Message?
G92 E0
G92 E0
G1 F4800 E-2.5
;LAYER_COUNT:60
;LAYER:0
M107
G0 F12000 X90.541 Y97.832 Z0.26
;TYPE:SKIRT
G1 F4800 E0
G1 X91.402 Y97.157 E0.07493
G1 X92.493 Y96.514 E0.16166
G1 X93.748 Y95.95 E0.2559
G1 X96.253 Y94.791 E0.44494
G1 X98.629 Y93.609 E0.62669
G1 X101.068 Y92.307 E0.81605
G1 X103.345 Y91.007 E0.99563
G1 X105.699 Y89.575 E1.18434
G1 X107.869 Y88.18 E1.36102
G1 X108.721 Y87.67 E1.42903
G1 X109.34 Y87.362 E1.47638
G1 X110.082 Y87.063 E1.53117
G1 X110.69 Y86.872 E1.57482
G1 X111.658 Y86.643 E1.64295
G1 X112.797 Y86.512 E1.72147
G1 X114.024 Y86.5 E1.80551
G1 X114.914 Y86.519 E1.86648
G1 X116.807 Y86.656 E1.99647
G1 X119.509 Y86.8 E2.18179
G1 X122.251 Y86.869 E2.36965
G1 X124.934 Y86.86 E2.55341
G1 X127.647 Y86.775 E2.73931
G1 X130.343 Y86.613 E2.92429
G1 X131.572 Y86.516 E3.00872
G1 X132.863 Y86.5 E3.09715
G1 X133.581 Y86.511 E3.14633
G1 X134.715 Y86.619 E3.22435
G1 X136.027 Y86.925 E3.31662
G1 X137.268 Y87.394 E3.40748
G1 X138.296 Y87.974 E3.48832
G1 X138.795 Y88.311 E3.52956
G1 X139.693 Y89.017 E3.6078
G1 X140.448 Y89.827 E3.68364
G1 X141.038 Y90.575 E3.74888
G1 X141.625 Y91.557 E3.82724
G1 X141.887 Y92.091 E3.86798
G1 X142.186 Y92.833 E3.92277
G1 X142.377 Y93.441 E3.96642
G1 X142.618 Y94.478 E4.03933
G1 X142.737 Y95.535 E4.11218
G1 X142.746 Y96.251 E4.16122
G1 X142.744 Y99.023 E4.35108
G1 X142.821 Y101.735 E4.53689
G1 X142.971 Y104.413 E4.7206
G1 X143.2 Y107.114 E4.90625
G1 X143.502 Y109.788 E5.09055
G1 X143.619 Y110.623 E5.1483
G1 X143.756 Y111.727 E5.22449
G1 X143.807 Y112.405 E5.27106
G1 X143.814 Y113.001 E5.31188
G1 X143.804 Y113.673 E5.35791
G1 X143.804 Y116.383 E5.54352
G1 X143.817 Y117.32 E5.6077
G1 X143.799 Y118.333 E5.67709
G1 X143.581 Y120.101 E5.7991
G1 X143.463 Y120.951 E5.85787
G1 X143.177 Y123.574 E6.03858
G1 X142.955 Y126.31 E6.22658
G1 X142.817 Y128.938 E6.40682
G1 X142.75 Y131.707 E6.59652
G1 X142.749 Y133.629 E6.72816
G1 X142.735 Y134.396 E6.7807
G1 X142.649 Y135.346 E6.84603
G1 X142.328 Y136.765 E6.94567
G1 X141.854 Y138.023 E7.03775
G1 X141.182 Y139.219 E7.1317
G1 X140.246 Y140.438 E7.23697
G1 X139.462 Y141.164 E7.31015
G1 X138.605 Y141.838 E7.38482
G1 X137.775 Y142.332 E7.45097
G1 X137.206 Y142.616 E7.49453
G1 X136.375 Y142.951 E7.55589
G1 X135.808 Y143.128 E7.59658
G1 X134.84 Y143.357 E7.6647
G1 X133.701 Y143.488 E7.74323
G1 X132.474 Y143.5 E7.82727
G1 X131.584 Y143.481 E7.88824
G1 X129.691 Y143.344 E8.01823
G1 X126.989 Y143.2 E8.20355
G1 X124.247 Y143.131 E8.3914
G1 X121.564 Y143.14 E8.57516
G1 X118.851 Y143.225 E8.76106
G1 X116.155 Y143.387 E8.94604
G1 X114.844 Y143.488 E9.0361
G1 X113.635 Y143.5 E9.11891
G1 X112.917 Y143.489 E9.16809
G1 X111.783 Y143.381 E9.24611
G1 X110.468 Y143.074 E9.33859
G1 X109.156 Y142.565 E9.43497
G1 X108.263 Y142.065 E9.50507
G1 X107.52 Y141.6 E9.5651
G1 X106.16 Y140.709 E9.67646
G1 X103.893 Y139.311 E9.85887
G1 X101.488 Y137.922 E10.04909
G1 X99.19 Y136.68 E10.22799
G1 X96.722 Y135.433 E10.41737
G1 X93.544 Y133.957 E10.65736
G1 X92.587 Y133.527 E10.72922
G1 X91.741 Y133.05 E10.79574
G1 X91.204 Y132.689 E10.84005
G1 X90.3 Y131.979 E10.91878
G1 X89.547 Y131.17 E10.99447
G1 X88.953 Y130.415 E11.06027
G1 X88.394 Y129.483 E11.1347
G1 X88.111 Y128.906 E11.17872
G1 X87.812 Y128.163 E11.23357
G1 X87.621 Y127.555 E11.27722
G1 X87.392 Y126.585 E11.34548
G1 X87.262 Y125.451 E11.42366
G1 X87.25 Y124.225 E11.50763
G1 X87.269 Y123.336 E11.56853
G1 X87.395 Y121.596 E11.68801
G1 X87.541 Y118.892 E11.87348
G1 X87.614 Y116.144 E12.06175
G1 X87.608 Y113.498 E12.24298
G1 X87.525 Y110.722 E12.43319
G1 X87.364 Y107.992 E12.62049
G1 X87.264 Y106.569 E12.71819
G1 X87.25 Y105.389 E12.79901
G1 X87.27 Y104.422 E12.86525
G1 X87.39 Y103.415 E12.93471
G1 X87.626 Y102.381 E13.00735
G1 X88.142 Y100.985 E13.10928
G1 X88.724 Y99.953 E13.19043
G1 X89.061 Y99.454 E13.23167
G1 X89.767 Y98.556 E13.3099
G1 X90.541 Y97.832 E13.38249
G0 F12000 X90.951 Y98.27
G1 F4800 X91.707 Y97.674 E13.44842
G1 X92.798 Y97.031 E13.53516
G1 X94 Y96.495 E13.6253
G1 X96.505 Y95.336 E13.81434
G1 X98.911 Y94.139 E13.99839
G1 X101.351 Y92.836 E14.18784
G1 X103.657 Y91.52 E14.36968
G1 X106.021 Y90.082 E14.55919
G1 X108.177 Y88.695 E14.73477
G1 X109.029 Y88.185 E14.80278
G1 X109.564 Y87.919 E14.8437
G1 X110.306 Y87.62 E14.89849
G1 X110.828 Y87.456 E14.93597
G1 X111.796 Y87.227 E15.00409
G1 X112.803 Y87.112 E15.07351
G1 X114.011 Y87.1 E15.15625
G1 X114.901 Y87.119 E15.21722
G1 X116.775 Y87.255 E15.34591
G1 X119.494 Y87.4 E15.53239
G1 X122.238 Y87.469 E15.72039
G1 X124.953 Y87.46 E15.90634
G1 X127.666 Y87.375 E16.09224
G1 X130.379 Y87.212 E16.27838
G1 X131.619 Y87.114 E16.36358
G1 X132.854 Y87.1 E16.44817
G1 X133.572 Y87.111 E16.49735
G1 X134.657 Y87.216 E16.572
G1 X135.815 Y87.486 E16.65344
G1 X137.012 Y87.938 E16.74107
G1 X137.961 Y88.472 E16.81565
G1 X138.424 Y88.783 E16.85385
G1 X139.288 Y89.462 E16.92912
G1 X139.979 Y90.201 E16.99841
G1 X140.524 Y90.884 E17.05825
G1 X141.087 Y91.822 E17.13318
G1 X141.33 Y92.315 E17.17082
G1 X141.629 Y93.057 E17.22561
G1 X141.793 Y93.579 E17.26309
G1 X142.022 Y94.547 E17.33122
G1 X142.137 Y95.543 E17.39988
G1 X142.146 Y96.251 E17.44838
G1 X142.144 Y99.023 E17.63823
G1 X142.221 Y101.752 E17.82521
G1 X142.373 Y104.464 E18.01125
G1 X142.602 Y107.165 E18.1969
G1 X142.908 Y109.871 E18.38341
G1 X143.024 Y110.697 E18.44054
G1 X143.158 Y111.773 E18.5148
G1 X143.207 Y112.412 E18.5587
G1 X143.214 Y112.992 E18.59842
G1 X143.204 Y113.664 E18.64445
G1 X143.204 Y116.383 E18.83068
G1 X143.217 Y117.311 E18.89424
G1 X143.203 Y118.26 E18.95924
G1 X142.987 Y120.018 E19.08055
G1 X142.869 Y120.868 E19.13933
G1 X142.579 Y123.525 E19.32239
G1 X142.357 Y126.261 E19.51039
G1 X142.217 Y128.923 E19.69296
G1 X142.15 Y131.692 E19.88266
G1 X142.149 Y133.619 E20.01464
G1 X142.137 Y134.342 E20.06416
G1 X142.051 Y135.292 E20.12949
G1 X141.767 Y136.553 E20.21802
G1 X141.309 Y137.767 E20.30689
G1 X140.659 Y138.925 E20.39784
G1 X139.803 Y140.03 E20.49357
G1 X139.089 Y140.694 E20.56035
G1 X138.298 Y141.322 E20.62952
G1 X137.468 Y141.816 E20.69568
G1 X136.939 Y142.079 E20.73614
G1 X136.195 Y142.379 E20.79108
G1 X135.67 Y142.544 E20.82877
G1 X134.702 Y142.773 E20.8969
G1 X133.695 Y142.888 E20.96632
G1 X132.487 Y142.9 E21.04906
G1 X131.597 Y142.881 E21.11002
G1 X129.723 Y142.745 E21.23871
G1 X127.004 Y142.6 E21.4252
G1 X124.26 Y142.531 E21.61319
G1 X121.545 Y142.54 E21.79914
G1 X118.832 Y142.625 E21.98504
G1 X116.119 Y142.788 E22.17119
G1 X114.838 Y142.888 E22.25919
G1 X113.644 Y142.9 E22.34097
G1 X112.926 Y142.889 E22.39015
G1 X111.841 Y142.784 E22.46481
G1 X110.683 Y142.514 E22.54625
G1 X109.449 Y142.041 E22.63676
G1 X108.581 Y141.556 E22.70486
G1 X107.849 Y141.098 E22.764
G1 X106.475 Y140.198 E22.87649
G1 X104.193 Y138.791 E23.06011
G1 X101.788 Y137.402 E23.25032
G1 X99.461 Y136.144 E23.43149
G1 X96.993 Y134.897 E23.62088
G1 X93.789 Y133.409 E23.86283
G1 X92.882 Y133.004 E23.93086
G1 X92.036 Y132.527 E23.99738
G1 X91.575 Y132.217 E24.03542
G1 X90.709 Y131.537 E24.11084
G1 X90.017 Y130.796 E24.18028
G1 X89.468 Y130.106 E24.24067
G1 X88.909 Y129.174 E24.3151
G1 X88.668 Y128.682 E24.35262
G1 X88.369 Y127.939 E24.40748
G1 X88.205 Y127.417 E24.44495
G1 X87.976 Y126.447 E24.51321
G1 X87.862 Y125.445 E24.58228
G1 X87.85 Y124.238 E24.66495
G1 X87.869 Y123.349 E24.72585
G1 X87.993 Y121.639 E24.84328
G1 X88.141 Y118.908 E25.03059
G1 X88.214 Y116.16 E25.21887
G1 X88.208 Y113.48 E25.40242
G1 X88.125 Y110.704 E25.59263
G1 X87.963 Y107.957 E25.7811
G1 X87.863 Y106.527 E25.87928
G1 X87.85 Y105.4 E25.95647
G1 X87.866 Y104.491 E26.01874
G1 X87.975 Y103.549 E26.08368
G1 X88.211 Y102.515 E26.15632
G1 X88.688 Y101.238 E26.24969
G1 X89.222 Y100.288 E26.32433
G1 X89.533 Y99.825 E26.36253
G1 X90.212 Y98.961 E26.43779
G1 X90.951 Y98.27 E26.50708
G0 F12000 X91.325 Y98.739
G1 F4800 X92.013 Y98.19 E26.56736
G1 X93.042 Y97.579 E26.64933
G1 X94.252 Y97.04 E26.74005
G1 X96.757 Y95.881 E26.92909
G1 X99.193 Y94.668 E27.11547
G1 X101.634 Y93.365 E27.30498
G1 X103.969 Y92.033 E27.48909
G1 X106.333 Y90.594 E27.67864
G1 X107.457 Y89.865 E27.77039
G1 X107.561 Y89.808 E27.77852
G1 X108.485 Y89.21 E27.8539
G1 X109.337 Y88.7 E27.92191
G1 X109.789 Y88.475 E27.95649
G1 X110.488 Y88.192 E28.00813
G1 X110.966 Y88.04 E28.04249
G1 X111.934 Y87.811 E28.11062
G1 X112.809 Y87.712 E28.17093
G1 X113.998 Y87.7 E28.25236
G1 X114.888 Y87.719 E28.31333
G1 X116.743 Y87.854 E28.44072
G1 X119.479 Y88 E28.62837
G1 X122.225 Y88.069 E28.8165
G1 X124.972 Y88.06 E29.00464
G1 X127.685 Y87.975 E29.19054
G1 X130.415 Y87.811 E29.37786
G1 X131.666 Y87.712 E29.46381
G1 X132.845 Y87.7 E29.54456
G1 X133.563 Y87.711 E29.59374
G1 X134.524 Y87.801 E29.65985
G1 X135.603 Y88.047 E29.73564
G1 X136.759 Y88.484 E29.82028
G1 X137.628 Y88.971 E29.88851
G1 X138.053 Y89.255 E29.92352
G1 X138.883 Y89.907 E29.99581
G1 X139.51 Y90.575 E30.05855
G1 X140.055 Y91.258 E30.1184
G1 X140.55 Y92.089 E30.18465
G1 X140.774 Y92.54 E30.21913
G1 X141.057 Y93.239 E30.27078
G1 X141.209 Y93.717 E30.30514
G1 X141.438 Y94.685 E30.37326
G1 X141.537 Y95.551 E30.43296
G1 X141.546 Y96.251 E30.48091
G1 X141.544 Y99.023 E30.67076
G1 X141.621 Y101.769 E30.85891
G1 X141.775 Y104.515 E31.04727
G1 X142.004 Y107.216 E31.23293
G1 X142.314 Y109.955 E31.42172
G1 X142.429 Y110.771 E31.47816
G1 X142.56 Y111.82 E31.55056
G1 X142.607 Y112.419 E31.59171
G1 X142.614 Y112.983 E31.63034
G1 X142.604 Y113.655 E31.67637
G1 X142.604 Y116.383 E31.86321
G1 X142.617 Y117.302 E31.92616
G1 X142.603 Y118.251 E31.99116
G1 X142.393 Y119.935 E32.10739
G1 X142.275 Y120.785 E32.16616
G1 X141.981 Y123.476 E32.35157
G1 X141.759 Y126.212 E32.53957
G1 X141.617 Y128.908 E32.72447
G1 X141.55 Y131.677 E32.91417
G1 X141.549 Y133.61 E33.04656
G1 X141.539 Y134.288 E33.093
G1 X141.453 Y135.238 E33.15834
G1 X141.206 Y136.341 E33.23575
G1 X140.763 Y137.514 E33.32163
G1 X140.158 Y138.593 E33.40635
G1 X139.361 Y139.622 E33.49549
G1 X138.714 Y140.226 E33.55611
G1 X137.991 Y140.806 E33.6196
G1 X137.161 Y141.3 E33.68575
G1 X136.713 Y141.523 E33.72002
G1 X136.013 Y141.807 E33.77176
G1 X135.532 Y141.96 E33.80633
G1 X134.564 Y142.189 E33.87446
G1 X133.689 Y142.288 E33.93477
G1 X132.5 Y142.3 E34.01621
G1 X131.61 Y142.281 E34.07718
G1 X129.755 Y142.146 E34.20456
G1 X127.019 Y142 E34.39221
G1 X124.273 Y141.931 E34.58034
G1 X121.526 Y141.94 E34.76848
G1 X118.813 Y142.025 E34.95439
G1 X116.083 Y142.189 E35.1417
G1 X114.832 Y142.288 E35.22765
G1 X113.653 Y142.3 E35.3084
G1 X112.935 Y142.289 E35.35758
G1 X111.974 Y142.199 E35.42369
G1 X110.895 Y141.953 E35.49948
G1 X109.742 Y141.517 E35.58391
G1 X108.874 Y141.032 E35.65201
G1 X108.178 Y140.596 E35.70826
G1 X106.79 Y139.687 E35.82189
G1 X104.493 Y138.271 E36.0067
G1 X102.088 Y136.882 E36.19692
G1 X99.732 Y135.608 E36.38036
G1 X97.264 Y134.361 E36.56974
G1 X94.042 Y132.865 E36.81304
G1 X93.176 Y132.481 E36.87792
G1 X92.369 Y132.028 E36.94131
G1 X91.945 Y131.745 E36.97622
G1 X91.117 Y131.095 E37.04832
G1 X90.487 Y130.422 E37.11145
G1 X89.938 Y129.732 E37.17184
G1 X89.447 Y128.908 E37.23754
G1 X89.224 Y128.457 E37.272
G1 X88.941 Y127.757 E37.32371
G1 X88.789 Y127.279 E37.35806
G1 X88.56 Y126.309 E37.42632
G1 X88.462 Y125.439 E37.48629
G1 X88.45 Y124.251 E37.56766
G1 X88.469 Y123.362 E37.62856
G1 X88.591 Y121.682 E37.74392
G1 X88.741 Y118.924 E37.93309
G1 X88.814 Y116.176 E38.12137
G1 X88.808 Y113.462 E38.30725
G1 X88.725 Y110.686 E38.49746
G1 X88.562 Y107.922 E38.68709
G1 X88.462 Y106.485 E38.78575
G1 X88.45 Y105.408 E38.85952
G1 X88.462 Y104.558 E38.91774
G1 X88.56 Y103.683 E38.97804
G1 X88.796 Y102.649 E39.05068
G1 X89.234 Y101.49 E39.13554
G1 X89.721 Y100.621 E39.20377
G1 X90.005 Y100.196 E39.23877
G1 X90.657 Y99.366 E39.31106
G1 X91.325 Y98.739 E39.37381
G1 F4800 E36.87381
;MESH:schuhbinder_v2.stl(3)
G0 F12000 X97.353 Y118.358
;TYPE:WALL-OUTER
G1 F4800 E39.37381
G1 X97.528 Y117.975 E39.39905
G1 X97.779 Y117.64 E39.42413
G1 X98.051 Y117.396 E39.44603
G1 X98.431 Y117.17 E39.47252
G1 X98.83 Y117.041 E39.49765
G1 X99.247 Y116.996 E39.52279
G1 X99.666 Y117.041 E39.54804
G1 X100.087 Y117.181 E39.57463
G1 X100.602 Y117.52 E39.61158
G1 X100.852 Y117.799 E39.63403
G1 X101.093 Y118.221 E39.66315
G1 X101.249 Y118.838 E39.70129
G1 X101.252 Y129.748 E40.35511
G1 X101.985 Y129.748 E40.39904
G1 X102.449 Y129.695 E40.42702
G1 X103.145 Y129.534 E40.46984
G1 X103.81 Y129.276 E40.51258
G1 X104.425 Y128.919 E40.5552
G1 X105.104 Y128.377 E40.60726
G1 X105.667 Y127.677 E40.6611
G1 X106.024 Y127.058 E40.70392
G1 X106.29 Y126.385 E40.74729
G1 X106.446 Y125.69 E40.78997
G1 X106.496 Y125.234 E40.81747
G1 X106.496 Y123.606 E40.91503
G1 X106.455 Y123.239 E40.93716
G1 X106.326 Y122.684 E40.97131
G1 X105.968 Y121.704 E41.03383
G1 X105.733 Y120.994 E41.07865
G1 X105.519 Y120.249 E41.1251
G1 X105.337 Y119.517 E41.1703
G1 X105.179 Y118.774 E41.21583
G1 X105.029 Y117.87 E41.27074
G1 X104.896 Y116.72 E41.34012
G1 X104.84 Y115.768 E41.39727
G1 X104.828 Y114.999 E41.44336
G1 X104.844 Y114.041 E41.50078
G1 X104.93 Y112.902 E41.56923
G1 X105.055 Y111.969 E41.62564
G1 X105.214 Y111.039 E41.68219
G1 X105.428 Y110.107 E41.73949
G1 X105.627 Y109.361 E41.78576
G1 X105.846 Y108.65 E41.83035
G1 X106.325 Y107.32 E41.91506
G1 X106.496 Y106.579 E41.96064
G1 X106.496 Y104.763 E42.06947
G1 X106.443 Y104.299 E42.09745
G1 X106.282 Y103.599 E42.1405
G1 X106.024 Y102.938 E42.18302
G1 X105.667 Y102.323 E42.22564
G1 X105.104 Y101.618 E42.2797
G1 X104.425 Y101.081 E42.33158
G1 X103.809 Y100.72 E42.37437
G1 X103.138 Y100.458 E42.41754
G1 X102.442 Y100.302 E42.46028
G1 X101.982 Y100.253 E42.48801
G1 X101.253 Y100.253 E42.53169
G1 X101.249 Y111.159 E43.18527
G1 X101.082 Y111.816 E43.2259
G1 X100.743 Y112.334 E43.263
G1 X100.449 Y112.6 E43.28676
G1 X100.06 Y112.83 E43.31384
G1 X99.666 Y112.959 E43.33868
G1 X99.247 Y113 E43.36391
G1 X98.834 Y112.959 E43.38878
G1 X98.431 Y112.826 E43.41422
G1 X97.906 Y112.491 E43.45154
G1 X97.613 Y112.154 E43.4783
G1 X97.403 Y111.77 E43.50453
G1 X97.251 Y111.163 E43.54203
G1 X97.248 Y100.252 E44.1959
G1 X96.511 Y100.252 E44.24007
G1 X96.05 Y100.305 E44.26788
G1 X95.35 Y100.462 E44.31087
G1 X94.69 Y100.72 E44.35334
G1 X94.071 Y101.081 E44.39628
G1 X93.389 Y101.621 E44.44841
G1 X92.829 Y102.323 E44.50223
G1 X92.472 Y102.938 E44.54484
G1 X92.21 Y103.61 E44.58807
G1 X92.053 Y104.307 E44.63088
G1 X92 Y104.767 E44.65863
G1 X92 Y106.393 E44.75608
G1 X92.041 Y106.757 E44.77803
G1 X92.171 Y107.312 E44.81219
G1 X92.524 Y108.284 E44.87416
G1 X92.762 Y109.001 E44.91944
G1 X92.977 Y109.738 E44.96544
G1 X93.159 Y110.468 E45.01053
G1 X93.317 Y111.225 E45.05687
G1 X93.471 Y112.127 E45.11171
G1 X93.6 Y113.277 E45.18106
G1 X93.656 Y114.23 E45.23827
G1 X93.672 Y114.998 E45.2843
G1 X93.652 Y115.947 E45.34119
G1 X93.566 Y117.089 E45.40982
G1 X93.441 Y118.038 E45.46718
G1 X93.286 Y118.957 E45.52304
G1 X93.072 Y119.889 E45.58034
G1 X92.873 Y120.636 E45.62667
G1 X92.65 Y121.345 E45.67121
G1 X92.175 Y122.676 E45.7559
G1 X92.041 Y123.24 E45.79064
G1 X92 Y123.606 E45.81271
G1 X92 Y125.233 E45.91022
G1 X92.053 Y125.697 E45.9382
G1 X92.214 Y126.397 E45.98125
G1 X92.472 Y127.058 E46.02377
G1 X92.829 Y127.677 E46.06659
G1 X93.392 Y128.377 E46.12043
G1 X94.071 Y128.919 E46.17249
G1 X94.69 Y129.276 E46.21532
G1 X95.359 Y129.538 E46.25837
