;FLAVOR:Marlin
;TIME:3457
;Filament used: 2.65858m
;Layer height: 0.25
;MINX:115.355
;MINY:114.606
;MINZ:0.2
;MAXX:185.711
;MAXY:185.394
;MAXZ:11.95
;TARGET_MACHINE.NAME:Artillery Sidewinder X1
;Generated with Cura_SteamEngine 5.8.1
M140 S60
M105
M190 S60
M104 S195
M105
M109 S195
M82 ;absolute extrusion mode
G28 ; home all axes
 M117 Purge extruder
 G92 E0 ; reset extruder
 G1 Z1.0 F3000 ; move z up little to prevent scratching of surface
 G1 X2 Y20 Z0.3 F5000.0 ; move to start-line position
 G1 X2 Y200.0 Z0.3 F1500.0 E15 ; draw 1st line
 G1 X2 Y200.0 Z0.4 F5000.0 ; move to side a little
 G1 X2 Y20 Z0.4 F1500.0 E30 ; draw 2nd line
 G92 E0 ; reset extruder
 G1 Z1.0 F3000 ; move z up little to prevent scratching of surface
G92 E0
G92 E0
G1 F2400 E-6
;LAYER_COUNT:48
;LAYER:0
M107
M204 S3500
G0 F6000 X120.626 Y127.967 Z0.2
M204 S2500
;TYPE:SKIRT
G1 F2400 E0
G1 F1200 X121.25 Y127.418 E0.02626
G1 X121.577 Y127.152 E0.03958
G1 X122.136 Y126.729 E0.06173
G1 X122.487 Y126.483 E0.07527
G1 X123.235 Y125.998 E0.10344
G1 X123.589 Y125.789 E0.11643
G1 X124.158 Y125.475 E0.13697
G1 X124.895 Y125.113 E0.16291
G1 X127.592 Y123.886 E0.25653
G1 X129.865 Y122.779 E0.33642
G1 X132.091 Y121.616 E0.41577
G1 X134.265 Y120.4 E0.49448
G1 X136.411 Y119.12 E0.57343
G1 X139.288 Y117.273 E0.68146
G1 X140.046 Y116.815 E0.70944
G1 X140.751 Y116.426 E0.73488
G1 X141.12 Y116.242 E0.74791
G1 X141.902 Y115.89 E0.77501
G1 X142.297 Y115.731 E0.78846
G1 X143.02 Y115.469 E0.81276
G1 X143.409 Y115.342 E0.82569
G1 X144.157 Y115.131 E0.85025
G1 X144.562 Y115.031 E0.86343
G1 X145.403 Y114.86 E0.89055
G1 X145.827 Y114.791 E0.90412
G1 X146.536 Y114.701 E0.9267
G1 X146.829 Y114.674 E0.936
G1 X147.66 Y114.626 E0.9623
G1 X148.751 Y114.606 E0.99678
G1 X149.912 Y114.619 E1.03347
G1 X150.486 Y114.645 E1.05162
G1 X151.797 Y114.737 E1.09315
G1 X152.002 Y114.744 E1.09963
G1 X152.713 Y114.798 E1.12216
G1 X155.239 Y114.92 E1.20207
G1 X157.733 Y114.97 E1.28089
G1 X160.239 Y114.949 E1.36007
G1 X162.757 Y114.856 E1.43969
G1 X164.62 Y114.742 E1.49866
G1 X165.925 Y114.65 E1.54
G1 X166.473 Y114.627 E1.55733
G1 X167.869 Y114.608 E1.60144
G1 X168.908 Y114.629 E1.63428
G1 X170.056 Y114.712 E1.67065
G1 X170.558 Y114.777 E1.68664
G1 X171.46 Y114.93 E1.71555
G1 X171.881 Y115.018 E1.72914
G1 X172.696 Y115.226 E1.75572
G1 X173.096 Y115.346 E1.76891
G1 X173.829 Y115.591 E1.79333
G1 X174.248 Y115.749 E1.80748
G1 X175.049 Y116.088 E1.83496
G1 X175.396 Y116.252 E1.84709
G1 X176.081 Y116.606 E1.87145
G1 X176.449 Y116.811 E1.88476
G1 X177.12 Y117.22 E1.90959
G1 X177.463 Y117.448 E1.92261
G1 X178.147 Y117.938 E1.94919
G1 X178.464 Y118.185 E1.96189
G1 X179.1 Y118.72 E1.98815
G1 X179.408 Y119.001 E2.00132
G1 X179.97 Y119.545 E2.02604
G1 X180.241 Y119.828 E2.03842
G1 X180.823 Y120.49 E2.06627
G1 X181.08 Y120.806 E2.07914
G1 X181.513 Y121.375 E2.10173
G1 X181.761 Y121.725 E2.11529
G1 X182.247 Y122.479 E2.14363
G1 X182.462 Y122.842 E2.15696
G1 X182.815 Y123.49 E2.18028
G1 X182.998 Y123.858 E2.19326
G1 X183.359 Y124.652 E2.22082
G1 X183.518 Y125.044 E2.23419
G1 X183.76 Y125.704 E2.2564
G1 X183.898 Y126.127 E2.27046
G1 X184.119 Y126.903 E2.29596
G1 X184.221 Y127.325 E2.30967
G1 X184.388 Y128.148 E2.33621
G1 X184.457 Y128.571 E2.34975
G1 X184.561 Y129.365 E2.37505
G1 X184.623 Y130.41 E2.40813
G1 X184.645 Y131.658 E2.44757
G1 X184.645 Y134.016 E2.52207
G1 X184.717 Y136.517 E2.60113
G1 X184.857 Y138.983 E2.67918
G1 X185.071 Y141.533 E2.76003
G1 X185.354 Y144.014 E2.83893
G1 X185.568 Y145.568 E2.8885
G1 X185.638 Y146.201 E2.90862
G1 X185.691 Y147.129 E2.93799
G1 X185.709 Y148.245 E2.97326
G1 X185.704 Y151.337 E3.07096
G1 X185.711 Y152.181 E3.09762
G1 X185.68 Y153.498 E3.13925
G1 X185.593 Y154.643 E3.17553
G1 X185.337 Y156.618 E3.23846
G1 X185.059 Y159.122 E3.31806
G1 X184.851 Y161.607 E3.39686
G1 X184.718 Y164.081 E3.47514
G1 X184.652 Y166.65 E3.55634
G1 X184.647 Y168.222 E3.60601
G1 X184.612 Y169.79 E3.65557
G1 X184.522 Y170.936 E3.69189
G1 X184.455 Y171.431 E3.70767
G1 X184.321 Y172.203 E3.73243
G1 X184.232 Y172.627 E3.74612
G1 X184.023 Y173.447 E3.77286
G1 X183.903 Y173.847 E3.78605
G1 X183.658 Y174.58 E3.81047
G1 X183.5 Y174.999 E3.82462
G1 X183.161 Y175.799 E3.85208
G1 X182.991 Y176.16 E3.86469
G1 X182.649 Y176.823 E3.88826
G1 X182.444 Y177.19 E3.90154
G1 X182.025 Y177.877 E3.92697
G1 X181.797 Y178.22 E3.93998
G1 X181.311 Y178.897 E3.96631
G1 X181.046 Y179.237 E3.97993
G1 X180.538 Y179.842 E4.00489
G1 X180.25 Y180.16 E4.01845
G1 X179.675 Y180.75 E4.04448
G1 X179.391 Y181.018 E4.05682
G1 X178.762 Y181.572 E4.0833
G1 X178.428 Y181.844 E4.09691
G1 X177.875 Y182.263 E4.11884
G1 X177.51 Y182.52 E4.13294
G1 X176.763 Y183.002 E4.16103
G1 X176.41 Y183.211 E4.17399
G1 X175.764 Y183.563 E4.19724
G1 X175.391 Y183.749 E4.21041
G1 X174.605 Y184.106 E4.23769
G1 X174.211 Y184.265 E4.25111
G1 X173.478 Y184.531 E4.27575
G1 X173.089 Y184.658 E4.28868
G1 X172.341 Y184.869 E4.31324
G1 X171.936 Y184.969 E4.32642
G1 X171.095 Y185.14 E4.35353
G1 X170.671 Y185.209 E4.36711
G1 X169.962 Y185.299 E4.38969
G1 X169.669 Y185.326 E4.39899
G1 X168.838 Y185.374 E4.42529
G1 X167.747 Y185.394 E4.45977
G1 X166.587 Y185.381 E4.49642
G1 X166.014 Y185.355 E4.51455
G1 X164.726 Y185.264 E4.55534
G1 X164.507 Y185.256 E4.56227
G1 X163.784 Y185.202 E4.58518
G1 X161.259 Y185.08 E4.66505
G1 X158.765 Y185.03 E4.74387
G1 X156.259 Y185.051 E4.82306
G1 X153.741 Y185.144 E4.90267
G1 X151.878 Y185.258 E4.96165
G1 X150.573 Y185.35 E5.00298
G1 X150.025 Y185.373 E5.02032
G1 X148.629 Y185.392 E5.06443
G1 X147.59 Y185.371 E5.09726
G1 X146.442 Y185.288 E5.13363
G1 X145.94 Y185.223 E5.14963
G1 X145.038 Y185.07 E5.17853
G1 X144.617 Y184.982 E5.19212
G1 X143.802 Y184.774 E5.2187
G1 X143.402 Y184.654 E5.2319
G1 X142.669 Y184.409 E5.25632
G1 X142.25 Y184.251 E5.27047
G1 X141.45 Y183.912 E5.29792
G1 X141.09 Y183.743 E5.31049
G1 X140.405 Y183.389 E5.33485
G1 X140.034 Y183.179 E5.34832
G1 X139.45 Y182.826 E5.36988
G1 X138.162 Y181.994 E5.41833
G1 X135.934 Y180.595 E5.50146
G1 X133.758 Y179.315 E5.58123
G1 X131.612 Y178.13 E5.65868
G1 X129.351 Y176.966 E5.73904
G1 X127.051 Y175.86 E5.81968
G1 X124.716 Y174.801 E5.90069
G1 X123.894 Y174.383 E5.92983
G1 X123.546 Y174.187 E5.94245
G1 X122.872 Y173.775 E5.96741
G1 X122.529 Y173.547 E5.98042
G1 X121.852 Y173.061 E6.00675
G1 X121.512 Y172.796 E6.02037
G1 X120.918 Y172.298 E6.04487
G1 X120.589 Y171.999 E6.05891
G1 X120.004 Y171.428 E6.08474
G1 X119.73 Y171.139 E6.09733
G1 X119.157 Y170.487 E6.12475
G1 X118.893 Y170.16 E6.13803
G1 X118.452 Y169.576 E6.16115
G1 X118.206 Y169.226 E6.17467
G1 X117.746 Y168.512 E6.20151
G1 X117.539 Y168.161 E6.21438
G1 X117.171 Y167.485 E6.2387
G1 X116.988 Y167.115 E6.25175
G1 X116.64 Y166.348 E6.27836
G1 X116.482 Y165.956 E6.29171
G1 X116.213 Y165.215 E6.31662
G1 X116.09 Y164.832 E6.32933
G1 X115.881 Y164.092 E6.35363
G1 X115.781 Y163.687 E6.36681
G1 X115.61 Y162.847 E6.3939
G1 X115.541 Y162.424 E6.40744
G1 X115.437 Y161.627 E6.43284
G1 X115.376 Y160.588 E6.46572
G1 X115.355 Y159.438 E6.50206
G1 X115.373 Y158.225 E6.5404
G1 X115.399 Y157.71 E6.55669
G1 X115.492 Y156.397 E6.59828
G1 X115.499 Y156.167 E6.60555
G1 X115.552 Y155.481 E6.62729
G1 X115.67 Y153.01 E6.70546
G1 X115.72 Y150.507 E6.78456
G1 X115.699 Y147.973 E6.86463
G1 X115.606 Y145.488 E6.9432
G1 X115.492 Y143.619 E7.00237
G1 X115.4 Y142.331 E7.04317
G1 X115.377 Y141.779 E7.06063
G1 X115.358 Y140.375 E7.10499
G1 X115.379 Y139.34 E7.1377
G1 X115.462 Y138.193 E7.17404
G1 X115.53 Y137.674 E7.19058
G1 X115.683 Y136.773 E7.21945
G1 X115.772 Y136.351 E7.23308
G1 X115.973 Y135.562 E7.25881
G1 X116.092 Y135.164 E7.27193
G1 X116.341 Y134.42 E7.29672
G1 X116.499 Y134.001 E7.31087
G1 X116.838 Y133.201 E7.33833
G1 X117.008 Y132.84 E7.35093
G1 X117.35 Y132.177 E7.37451
G1 X117.555 Y131.81 E7.38779
G1 X117.974 Y131.123 E7.41321
G1 X118.202 Y130.78 E7.42623
G1 X118.688 Y130.103 E7.45256
G1 X118.953 Y129.763 E7.46618
G1 X119.462 Y129.157 E7.49119
G1 X119.751 Y128.84 E7.50474
G1 X120.335 Y128.241 E7.53118
G1 X120.626 Y127.967 E7.5438
M204 S3500
G0 F6000 X120.89 Y128.267
M204 S2500
G1 F1200 X121.503 Y127.728 E7.5696
G1 X121.818 Y127.471 E7.58244
G1 X122.366 Y127.056 E7.60416
G1 X122.705 Y126.818 E7.61725
G1 X123.438 Y126.342 E7.64486
G1 X123.782 Y126.139 E7.65749
G1 X124.335 Y125.834 E7.67744
G1 X125.061 Y125.477 E7.703
G1 X127.767 Y124.246 E7.79694
G1 X130.04 Y123.139 E7.87682
G1 X132.276 Y121.971 E7.95653
G1 X134.47 Y120.744 E8.03596
G1 X136.616 Y119.464 E8.11491
G1 X139.495 Y117.615 E8.22303
G1 X140.239 Y117.165 E8.2505
G1 X140.93 Y116.784 E8.27543
G1 X141.284 Y116.607 E8.28794
G1 X142.052 Y116.261 E8.31455
G1 X142.433 Y116.107 E8.32754
G1 X143.144 Y115.849 E8.35144
G1 X143.518 Y115.727 E8.36387
G1 X144.253 Y115.519 E8.388
G1 X144.642 Y115.423 E8.40066
G1 X145.467 Y115.255 E8.42727
G1 X145.878 Y115.188 E8.44042
G1 X146.573 Y115.099 E8.46256
G1 X146.852 Y115.073 E8.47142
G1 X147.667 Y115.026 E8.49721
G1 X148.746 Y115.006 E8.53131
G1 X149.894 Y115.019 E8.56759
G1 X150.458 Y115.044 E8.58542
G1 X151.783 Y115.137 E8.62739
G1 X151.972 Y115.143 E8.63337
G1 X152.694 Y115.198 E8.65625
G1 X155.22 Y115.32 E8.73616
G1 X157.728 Y115.37 E8.81542
G1 X160.254 Y115.349 E8.89523
G1 X162.772 Y115.256 E8.97485
G1 X164.648 Y115.141 E9.03424
G1 X165.942 Y115.05 E9.07522
G1 X166.478 Y115.027 E9.09218
G1 X167.861 Y115.008 E9.13588
G1 X168.879 Y115.028 E9.16805
G1 X170.005 Y115.109 E9.20372
G1 X170.491 Y115.171 E9.2192
G1 X171.378 Y115.321 E9.24763
G1 X171.782 Y115.406 E9.26067
G1 X172.597 Y115.614 E9.28725
G1 X172.969 Y115.725 E9.29952
G1 X173.688 Y115.965 E9.32347
G1 X174.092 Y116.117 E9.3371
G1 X174.878 Y116.45 E9.36408
G1 X175.225 Y116.614 E9.3762
G1 X175.886 Y116.955 E9.39971
G1 X176.241 Y117.153 E9.41255
G1 X176.899 Y117.554 E9.4369
G1 X177.23 Y117.773 E9.44944
G1 X177.901 Y118.254 E9.47552
G1 X178.218 Y118.501 E9.48822
G1 X178.831 Y119.016 E9.51352
G1 X179.13 Y119.288 E9.52629
G1 X179.681 Y119.822 E9.55053
G1 X179.952 Y120.105 E9.56292
G1 X180.513 Y120.742 E9.58974
G1 X180.762 Y121.048 E9.6022
G1 X181.187 Y121.606 E9.62436
G1 X181.425 Y121.942 E9.63737
G1 X181.903 Y122.682 E9.66521
G1 X182.111 Y123.034 E9.67813
G1 X182.457 Y123.668 E9.70095
G1 X182.634 Y124.023 E9.71348
G1 X182.988 Y124.803 E9.74055
G1 X183.142 Y125.182 E9.75348
G1 X183.384 Y125.842 E9.77569
G1 X183.513 Y126.237 E9.78882
G1 X183.73 Y126.997 E9.81379
G1 X183.829 Y127.405 E9.82706
G1 X183.993 Y128.213 E9.85311
G1 X184.06 Y128.623 E9.86623
G1 X184.164 Y129.417 E9.89154
G1 X184.223 Y130.417 E9.92319
G1 X184.245 Y131.665 E9.96263
G1 X184.245 Y134.016 E10.03691
G1 X184.317 Y136.528 E10.11632
G1 X184.458 Y139.017 E10.19509
G1 X184.673 Y141.567 E10.27595
G1 X184.958 Y144.068 E10.35548
G1 X185.17 Y145.612 E10.40473
G1 X185.24 Y146.245 E10.42485
G1 X185.291 Y147.135 E10.45302
G1 X185.309 Y148.244 E10.48806
G1 X185.304 Y151.336 E10.58576
G1 X185.311 Y152.172 E10.61218
G1 X185.281 Y153.468 E10.65314
G1 X185.196 Y154.592 E10.68875
G1 X184.94 Y156.567 E10.75168
G1 X184.661 Y159.078 E10.83151
G1 X184.453 Y161.574 E10.91065
G1 X184.318 Y164.071 E10.98966
G1 X184.252 Y166.64 E11.07086
G1 X184.247 Y168.213 E11.12057
G1 X184.213 Y169.759 E11.16943
G1 X184.123 Y170.905 E11.20575
G1 X184.061 Y171.362 E11.22032
G1 X183.929 Y172.121 E11.24466
G1 X183.844 Y172.528 E11.2578
G1 X183.635 Y173.348 E11.28454
G1 X183.524 Y173.72 E11.2968
G1 X183.284 Y174.439 E11.32075
G1 X183.132 Y174.843 E11.33439
G1 X182.799 Y175.629 E11.36137
G1 X182.636 Y175.976 E11.37348
G1 X182.299 Y176.628 E11.39667
G1 X182.102 Y176.982 E11.40947
G1 X181.692 Y177.656 E11.4344
G1 X181.472 Y177.987 E11.44696
G1 X180.995 Y178.651 E11.47279
G1 X180.739 Y178.98 E11.48596
G1 X180.241 Y179.574 E11.51045
G1 X179.964 Y179.881 E11.52352
G1 X179.4 Y180.459 E11.54904
G1 X179.126 Y180.718 E11.56095
G1 X178.509 Y181.262 E11.58694
G1 X178.186 Y181.525 E11.6001
G1 X177.644 Y181.936 E11.62159
G1 X177.293 Y182.184 E11.63517
G1 X176.559 Y182.658 E11.66278
G1 X176.218 Y182.86 E11.6753
G1 X175.586 Y183.205 E11.69805
G1 X175.225 Y183.385 E11.7108
G1 X174.455 Y183.735 E11.73753
G1 X174.074 Y183.889 E11.75051
G1 X173.354 Y184.151 E11.77472
G1 X172.98 Y184.273 E11.78715
G1 X172.245 Y184.481 E11.81129
G1 X171.856 Y184.577 E11.82395
G1 X171.031 Y184.745 E11.85055
G1 X170.62 Y184.812 E11.86371
G1 X169.925 Y184.901 E11.88585
G1 X169.646 Y184.927 E11.8947
G1 X168.831 Y184.974 E11.92049
G1 X167.752 Y184.994 E11.95459
G1 X166.605 Y184.981 E11.99084
G1 X166.042 Y184.956 E12.00864
G1 X164.74 Y184.864 E12.04989
G1 X164.537 Y184.857 E12.0563
G1 X163.803 Y184.802 E12.07956
G1 X161.278 Y184.68 E12.15944
G1 X158.77 Y184.63 E12.2387
G1 X156.244 Y184.651 E12.31852
G1 X153.726 Y184.744 E12.39813
G1 X151.85 Y184.859 E12.45752
G1 X150.556 Y184.95 E12.49851
G1 X150.02 Y184.973 E12.51546
G1 X148.637 Y184.992 E12.55916
G1 X147.619 Y184.972 E12.59133
G1 X146.493 Y184.891 E12.627
G1 X146.007 Y184.829 E12.64248
G1 X145.12 Y184.679 E12.67091
G1 X144.716 Y184.594 E12.68395
G1 X143.901 Y184.386 E12.71053
G1 X143.529 Y184.275 E12.7228
G1 X142.81 Y184.035 E12.74675
G1 X142.406 Y183.883 E12.76039
G1 X141.62 Y183.55 E12.78736
G1 X141.273 Y183.387 E12.79947
G1 X140.602 Y183.041 E12.82333
G1 X140.241 Y182.837 E12.83643
G1 X139.667 Y182.49 E12.85762
G1 X138.375 Y181.655 E12.90623
G1 X136.147 Y180.256 E12.98936
G1 X133.961 Y178.97 E13.06949
G1 X131.795 Y177.774 E13.14767
G1 X129.534 Y176.61 E13.22802
G1 X127.224 Y175.5 E13.309
G1 X124.897 Y174.444 E13.38975
G1 X124.09 Y174.034 E13.41835
G1 X123.754 Y173.845 E13.43053
G1 X123.093 Y173.442 E13.45499
G1 X122.762 Y173.222 E13.46755
G1 X122.098 Y172.745 E13.49338
G1 X121.769 Y172.489 E13.50655
G1 X121.175 Y171.991 E13.53104
G1 X120.868 Y171.713 E13.54413
G1 X120.294 Y171.153 E13.56947
G1 X120.03 Y170.875 E13.58158
G1 X119.468 Y170.236 E13.60847
G1 X119.212 Y169.919 E13.62135
G1 X118.779 Y169.346 E13.64404
G1 X118.542 Y169.009 E13.65706
G1 X118.09 Y168.308 E13.68341
G1 X117.89 Y167.97 E13.69582
G1 X117.529 Y167.307 E13.71967
G1 X117.352 Y166.95 E13.73227
G1 X117.011 Y166.198 E13.75836
G1 X116.858 Y165.819 E13.77127
G1 X116.594 Y165.093 E13.79568
G1 X116.475 Y164.723 E13.80796
G1 X116.269 Y163.996 E13.83183
G1 X116.173 Y163.607 E13.84449
G1 X116.005 Y162.782 E13.8711
G1 X115.938 Y162.372 E13.88422
G1 X115.834 Y161.575 E13.90962
G1 X115.776 Y160.581 E13.94108
G1 X115.755 Y159.444 E13.97701
G1 X115.773 Y158.245 E14.0149
G1 X115.798 Y157.738 E14.03094
G1 X115.892 Y156.413 E14.07291
G1 X115.898 Y156.198 E14.07971
G1 X115.951 Y155.512 E14.10145
G1 X116.07 Y153.029 E14.18
G1 X116.12 Y150.515 E14.25945
G1 X116.099 Y147.97 E14.33986
G1 X116.006 Y145.473 E14.41882
G1 X115.891 Y143.595 E14.47827
G1 X115.8 Y142.314 E14.51884
G1 X115.777 Y141.774 E14.53592
G1 X115.758 Y140.383 E14.57988
G1 X115.778 Y139.369 E14.61192
G1 X115.859 Y138.244 E14.64756
G1 X115.924 Y137.741 E14.66359
G1 X116.074 Y136.856 E14.69195
G1 X116.16 Y136.45 E14.70506
G1 X116.361 Y135.661 E14.73079
G1 X116.471 Y135.291 E14.74299
G1 X116.715 Y134.561 E14.76731
G1 X116.867 Y134.157 E14.78095
G1 X117.2 Y133.371 E14.80792
G1 X117.363 Y133.024 E14.82003
G1 X117.7 Y132.372 E14.84322
G1 X117.897 Y132.018 E14.85602
G1 X118.307 Y131.344 E14.88095
G1 X118.527 Y131.013 E14.89351
G1 X119.004 Y130.349 E14.91934
G1 X119.26 Y130.02 E14.93251
G1 X119.758 Y129.426 E14.95701
G1 X120.037 Y129.119 E14.97011
G1 X120.61 Y128.532 E14.99603
G1 X120.89 Y128.267 E15.00821
M204 S3500
G0 F6000 X121.154 Y128.567
M204 S2500
G1 F1200 X121.756 Y128.038 E15.03354
G1 X122.06 Y127.79 E15.04593
G1 X122.597 Y127.383 E15.06722
G1 X122.923 Y127.153 E15.07983
G1 X123.642 Y126.686 E15.10692
G1 X123.975 Y126.489 E15.11914
G1 X124.511 Y126.193 E15.13849
G1 X125.227 Y125.841 E15.1637
G1 X127.942 Y124.606 E15.25794
G1 X130.215 Y123.499 E15.33783
G1 X132.461 Y122.326 E15.41789
G1 X134.675 Y121.088 E15.49804
G1 X136.821 Y119.808 E15.577
G1 X139.702 Y117.957 E15.6852
G1 X140.432 Y117.515 E15.71216
G1 X141.109 Y117.142 E15.73658
G1 X141.448 Y116.972 E15.74857
G1 X142.202 Y116.632 E15.7747
G1 X142.57 Y116.483 E15.78725
G1 X143.268 Y116.229 E15.81072
G1 X143.627 Y116.112 E15.82265
G1 X144.349 Y115.907 E15.84636
