;FLAVOR:Marlin
;TIME:1102
;Filament used: 2.01428m
;Layer height: 0.2
;MINX:80.021
;MINY:40.476
;MINZ:0.2
;MAXX:149.975
;MAXY:110.335
;MAXZ:13
;TARGET_MACHINE.NAME:Anycubic Kobra 2
;Generated with Cura_SteamEngine 5.8.1
M104 S215
M105
M109 S215
M82 ;absolute extrusion mode
G90 ; use absolute coordinates
M301 E0 P10.60 I0.54 D51.77 ; PID Tuning - Might not be the same for your printer
M104 S[first_layer_temperature] ; set extruder temp
M140 S[first_layer_bed_temperature] ; set bed temp
M190 S[first_layer_bed_temperature] ; wait for bed temp
M109 S[first_layer_temperature] ; wait for extruder temp
G28 ; home all axis
G1 Z5 F5000 ; lift nozzle
G92 E0 ; zero extruder
G1 Y3 F6000 ; move Y to purge point
G1 Z0.25 F5000 ; lower nozzle
G1 X60 E15 F500 ; Extrude 15mm of filament in a 5cm line.
G92 E0 ; zero the extruded length again
G1 E-3 F500 ; Retract a little
G1 X70 F4000 ; Quickly wipe away from the filament line
M117 ; set LCD Message?
G92 E0
G92 E0
G1 F4800 E-2.5
;LAYER_COUNT:65
;LAYER:0
M107
G0 F12000 X83.265 Y65.823 Z0.2
;TYPE:SKIRT
G1 F4800 E0
G1 X83.82 Y65.181 E0.03089
G1 X84.743 Y64.24 E0.07887
G1 X85.898 Y63.306 E0.13294
G1 X87.077 Y62.454 E0.18589
G1 X87.707 Y62.015 E0.21384
G1 X89.855 Y60.425 E0.31111
G1 X92.004 Y58.738 E0.41056
G1 X94.091 Y57.002 E0.50937
G1 X96.108 Y55.224 E0.60724
G1 X98.102 Y53.368 E0.7064
G1 X100.044 Y51.453 E0.80568
G1 X101.88 Y49.533 E0.90238
G1 X103.737 Y47.482 E1.00309
G1 X105.873 Y45.001 E1.12225
G1 X106.947 Y43.983 E1.17612
G1 X107.37 Y43.623 E1.19634
G1 X108.857 Y42.569 E1.26268
G1 X110.035 Y41.943 E1.31124
G1 X110.633 Y41.661 E1.3353
G1 X111.225 Y41.425 E1.3585
G1 X111.997 Y41.16 E1.38821
G1 X112.958 Y40.888 E1.42457
G1 X113.613 Y40.734 E1.44906
G1 X114.43 Y40.594 E1.47923
G1 X115.424 Y40.505 E1.51556
G1 X116.189 Y40.476 E1.54342
G1 X116.751 Y40.479 E1.56388
G1 X117.799 Y40.536 E1.60208
G1 X118.925 Y40.703 E1.64352
G1 X119.5 Y40.814 E1.66483
G1 X120.206 Y40.99 E1.69132
G1 X120.819 Y41.169 E1.71456
G1 X121.536 Y41.425 E1.74228
G1 X122.63 Y41.893 E1.78559
G1 X123.584 Y42.401 E1.82493
G1 X124.354 Y42.87 E1.85775
G1 X125.329 Y43.574 E1.90152
G1 X126.025 Y44.162 E1.93469
G1 X126.919 Y45.036 E1.9802
G1 X127.801 Y46.063 E2.02947
G1 X128.246 Y46.675 E2.05702
G1 X129.253 Y48.217 E2.12405
G1 X130.802 Y50.518 E2.22502
G1 X132.35 Y52.682 E2.32187
G1 X134.004 Y54.859 E2.42139
G1 X135.703 Y56.972 E2.52008
G1 X137.44 Y59.012 E2.61761
G1 X139.303 Y61.075 E2.71879
G1 X141.126 Y62.983 E2.81484
G1 X143.095 Y64.931 E2.91566
G1 X145.058 Y66.765 E3.01345
G1 X145.76 Y67.404 E3.048
G1 X146.472 Y68.117 E3.08468
G1 X147.434 Y69.267 E3.13925
G1 X147.785 Y69.777 E3.16179
G1 X148.225 Y70.489 E3.19226
G1 X148.565 Y71.119 E3.21831
G1 X148.923 Y71.842 E3.24768
G1 X149.349 Y72.977 E3.29181
G1 X149.64 Y74.104 E3.33418
G1 X149.811 Y74.898 E3.36374
G1 X149.923 Y76.002 E3.40413
G1 X149.975 Y76.813 E3.43371
G1 X149.925 Y77.921 E3.47409
G1 X149.857 Y78.739 E3.50396
G1 X149.603 Y80.065 E3.55311
G1 X149.384 Y80.829 E3.58204
G1 X149.02 Y81.864 E3.62197
G1 X148.576 Y82.797 E3.65958
G1 X148.309 Y83.296 E3.68018
G1 X147.788 Y84.154 E3.71672
G1 X146.423 Y86.007 E3.8005
G1 X146.336 Y86.138 E3.80622
G1 X145.784 Y86.878 E3.83982
G1 X144.216 Y89.108 E3.93905
G1 X142.732 Y91.349 E4.03689
G1 X141.282 Y93.681 E4.13685
G1 X139.938 Y95.988 E4.23403
G1 X138.633 Y98.377 E4.33312
G1 X137.695 Y100.233 E4.40881
G1 X137.05 Y101.478 E4.45985
G1 X136.493 Y102.436 E4.50019
G1 X135.853 Y103.296 E4.53921
G1 X135.323 Y103.956 E4.57002
G1 X134.488 Y104.791 E4.61301
G1 X133.402 Y105.699 E4.66453
G1 X132.58 Y106.252 E4.70059
G1 X131.821 Y106.712 E4.7329
G1 X130.786 Y107.196 E4.77449
G1 X130.04 Y107.51 E4.80395
G1 X128.868 Y107.855 E4.84842
G1 X127.287 Y108.167 E4.90708
G1 X126.714 Y108.223 E4.92804
G1 X125.632 Y108.265 E4.96745
G1 X124.163 Y108.279 E5.02092
G1 X121.409 Y108.385 E5.12124
G1 X118.72 Y108.562 E5.21933
G1 X116.049 Y108.817 E5.317
G1 X113.341 Y109.152 E5.41632
G1 X110.677 Y109.558 E5.51441
G1 X108.978 Y109.877 E5.57734
G1 X108.831 Y109.895 E5.58273
G1 X107.49 Y110.133 E5.6323
G1 X106.551 Y110.256 E5.66677
G1 X105.372 Y110.333 E5.70978
G1 X104.634 Y110.335 E5.73664
G1 X103.868 Y110.288 E5.76458
G1 X102.768 Y110.158 E5.8049
G1 X101.822 Y109.973 E5.83998
G1 X101.181 Y109.809 E5.86407
G1 X100.452 Y109.582 E5.89186
G1 X99.473 Y109.234 E5.92968
G1 X98.488 Y108.772 E5.96928
G1 X97.66 Y108.323 E6.00357
G1 X96.938 Y107.875 E6.0345
G1 X96.19 Y107.332 E6.06814
G1 X95.512 Y106.78 E6.09996
G1 X94.95 Y106.266 E6.12769
G1 X94.022 Y105.297 E6.17652
G1 X93.1 Y104.122 E6.23089
G1 X92.657 Y103.434 E6.26068
G1 X92.059 Y102.393 E6.30437
G1 X91.786 Y101.819 E6.32751
G1 X91.42 Y100.935 E6.36234
G1 X90.355 Y98.215 E6.46866
G1 X89.312 Y95.759 E6.56579
G1 X88.158 Y93.242 E6.66658
G1 X86.958 Y90.807 E6.76539
G1 X85.698 Y88.424 E6.86351
G1 X84.356 Y86.051 E6.96274
G1 X82.664 Y83.264 E7.08142
G1 X82.155 Y82.46 E7.11606
G1 X81.748 Y81.757 E7.14563
G1 X81.443 Y81.16 E7.17003
G1 X81.207 Y80.63 E7.19115
G1 X80.801 Y79.604 E7.23131
G1 X80.384 Y78.114 E7.28763
G1 X80.15 Y76.852 E7.33435
G1 X80.071 Y75.981 E7.36619
G1 X80.021 Y74.503 E7.42002
G1 X80.119 Y73.255 E7.46558
G1 X80.326 Y72.01 E7.51152
G1 X80.664 Y70.667 E7.56193
G1 X80.944 Y69.881 E7.5923
G1 X81.365 Y68.854 E7.6327
G1 X81.856 Y67.901 E7.67173
G1 X82.555 Y66.75 E7.72074
G1 X83.265 Y65.823 E7.76325
G0 F12000 X83.625 Y66.133
G1 F4800 X84.159 Y65.514 E7.793
G1 X85.082 Y64.573 E7.84098
G1 X86.176 Y63.691 E7.89213
G1 X87.349 Y62.844 E7.9448
G1 X87.979 Y62.405 E7.97275
G1 X90.138 Y60.807 E8.07052
G1 X92.297 Y59.112 E8.17043
G1 X94.395 Y57.367 E8.26976
G1 X96.432 Y55.572 E8.36859
G1 X98.426 Y53.716 E8.46775
G1 X100.378 Y51.791 E8.56754
G1 X102.232 Y49.852 E8.66519
G1 X104.089 Y47.801 E8.7659
G1 X105.065 Y46.658 E8.82061
G1 X105.143 Y46.578 E8.82468
G1 X106.2 Y45.346 E8.88376
G1 X107.256 Y44.344 E8.93675
G1 X107.645 Y44.011 E8.95539
G1 X109.132 Y42.957 E9.02174
G1 X110.238 Y42.372 E9.06728
G1 X110.809 Y42.102 E9.09027
G1 X111.38 Y41.874 E9.11265
G1 X112.127 Y41.617 E9.14141
G1 X113.067 Y41.35 E9.17697
G1 X113.694 Y41.202 E9.20042
G1 X114.472 Y41.067 E9.22917
G1 X115.442 Y40.98 E9.26462
G1 X116.187 Y40.951 E9.29176
G1 X116.726 Y40.953 E9.31137
G1 X117.73 Y41.006 E9.34797
G1 X118.835 Y41.169 E9.38863
G1 X119.385 Y41.275 E9.40902
G1 X120.073 Y41.446 E9.43482
G1 X120.66 Y41.617 E9.45708
G1 X121.349 Y41.862 E9.48369
G1 X122.443 Y42.33 E9.52701
G1 X123.338 Y42.807 E9.56392
G1 X124.076 Y43.255 E9.59535
G1 X125.023 Y43.937 E9.63783
G1 X125.693 Y44.502 E9.66973
G1 X126.559 Y45.346 E9.71375
G1 X127.417 Y46.342 E9.7616
G1 X127.848 Y46.935 E9.78828
G1 X128.855 Y48.477 E9.85532
G1 X130.408 Y50.783 E9.95652
G1 X131.972 Y52.969 E10.05436
G1 X133.634 Y55.157 E10.15437
G1 X135.341 Y57.28 E10.25353
G1 X137.087 Y59.33 E10.35155
G1 X138.95 Y61.393 E10.45273
G1 X140.792 Y63.321 E10.54979
G1 X142.761 Y65.269 E10.65061
G1 X144.738 Y67.116 E10.74909
G1 X145.424 Y67.74 E10.78284
G1 X146.136 Y68.453 E10.81952
G1 X147.069 Y69.571 E10.87252
G1 X147.381 Y70.027 E10.89264
G1 X147.807 Y70.715 E10.92209
G1 X148.14 Y71.331 E10.94758
G1 X148.478 Y72.009 E10.97516
G1 X148.904 Y73.144 E11.01928
G1 X149.176 Y74.205 E11.05915
G1 X149.338 Y74.946 E11.08676
G1 X149.449 Y76.034 E11.12657
G1 X149.5 Y76.792 E11.15422
G1 X149.45 Y77.9 E11.1946
G1 X149.39 Y78.65 E11.22198
G1 X149.136 Y79.976 E11.27113
G1 X148.935 Y80.673 E11.29753
G1 X148.591 Y81.66 E11.33558
G1 X148.157 Y82.573 E11.37237
G1 X147.903 Y83.049 E11.39201
G1 X147.382 Y83.907 E11.42855
G1 X146.026 Y85.746 E11.51172
G1 X145.955 Y85.854 E11.51643
G1 X145.403 Y86.594 E11.55003
G1 X143.827 Y88.835 E11.64975
G1 X142.336 Y91.087 E11.74806
G1 X140.879 Y93.43 E11.84849
G1 X139.521 Y95.76 E11.94666
G1 X138.216 Y98.149 E12.04575
G1 X137.273 Y100.014 E12.12182
G1 X136.628 Y101.259 E12.17286
G1 X136.112 Y102.153 E12.21043
G1 X135.482 Y103 E12.24885
G1 X134.987 Y103.62 E12.27773
G1 X134.152 Y104.455 E12.32072
G1 X133.136 Y105.305 E12.36893
G1 X132.332 Y105.847 E12.40423
G1 X131.62 Y106.282 E12.4346
G1 X130.6 Y106.759 E12.47559
G1 X129.906 Y107.054 E12.50303
G1 X128.734 Y107.399 E12.54751
G1 X127.24 Y107.694 E12.60294
G1 X126.695 Y107.748 E12.62287
G1 X125.628 Y107.79 E12.66174
G1 X124.145 Y107.804 E12.71572
G1 X121.391 Y107.91 E12.81604
G1 X118.678 Y108.089 E12.91501
G1 X116.004 Y108.344 E13.01279
G1 X113.269 Y108.682 E13.1131
G1 X110.605 Y109.088 E13.21119
G1 X108.89 Y109.41 E13.2747
G1 X108.757 Y109.425 E13.27957
G1 X107.428 Y109.662 E13.32871
G1 X106.489 Y109.785 E13.36318
G1 X105.371 Y109.858 E13.40397
G1 X104.633 Y109.86 E13.43083
G1 X103.924 Y109.816 E13.45669
G1 X102.824 Y109.686 E13.49701
G1 X101.94 Y109.513 E13.52979
G1 X101.322 Y109.355 E13.55301
G1 X100.611 Y109.134 E13.58011
G1 X99.632 Y108.786 E13.61793
G1 X98.714 Y108.354 E13.65486
G1 X97.91 Y107.919 E13.68814
G1 X97.188 Y107.471 E13.71907
G1 X96.49 Y106.964 E13.75047
G1 X95.833 Y106.429 E13.78131
G1 X95.271 Y105.915 E13.80903
G1 X94.396 Y105.004 E13.85501
G1 X93.474 Y103.829 E13.90938
G1 X93.069 Y103.197 E13.9367
G1 X92.488 Y102.189 E13.97905
G1 X92.225 Y101.637 E14.00131
G1 X91.862 Y100.762 E14.03579
G1 X90.792 Y98.029 E14.14262
G1 X89.744 Y95.561 E14.24022
G1 X88.59 Y93.044 E14.34101
G1 X87.384 Y90.597 E14.44031
G1 X86.118 Y88.202 E14.53892
G1 X84.762 Y85.804 E14.63919
G1 X83.07 Y83.017 E14.75787
G1 X82.566 Y82.222 E14.79213
G1 X82.171 Y81.54 E14.82082
G1 X81.877 Y80.966 E14.8443
G1 X81.649 Y80.455 E14.86466
G1 X81.243 Y79.429 E14.90483
G1 X80.851 Y78.027 E14.95782
G1 X80.617 Y76.765 E15.00454
G1 X80.546 Y75.964 E15.03381
G1 X80.495 Y74.539 E15.08571
G1 X80.588 Y73.332 E15.12978
G1 X80.787 Y72.125 E15.1743
G1 X81.112 Y70.826 E15.22305
G1 X81.384 Y70.061 E15.2526
G1 X81.805 Y69.034 E15.293
G1 X82.278 Y68.119 E15.33049
G1 X82.932 Y67.039 E15.37645
G1 X83.625 Y66.133 E15.41797
G0 F12000 X83.985 Y66.443
G1 F4800 X84.499 Y65.846 E15.44665
G1 X85.38 Y64.943 E15.49257
G1 X86.454 Y64.076 E15.54281
G1 X87.621 Y63.234 E15.59519
G1 X88.251 Y62.795 E15.62314
G1 X90.421 Y61.189 E15.72141
G1 X92.59 Y59.486 E15.82179
G1 X94.699 Y57.732 E15.92163
G1 X96.756 Y55.92 E16.02142
G1 X98.749 Y54.063 E16.12057
G1 X100.711 Y52.129 E16.22085
G1 X102.584 Y50.171 E16.31948
G1 X104.441 Y48.12 E16.42019
G1 X105.426 Y46.967 E16.47539
G1 X105.492 Y46.901 E16.47879
G1 X106.561 Y45.655 E16.53855
G1 X107.565 Y44.705 E16.58886
G1 X107.954 Y44.372 E16.6075
G1 X109.406 Y43.345 E16.67224
G1 X110.441 Y42.801 E16.7148
G1 X110.986 Y42.543 E16.73674
G1 X111.535 Y42.323 E16.75827
G1 X112.257 Y42.074 E16.78607
G1 X113.177 Y41.812 E16.82089
G1 X113.776 Y41.67 E16.8433
G1 X114.514 Y41.54 E16.87058
G1 X115.461 Y41.455 E16.90519
G1 X116.186 Y41.426 E16.9316
G1 X116.702 Y41.427 E16.95038
G1 X117.661 Y41.476 E16.98533
G1 X118.745 Y41.635 E17.02521
G1 X119.271 Y41.736 E17.04471
G1 X119.94 Y41.902 E17.0698
G1 X120.501 Y42.065 E17.09106
G1 X121.19 Y42.31 E17.11768
G1 X122.22 Y42.749 E17.15844
G1 X123.092 Y43.213 E17.19439
G1 X123.799 Y43.641 E17.22447
G1 X124.717 Y44.3 E17.26561
G1 X125.362 Y44.843 E17.2963
G1 X126.199 Y45.656 E17.33877
G1 X127.033 Y46.622 E17.38522
G1 X127.45 Y47.195 E17.41102
G1 X128.457 Y48.737 E17.47806
G1 X130.014 Y51.048 E17.57949
G1 X131.594 Y53.256 E17.67832
G1 X133.264 Y55.455 E17.77883
G1 X134.979 Y57.588 E17.87845
G1 X136.734 Y59.648 E17.97696
G1 X138.597 Y61.711 E18.07814
G1 X140.458 Y63.659 E18.1762
G1 X142.427 Y65.607 E18.27702
G1 X144.419 Y67.468 E18.37625
G1 X145.088 Y68.076 E18.40915
G1 X145.8 Y68.789 E18.44583
G1 X146.677 Y69.84 E18.49566
G1 X146.977 Y70.277 E18.51495
G1 X147.389 Y70.941 E18.5434
G1 X147.716 Y71.544 E18.56837
G1 X148.034 Y72.177 E18.59415
G1 X148.444 Y73.262 E18.63637
G1 X148.712 Y74.309 E18.67571
G1 X148.865 Y74.994 E18.70126
G1 X148.975 Y76.068 E18.74056
G1 X149.025 Y76.771 E18.76621
G1 X148.976 Y77.864 E18.80603
G1 X148.923 Y78.561 E18.83148
G1 X148.669 Y79.887 E18.88062
G1 X148.486 Y80.518 E18.90454
G1 X148.162 Y81.456 E18.94066
G1 X147.738 Y82.35 E18.97668
G1 X147.497 Y82.803 E18.99535
G1 X147 Y83.625 E19.03032
G1 X145.635 Y85.476 E19.11403
G1 X145.574 Y85.57 E19.11811
G1 X145.022 Y86.31 E19.15172
G1 X143.438 Y88.562 E19.25194
G1 X141.94 Y90.825 E19.35072
G1 X140.476 Y93.179 E19.45162
G1 X139.104 Y95.532 E19.55077
G1 X137.799 Y97.921 E19.64986
G1 X136.851 Y99.796 E19.72634
G1 X136.216 Y101.023 E19.77662
G1 X135.731 Y101.87 E19.81215
G1 X135.11 Y102.705 E19.85003
G1 X134.651 Y103.284 E19.87692
G1 X133.816 Y104.119 E19.91991
G1 X132.87 Y104.911 E19.96482
G1 X132.066 Y105.453 E20.00011
G1 X131.419 Y105.852 E20.02778
G1 X130.412 Y106.323 E20.06825
G1 X129.772 Y106.598 E20.0936
G1 X128.6 Y106.943 E20.13807
G1 X127.192 Y107.221 E20.19031
G1 X126.676 Y107.273 E20.20919
G1 X125.624 Y107.315 E20.24751
G1 X124.127 Y107.329 E20.30201
G1 X121.373 Y107.435 E20.40233
G1 X118.636 Y107.616 E20.50217
G1 X115.959 Y107.871 E20.60005
G1 X113.197 Y108.212 E20.70135
G1 X110.533 Y108.618 E20.79944
G1 X108.802 Y108.943 E20.86355
G1 X108.679 Y108.956 E20.86805
G1 X107.366 Y109.191 E20.91661
G1 X106.427 Y109.314 E20.95108
G1 X105.37 Y109.383 E20.98963
G1 X104.632 Y109.385 E21.0165
G1 X103.98 Y109.344 E21.04028
G1 X102.88 Y109.214 E21.0806
G1 X102.058 Y109.053 E21.11108
G1 X101.44 Y108.895 E21.1343
G1 X100.77 Y108.686 E21.15985
G1 X99.791 Y108.338 E21.19767
G1 X98.94 Y107.936 E21.23193
G1 X98.16 Y107.515 E21.26419
G1 X97.438 Y107.067 E21.29512
G1 X96.79 Y106.596 E21.32428
G1 X96.154 Y106.078 E21.35414
G1 X95.592 Y105.564 E21.38186
G1 X94.769 Y104.71 E21.42503
G1 X93.874 Y103.572 E21.47773
G1 X93.48 Y102.959 E21.50426
G1 X92.917 Y101.984 E21.54524
G1 X92.664 Y101.455 E21.56658
G1 X92.304 Y100.589 E21.60072
G1 X91.229 Y97.843 E21.70806
G1 X90.181 Y95.375 E21.80566
G1 X89.022 Y92.846 E21.90692
G1 X87.81 Y90.387 E22.00671
G1 X86.538 Y87.98 E22.10581
G1 X85.175 Y85.57 E22.20659
G1 X83.476 Y82.771 E22.32577
G1 X82.977 Y81.984 E22.35969
G1 X82.594 Y81.323 E22.3875
G1 X82.311 Y80.772 E22.41004
G1 X82.091 Y80.28 E22.42966
G1 X81.685 Y79.254 E22.46983
G1 X81.318 Y77.94 E22.51949
G1 X81.084 Y76.678 E22.56621
G1 X81.021 Y75.946 E22.59295
G1 X80.969 Y74.575 E22.64289
G1 X81.057 Y73.409 E22.68545
G1 X81.248 Y72.24 E22.72857
G1 X81.56 Y70.985 E22.77564
G1 X81.824 Y70.24 E22.80441
G1 X82.227 Y69.252 E22.84325
G1 X82.685 Y68.364 E22.87962
G1 X83.31 Y67.327 E22.92369
G1 X83.985 Y66.443 E22.96418
G1 F4800 E20.46418
;MESH:K_rper_09
G0 F12000 X94.459 Y84.976
;TYPE:WALL-OUTER
G1 F4800 E22.96418
G1 X95.417 Y84.929 E22.9935
G1 X96.354 Y84.796 E23.02244
G1 X97.276 Y84.576 E23.05142
G1 X98.413 Y84.18 E23.08824
G1 X99.688 Y83.525 E23.13206
G1 X100.665 Y82.831 E23.16871
G1 X101.402 Y82.195 E23.19847
G1 X102.045 Y81.521 E23.22695
G1 X102.645 Y80.756 E23.25668
G1 X103.155 Y79.96 E23.28559
G1 X103.712 Y78.885 E23.32261
G1 X104.108 Y77.747 E23.35945
G1 X104.328 Y76.834 E23.38816
G1 X104.465 Y75.904 E23.4169
G1 X104.524 Y74.693 E23.45398
G1 X104.41 Y73.501 E23.49059
G1 X104.226 Y72.551 E23.52018
G1 X103.963 Y71.649 E23.5489
G1 X103.614 Y70.771 E23.57779
G1 X103.163 Y69.9 E23.60778
G1 X102.649 Y69.104 E23.63675
G1 X102.053 Y68.343 E23.66631
G1 X101.229 Y67.476 E23.70288
G1 X100.288 Y66.739 E23.73943
G1 X99.292 Y66.096 E23.77568
G1 X98.198 Y65.598 E23.81243
G1 X97.094 Y65.216 E23.84815
G1 X96.146 Y65.009 E23.87782
G1 X95.407 Y64.919 E23.90058
G1 X94.469 Y64.876 E23.92929
G1 X93.499 Y64.923 E23.95898
G1 X92.566 Y65.056 E23.9878
G1 X91.64 Y65.28 E24.01693
G1 X90.726 Y65.594 E24.04648
G1 X89.868 Y65.986 E24.07532
G1 X88.828 Y66.586 E24.11203
G1 X87.69 Y67.48 E24.15628
G1 X86.875 Y68.331 E24.19231
G1 X86.134 Y69.276 E24.22903
G1 X85.525 Y70.324 E24.26609
G1 X85.133 Y71.183 E24.29496
G1 X84.816 Y72.101 E24.32465
G1 X84.596 Y73.005 E24.3531
G1 X84.51 Y73.515 E24.36891
G1 X84.396 Y74.677 E24.40461
G1 X84.455 Y75.889 E24.44172
G1 X84.588 Y76.818 E24.47041
G1 X84.812 Y77.743 E24.49951
G1 X85.13 Y78.662 E24.52924
G1 X85.522 Y79.524 E24.5582
G1 X86.004 Y80.356 E24.5876
G1 X86.699 Y81.333 E24.62426
G1 X87.514 Y82.191 E24.66044
G1 X88.252 Y82.831 E24.69031
G1 X89.178 Y83.491 E24.72508
G1 X90.059 Y83.972 E24.75577
G1 X90.74 Y84.262 E24.7784
G1 X91.635 Y84.573 E24.80737
