;FLAVOR:Marlin
;TIME:1073
;Filament used: 2.15874m
;Layer height: 0.2
;MINX:79.72
;MINY:40.165
;MINZ:0.26
;MAXX:150.287
;MAXY:110.502
;MAXZ:13.06
;TARGET_MACHINE.NAME:Anycubic Kobra 2
;Generated with Cura_SteamEngine 5.8.1
M104 S215
M105
M109 S215
M82 ;absolute extrusion mode
G90 ; use absolute coordinates
M301 E0 P10.60 I0.54 D51.77 ; PID Tuning - Might not be the same for your printer
M104 S[first_layer_temperature] ; set extruder temp
M140 S[first_layer_bed_temperature] ; set bed temp
M190 S[first_layer_bed_temperature] ; wait for bed temp
M109 S[first_layer_temperature] ; wait for extruder temp
G28 ; home all axis
G1 Z5 F5000 ; lift nozzle
G92 E0 ; zero extruder
G1 Y3 F6000 ; move Y to purge point
G1 Z0.25 F5000 ; lower nozzle
G1 X60 E15 F500 ; Extrude 15mm of filament in a 5cm line. 
G92 E0 ; zero the extruded length again 
G1 E-3 F500 ; Retract a little 
G1 X70 F4000 ; Quickly wipe away from the filament line
M117 ; set LCD Message?
G92 E0
G92 E0
G1 F4800 E-2.5
;LAYER_COUNT:65
;LAYER:0
M107
G0 F12000 X83.009 Y65.623 Z0.26
;TYPE:SKIRT
G1 F4800 E0
G1 X83.501 Y65.06 E0.05121
G1 X84.035 Y64.509 E0.10376
G1 X84.905 Y63.695 E0.18536
G1 X85.627 Y63.124 E0.24841
G1 X86.494 Y62.514 E0.32101
G1 X88.757 Y60.878 E0.51226
G1 X90.855 Y59.271 E0.69326
G1 X92.968 Y57.556 E0.87965
G1 X95.013 Y55.795 E1.06448
G1 X97.031 Y53.958 E1.25138
G1 X98.936 Y52.121 E1.43263
G1 X100.883 Y50.133 E1.62321
G1 X102.687 Y48.187 E1.80495
G1 X105.847 Y44.589 E2.13292
G1 X106.78 Y43.713 E2.22058
G1 X107.483 Y43.161 E2.28179
G1 X108.548 Y42.41 E2.37105
G1 X109.242 Y42.004 E2.42611
G1 X109.973 Y41.631 E2.48232
G1 X111.029 Y41.163 E2.56143
G1 X111.928 Y40.853 E2.62656
G1 X112.831 Y40.599 E2.6908
G1 X113.463 Y40.462 E2.73509
G1 X114.509 Y40.28 E2.80781
G1 X115.335 Y40.201 E2.86464
G1 X116.382 Y40.165 E2.93639
G1 X117.435 Y40.195 E3.00854
G1 X118.542 Y40.324 E3.08487
G1 X119.518 Y40.493 E3.15271
G1 X120.355 Y40.704 E3.21183
G1 X120.949 Y40.879 E3.25424
G1 X121.555 Y41.093 E3.29826
G1 X122.299 Y41.388 E3.35307
G1 X123.483 Y41.976 E3.44361
G1 X124.182 Y42.396 E3.49947
G1 X124.845 Y42.834 E3.55389
G1 X125.289 Y43.152 E3.59129
G1 X125.874 Y43.615 E3.64239
G1 X126.477 Y44.147 E3.69746
G1 X127.005 Y44.662 E3.74798
G1 X127.574 Y45.307 E3.80689
G1 X127.971 Y45.793 E3.84987
G1 X128.8 Y46.955 E3.94763
G1 X129.273 Y47.692 E4.00761
G1 X130.817 Y50.007 E4.19819
G1 X132.365 Y52.186 E4.38125
G1 X133.999 Y54.359 E4.56746
G1 X135.681 Y56.467 E4.75216
G1 X137.423 Y58.531 E4.93714
G1 X139.218 Y60.535 E5.12141
G1 X141.085 Y62.507 E5.30739
G1 X143.005 Y64.422 E5.49312
G1 X144.957 Y66.265 E5.67699
G1 X145.7 Y66.935 E5.74551
G1 X146.565 Y67.762 E5.82747
G1 X147.526 Y68.841 E5.92643
G1 X148.291 Y69.957 E6.0191
G1 X148.838 Y70.962 E6.09747
G1 X149.219 Y71.732 E6.1563
G1 X149.626 Y72.814 E6.23548
G1 X150.044 Y74.445 E6.3508
G1 X150.143 Y75.061 E6.39353
G1 X150.224 Y75.854 E6.44812
G1 X150.287 Y76.76 E6.51032
G1 X150.243 Y77.84 E6.58435
G1 X150.167 Y78.773 E6.64846
G1 X149.933 Y80.013 E6.73489
G1 X149.693 Y80.9 E6.79782
G1 X149.463 Y81.56 E6.84569
G1 X149.122 Y82.383 E6.90671
G1 X148.79 Y83.104 E6.96107
G1 X148.086 Y84.3 E7.05612
G1 X145.953 Y87.182 E7.30169
G1 X144.369 Y89.446 E7.49093
G1 X142.891 Y91.688 E7.67485
G1 X141.482 Y93.966 E7.8583
G1 X140.108 Y96.333 E8.04575
G1 X138.84 Y98.667 E8.22767
G1 X137.317 Y101.665 E8.45797
G1 X136.762 Y102.597 E8.53227
G1 X135.857 Y103.807 E8.63575
G1 X135.471 Y104.246 E8.67579
G1 X134.862 Y104.859 E8.73497
G1 X134.44 Y105.246 E8.77419
G1 X133.671 Y105.883 E8.84258
G1 X132.863 Y106.443 E8.90991
G1 X132.082 Y106.928 E8.97287
G1 X130.645 Y107.607 E9.08173
G1 X129.951 Y107.862 E9.13237
G1 X128.845 Y108.182 E9.21122
G1 X127.348 Y108.472 E9.31566
G1 X126.766 Y108.53 E9.35571
G1 X125.866 Y108.565 E9.4174
G1 X124.649 Y108.577 E9.50076
G1 X121.928 Y108.641 E9.68717
G1 X119.212 Y108.782 E9.87344
G1 X116.542 Y108.998 E10.0569
G1 X113.845 Y109.292 E10.24271
G1 X111.205 Y109.657 E10.42524
G1 X108.073 Y110.184 E10.64276
G1 X107.544 Y110.281 E10.6796
G1 X106.789 Y110.393 E10.73187
G1 X106.191 Y110.448 E10.773
G1 X104.914 Y110.502 E10.86054
G1 X104.228 Y110.476 E10.90756
G1 X103.053 Y110.371 E10.98836
G1 X101.944 Y110.161 E11.06566
G1 X101.16 Y109.972 E11.12089
G1 X100.435 Y109.755 E11.17273
G1 X99.706 Y109.491 E11.22583
G1 X98.955 Y109.177 E11.28158
G1 X98.415 Y108.914 E11.32272
G1 X97.562 Y108.446 E11.38935
G1 X96.754 Y107.936 E11.45479
G1 X96.051 Y107.433 E11.514
G1 X94.979 Y106.526 E11.61017
G1 X94.271 Y105.803 E11.67948
G1 X93.429 Y104.827 E11.76776
G1 X92.804 Y103.954 E11.84129
G1 X92.444 Y103.397 E11.88672
G1 X91.963 Y102.558 E11.95295
G1 X91.534 Y101.635 E12.02266
G1 X90.79 Y99.762 E12.16069
G1 X89.769 Y97.297 E12.34343
G1 X88.637 Y94.766 E12.53332
G1 X87.472 Y92.348 E12.71715
G1 X86.231 Y89.949 E12.90214
G1 X84.93 Y87.597 E13.08623
G1 X83.546 Y85.257 E13.27242
G1 X81.943 Y82.719 E13.47802
G1 X81.349 Y81.662 E13.56106
G1 X80.961 Y80.859 E13.62214
G1 X80.553 Y79.816 E13.69884
G1 X80.323 Y79.137 E13.74794
G1 X80.143 Y78.472 E13.79513
G1 X79.998 Y77.765 E13.84456
G1 X79.808 Y76.663 E13.92115
G1 X79.75 Y75.96 E13.96946
G1 X79.721 Y75.166 E14.02388
G1 X79.72 Y74.611 E14.06189
G1 X79.76 Y73.783 E14.11866
G1 X79.855 Y72.817 E14.18514
G1 X80.131 Y71.425 E14.28234
G1 X80.419 Y70.44 E14.35262
G1 X80.835 Y69.289 E14.43644
G1 X81.42 Y68.03 E14.53153
G1 X81.945 Y67.144 E14.60206
G1 X82.396 Y66.457 E14.65835
G1 X83.009 Y65.623 E14.72923
G0 F12000 X83.492 Y65.979
G1 F4800 X83.932 Y65.477 E14.77495
G1 X84.446 Y64.946 E14.82557
G1 X85.277 Y64.166 E14.90363
G1 X85.999 Y63.595 E14.96667
G1 X86.839 Y63.005 E15.03698
G1 X89.109 Y61.364 E15.22882
G1 X91.232 Y59.738 E15.41197
G1 X93.36 Y58.011 E15.59967
G1 X95.405 Y56.25 E15.7845
G1 X97.435 Y54.402 E15.97252
G1 X99.365 Y52.541 E16.15614
G1 X101.312 Y50.553 E16.34672
G1 X103.127 Y48.595 E16.52958
G1 X106.259 Y45.026 E16.85479
G1 X107.151 Y44.185 E16.93876
G1 X107.854 Y43.633 E16.99997
G1 X108.851 Y42.928 E17.0836
G1 X109.545 Y42.522 E17.13867
G1 X110.217 Y42.179 E17.19034
G1 X111.225 Y41.73 E17.26592
G1 X112.09 Y41.431 E17.3286
G1 X112.993 Y41.177 E17.39285
G1 X113.566 Y41.053 E17.433
G1 X114.612 Y40.871 E17.50572
G1 X115.356 Y40.801 E17.5569
G1 X116.403 Y40.765 E17.62865
G1 X117.366 Y40.791 E17.69463
G1 X118.473 Y40.92 E17.77096
G1 X119.415 Y41.084 E17.83645
G1 X120.185 Y41.28 E17.89087
G1 X120.779 Y41.455 E17.93328
G1 X121.334 Y41.651 E17.97359
G1 X122.078 Y41.946 E18.0284
G1 X123.174 Y42.49 E18.11221
G1 X123.852 Y42.897 E18.16637
G1 X124.496 Y43.322 E18.21921
G1 X124.94 Y43.64 E18.25662
G1 X125.477 Y44.065 E18.30352
G1 X126.059 Y44.578 E18.35666
G1 X126.555 Y45.059 E18.40398
G1 X127.109 Y45.687 E18.46133
G1 X127.506 Y46.173 E18.50431
G1 X128.295 Y47.279 E18.59736
G1 X128.774 Y48.025 E18.65808
G1 X130.318 Y50.34 E18.84866
G1 X131.885 Y52.547 E19.03404
G1 X133.519 Y54.72 E19.22025
G1 X135.222 Y56.854 E19.40724
G1 X136.964 Y58.918 E19.59222
G1 X138.782 Y60.948 E19.77886
G1 X140.65 Y62.921 E19.96495
G1 X142.581 Y64.847 E20.15174
G1 X144.555 Y66.71 E20.33764
G1 X145.285 Y67.369 E20.405
G1 X146.15 Y68.196 E20.48696
G1 X147.032 Y69.182 E20.57756
G1 X147.764 Y70.244 E20.6659
G1 X148.301 Y71.23 E20.7428
G1 X148.657 Y71.943 E20.79738
G1 X149.064 Y73.025 E20.87656
G1 X149.452 Y74.541 E20.98373
G1 X149.546 Y75.122 E21.02404
G1 X149.625 Y75.896 E21.07733
G1 X149.688 Y76.802 E21.13953
G1 X149.645 Y77.793 E21.20747
G1 X149.577 Y78.662 E21.26717
G1 X149.343 Y79.902 E21.35359
G1 X149.114 Y80.742 E21.41322
G1 X148.908 Y81.331 E21.45596
G1 X148.577 Y82.132 E21.51532
G1 X148.245 Y82.853 E21.56968
G1 X147.604 Y83.943 E21.65629
G1 X145.461 Y86.838 E21.90298
G1 X143.877 Y89.102 E22.09222
G1 X142.39 Y91.358 E22.27728
G1 X140.972 Y93.65 E22.46187
G1 X139.589 Y96.032 E22.65051
G1 X138.305 Y98.395 E22.8347
G1 X136.8 Y101.36 E23.06244
G1 X136.281 Y102.238 E23.13229
G1 X135.406 Y103.411 E23.23252
G1 X135.02 Y103.85 E23.27255
G1 X134.456 Y104.417 E23.32733
G1 X134.056 Y104.785 E23.36455
G1 X133.329 Y105.39 E23.42933
G1 X132.546 Y105.933 E23.49459
G1 X131.765 Y106.418 E23.55756
G1 X130.39 Y107.064 E23.6616
G1 X129.783 Y107.286 E23.70587
G1 X128.73 Y107.593 E23.78099
G1 X127.288 Y107.875 E23.88163
G1 X126.742 Y107.93 E23.91921
G1 X125.86 Y107.965 E23.97966
G1 X124.635 Y107.977 E24.06357
G1 X121.914 Y108.041 E24.24998
G1 X119.168 Y108.184 E24.43831
G1 X116.494 Y108.4 E24.62204
G1 X113.768 Y108.697 E24.80985
G1 X111.105 Y109.065 E24.99397
G1 X107.973 Y109.593 E25.2115
G1 X107.455 Y109.688 E25.24757
G1 X106.733 Y109.796 E25.29757
G1 X106.166 Y109.849 E25.33658
G1 X104.889 Y109.903 E25.42411
G1 X104.281 Y109.878 E25.46579
G1 X103.106 Y109.773 E25.54659
G1 X102.084 Y109.578 E25.61785
G1 X101.332 Y109.397 E25.67082
G1 X100.607 Y109.18 E25.72265
G1 X99.937 Y108.937 E25.77146
G1 X99.186 Y108.623 E25.82721
G1 X98.704 Y108.388 E25.86394
G1 X97.851 Y107.92 E25.93058
G1 X97.102 Y107.447 E25.99125
G1 X96.438 Y106.974 E26.04708
G1 X95.408 Y106.106 E26.13934
G1 X94.7 Y105.383 E26.20864
G1 X93.917 Y104.477 E26.29066
G1 X93.308 Y103.628 E26.36222
G1 X92.948 Y103.071 E26.40764
G1 X92.507 Y102.305 E26.46818
G1 X92.092 Y101.414 E26.53549
G1 X91.348 Y99.541 E26.67352
G1 X90.317 Y97.052 E26.85804
G1 X89.185 Y94.521 E27.04793
G1 X88.013 Y92.088 E27.23289
G1 X86.764 Y89.673 E27.41911
G1 X85.455 Y87.307 E27.6043
G1 X84.062 Y84.952 E27.7917
G1 X82.466 Y82.425 E27.9964
G1 X81.872 Y81.368 E28.07944
G1 X81.52 Y80.64 E28.13482
G1 X81.112 Y79.597 E28.21153
G1 X80.902 Y78.979 E28.25623
G1 X80.731 Y78.351 E28.30081
G1 X80.589 Y77.662 E28.34899
G1 X80.406 Y76.613 E28.42192
G1 X80.35 Y75.938 E28.46831
G1 X80.321 Y75.165 E28.52129
G1 X80.32 Y74.61 E28.5593
G1 X80.357 Y73.84 E28.6121
G1 X80.444 Y72.933 E28.6745
G1 X80.707 Y71.593 E28.76803
G1 X80.995 Y70.608 E28.83831
G1 X81.379 Y69.542 E28.91592
G1 X81.964 Y68.283 E29.011
G1 X82.447 Y67.473 E29.07559
G1 X82.898 Y66.786 E29.13187
G1 X83.492 Y65.979 E29.2005
G0 F12000 X83.975 Y66.335
G1 F4800 X84.363 Y65.894 E29.24073
G1 X84.857 Y65.383 E29.28941
G1 X85.649 Y64.637 E29.36393
G1 X86.371 Y64.066 E29.42697
G1 X87.191 Y63.491 E29.49557
G1 X89.461 Y61.85 E29.68741
G1 X91.609 Y60.205 E29.87271
G1 X93.738 Y58.477 E30.0605
G1 X95.809 Y56.694 E30.24767
G1 X97.839 Y54.846 E30.43569
G1 X99.794 Y52.961 E30.62169
G1 X101.741 Y50.973 E30.81227
G1 X103.567 Y49.003 E30.99623
G1 X106.671 Y45.463 E31.31869
G1 X107.563 Y44.622 E31.40265
G1 X108.201 Y44.122 E31.45817
G1 X109.154 Y43.446 E31.53819
G1 X109.848 Y43.04 E31.59326
G1 X110.461 Y42.727 E31.6404
G1 X111.469 Y42.278 E31.71598
G1 X112.252 Y42.009 E31.77268
G1 X113.155 Y41.755 E31.83693
G1 X113.669 Y41.644 E31.87294
G1 X114.715 Y41.462 E31.94566
G1 X115.377 Y41.401 E31.99119
G1 X116.424 Y41.365 E32.06294
G1 X117.297 Y41.387 E32.12275
G1 X118.404 Y41.516 E32.19908
G1 X119.267 Y41.665 E32.25906
G1 X120.015 Y41.856 E32.31194
G1 X120.609 Y42.031 E32.35435
G1 X121.114 Y42.209 E32.39102
G1 X121.812 Y42.484 E32.4424
G1 X122.866 Y43.005 E32.52293
G1 X123.522 Y43.398 E32.5753
G1 X124.147 Y43.81 E32.62657
G1 X124.568 Y44.111 E32.66202
G1 X125.08 Y44.515 E32.70669
G1 X125.641 Y45.009 E32.75788
G1 X126.137 Y45.49 E32.8052
G1 X126.644 Y46.067 E32.85781
G1 X127.041 Y46.553 E32.90079
G1 X127.79 Y47.603 E32.98913
G1 X128.275 Y48.358 E33.05058
G1 X129.819 Y50.673 E33.24117
G1 X131.405 Y52.908 E33.42887
G1 X133.039 Y55.081 E33.61507
G1 X134.763 Y57.241 E33.80435
G1 X136.505 Y59.305 E33.98933
G1 X138.346 Y61.361 E34.17835
G1 X140.215 Y63.335 E34.36453
G1 X142.157 Y65.272 E34.55239
G1 X144.153 Y67.155 E34.74033
G1 X144.87 Y67.803 E34.80652
G1 X145.735 Y68.63 E34.88848
G1 X146.539 Y69.524 E34.97083
G1 X147.237 Y70.531 E35.05475
G1 X147.765 Y71.5 E35.13032
G1 X148.095 Y72.154 E35.1805
G1 X148.502 Y73.236 E35.25967
G1 X148.86 Y74.638 E35.35877
G1 X148.949 Y75.183 E35.39659
G1 X149.027 Y75.94 E35.44872
G1 X149.089 Y76.776 E35.50613
G1 X149.047 Y77.748 E35.57276
G1 X148.987 Y78.551 E35.62791
G1 X148.753 Y79.791 E35.71434
G1 X148.547 Y80.545 E35.76787
G1 X148.353 Y81.102 E35.80827
G1 X148.032 Y81.881 E35.86597
G1 X147.7 Y82.602 E35.92034
G1 X147.122 Y83.586 E35.9985
G1 X144.969 Y86.494 E36.24631
G1 X143.385 Y88.758 E36.43555
G1 X141.889 Y91.028 E36.62175
G1 X140.462 Y93.334 E36.80748
G1 X139.07 Y95.731 E36.99732
G1 X137.778 Y98.108 E37.18262
G1 X136.282 Y101.057 E37.4091
G1 X135.8 Y101.879 E37.47436
G1 X134.925 Y103.052 E37.57459
G1 X134.594 Y103.427 E37.60884
G1 X134.049 Y103.976 E37.66183
G1 X133.671 Y104.325 E37.69706
G1 X132.987 Y104.897 E37.75813
G1 X132.229 Y105.423 E37.82132
G1 X131.448 Y105.908 E37.88428
G1 X130.136 Y106.52 E37.98344
G1 X129.614 Y106.71 E38.02148
G1 X128.614 Y107.004 E38.09287
G1 X127.227 Y107.278 E38.1897
G1 X126.718 Y107.33 E38.22474
G1 X125.854 Y107.365 E38.28397
G1 X124.621 Y107.377 E38.36842
G1 X121.9 Y107.441 E38.55483
G1 X119.124 Y107.586 E38.74522
G1 X116.446 Y107.802 E38.92923
G1 X113.691 Y108.102 E39.11903
G1 X111.005 Y108.473 E39.30474
G1 X107.873 Y109.002 E39.52228
G1 X107.366 Y109.095 E39.55759
G1 X106.676 Y109.199 E39.60538
G1 X106.14 Y109.25 E39.64225
G1 X104.913 Y109.303 E39.72637
G1 X104.334 Y109.28 E39.76606
G1 X103.159 Y109.175 E39.84685
G1 X102.224 Y108.995 E39.91207
G1 X101.504 Y108.822 E39.96278
G1 X100.779 Y108.605 E40.01461
G1 X100.168 Y108.383 E40.05914
G1 X99.448 Y108.083 E40.11256
G1 X98.993 Y107.862 E40.1472
G1 X98.14 Y107.394 E40.21384
G1 X97.45 Y106.958 E40.26974
G1 X96.786 Y106.485 E40.32558
G1 X95.836 Y105.686 E40.41059
G1 X95.153 Y104.99 E40.47738
G1 X94.405 Y104.127 E40.5556
G1 X93.796 Y103.278 E40.62716
G1 X93.468 Y102.772 E40.66846
G1 X93.027 Y102.006 E40.72899
G1 X92.65 Y101.192 E40.79043
G1 X91.905 Y99.319 E40.92849
G1 X90.865 Y96.807 E41.1147
G1 X89.733 Y94.276 E41.30459
G1 X88.554 Y91.828 E41.49068
G1 X87.297 Y89.397 E41.67812
G1 X85.979 Y87.016 E41.86451
G1 X84.578 Y84.647 E42.05301
G1 X82.989 Y82.131 E42.25682
G1 X82.412 Y81.106 E42.33738
G1 X82.079 Y80.421 E42.38955
G1 X81.68 Y79.403 E42.46443
G1 X81.481 Y78.821 E42.50656
G1 X81.319 Y78.229 E42.54859
G1 X81.18 Y77.557 E42.59559
G1 X81.004 Y76.563 E42.66473
G1 X80.95 Y75.915 E42.70927
G1 X80.921 Y75.164 E42.76074
G1 X80.92 Y74.609 E42.79875
G1 X80.954 Y73.896 E42.84764
G1 X81.033 Y73.047 E42.90604
G1 X81.283 Y71.761 E42.99576
G1 X81.56 Y70.81 E43.0636
G1 X81.924 Y69.794 E43.13752
G1 X82.48 Y68.59 E43.22835
G1 X82.949 Y67.802 E43.29115
G1 X83.4 Y67.115 E43.34744
G1 X83.975 Y66.335 E43.41381
G1 F4800 E40.91381
;MESH:K_rper_09
G0 F12000 X94.455 Y84.923
;TYPE:WALL-OUTER
G1 F4800 E43.41381
G1 X95.408 Y84.876 E43.47099
G1 X96.341 Y84.748 E43.52743
G1 X97.261 Y84.525 E43.58416
G1 X98.166 Y84.213 E43.64152
G1 X99.04 Y83.811 E43.69918
G1 X99.855 Y83.343 E43.7555
G1 X100.819 Y82.657 E43.8264
G1 X101.697 Y81.821 E43.89906
G1 X102.329 Y81.095 E43.95674
G1 X103 Y80.152 E44.0261
G1 X103.637 Y78.917 E44.10937
G1 X104.018 Y77.897 E44.17463
G1 X104.323 Y76.635 E44.25243
G1 X104.416 Y75.855 E44.29951
G1 X104.459 Y74.941 E44.35434
G1 X104.412 Y73.972 E44.41248
G1 X104.28 Y73.044 E44.46865
G1 X104.003 Y71.889 E44.53983
G1 X103.566 Y70.797 E44.61032
G1 X103.117 Y69.931 E44.66878
G1 X102.606 Y69.135 E44.72547
G1 X101.868 Y68.194 E44.79713
G1 X100.813 Y67.186 E44.88458
G1 X99.887 Y66.529 E44.95262
G1 X99.036 Y66.037 E45.01153
G1 X98.187 Y65.65 E45.06744
G1 X97.483 Y65.389 E45.11244
G1 X96.613 Y65.155 E45.16643
G1 X95.866 Y65.027 E45.21185
G1 X94.944 Y64.94 E45.26735
G1 X93.992 Y64.94 E45.3244
G1 X92.806 Y65.054 E45.3958
G1 X91.655 Y65.331 E45.46675
G1 X90.75 Y65.643 E45.52411
G1 X89.892 Y66.033 E45.58059
G1 X89.065 Y66.513 E45.6379
G1 X88.292 Y67.059 E45.69461
G1 X87.554 Y67.699 E45.75315
G1 X86.747 Y68.542 E45.82309
G1 X86.059 Y69.507 E45.89411
G1 X85.655 Y70.171 E45.94069
G1 X85.177 Y71.209 E46.00918
G1 X84.937 Y71.857 E46.05059
G1 X84.746 Y72.561 E46.0943
G1 X84.523 Y73.726 E46.16539
G1 X84.465 Y74.921 E46.23709
G1 X84.519 Y76.11 E46.30841
G1 X84.789 Y77.51 E46.39386
G1 X85.179 Y78.638 E46.46538
G1 X85.565 Y79.492 E46.52155
G1 X86.041 Y80.311 E46.57832
G1 X86.603 Y81.108 E46.63676
G1 X87.223 Y81.821 E46.69338
G1 X87.91 Y82.477 E46.75031
G1 X88.639 Y83.054 E46.80602
G1 X89.453 Y83.579 E46.86407
