;FLAVOR:Marlin
;TIME:2202
;Filament used: 1.72438m
;Layer height: 0.25
;MINX:108.062
;MINY:68.504
;MINZ:0.2
;MAXX:191.934
;MAXY:152.461
;MAXZ:12.95
;TARGET_MACHINE.NAME:Artillery Sidewinder X1
;Generated with Cura_SteamEngine 5.8.1
M104 S195
M105
M109 S195
M82 ;absolute extrusion mode
G28 ; home all axes
 M117 Purge extruder
 G92 E0 ; reset extruder
 G1 Z1.0 F3000 ; move z up little to prevent scratching of surface
 G1 X2 Y20 Z0.3 F5000.0 ; move to start-line position
 G1 X2 Y200.0 Z0.3 F1500.0 E15 ; draw 1st line
 G1 X2 Y200.0 Z0.4 F5000.0 ; move to side a little
 G1 X2 Y20 Z0.4 F1500.0 E30 ; draw 2nd line
 G92 E0 ; reset extruder
 G1 Z1.0 F3000 ; move z up little to prevent scratching of surface
G92 E0
G92 E0
G1 F2400 E-6
;LAYER_COUNT:52
;LAYER:0
M107
M204 S3500
G0 F6000 X112.996 Y96.257 Z0.2
M204 S2500
;TYPE:SKIRT
G1 F2400 E0
G1 F1200 X113.606 Y95.554 E0.02514
G1 X113.988 Y95.144 E0.04028
G1 X114.414 Y94.711 E0.05669
G1 X115.143 Y94.026 E0.08372
G1 X115.835 Y93.427 E0.10844
G1 X116.271 Y93.075 E0.12358
G1 X116.776 Y92.693 E0.14069
G1 X119.265 Y90.915 E0.22332
G1 X121.265 Y89.406 E0.29101
G1 X123.205 Y87.853 E0.35814
G1 X125.136 Y86.216 E0.42653
G1 X126.991 Y84.553 E0.49384
G1 X128.845 Y82.794 E0.56288
G1 X130.589 Y81.04 E0.6297
G1 X132.308 Y79.212 E0.69749
G1 X134.427 Y76.81 E0.78403
G1 X135.262 Y75.831 E0.81879
G1 X135.974 Y75.057 E0.8472
G1 X136.557 Y74.478 E0.8694
G1 X136.992 Y74.082 E0.88529
G1 X137.893 Y73.303 E0.91747
G1 X138.632 Y72.718 E0.94293
G1 X139.324 Y72.234 E0.96574
G1 X140.133 Y71.707 E0.99183
G1 X140.764 Y71.325 E1.01175
G1 X141.271 Y71.045 E1.0274
G1 X141.784 Y70.78 E1.043
G1 X142.587 Y70.398 E1.06702
G1 X143.526 Y69.999 E1.09458
G1 X144.463 Y69.654 E1.12156
G1 X144.974 Y69.486 E1.13609
G1 X145.463 Y69.34 E1.14988
G1 X146.38 Y69.098 E1.1755
G1 X146.893 Y68.981 E1.18971
G1 X147.452 Y68.868 E1.20512
G1 X147.939 Y68.782 E1.21848
G1 X148.714 Y68.673 E1.23963
G1 X149.379 Y68.6 E1.2577
G1 X149.955 Y68.553 E1.27331
G1 X150.93 Y68.51 E1.29968
G1 X151.501 Y68.504 E1.3151
G1 X152.148 Y68.518 E1.33259
G1 X152.991 Y68.564 E1.35539
G1 X153.445 Y68.604 E1.36771
G1 X154.252 Y68.702 E1.38967
G1 X155.315 Y68.872 E1.41875
G1 X156.133 Y69.037 E1.4413
G1 X156.705 Y69.176 E1.4572
G1 X157.548 Y69.408 E1.48082
G1 X158.305 Y69.655 E1.50233
G1 X159.045 Y69.927 E1.52363
G1 X159.874 Y70.262 E1.54779
G1 X160.391 Y70.494 E1.56309
G1 X160.889 Y70.733 E1.57802
G1 X161.415 Y71.004 E1.594
G1 X162.059 Y71.358 E1.61386
G1 X162.653 Y71.709 E1.6325
G1 X163.117 Y72.004 E1.64735
G1 X163.887 Y72.535 E1.67262
G1 X164.672 Y73.128 E1.6992
G1 X165.102 Y73.477 E1.71416
G1 X165.839 Y74.122 E1.74062
G1 X166.221 Y74.48 E1.75476
G1 X166.618 Y74.872 E1.76983
G1 X167.296 Y75.593 E1.79657
G1 X167.919 Y76.319 E1.82241
G1 X168.281 Y76.77 E1.83804
G1 X168.641 Y77.248 E1.8542
G1 X169.198 Y78.049 E1.88056
G1 X170.525 Y80.072 E1.94592
G1 X171.962 Y82.165 E2.01451
G1 X173.44 Y84.195 E2.08235
G1 X174.988 Y86.197 E2.15071
G1 X176.563 Y88.117 E2.2178
G1 X178.204 Y90.009 E2.28546
G1 X179.919 Y91.876 E2.35395
G1 X181.662 Y93.67 E2.42153
G1 X183.469 Y95.426 E2.4896
G1 X185.575 Y97.364 E2.56692
G1 X186.246 Y98.018 E2.59223
G1 X186.884 Y98.703 E2.61752
G1 X187.515 Y99.444 E2.64381
G1 X188.069 Y100.164 E2.66835
G1 X188.393 Y100.622 E2.68351
G1 X188.876 Y101.358 E2.70729
G1 X189.08 Y101.688 E2.71777
G1 X189.384 Y102.212 E2.73414
G1 X189.652 Y102.703 E2.74925
G1 X189.923 Y103.239 E2.76548
G1 X190.322 Y104.113 E2.79143
G1 X190.682 Y105.011 E2.81757
G1 X190.843 Y105.462 E2.83051
G1 X191.138 Y106.389 E2.85679
G1 X191.286 Y106.929 E2.87191
G1 X191.402 Y107.396 E2.88491
G1 X191.594 Y108.298 E2.90983
G1 X191.694 Y108.881 E2.92581
G1 X191.826 Y109.885 E2.95317
G1 X191.901 Y110.806 E2.97813
G1 X191.934 Y111.786 E3.00462
G1 X191.918 Y112.77 E3.03121
G1 X191.856 Y113.736 E3.05736
G1 X191.807 Y114.229 E3.07074
G1 X191.715 Y114.91 E3.08931
G1 X191.551 Y115.861 E3.11538
G1 X191.359 Y116.72 E3.13916
G1 X191.137 Y117.534 E3.16195
G1 X190.896 Y118.303 E3.18372
G1 X190.67 Y118.954 E3.20234
G1 X190.521 Y119.342 E3.21357
G1 X190.16 Y120.193 E3.23854
G1 X189.796 Y120.953 E3.2613
G1 X189.52 Y121.47 E3.27714
G1 X189.082 Y122.237 E3.301
G1 X188.658 Y122.924 E3.32281
G1 X188.402 Y123.303 E3.33516
G1 X188.062 Y123.779 E3.35097
G1 X187.469 Y124.567 E3.37761
G1 X185.951 Y126.641 E3.44704
G1 X184.526 Y128.711 E3.51494
G1 X183.168 Y130.803 E3.58232
G1 X181.841 Y132.986 E3.65133
G1 X180.604 Y135.153 E3.71874
G1 X178.955 Y138.277 E3.81417
G1 X178.444 Y139.298 E3.84502
G1 X178.178 Y139.796 E3.86027
G1 X177.741 Y140.562 E3.8841
G1 X177.294 Y141.277 E3.90688
G1 X176.699 Y142.131 E3.935
G1 X176.115 Y142.882 E3.9607
G1 X175.798 Y143.261 E3.97405
G1 X175.199 Y143.931 E3.99832
G1 X174.794 Y144.352 E4.01411
G1 X174.463 Y144.676 E4.02662
G1 X173.709 Y145.361 E4.05414
G1 X172.978 Y145.966 E4.07977
G1 X172.191 Y146.555 E4.10633
G1 X171.383 Y147.098 E4.13263
G1 X170.913 Y147.39 E4.14758
G1 X170.478 Y147.643 E4.16117
G1 X169.683 Y148.07 E4.18555
G1 X169.169 Y148.322 E4.20102
G1 X168.3 Y148.706 E4.22668
G1 X167.851 Y148.886 E4.23975
G1 X167.316 Y149.085 E4.25517
G1 X166.391 Y149.387 E4.28146
G1 X165.474 Y149.638 E4.30715
G1 X164.502 Y149.857 E4.33406
G1 X163.573 Y150.017 E4.35953
G1 X163.065 Y150.084 E4.37337
G1 X162.093 Y150.179 E4.39976
G1 X161.562 Y150.212 E4.41413
G1 X160.265 Y150.256 E4.44919
G1 X158.678 Y150.296 E4.49208
G1 X156.209 Y150.426 E4.55887
G1 X153.723 Y150.629 E4.62625
G1 X151.212 Y150.908 E4.69451
G1 X148.711 Y151.256 E4.76273
G1 X146.235 Y151.672 E4.83055
G1 X143.932 Y152.112 E4.8939
G1 X143.211 Y152.229 E4.91363
G1 X142.301 Y152.344 E4.93841
G1 X141.099 Y152.436 E4.97098
G1 X140.437 Y152.456 E4.98887
G1 X139.889 Y152.461 E5.00367
G1 X138.93 Y152.431 E5.02959
G1 X138.408 Y152.4 E5.04372
G1 X137.871 Y152.352 E5.05829
G1 X137.329 Y152.29 E5.07302
G1 X136.741 Y152.207 E5.08907
G1 X136.188 Y152.115 E5.10421
G1 X135.631 Y152.008 E5.11953
G1 X135.105 Y151.892 E5.13409
G1 X134.156 Y151.644 E5.16058
G1 X133.6 Y151.479 E5.17625
G1 X133.083 Y151.312 E5.19093
G1 X132.551 Y151.123 E5.20618
G1 X131.595 Y150.744 E5.23397
G1 X130.649 Y150.317 E5.262
G1 X130.162 Y150.075 E5.2767
G1 X129.644 Y149.802 E5.29251
G1 X129.146 Y149.521 E5.30796
G1 X128.251 Y148.973 E5.33631
G1 X127.406 Y148.396 E5.36396
G1 X126.568 Y147.767 E5.39226
G1 X126.187 Y147.457 E5.40553
G1 X125.336 Y146.71 E5.43612
G1 X124.944 Y146.339 E5.4507
G1 X124.21 Y145.598 E5.47888
G1 X123.713 Y145.045 E5.49897
G1 X123.27 Y144.521 E5.51751
G1 X122.885 Y144.037 E5.53421
G1 X122.404 Y143.394 E5.55591
G1 X122.133 Y143.011 E5.56858
G1 X121.744 Y142.418 E5.58774
G1 X121.412 Y141.877 E5.60489
G1 X121.149 Y141.421 E5.61911
G1 X120.827 Y140.831 E5.63727
G1 X120.537 Y140.261 E5.65455
G1 X120.299 Y139.753 E5.6697
G1 X120.082 Y139.261 E5.68423
G1 X119.744 Y138.433 E5.70839
G1 X118.938 Y136.304 E5.76989
G1 X117.995 Y133.996 E5.83724
G1 X116.966 Y131.675 E5.90583
G1 X115.884 Y129.406 E5.97375
G1 X114.765 Y127.225 E6.03997
G1 X113.539 Y124.986 E6.10893
G1 X112.262 Y122.806 E6.17719
G1 X111.178 Y121.051 E6.23291
G1 X110.921 Y120.617 E6.24654
G1 X110.58 Y120.002 E6.26554
G1 X110.041 Y118.913 E6.29836
G1 X109.746 Y118.251 E6.31794
G1 X109.369 Y117.296 E6.34568
G1 X109.05 Y116.359 E6.37242
G1 X108.887 Y115.811 E6.38787
G1 X108.693 Y115.071 E6.40853
G1 X108.478 Y114.117 E6.43495
G1 X108.339 Y113.377 E6.45529
G1 X108.208 Y112.44 E6.48085
G1 X108.109 Y111.368 E6.50994
G1 X108.071 Y110.506 E6.53325
G1 X108.062 Y109.884 E6.55005
G1 X108.069 Y109.278 E6.56642
G1 X108.115 Y108.404 E6.59007
G1 X108.157 Y107.899 E6.60376
G1 X108.217 Y107.335 E6.61908
G1 X108.289 Y106.811 E6.63337
G1 X108.435 Y105.95 E6.65696
G1 X108.564 Y105.336 E6.67391
G1 X108.779 Y104.441 E6.69878
G1 X108.998 Y103.661 E6.72067
G1 X109.176 Y103.114 E6.73621
G1 X109.378 Y102.551 E6.75237
G1 X109.837 Y101.398 E6.78589
G1 X110.092 Y100.831 E6.80269
G1 X110.34 Y100.322 E6.81798
G1 X110.598 Y99.825 E6.83311
G1 X110.9 Y99.278 E6.84999
G1 X111.217 Y98.744 E6.86677
G1 X111.782 Y97.869 E6.89491
G1 X112.361 Y97.061 E6.92176
G1 X112.996 Y96.257 E6.94944
M204 S3500
G0 F6000 X113.268 Y96.493
M204 S2500
G1 F1200 X113.87 Y95.799 E6.97426
G1 X114.245 Y95.396 E6.98913
G1 X114.661 Y94.973 E7.00516
G1 X115.378 Y94.298 E7.03176
G1 X116.062 Y93.707 E7.05618
G1 X116.488 Y93.362 E7.07099
G1 X116.985 Y92.986 E7.08783
G1 X119.474 Y91.208 E7.17046
G1 X121.49 Y89.687 E7.23869
G1 X123.438 Y88.128 E7.30609
G1 X125.369 Y86.491 E7.37448
G1 X127.239 Y84.814 E7.44234
G1 X129.093 Y83.055 E7.51139
G1 X130.844 Y81.294 E7.57847
G1 X132.57 Y79.459 E7.64653
G1 X134.701 Y77.044 E7.73354
G1 X135.527 Y76.075 E7.76794
G1 X136.228 Y75.312 E7.79593
G1 X136.799 Y74.744 E7.81769
G1 X137.227 Y74.354 E7.83333
G1 X138.117 Y73.585 E7.86511
G1 X138.839 Y73.013 E7.88999
G1 X139.52 Y72.536 E7.91246
G1 X140.32 Y72.015 E7.93825
G1 X140.938 Y71.64 E7.95778
G1 X141.436 Y71.365 E7.97315
G1 X141.939 Y71.105 E7.98844
G1 X142.728 Y70.729 E8.01205
G1 X143.651 Y70.337 E8.03915
G1 X144.576 Y69.996 E8.06578
G1 X145.077 Y69.831 E8.08003
G1 X145.555 Y69.688 E8.09351
G1 X146.46 Y69.449 E8.11879
G1 X146.964 Y69.334 E8.13276
G1 X147.515 Y69.223 E8.14795
G1 X148.002 Y69.137 E8.16131
G1 X148.753 Y69.031 E8.1818
G1 X149.408 Y68.959 E8.1996
G1 X149.971 Y68.913 E8.21486
G1 X150.934 Y68.87 E8.2409
G1 X151.494 Y68.864 E8.25603
G1 X152.128 Y68.877 E8.27316
G1 X152.959 Y68.923 E8.29564
G1 X153.413 Y68.963 E8.30796
G1 X154.195 Y69.057 E8.32924
G1 X155.244 Y69.225 E8.35794
G1 X156.048 Y69.387 E8.38009
G1 X156.61 Y69.523 E8.39571
G1 X157.436 Y69.75 E8.41886
G1 X158.181 Y69.993 E8.44003
G1 X158.91 Y70.261 E8.46101
G1 X159.727 Y70.591 E8.48481
G1 X160.235 Y70.818 E8.49985
G1 X160.724 Y71.053 E8.5145
G1 X161.242 Y71.32 E8.53025
G1 X161.876 Y71.668 E8.54978
G1 X162.46 Y72.013 E8.56811
G1 X162.913 Y72.301 E8.58261
G1 X163.67 Y72.822 E8.60744
G1 X164.445 Y73.407 E8.63367
G1 X164.865 Y73.748 E8.64828
G1 X165.593 Y74.384 E8.6744
G1 X165.968 Y74.736 E8.68829
G1 X166.356 Y75.119 E8.70302
G1 X167.023 Y75.828 E8.72932
G1 X167.638 Y76.544 E8.75482
G1 X167.993 Y76.987 E8.77016
G1 X168.353 Y77.465 E8.78632
G1 X168.897 Y78.246 E8.81204
G1 X170.228 Y80.276 E8.87761
G1 X171.665 Y82.369 E8.9462
G1 X173.155 Y84.415 E9.01458
G1 X174.703 Y86.417 E9.08295
G1 X176.291 Y88.353 E9.15059
G1 X177.939 Y90.253 E9.21854
G1 X179.654 Y92.12 E9.28703
G1 X181.411 Y93.928 E9.35514
G1 X183.225 Y95.691 E9.42348
G1 X185.324 Y97.622 E9.50053
G1 X185.983 Y98.263 E9.52536
G1 X186.61 Y98.936 E9.55021
G1 X187.23 Y99.664 E9.57605
G1 X187.775 Y100.372 E9.60018
G1 X188.092 Y100.82 E9.61501
G1 X188.57 Y101.547 E9.63851
G1 X188.769 Y101.869 E9.64874
G1 X189.068 Y102.384 E9.66483
G1 X189.331 Y102.866 E9.67966
G1 X189.596 Y103.389 E9.6955
G1 X189.988 Y104.247 E9.72099
G1 X190.343 Y105.132 E9.74675
G1 X190.5 Y105.571 E9.75934
G1 X190.791 Y106.484 E9.78523
G1 X190.937 Y107.016 E9.80013
G1 X191.05 Y107.471 E9.8128
G1 X191.239 Y108.359 E9.83733
G1 X191.337 Y108.928 E9.85292
G1 X191.467 Y109.914 E9.87979
G1 X191.541 Y110.818 E9.9043
G1 X191.574 Y111.78 E9.9303
G1 X191.559 Y112.747 E9.95643
G1 X191.498 Y113.7 E9.98223
G1 X191.45 Y114.181 E9.99528
G1 X191.36 Y114.849 E10.01349
G1 X191.196 Y115.8 E10.03957
G1 X191.012 Y116.625 E10.0624
G1 X190.793 Y117.427 E10.08486
G1 X190.556 Y118.185 E10.10632
G1 X190.334 Y118.825 E10.12462
G1 X190.189 Y119.202 E10.13553
G1 X189.835 Y120.038 E10.16005
G1 X189.478 Y120.784 E10.1824
G1 X189.207 Y121.292 E10.19795
G1 X188.776 Y122.048 E10.22146
G1 X188.36 Y122.722 E10.24286
G1 X188.104 Y123.101 E10.25521
G1 X187.774 Y123.563 E10.27055
G1 X187.181 Y124.351 E10.2972
G1 X185.654 Y126.437 E10.36704
G1 X184.229 Y128.507 E10.43493
G1 X182.86 Y130.616 E10.50285
G1 X181.533 Y132.799 E10.57187
G1 X180.291 Y134.975 E10.63956
G1 X178.637 Y138.109 E10.73529
G1 X178.127 Y139.128 E10.76608
G1 X177.865 Y139.618 E10.78109
G1 X177.436 Y140.371 E10.8045
G1 X176.999 Y141.071 E10.82679
G1 X176.415 Y141.91 E10.85441
G1 X175.839 Y142.651 E10.87977
G1 X175.53 Y143.021 E10.89279
G1 X174.939 Y143.682 E10.91674
G1 X174.542 Y144.095 E10.93222
G1 X174.221 Y144.41 E10.94437
G1 X173.48 Y145.084 E10.97143
G1 X172.762 Y145.678 E10.9966
G1 X171.99 Y146.256 E11.02266
G1 X171.193 Y146.792 E11.04861
G1 X170.731 Y147.079 E11.0633
G1 X170.308 Y147.326 E11.07653
G1 X169.525 Y147.747 E11.10055
G1 X169.023 Y147.993 E11.11565
G1 X168.166 Y148.372 E11.14097
G1 X167.725 Y148.549 E11.15381
G1 X167.204 Y148.743 E11.16882
G1 X166.296 Y149.04 E11.19463
G1 X165.395 Y149.287 E11.21987
G1 X164.441 Y149.502 E11.24629
G1 X163.525 Y149.66 E11.2714
G1 X163.03 Y149.726 E11.28489
G1 X162.071 Y149.82 E11.31093
G1 X161.55 Y149.852 E11.32503
G1 X160.256 Y149.896 E11.36001
G1 X158.659 Y149.936 E11.40316
G1 X156.19 Y150.066 E11.46996
G1 X153.686 Y150.271 E11.53783
G1 X151.162 Y150.551 E11.60644
G1 X148.661 Y150.899 E11.67465
G1 X146.167 Y151.318 E11.74297
G1 X143.874 Y151.757 E11.80605
G1 X143.166 Y151.872 E11.82542
G1 X142.273 Y151.985 E11.84974
G1 X141.088 Y152.076 E11.88185
G1 X140.43 Y152.097 E11.89963
G1 X139.9 Y152.101 E11.91395
G1 X138.952 Y152.072 E11.93958
G1 X138.44 Y152.041 E11.95343
G1 X137.912 Y151.994 E11.96775
G1 X137.379 Y151.933 E11.98225
G1 X136.8 Y151.852 E11.99804
G1 X136.256 Y151.761 E12.01294
G1 X135.709 Y151.656 E12.02799
G1 X135.183 Y151.54 E12.04254
G1 X134.259 Y151.299 E12.06834
G1 X133.711 Y151.136 E12.08378
G1 X133.194 Y150.969 E12.09846
G1 X132.683 Y150.788 E12.11311
G1 X131.743 Y150.416 E12.14042
G1 X130.809 Y149.995 E12.16809
G1 X130.329 Y149.756 E12.18258
G1 X129.821 Y149.489 E12.19808
G1 X129.334 Y149.214 E12.21319
G1 X128.454 Y148.676 E12.24106
G1 X127.622 Y148.108 E12.26827
G1 X126.795 Y147.487 E12.29621
G1 X126.424 Y147.186 E12.30912
G1 X125.583 Y146.448 E12.33935
G1 X125.2 Y146.086 E12.35358
G1 X124.478 Y145.357 E12.3813
G1 X123.988 Y144.812 E12.4011
G1 X123.552 Y144.297 E12.41933
G1 X123.173 Y143.821 E12.43577
G1 X122.698 Y143.186 E12.45719
G1 X122.434 Y142.813 E12.46954
G1 X122.051 Y142.23 E12.48838
G1 X121.724 Y141.697 E12.50528
G1 X121.465 Y141.249 E12.51926
G1 X121.148 Y140.668 E12.53714
G1 X120.863 Y140.108 E12.55411
G1 X120.628 Y139.607 E12.56906
G1 X120.415 Y139.125 E12.5833
G1 X120.081 Y138.306 E12.60719
G1 X119.275 Y136.177 E12.66869
G1 X118.328 Y133.86 E12.73631
G1 X117.295 Y131.529 E12.80519
G1 X116.209 Y129.251 E12.87337
G1 X115.081 Y127.052 E12.94014
G1 X113.855 Y124.813 E13.0091
G1 X112.572 Y122.624 E13.07765
G1 X111.488 Y120.867 E13.13342
G1 X111.236 Y120.442 E13.14677
G1 X110.903 Y119.842 E13.16531
G1 X110.37 Y118.766 E13.19775
G1 X110.081 Y118.119 E13.21689
G1 X109.71 Y117.18 E13.24417
G1 X109.395 Y116.256 E13.27054
G1 X109.235 Y115.72 E13.28565
G1 X109.044 Y114.992 E13.30598
G1 X108.832 Y114.051 E13.33204
G1 X108.696 Y113.327 E13.35194
G1 X108.565 Y112.39 E13.3775
G1 X108.469 Y111.352 E13.40567
G1 X108.431 Y110.501 E13.42868
G1 X108.422 Y109.888 E13.44524
G1 X108.429 Y109.297 E13.46121
G1 X108.474 Y108.434 E13.48455
G1 X108.515 Y107.937 E13.49803
G1 X108.574 Y107.384 E13.51305
G1 X108.644 Y106.871 E13.52704
G1 X108.787 Y106.024 E13.55024
G1 X108.914 Y105.42 E13.56692
G1 X109.126 Y104.538 E13.59142
G1 X109.345 Y103.758 E13.61331
G1 X109.515 Y103.235 E13.62817
G1 X109.712 Y102.684 E13.64398
G1 X110.165 Y101.546 E13.67707
G1 X110.416 Y100.988 E13.6936
G1 X110.659 Y100.488 E13.70861
G1 X110.913 Y99.999 E13.7235
G1 X111.21 Y99.461 E13.7401
G1 X111.519 Y98.939 E13.75649
G1 X112.075 Y98.078 E13.78418
G1 X112.643 Y97.284 E13.81055
G1 X113.268 Y96.493 E13.83779
M204 S3500
G0 F6000 X113.54 Y96.729
M204 S2500
G1 F1200 X114.134 Y96.044 E13.86228
G1 X114.502 Y95.648 E13.87689
G1 X114.908 Y95.235 E13.89253
G1 X115.613 Y94.57 E13.91872
G1 X116.288 Y93.987 E13.94281
G1 X116.706 Y93.649 E13.95733
G1 X117.194 Y93.279 E13.97388
G1 X119.683 Y91.501 E14.05651
G1 X121.707 Y89.974 E14.12501
G1 X123.671 Y88.403 E14.19295
G1 X125.602 Y86.766 E14.26134
G1 X127.487 Y85.075 E14.32976
G1 X129.341 Y83.316 E14.3988
G1 X131.099 Y81.548 E14.46616
G1 X132.832 Y79.706 E14.53448
G1 X134.975 Y77.278 E14.62197
G1 X135.801 Y76.309 E14.65637
G1 X136.482 Y75.567 E14.68358
G1 X137.041 Y75.01 E14.70489
G1 X137.463 Y74.626 E14.72031
