;FLAVOR:Marlin
;TIME:720
;Filament used: 0.23534m
;Layer height: 0.2
;MINX:128.61
;MINY:129.173
;MINZ:0.2
;MAXX:170.976
;MAXY:170.873
;MAXZ:11
;TARGET_MACHINE.NAME:Artillery Sidewinder X1
;Generated with Cura_SteamEngine 5.8.1
M104 S220
M105
M109 S220
M82 ;absolute extrusion mode
G28 ; home all axes
 M117 Purge extruder
 G92 E0 ; reset extruder
 G1 Z1.0 F3000 ; move z up little to prevent scratching of surface
 G1 X2 Y20 Z0.3 F5000.0 ; move to start-line position
 G1 X2 Y200.0 Z0.3 F1500.0 E15 ; draw 1st line
 G1 X2 Y200.0 Z0.4 F5000.0 ; move to side a little
 G1 X2 Y20 Z0.4 F1500.0 E30 ; draw 2nd line
 G92 E0 ; reset extruder
 G1 Z1.0 F3000 ; move z up little to prevent scratching of surface
G92 E0
G92 E0
;LAYER_COUNT:55
;LAYER:0
M107
G0 F9000 X132.647 Y136.871 Z0.2
;TYPE:SKIRT
G1 F1800 X133.332 Y136.212 E0.03794
G1 X133.688 Y135.901 E0.0568
G1 X134.734 Y135.093 E0.10956
G1 X135.215 Y134.769 E0.1327
G1 X136.294 Y134.132 E0.18271
G1 X136.682 Y133.933 E0.20012
G1 X137.382 Y133.603 E0.23101
G1 X138.064 Y133.314 E0.26057
G1 X139.518 Y132.719 E0.32327
G1 X142.988 Y131.152 E0.47523
G1 X144.537 Y130.415 E0.5437
G1 X145.444 Y130.034 E0.58296
G1 X146.289 Y129.757 E0.61846
G1 X147.344 Y129.492 E0.66187
G1 X147.959 Y129.372 E0.68688
G1 X148.854 Y129.239 E0.72299
G1 X150.098 Y129.173 E0.77271
G1 X150.761 Y129.177 E0.79918
G1 X151.737 Y129.226 E0.83818
G1 X152.418 Y129.311 E0.86557
G1 X152.841 Y129.378 E0.88266
G1 X153.878 Y129.594 E0.92494
G1 X154.274 Y129.697 E0.94127
G1 X155.56 Y130.116 E0.99526
G1 X155.895 Y130.248 E1.00963
G1 X157.238 Y130.884 E1.06894
G1 X157.952 Y131.293 E1.10178
G1 X160.717 Y132.989 E1.23124
G1 X162.923 Y134.255 E1.33276
G1 X163.652 Y134.664 E1.36612
G1 X164.195 Y134.991 E1.39142
G1 X164.556 Y135.222 E1.40852
G1 X165.332 Y135.77 E1.44644
G1 X166.207 Y136.519 E1.49241
G1 X166.731 Y137.018 E1.52129
G1 X167.434 Y137.753 E1.56188
G1 X168.092 Y138.582 E1.60412
G1 X168.468 Y139.109 E1.62996
G1 X169.203 Y140.287 E1.68538
G1 X169.327 Y140.517 E1.69581
G1 X169.894 Y141.745 E1.74979
G1 X170.049 Y142.143 E1.76684
G1 X170.388 Y143.17 E1.81001
G1 X170.539 Y143.722 E1.83285
G1 X170.807 Y144.998 E1.88489
G1 X170.854 Y145.314 E1.89764
G1 X170.97 Y146.746 E1.95498
G1 X170.976 Y147.139 E1.97067
G1 X170.947 Y148.13 E2.01024
G1 X170.845 Y149.432 E2.06236
G1 X170.714 Y150.734 E2.11459
G1 X170.533 Y153.238 E2.21479
G1 X170.422 Y155.779 E2.3163
G1 X170.402 Y156.582 E2.34836
G1 X170.375 Y157.169 E2.37182
G1 X170.319 Y157.892 E2.40076
G1 X170.193 Y158.896 E2.44115
G1 X169.998 Y159.813 E2.47856
G1 X169.889 Y160.235 E2.49596
G1 X169.449 Y161.574 E2.55221
G1 X169.303 Y161.938 E2.56787
G1 X168.882 Y162.848 E2.60788
G1 X168.604 Y163.383 E2.63195
G1 X168.115 Y164.229 E2.67095
G1 X167.697 Y164.841 E2.70053
G1 X167.169 Y165.529 E2.73514
G1 X166.87 Y165.887 E2.75376
G1 X166.21 Y166.609 E2.7928
G1 X165.705 Y167.085 E2.8205
G1 X165.329 Y167.416 E2.84049
G1 X164.26 Y168.243 E2.89444
G1 X163.825 Y168.535 E2.91535
G1 X162.833 Y169.126 E2.96143
G1 X162.451 Y169.325 E2.97862
G1 X161.569 Y169.739 E3.01751
G1 X161.012 Y169.953 E3.04133
G1 X160.537 Y170.121 E3.06144
G1 X159.315 Y170.474 E3.1122
G1 X158.909 Y170.565 E3.12881
G1 X157.941 Y170.739 E3.16806
G1 X156.983 Y170.832 E3.20648
G1 X155.978 Y170.873 E3.24662
G1 X154.671 Y170.809 E3.29885
G1 X154.152 Y170.755 E3.31968
G1 X153.185 Y170.606 E3.35873
G1 X152.38 Y170.419 E3.39171
G1 X151.529 Y170.172 E3.42708
G1 X151.16 Y170.048 E3.44262
G1 X150.246 Y169.693 E3.48175
G1 X149.342 Y169.26 E3.52176
G1 X148.292 Y168.664 E3.56995
G1 X147.972 Y168.458 E3.58514
G1 X147.332 Y168.01 E3.61632
G1 X146.895 Y167.676 E3.63827
G1 X145.163 Y166.292 E3.72676
G1 X143.153 Y164.778 E3.82719
G1 X141.054 Y163.28 E3.93011
G1 X139.561 Y162.131 E4.00531
G1 X137.543 Y160.645 E4.10533
G1 X134.942 Y158.847 E4.23153
G1 X134.133 Y158.241 E4.27187
G1 X133.371 Y157.594 E4.31177
G1 X132.943 Y157.193 E4.33518
G1 X132.261 Y156.491 E4.37424
G1 X131.814 Y155.955 E4.4021
G1 X131.525 Y155.583 E4.4209
G1 X130.82 Y154.566 E4.47029
G1 X130.605 Y154.212 E4.48682
G1 X130.137 Y153.362 E4.52555
G1 X129.913 Y152.882 E4.54669
G1 X129.713 Y152.422 E4.56671
G1 X129.297 Y151.29 E4.61484
G1 X129.152 Y150.807 E4.63497
G1 X128.911 Y149.852 E4.67428
G1 X128.774 Y149.026 E4.7077
G1 X128.69 Y148.327 E4.7358
G1 X128.61 Y146.928 E4.79173
G1 X128.612 Y146.626 E4.80378
G1 X128.64 Y145.935 E4.83138
G1 X128.67 Y145.53 E4.84759
G1 X128.789 Y144.547 E4.88711
G1 X128.995 Y143.573 E4.92685
G1 X129.119 Y143.094 E4.9466
G1 X129.549 Y141.78 E5.00178
G1 X129.702 Y141.398 E5.0182
G1 X130.117 Y140.492 E5.05797
G1 X130.37 Y140.002 E5.07998
G1 X130.879 Y139.118 E5.1207
G1 X131.506 Y138.234 E5.16395
G1 X131.995 Y137.618 E5.19534
G1 X132.647 Y136.871 E5.23492
G0 F9000 X132.98 Y137.217
G1 F1800 X133.648 Y136.573 E5.27195
G1 X133.981 Y136.281 E5.28963
G1 X135.027 Y135.473 E5.34238
G1 X135.459 Y135.182 E5.36317
G1 X136.513 Y134.559 E5.41204
G1 X136.887 Y134.367 E5.42882
G1 X137.57 Y134.045 E5.45895
G1 X138.246 Y133.758 E5.48827
G1 X139.7 Y133.163 E5.55097
G1 X143.186 Y131.589 E5.70363
G1 X144.724 Y130.857 E5.77161
G1 X145.594 Y130.49 E5.8093
G1 X146.406 Y130.223 E5.84341
G1 X147.461 Y129.958 E5.88683
G1 X148.03 Y129.847 E5.90997
G1 X148.925 Y129.714 E5.94608
G1 X150.096 Y129.653 E5.99288
G1 X150.738 Y129.656 E6.0185
G1 X151.678 Y129.702 E6.05607
G1 X152.343 Y129.785 E6.08281
G1 X152.743 Y129.848 E6.09898
G1 X153.757 Y130.059 E6.14031
G1 X154.153 Y130.162 E6.15665
G1 X155.384 Y130.563 E6.20832
G1 X155.719 Y130.695 E6.22269
G1 X157 Y131.301 E6.27925
G1 X157.701 Y131.702 E6.31148
G1 X160.469 Y133.4 E6.44109
G1 X162.688 Y134.674 E6.54321
G1 X163.417 Y135.083 E6.57658
G1 X163.936 Y135.395 E6.60074
G1 X164.28 Y135.615 E6.61704
G1 X165.02 Y136.135 E6.65314
G1 X165.876 Y136.867 E6.69809
G1 X166.4 Y137.366 E6.72697
G1 X167.058 Y138.052 E6.76491
G1 X167.701 Y138.861 E6.80616
G1 X168.077 Y139.388 E6.832
G1 X168.78 Y140.515 E6.88501
G1 X168.904 Y140.745 E6.89544
G1 X169.447 Y141.92 E6.9471
G1 X169.593 Y142.294 E6.96313
G1 X169.925 Y143.297 E7.00529
G1 X170.069 Y143.821 E7.02698
G1 X170.332 Y145.069 E7.07789
G1 X170.379 Y145.385 E7.09064
G1 X170.49 Y146.754 E7.14546
G1 X170.496 Y147.125 E7.16027
G1 X170.468 Y148.093 E7.19892
G1 X170.367 Y149.384 E7.2506
G1 X170.236 Y150.686 E7.30283
G1 X170.054 Y153.203 E7.40355
G1 X169.942 Y155.758 E7.50562
G1 X169.923 Y156.559 E7.5376
G1 X169.896 Y157.132 E7.5605
G1 X169.84 Y157.855 E7.58944
G1 X169.724 Y158.796 E7.62728
G1 X169.533 Y159.693 E7.66389
G1 X169.424 Y160.115 E7.68128
G1 X168.993 Y161.424 E7.73629
G1 X168.867 Y161.737 E7.74975
G1 X168.456 Y162.627 E7.78888
G1 X168.188 Y163.143 E7.81209
G1 X167.718 Y163.959 E7.84967
G1 X167.316 Y164.549 E7.87817
G1 X166.8 Y165.222 E7.91201
G1 X166.515 Y165.564 E7.92978
G1 X165.881 Y166.26 E7.96736
G1 X165.388 Y166.725 E7.99441
G1 X165.035 Y167.036 E8.01318
G1 X163.966 Y167.863 E8.06713
G1 X163.579 Y168.123 E8.08573
G1 X162.61 Y168.701 E8.13077
G1 X162.247 Y168.891 E8.14712
G1 X161.397 Y169.291 E8.18461
G1 X160.852 Y169.5 E8.20791
G1 X160.377 Y169.668 E8.22802
G1 X159.209 Y170.006 E8.27655
G1 X158.824 Y170.093 E8.2923
G1 X157.894 Y170.261 E8.33002
G1 X156.962 Y170.352 E8.3674
G1 X156.001 Y170.394 E8.40579
G1 X154.721 Y170.332 E8.45694
G1 X154.224 Y170.28 E8.47688
G1 X153.293 Y170.138 E8.51447
G1 X152.514 Y169.958 E8.54638
G1 X151.682 Y169.717 E8.58095
G1 X151.333 Y169.6 E8.59564
G1 X150.453 Y169.26 E8.6333
G1 X149.579 Y168.842 E8.67196
G1 X148.552 Y168.26 E8.71908
G1 X148.232 Y168.054 E8.73427
G1 X147.624 Y167.629 E8.76388
G1 X147.195 Y167.301 E8.78543
G1 X145.463 Y165.917 E8.87392
G1 X143.432 Y164.387 E8.9754
G1 X141.347 Y162.9 E9.07762
G1 X139.854 Y161.751 E9.15281
G1 X137.816 Y160.25 E9.25383
G1 X135.23 Y158.463 E9.37929
G1 X134.444 Y157.875 E9.41847
G1 X133.682 Y157.228 E9.45837
G1 X133.287 Y156.858 E9.47997
G1 X132.629 Y156.183 E9.51759
G1 X132.192 Y155.66 E9.54479
G1 X131.919 Y155.31 E9.56251
G1 X131.23 Y154.316 E9.61078
G1 X131.025 Y153.98 E9.62649
G1 X130.572 Y153.159 E9.66391
G1 X130.353 Y152.69 E9.68457
G1 X130.164 Y152.256 E9.70347
G1 X129.748 Y151.124 E9.7516
G1 X129.617 Y150.689 E9.76973
G1 X129.385 Y149.773 E9.80745
G1 X129.248 Y148.947 E9.84086
G1 X129.169 Y148.299 E9.86692
G1 X129.09 Y146.931 E9.92161
G1 X129.092 Y146.645 E9.93302
G1 X129.119 Y145.97 E9.95999
G1 X129.147 Y145.587 E9.97531
G1 X129.259 Y144.646 E10.01314
G1 X129.46 Y143.693 E10.05201
G1 X129.584 Y143.214 E10.07176
G1 X130.005 Y141.929 E10.12573
G1 X130.138 Y141.598 E10.13996
G1 X130.544 Y140.712 E10.17886
G1 X130.797 Y140.222 E10.20087
G1 X131.271 Y139.396 E10.23888
G1 X131.898 Y138.512 E10.28214
G1 X132.357 Y137.933 E10.31163
G1 X132.98 Y137.217 E10.34951
G0 F9000 X133.313 Y137.563
G1 F1800 X133.981 Y136.919 E10.38654
G1 X134.274 Y136.661 E10.40212
G1 X135.32 Y135.853 E10.45488
G1 X135.703 Y135.595 E10.47331
G1 X136.733 Y134.986 E10.52107
G1 X137.092 Y134.801 E10.53719
G1 X137.758 Y134.487 E10.56657
G1 X138.428 Y134.202 E10.59563
G1 X139.882 Y133.607 E10.65834
G1 X143.384 Y132.026 E10.81169
G1 X144.911 Y131.299 E10.87919
G1 X145.745 Y130.946 E10.91534
G1 X146.523 Y130.689 E10.94804
G1 X147.578 Y130.424 E10.99146
G1 X148.101 Y130.322 E11.01272
G1 X148.996 Y130.189 E11.04884
G1 X150.094 Y130.133 E11.09272
G1 X150.715 Y130.135 E11.1175
G1 X151.619 Y130.178 E11.15363
G1 X152.269 Y130.259 E11.17977
G1 X152.645 Y130.318 E11.19496
G1 X153.636 Y130.524 E11.23536
G1 X154.032 Y130.627 E11.25169
G1 X155.208 Y131.01 E11.30105
G1 X155.543 Y131.142 E11.31542
G1 X156.762 Y131.718 E11.36923
G1 X157.45 Y132.111 E11.40086
G1 X160.221 Y133.811 E11.53061
G1 X162.453 Y135.093 E11.63334
G1 X163.17 Y135.495 E11.66615
G1 X163.677 Y135.799 E11.68974
G1 X164.004 Y136.008 E11.70523
G1 X164.744 Y136.528 E11.74133
G1 X165.545 Y137.215 E11.78345
G1 X166.054 Y137.699 E11.81148
G1 X166.682 Y138.351 E11.84761
G1 X167.325 Y139.16 E11.88886
G1 X167.67 Y139.642 E11.91252
G1 X168.357 Y140.743 E11.96431
G1 X168.481 Y140.973 E11.97474
G1 X169.011 Y142.121 E12.02521
G1 X169.137 Y142.445 E12.03908
G1 X169.462 Y143.425 E12.08029
G1 X169.599 Y143.92 E12.10079
G1 X169.862 Y145.168 E12.1517
G1 X169.904 Y145.455 E12.16327
G1 X170.01 Y146.762 E12.21561
G1 X170.016 Y147.111 E12.22954
G1 X169.989 Y148.056 E12.26727
G1 X169.889 Y149.336 E12.31852
G1 X169.758 Y150.638 E12.37074
G1 X169.575 Y153.168 E12.47199
G1 X169.462 Y155.737 E12.57462
G1 X169.444 Y156.536 E12.60652
G1 X169.417 Y157.095 E12.62885
G1 X169.363 Y157.797 E12.65695
G1 X169.254 Y158.696 E12.6931
G1 X169.068 Y159.573 E12.72888
G1 X168.959 Y159.995 E12.74628
G1 X168.537 Y161.274 E12.80003
G1 X168.431 Y161.536 E12.81131
G1 X168.03 Y162.406 E12.84955
G1 X167.772 Y162.904 E12.87193
G1 X167.321 Y163.689 E12.90806
G1 X166.935 Y164.257 E12.93547
G1 X166.431 Y164.915 E12.96855
G1 X166.16 Y165.241 E12.98547
G1 X165.552 Y165.911 E13.02158
G1 X165.07 Y166.365 E13.04801
G1 X164.741 Y166.656 E13.06554
G1 X163.672 Y167.483 E13.11949
G1 X163.333 Y167.711 E13.13579
G1 X162.386 Y168.276 E13.1798
G1 X162.042 Y168.457 E13.19532
G1 X161.224 Y168.843 E13.23142
G1 X160.692 Y169.048 E13.25417
G1 X160.243 Y169.207 E13.27319
G1 X159.102 Y169.538 E13.3206
G1 X158.738 Y169.621 E13.3355
G1 X157.847 Y169.783 E13.37165
G1 X156.915 Y169.874 E13.40902
G1 X156.024 Y169.915 E13.44462
G1 X154.771 Y169.855 E13.49469
G1 X154.296 Y169.805 E13.51375
G1 X153.401 Y169.67 E13.54988
G1 X152.622 Y169.49 E13.58179
G1 X151.834 Y169.262 E13.61453
G1 X151.505 Y169.152 E13.62838
G1 X150.66 Y168.827 E13.66451
G1 X149.816 Y168.424 E13.70184
G1 X148.789 Y167.842 E13.74895
G1 X148.507 Y167.66 E13.76235
G1 X147.916 Y167.248 E13.7911
G1 X147.495 Y166.926 E13.81226
G1 X145.763 Y165.542 E13.90074
G1 X143.711 Y163.996 E14.00329
G1 X141.634 Y162.515 E14.1051
G1 X141.3 Y162.266 E14.12173
G1 X140.139 Y161.365 E14.18038
G1 X138.089 Y159.855 E14.282
G1 X135.517 Y158.078 E14.40678
G1 X134.755 Y157.509 E14.44473
G1 X133.993 Y156.862 E14.48463
G1 X133.63 Y156.522 E14.50448
G1 X132.997 Y155.875 E14.54061
G1 X132.57 Y155.364 E14.56719
G1 X132.313 Y155.036 E14.58382
G1 X131.639 Y154.065 E14.63099
G1 X131.445 Y153.748 E14.64583
G1 X131.007 Y152.956 E14.68195
G1 X130.793 Y152.498 E14.70212
G1 X130.615 Y152.09 E14.71989
G1 X130.199 Y150.958 E14.76803
G1 X130.082 Y150.571 E14.78416
G1 X129.859 Y149.694 E14.82028
G1 X129.722 Y148.868 E14.8537
G1 X129.648 Y148.271 E14.87771
G1 X129.57 Y146.935 E14.93112
G1 X129.572 Y146.664 E14.94194
G1 X129.598 Y146.004 E14.9683
G1 X129.624 Y145.643 E14.98274
G1 X129.729 Y144.745 E15.01883
G1 X129.925 Y143.813 E15.05684
G1 X130.049 Y143.334 E15.07659
G1 X130.461 Y142.079 E15.12931
G1 X130.574 Y141.798 E15.1414
G1 X130.971 Y140.932 E15.17942
G1 X131.214 Y140.46 E15.20061
G1 X131.663 Y139.674 E15.23674
G1 X132.29 Y138.79 E15.27999
G1 X132.72 Y138.247 E15.30764
G1 X133.313 Y137.563 E15.34377
;MESH:K_rper_18(4)
G0 F9000 X144.631 Y149.498
;TYPE:WALL-OUTER
G1 F1270.6 X144.17 Y149.735 E15.37308
G1 X143.731 Y149.864 E15.39895
G1 X143.485 Y149.912 E15.41312
G1 X143.12 Y149.94 E15.43382
G1 X142.736 Y149.925 E15.45555
G1 X142.366 Y149.862 E15.47677
G1 X142.081 Y149.781 E15.49352
G1 X141.716 Y149.636 E15.51573
G1 X141.327 Y149.411 E15.54114
G1 X141.104 Y149.244 E15.55689
G1 X140.703 Y148.857 E15.5884
G1 X140.368 Y148.365 E15.62206
G1 X140.213 Y148.022 E15.64334
G1 X140.093 Y147.647 E15.6656
G1 X140.024 Y147.295 E15.68588
G1 X140.002 Y147.037 E15.70053
G1 X140 Y146.743 E15.71715
G1 X140.051 Y146.279 E15.74354
G1 X140.179 Y145.853 E15.76869
G1 X140.297 Y145.572 E15.78593
G1 X140.449 Y145.297 E15.80369
G1 X140.614 Y145.054 E15.8203
G1 X140.859 Y144.764 E15.84177
G1 X141.211 Y144.455 E15.86825
G1 X141.441 Y144.297 E15.88403
G1 X141.861 Y144.076 E15.91086
G1 X142.204 Y143.959 E15.93135
G1 X142.513 Y143.889 E15.94927
G1 X142.822 Y143.848 E15.96689
G1 X143.193 Y143.843 E15.98787
G1 X143.582 Y143.891 E16.01003
G1 X143.87 Y143.955 E16.02671
G1 X144.233 Y144.08 E16.04842
G1 X144.559 Y144.241 E16.06898
G1 X144.832 Y144.419 E16.08741
G1 X145.055 Y144.595 E16.10347
G1 X145.282 Y144.812 E16.12123
G1 X145.474 Y145.045 E16.1383
G1 X145.793 Y145.537 E16.17145
G1 X145.965 Y145.994 E16.19906
G1 X146.034 Y146.287 E16.21608
G1 X146.088 Y146.663 E16.23756
G1 X146.092 Y147.028 E16.2582
G1 X146.062 Y147.343 E16.27609
G1 X145.983 Y147.721 E16.29792
G1 X145.859 Y148.07 E16.31887
G1 X145.722 Y148.352 E16.33659
G1 X145.497 Y148.722 E16.36108
G1 X145.181 Y149.069 E16.38761
G1 X144.947 Y149.276 E16.40528
G1 X144.631 Y149.498 E16.42712
;MESH:K_rper_18(1)
G0 F9000 X145.061 Y150.244
G0 X145.675 Y152.269
G0 X146.593 Y152.411
G1 F1270.6 X146.527 Y152.124 E16.44377
G1 X146.488 Y151.814 E16.46143
G1 X146.483 Y151.446 E16.48224
G1 X146.535 Y150.989 E16.50825
G1 X146.678 Y150.48 E16.53814
G1 X146.882 Y150.075 E16.56378
G1 X147.051 Y149.813 E16.58141
G1 X147.245 Y149.569 E16.59904
G1 X147.523 Y149.29 E16.62131
G1 X147.801 Y149.08 E16.64101
G1 X148.184 Y148.842 E16.6665
G1 X148.634 Y148.671 E16.69372
G1 X148.924 Y148.602 E16.71058
G1 X149.299 Y148.548 E16.732
G1 X149.678 Y148.544 E16.75343
G1 X150.047 Y148.583 E16.77441
G1 X150.36 Y148.653 E16.79255
G1 X150.769 Y148.802 E16.81716
G1 X151.124 Y148.991 E16.8399
G1 X151.423 Y149.197 E16.86043
G1 X151.708 Y149.456 E16.8822
G1 X151.916 Y149.693 E16.90003
G1 X152.121 Y149.98 E16.91997
G1 X152.375 Y150.467 E16.95103
G1 X152.533 Y151.012 E16.98311
G1 X152.58 Y151.51 E17.0114
G1 X152.562 Y151.975 E17.03771
G1 X152.448 Y152.488 E17.06742
G1 X152.273 Y152.92 E17.09378
G1 X152.05 Y153.309 E17.11913
G1 X151.814 Y153.611 E17.1408
G1 X151.552 Y153.874 E17.16179
G1 X151.246 Y154.108 E17.18357
G1 X150.915 Y154.307 E17.20541
G1 X150.576 Y154.454 E17.2263
G1 X150.284 Y154.543 E17.24356
G1 X149.935 Y154.612 E17.26368
G1 X149.537 Y154.646 E17.28626
G1 X148.927 Y154.587 E17.32092
G1 X148.419 Y154.433 E17.35093
G1 X148.004 Y154.237 E17.37688
G1 X147.686 Y154.016 E17.39878
G1 X147.403 Y153.777 E17.41972
G1 X147.092 Y153.424 E17.44632
G1 X146.936 Y153.196 E17.46194
G1 X146.717 Y152.779 E17.48857
G1 X146.593 Y152.411 E17.51053
;MESH:K_rper_18(2)
G0 F9000 X149.835 Y140.593
G1 F1270.6 X149.366 Y140.728 E17.53813
G1 X149.124 Y140.823 E17.55283
