;FLAVOR:Marlin
;TIME:2465
;Filament used: 1.87004m
;Layer height: 0.25
;MINX:107.821
;MINY:68.263
;MINZ:0.2
;MAXX:192.173
;MAXY:152.391
;MAXZ:12.95
;TARGET_MACHINE.NAME:Artillery Sidewinder X1
;Generated with Cura_SteamEngine 5.8.1
M104 S195
M105
M109 S195
M82 ;absolute extrusion mode
G28 ; home all axes
 M117 Purge extruder
 G92 E0 ; reset extruder
 G1 Z1.0 F3000 ; move z up little to prevent scratching of surface
 G1 X2 Y20 Z0.3 F5000.0 ; move to start-line position
 G1 X2 Y200.0 Z0.3 F1500.0 E15 ; draw 1st line
 G1 X2 Y200.0 Z0.4 F5000.0 ; move to side a little
 G1 X2 Y20 Z0.4 F1500.0 E30 ; draw 2nd line
 G92 E0 ; reset extruder
 G1 Z1.0 F3000 ; move z up little to prevent scratching of surface
G92 E0
G92 E0
G1 F2400 E-6
;LAYER_COUNT:52
;LAYER:0
M107
M204 S3500
G0 F6000 X113.065 Y95.805 Z0.2
M204 S2500
;TYPE:SKIRT
G1 F2400 E0
G1 F1200 X113.772 Y95.027 E0.03322
G1 X114.206 Y94.585 E0.05279
G1 X114.723 Y94.087 E0.07547
G1 X115.316 Y93.549 E0.10077
G1 X116.147 Y92.868 E0.13472
G1 X116.647 Y92.49 E0.15452
G1 X118.905 Y90.884 E0.24208
G1 X120.917 Y89.376 E0.32152
G1 X122.852 Y87.835 E0.39968
G1 X124.786 Y86.206 E0.47958
G1 X126.64 Y84.55 E0.55813
G1 X128.489 Y82.805 E0.63846
G1 X130.269 Y81.024 E0.71802
G1 X131.965 Y79.23 E0.79603
G1 X134.228 Y76.677 E0.90383
G1 X135.1 Y75.654 E0.9463
G1 X135.792 Y74.9 E0.97864
G1 X136.398 Y74.296 E1.00567
G1 X136.829 Y73.902 E1.02412
G1 X137.507 Y73.313 E1.0525
G1 X138.175 Y72.769 E1.07972
G1 X138.618 Y72.431 E1.09733
G1 X138.963 Y72.184 E1.11073
G1 X139.681 Y71.701 E1.13807
G1 X140.258 Y71.344 E1.15951
G1 X140.966 Y70.938 E1.1853
G1 X141.674 Y70.565 E1.21059
G1 X142.332 Y70.25 E1.23364
G1 X142.92 Y69.991 E1.25394
G1 X143.727 Y69.666 E1.28143
G1 X144.264 Y69.469 E1.2995
G1 X145.212 Y69.17 E1.33091
G1 X146.206 Y68.901 E1.36345
G1 X146.805 Y68.759 E1.3829
G1 X147.277 Y68.66 E1.39814
G1 X147.877 Y68.55 E1.41741
G1 X148.65 Y68.441 E1.44208
G1 X149.291 Y68.366 E1.46247
G1 X149.906 Y68.316 E1.48197
G1 X150.469 Y68.283 E1.49979
G1 X150.991 Y68.267 E1.51629
G1 X151.537 Y68.263 E1.53354
G1 X152.235 Y68.283 E1.5556
G1 X153.026 Y68.328 E1.58064
G1 X153.724 Y68.389 E1.60278
G1 X154.501 Y68.493 E1.62755
G1 X155.182 Y68.603 E1.64934
G1 X155.862 Y68.737 E1.67124
G1 X156.759 Y68.943 E1.70032
G1 X157.599 Y69.171 E1.72782
G1 X158.558 Y69.489 E1.75975
G1 X159.344 Y69.783 E1.78626
G1 X159.99 Y70.048 E1.80833
G1 X160.442 Y70.251 E1.82398
G1 X161.154 Y70.595 E1.84897
G1 X162.163 Y71.141 E1.88522
G1 X162.714 Y71.467 E1.90545
G1 X163.239 Y71.798 E1.92506
G1 X163.775 Y72.159 E1.94548
G1 X164.407 Y72.62 E1.97019
G1 X164.896 Y72.998 E1.98972
G1 X165.449 Y73.456 E2.01241
G1 X166.129 Y74.062 E2.04119
G1 X166.731 Y74.645 E2.06767
G1 X167.081 Y75.006 E2.08356
G1 X167.487 Y75.447 E2.1025
G1 X168.161 Y76.235 E2.13526
G1 X168.447 Y76.591 E2.14969
G1 X169.002 Y77.337 E2.17907
G1 X169.28 Y77.738 E2.19449
G1 X170.259 Y79.22 E2.25061
G1 X170.617 Y79.778 E2.27156
G1 X172.024 Y81.839 E2.35041
G1 X173.489 Y83.861 E2.4293
G1 X175.009 Y85.837 E2.50807
G1 X176.594 Y87.784 E2.5874
G1 X178.218 Y89.667 E2.66597
G1 X179.933 Y91.54 E2.74621
G1 X181.671 Y93.339 E2.82525
G1 X183.5 Y95.126 E2.90605
G1 X185.055 Y96.567 E2.97303
G1 X185.714 Y97.164 E3.00113
G1 X186.116 Y97.547 E3.01867
G1 X186.751 Y98.197 E3.04739
G1 X187.421 Y98.953 E3.0793
G1 X188.03 Y99.712 E3.11005
G1 X188.322 Y100.104 E3.1255
G1 X188.657 Y100.582 E3.14394
G1 X188.96 Y101.039 E3.16127
G1 X189.337 Y101.648 E3.1839
G1 X189.683 Y102.268 E3.20633
G1 X190.172 Y103.215 E3.24001
G1 X190.562 Y104.057 E3.26933
G1 X190.898 Y104.903 E3.29809
G1 X191.246 Y105.917 E3.33196
G1 X191.517 Y106.858 E3.3629
G1 X191.637 Y107.345 E3.37875
G1 X191.834 Y108.274 E3.40876
G1 X191.991 Y109.252 E3.44006
G1 X192.058 Y109.793 E3.45728
G1 X192.141 Y110.775 E3.48842
G1 X192.162 Y111.244 E3.50325
G1 X192.173 Y112.268 E3.53561
G1 X192.141 Y113.055 E3.5605
G1 X192.068 Y113.994 E3.59026
G1 X191.961 Y114.89 E3.61877
G1 X191.803 Y115.822 E3.64864
G1 X191.609 Y116.712 E3.67742
G1 X191.326 Y117.77 E3.71203
G1 X191.204 Y118.159 E3.72491
G1 X190.924 Y118.955 E3.75157
G1 X190.537 Y119.923 E3.78451
G1 X190.106 Y120.868 E3.81733
G1 X189.732 Y121.592 E3.84308
G1 X189.352 Y122.267 E3.86755
G1 X188.795 Y123.151 E3.90057
G1 X188.252 Y123.926 E3.93047
G1 X187.68 Y124.685 E3.9605
G1 X186.132 Y126.8 E4.04331
G1 X184.721 Y128.848 E4.12189
G1 X183.362 Y130.942 E4.20077
G1 X182.05 Y133.092 E4.28035
G1 X180.815 Y135.259 E4.35916
G1 X179.619 Y137.497 E4.43934
G1 X178.583 Y139.554 E4.51212
G1 X178.3 Y140.089 E4.53124
G1 X178 Y140.61 E4.55024
G1 X177.736 Y141.038 E4.56613
G1 X177.261 Y141.759 E4.59341
G1 X176.904 Y142.258 E4.61279
G1 X176.282 Y143.059 E4.64484
G1 X175.641 Y143.805 E4.67592
G1 X174.914 Y144.573 E4.70933
G1 X174.232 Y145.222 E4.73908
G1 X173.845 Y145.562 E4.75535
G1 X173.134 Y146.149 E4.78449
G1 X172.68 Y146.494 E4.8025
G1 X171.915 Y147.037 E4.83215
G1 X171.533 Y147.288 E4.84659
G1 X171.045 Y147.59 E4.86472
G1 X170.6 Y147.85 E4.88101
G1 X169.791 Y148.285 E4.91003
G1 X169.257 Y148.546 E4.92881
G1 X168.365 Y148.939 E4.95961
G1 X167.442 Y149.296 E4.99088
G1 X166.977 Y149.456 E5.00642
G1 X166.01 Y149.747 E5.03832
G1 X165.076 Y149.979 E5.06873
G1 X164.53 Y150.094 E5.08636
G1 X163.593 Y150.256 E5.11641
G1 X163.122 Y150.322 E5.13144
G1 X162.538 Y150.384 E5.14999
G1 X161.561 Y150.453 E5.18094
G1 X160.845 Y150.475 E5.20357
G1 X158.037 Y150.516 E5.29231
G1 X155.469 Y150.625 E5.37352
G1 X153.009 Y150.799 E5.45145
G1 X150.557 Y151.042 E5.5293
G1 X148.057 Y151.362 E5.60894
G1 X143.195 Y152.163 E5.76464
G1 X142.361 Y152.272 E5.79121
G1 X141.756 Y152.325 E5.8104
G1 X140.713 Y152.383 E5.84341
G1 X140.052 Y152.391 E5.8643
G1 X139.057 Y152.37 E5.89574
G1 X138.645 Y152.349 E5.90878
G1 X137.739 Y152.27 E5.93751
G1 X137.165 Y152.199 E5.95579
G1 X136.512 Y152.1 E5.97666
G1 X135.757 Y151.963 E6.0009
G1 X135.225 Y151.849 E6.01809
G1 X134.733 Y151.729 E6.03409
G1 X134.046 Y151.538 E6.05662
G1 X133.171 Y151.264 E6.0856
G1 X132.516 Y151.039 E6.10748
G1 X131.641 Y150.692 E6.13722
G1 X131.136 Y150.47 E6.15465
G1 X130.179 Y150.01 E6.1882
G1 X129.721 Y149.768 E6.20457
G1 X128.791 Y149.231 E6.2385
G1 X128.341 Y148.95 E6.25526
G1 X127.885 Y148.649 E6.27253
G1 X127.421 Y148.324 E6.29043
G1 X126.619 Y147.718 E6.32219
G1 X126.212 Y147.39 E6.33871
G1 X125.782 Y147.023 E6.35657
G1 X125.371 Y146.654 E6.37402
G1 X124.988 Y146.291 E6.39069
G1 X124.609 Y145.913 E6.40761
G1 X124.192 Y145.477 E6.42667
G1 X123.798 Y145.04 E6.44526
G1 X123.183 Y144.31 E6.47542
G1 X122.849 Y143.882 E6.49258
G1 X122.542 Y143.468 E6.50886
G1 X122.192 Y142.971 E6.52807
G1 X121.812 Y142.394 E6.5499
G1 X121.431 Y141.771 E6.57297
G1 X121.016 Y141.038 E6.59959
G1 X120.668 Y140.375 E6.62325
G1 X120.243 Y139.458 E6.65518
G1 X119.972 Y138.819 E6.67711
G1 X118.708 Y135.674 E6.78421
G1 X117.724 Y133.426 E6.86175
G1 X116.658 Y131.163 E6.94079
G1 X115.511 Y128.898 E7.02101
G1 X114.325 Y126.711 E7.09962
G1 X113.055 Y124.521 E7.17961
G1 X111.685 Y122.3 E7.26207
G1 X111.167 Y121.49 E7.29245
G1 X110.921 Y121.085 E7.30742
G1 X110.544 Y120.433 E7.33122
G1 X110.173 Y119.734 E7.35622
G1 X109.803 Y118.969 E7.38307
G1 X109.532 Y118.363 E7.40405
G1 X109.151 Y117.4 E7.43677
G1 X108.974 Y116.896 E7.45365
G1 X108.687 Y115.99 E7.48368
G1 X108.551 Y115.493 E7.49996
G1 X108.357 Y114.689 E7.52609
G1 X108.226 Y114.076 E7.5459
G1 X108.11 Y113.446 E7.56614
G1 X108.032 Y112.938 E7.58238
G1 X107.938 Y112.146 E7.60758
G1 X107.858 Y111.136 E7.63959
G1 X107.826 Y110.374 E7.66369
G1 X107.821 Y109.774 E7.68265
G1 X107.833 Y109.222 E7.70009
G1 X107.88 Y108.331 E7.72829
G1 X107.93 Y107.764 E7.74627
G1 X108.045 Y106.82 E7.77632
G1 X108.137 Y106.246 E7.79469
G1 X108.291 Y105.464 E7.81987
G1 X108.47 Y104.687 E7.84507
G1 X108.61 Y104.142 E7.86285
G1 X108.852 Y103.325 E7.88977
G1 X109.02 Y102.82 E7.90659
G1 X109.277 Y102.12 E7.93015
G1 X109.767 Y100.961 E7.96991
G1 X110.063 Y100.332 E7.99187
G1 X110.519 Y99.462 E8.02291
G1 X111.004 Y98.632 E8.05328
G1 X111.3 Y98.162 E8.07083
G1 X111.627 Y97.67 E8.0895
G1 X112.164 Y96.925 E8.11852
G1 X112.519 Y96.466 E8.13685
G1 X113.065 Y95.805 E8.16394
M204 S3500
G0 F6000 X113.361 Y96.074
M204 S2500
G1 F1200 X114.057 Y95.307 E8.19667
G1 X114.483 Y94.873 E8.21588
G1 X114.992 Y94.383 E8.23821
G1 X115.57 Y93.858 E8.26288
G1 X116.388 Y93.187 E8.29631
G1 X116.879 Y92.816 E8.31575
G1 X119.137 Y91.21 E8.40331
G1 X121.157 Y89.696 E8.48307
G1 X123.11 Y88.141 E8.56195
G1 X125.044 Y86.512 E8.64185
G1 X126.915 Y84.841 E8.72111
G1 X128.764 Y83.096 E8.80144
G1 X130.552 Y81.307 E8.88136
G1 X132.256 Y79.505 E8.95973
G1 X134.533 Y76.936 E9.0682
G1 X135.395 Y75.924 E9.1102
G1 X136.074 Y75.183 E9.14196
G1 X136.668 Y74.591 E9.16845
G1 X137.091 Y74.204 E9.18657
G1 X137.76 Y73.623 E9.21457
G1 X138.418 Y73.087 E9.24138
G1 X138.851 Y72.756 E9.2586
G1 X139.186 Y72.516 E9.27162
G1 X139.892 Y72.041 E9.29851
G1 X140.457 Y71.691 E9.31951
G1 X141.152 Y71.292 E9.34483
G1 X141.847 Y70.926 E9.36965
G1 X142.493 Y70.616 E9.39229
G1 X143.069 Y70.362 E9.41218
G1 X143.865 Y70.042 E9.43929
G1 X144.402 Y69.845 E9.45736
G1 X145.316 Y69.556 E9.48765
G1 X146.299 Y69.29 E9.51983
G1 X146.887 Y69.15 E9.53893
G1 X147.349 Y69.053 E9.55385
G1 X147.933 Y68.946 E9.5726
G1 X148.696 Y68.838 E9.59695
G1 X149.324 Y68.765 E9.61693
G1 X149.929 Y68.715 E9.63611
G1 X150.481 Y68.683 E9.65358
G1 X150.994 Y68.667 E9.6698
G1 X151.526 Y68.663 E9.68661
G1 X152.212 Y68.682 E9.70829
G1 X152.991 Y68.727 E9.73295
G1 X153.671 Y68.786 E9.75452
G1 X154.437 Y68.888 E9.77893
G1 X155.105 Y68.996 E9.80031
G1 X155.773 Y69.127 E9.82182
G1 X156.654 Y69.329 E9.85038
G1 X157.473 Y69.551 E9.87719
G1 X158.418 Y69.864 E9.90865
G1 X159.192 Y70.153 E9.93475
G1 X159.826 Y70.413 E9.95641
G1 X160.268 Y70.611 E9.97171
G1 X160.964 Y70.947 E9.99613
G1 X161.959 Y71.485 E10.03187
G1 X162.501 Y71.806 E10.05177
G1 X163.016 Y72.13 E10.071
G1 X163.539 Y72.482 E10.09092
G1 X164.163 Y72.937 E10.11532
G1 X164.641 Y73.306 E10.1344
G1 X165.183 Y73.754 E10.15662
G1 X165.851 Y74.35 E10.18491
G1 X166.444 Y74.923 E10.21096
G1 X166.787 Y75.277 E10.22654
G1 X167.183 Y75.707 E10.24501
G1 X167.849 Y76.485 E10.27737
G1 X168.126 Y76.83 E10.29135
G1 X168.673 Y77.564 E10.32027
G1 X168.946 Y77.959 E10.33544
G1 X169.922 Y79.436 E10.39138
G1 X170.28 Y79.994 E10.41233
G1 X171.7 Y82.074 E10.4919
G1 X173.172 Y84.105 E10.57116
G1 X174.699 Y86.09 E10.65029
G1 X176.291 Y88.045 E10.72995
G1 X177.923 Y89.937 E10.8089
G1 X179.645 Y91.818 E10.88948
G1 X181.391 Y93.625 E10.96888
G1 X183.22 Y95.412 E11.04967
G1 X184.787 Y96.864 E11.11717
G1 X185.438 Y97.453 E11.14491
G1 X185.83 Y97.827 E11.16203
G1 X186.465 Y98.477 E11.19074
G1 X187.109 Y99.203 E11.22141
G1 X187.709 Y99.95 E11.25168
G1 X187.994 Y100.334 E11.26679
G1 X188.329 Y100.812 E11.28524
G1 X188.62 Y101.25 E11.30185
G1 X188.988 Y101.843 E11.3239
G1 X189.328 Y102.451 E11.34591
G1 X189.809 Y103.383 E11.37905
G1 X190.19 Y104.205 E11.40768
G1 X190.526 Y105.051 E11.43644
G1 X190.862 Y106.028 E11.46909
G1 X191.129 Y106.954 E11.49954
G1 X191.246 Y107.428 E11.51497
G1 X191.439 Y108.338 E11.54436
G1 X191.594 Y109.301 E11.57518
G1 X191.659 Y109.827 E11.59192
G1 X191.741 Y110.793 E11.62256
G1 X191.762 Y111.248 E11.63695
G1 X191.773 Y112.252 E11.66867
G1 X191.742 Y113.024 E11.69309
G1 X191.671 Y113.947 E11.72234
G1 X191.567 Y114.823 E11.75021
G1 X191.412 Y115.737 E11.7795
G1 X191.218 Y116.627 E11.80828
G1 X190.944 Y117.651 E11.84178
G1 X190.827 Y118.026 E11.85419
G1 X190.552 Y118.807 E11.88035
G1 X190.173 Y119.757 E11.91267
G1 X189.751 Y120.684 E11.94485
G1 X189.383 Y121.396 E11.97018
G1 X189.003 Y122.071 E11.99465
G1 X188.467 Y122.922 E12.02643
G1 X187.933 Y123.685 E12.05586
G1 X187.361 Y124.444 E12.08589
G1 X185.809 Y126.564 E12.16891
G1 X184.385 Y128.63 E12.24819
G1 X183.026 Y130.724 E12.32707
G1 X181.709 Y132.884 E12.407
G1 X180.462 Y135.07 E12.48652
G1 X179.266 Y137.308 E12.5667
G1 X178.226 Y139.374 E12.63978
G1 X177.954 Y139.889 E12.65819
G1 X177.659 Y140.4 E12.67683
G1 X177.402 Y140.818 E12.69234
G1 X176.936 Y141.526 E12.71912
G1 X176.588 Y142.013 E12.73803
G1 X175.978 Y142.799 E12.76947
G1 X175.351 Y143.53 E12.7999
G1 X174.638 Y144.283 E12.83266
G1 X173.956 Y144.932 E12.86241
G1 X173.59 Y145.254 E12.87781
G1 X172.892 Y145.831 E12.90643
G1 X172.449 Y146.168 E12.92402
G1 X171.695 Y146.703 E12.95323
G1 X171.323 Y146.948 E12.9673
G1 X170.843 Y147.245 E12.98514
G1 X170.41 Y147.498 E13.00098
G1 X169.615 Y147.926 E13.02951
G1 X169.096 Y148.18 E13.04777
G1 X168.221 Y148.566 E13.07799
G1 X167.311 Y148.918 E13.10882
G1 X166.862 Y149.073 E13.12383
G1 X165.913 Y149.359 E13.15514
G1 X164.994 Y149.588 E13.18507
G1 X164.462 Y149.7 E13.20225
G1 X163.538 Y149.86 E13.23188
G1 X163.079 Y149.924 E13.24652
G1 X162.51 Y149.985 E13.2646
G1 X161.549 Y150.053 E13.29504
G1 X160.839 Y150.075 E13.31749
G1 X158.02 Y150.116 E13.40657
G1 X155.452 Y150.225 E13.48778
G1 X152.978 Y150.4 E13.56615
G1 X150.506 Y150.645 E13.64464
G1 X147.998 Y150.966 E13.72453
G1 X143.143 Y151.766 E13.88001
G1 X142.309 Y151.875 E13.90658
G1 X141.734 Y151.926 E13.92482
G1 X140.708 Y151.983 E13.95729
G1 X140.06 Y151.991 E13.97777
G1 X139.077 Y151.971 E14.00883
G1 X138.68 Y151.951 E14.02139
G1 X137.788 Y151.873 E14.04969
G1 X137.225 Y151.803 E14.06761
G1 X136.583 Y151.706 E14.08813
G1 X135.841 Y151.572 E14.11195
G1 X135.32 Y151.46 E14.12879
G1 X134.828 Y151.34 E14.14479
G1 X134.165 Y151.156 E14.16653
G1 X133.301 Y150.886 E14.19513
G1 X132.663 Y150.667 E14.21645
G1 X131.802 Y150.326 E14.24571
G1 X131.309 Y150.11 E14.26272
G1 X130.365 Y149.656 E14.29581
G1 X129.921 Y149.422 E14.31167
G1 X129.003 Y148.892 E14.34517
G1 X128.561 Y148.616 E14.36163
G1 X128.114 Y148.321 E14.37855
G1 X127.662 Y148.005 E14.39598
G1 X126.87 Y147.407 E14.42734
G1 X126.472 Y147.086 E14.44349
G1 X126.049 Y146.725 E14.46106
G1 X125.646 Y146.364 E14.47816
G1 X125.27 Y146.008 E14.49452
G1 X124.898 Y145.637 E14.51112
G1 X124.489 Y145.209 E14.52983
G1 X124.104 Y144.782 E14.54799
G1 X123.498 Y144.063 E14.5777
G1 X123.17 Y143.644 E14.59452
G1 X122.869 Y143.238 E14.61049
G1 X122.526 Y142.751 E14.62931
G1 X122.153 Y142.185 E14.65073
G1 X121.779 Y141.574 E14.67336
G1 X121.37 Y140.852 E14.69958
G1 X121.031 Y140.207 E14.7226
G1 X120.611 Y139.302 E14.75413
G1 X120.343 Y138.67 E14.77582
G1 X119.079 Y135.525 E14.88292
G1 X118.086 Y133.256 E14.96118
G1 X117.015 Y130.982 E15.0406
G1 X115.868 Y128.717 E15.12082
G1 X114.677 Y126.52 E15.19978
G1 X113.401 Y124.32 E15.28014
G1 X112.025 Y122.09 E15.36294
G1 X111.509 Y121.282 E15.39323
G1 X111.267 Y120.885 E15.40792
G1 X110.897 Y120.246 E15.43125
G1 X110.533 Y119.56 E15.45579
G1 X110.168 Y118.805 E15.48229
G1 X109.904 Y118.216 E15.50268
G1 X109.528 Y117.267 E15.53494
G1 X109.355 Y116.775 E15.55141
G1 X109.073 Y115.884 E15.58094
G1 X108.94 Y115.399 E15.59683
G1 X108.748 Y114.605 E15.62265
G1 X108.619 Y114.004 E15.64207
G1 X108.505 Y113.385 E15.66196
G1 X108.429 Y112.891 E15.67775
G1 X108.337 Y112.114 E15.70247
G1 X108.258 Y111.119 E15.73401
G1 X108.226 Y110.371 E15.75767
G1 X108.221 Y109.782 E15.77628
G1 X108.232 Y109.243 E15.79331
G1 X108.279 Y108.366 E15.82106
G1 X108.327 Y107.812 E15.83863
G1 X108.44 Y106.883 E15.8682
G1 X108.53 Y106.323 E15.88612
G1 X108.681 Y105.553 E15.91092
G1 X108.857 Y104.786 E15.93578
G1 X108.993 Y104.256 E15.95307
G1 X109.232 Y103.451 E15.9796
G1 X109.396 Y102.957 E15.99605
G1 X109.645 Y102.276 E16.01896
G1 X110.129 Y101.131 E16.05824
G1 X110.417 Y100.518 E16.07964
G1 X110.865 Y99.663 E16.11014
G1 X111.342 Y98.845 E16.14006
G1 X111.633 Y98.383 E16.15731
G1 X111.951 Y97.904 E16.17548
G1 X112.481 Y97.169 E16.20411
G1 X112.827 Y96.721 E16.222
G1 X113.361 Y96.074 E16.2485
M204 S3500
G0 F6000 X113.657 Y96.343
M204 S2500
G1 F1200 X114.343 Y95.587 E16.28076
G1 X114.76 Y95.161 E16.29959
G1 X115.261 Y94.679 E16.32156
G1 X115.824 Y94.167 E16.34561
G1 X116.629 Y93.506 E16.37852
G1 X117.111 Y93.142 E16.3976
G1 X119.369 Y91.536 E16.48516
G1 X121.397 Y90.016 E16.56523
G1 X123.368 Y88.447 E16.64484
G1 X125.302 Y86.818 E16.72473
G1 X127.19 Y85.132 E16.80471
G1 X129.039 Y83.387 E16.88505
G1 X130.835 Y81.59 E16.96532
G1 X132.547 Y79.78 E17.04404
G1 X134.832 Y77.201 E17.15292
