;FLAVOR:Marlin
;TIME:4134
;Filament used: 14.4999m
;Layer height: 0.317
;MINX:-91.654
;MINY:-57.406
;MINZ:0.317
;MAXX:82.451
;MAXY:71.963
;MAXZ:11.144
;Generated with Cura_SteamEngine 4.10.0
M104 S228
M105
M109 S228
M82 ;absolute extrusion mode
G21        ;metric values
G90        ;absolute positioning
M107       ;start with the fan off
G28   ;move to endstops

;Z-Offset Reset und dann Z +0,1 für PLA
;MacroZOffset0
;MacroZOffsetPlus0100

G92 E0                  ;zero the extruded length
G1 F200 E3              ;extrude 3mm of feed stock
G92 E0                  ;zero the extruded length again
G1 F150.0
;Put printing message on LCD screen
M117 Printing...
G92 E0
G92 E0
G1 F2400 E-7
;LAYER_COUNT:32
;LAYER:0
M106 S25.5
M204 S3000
G1 F600 Z1.317
;MESH:Spray_Can_Rack_Improved.stl(1)
G0 F1500 X-38.545 Y-37.798 Z1.317
M204 S1500
;TYPE:WALL-INNER
G1 F600 Z0.317
G1 F2400 E0
G1 F600 X-38.545 Y-39.062 E0.13993
G1 X-34.133 Y-38.43 E0.63336
G1 X-38.545 Y-37.798 E1.12678
M204 S3000
G0 F1500 X12.958 Y-39.262
G0 X15.561 Y-39.273
G0 X18.188 Y-39.118
G0 X20.767 Y-38.798
G0 X23.344 Y-38.311
G0 X25.877 Y-37.659
G0 X28.337 Y-36.856
G0 X30.783 Y-35.882
G0 X33.122 Y-34.771
G0 X35.419 Y-33.496
G0 X37.602 Y-32.093
G0 X39.72 Y-30.534
G0 X41.718 Y-28.855
G0 X43.587 Y-27.071
G0 X45.379 Y-25.124
G0 X47.012 Y-23.104
G0 X48.533 Y-20.956
G0 X49.892 Y-18.745
G0 X51.113 Y-16.445
G0 X52.189 Y-14.067
G0 X53.111 Y-11.619
G0 X53.887 Y-9.064
G0 X54.473 Y-6.594
G0 X54.921 Y-3.923
G0 X55.187 Y-1.406
G0 X55.291 Y1.198
G0 X55.229 Y3.817
G0 X55.003 Y6.42
G0 X54.607 Y8.997
G0 X54.156 Y11.067
G0 X51.119 Y21.728
M204 S1500
G1 F600 X52.271 Y19.466 E1.4078
G1 X52.303 Y19.415 E1.41447
G1 X53.388 Y16.899 E1.7178
G1 X54.291 Y14.373 E2.01477
G1 X55.029 Y11.804 E2.31068
G1 X55.602 Y9.181 E2.60791
G1 X56.005 Y6.548 E2.9028
G1 X56.239 Y3.865 E3.20095
G1 X56.301 Y1.199 E3.49617
G1 X56.194 Y-1.512 E3.79653
G1 X56.177 Y-1.623 E3.80896
G1 X55.932 Y-3.975 E4.07075
G1 X55.932 Y-4.043 E4.07828
G1 X55.455 Y-6.848 E4.39327
G1 X55.438 Y-6.9 E4.39933
G1 X54.88 Y-9.253 E4.66704
G1 X54.869 Y-9.321 E4.67467
G1 X54.07 Y-11.941 E4.97791
G1 X53.123 Y-14.453 E5.27511
G1 X52.024 Y-16.887 E5.57076
G1 X50.767 Y-19.252 E5.86727
G1 X49.38 Y-21.507 E6.16035
G1 X47.816 Y-23.717 E6.46008
G1 X46.141 Y-25.788 E6.75496
G1 X44.268 Y-27.824 E7.06122
G1 X44.221 Y-27.859 E7.06771
G1 X42.398 Y-29.604 E7.34709
G1 X40.341 Y-31.332 E7.6445
G1 X38.18 Y-32.924 E7.94164
G1 X35.934 Y-34.365 E8.23707
G1 X33.592 Y-35.667 E8.53371
G1 X31.186 Y-36.809 E8.82855
G1 X28.684 Y-37.806 E9.12672
G1 X26.153 Y-38.631 E9.42143
G1 X23.561 Y-39.298 E9.71773
G1 X20.921 Y-39.797 E10.01517
G1 X18.282 Y-40.125 E10.30957
G1 X15.591 Y-40.284 E10.608
G1 X12.927 Y-40.273 E10.90292
G1 X10.208 Y-40.087 E11.20464
G1 X10.138 Y-40.072 E11.21256
G1 X7.78 Y-39.758 E11.47591
G1 X7.744 Y-39.758 E11.4799
G1 X-18.916 Y-35.298 E14.47235
G1 X-32.192 Y-35.298 E15.94208
G1 X-32.192 Y-36.977 E16.12796
G1 X-32.752 Y-38.127 E16.26956
G1 X-32.861 Y-38.157 E16.28208
G1 X-33.823 Y-38.425 E16.39264
G1 X-32.944 Y-38.712 E16.43389
G1 X-32.684 Y-38.797 E16.46172
G1 X-32.198 Y-39.927 E16.5979
G1 X-32.198 Y-41.598 E16.78289
G1 X45.621 Y-41.598 E25.39794
G1 X45.621 Y-35.046 E26.12329
G1 X46.181 Y-33.896 E26.2649
G1 X47.37 Y-33.565 E26.40153
G1 X49.347 Y-33.848 E26.62263
G1 X49.388 Y-33.853 E26.6272
G1 X49.522 Y-33.873 E26.6422
G1 X50.377 Y-33.996 E26.73783
G1 X50.421 Y-34.003 E26.74276
G1 X50.381 Y-33.973 E26.74334
G1 X49.603 Y-33.312 E26.79824
G1 X49.483 Y-33.192 E26.81511
G1 X49.457 Y-33.16 E26.81957
G1 X48.798 Y-32.364 E26.93397
G1 X48.704 Y-32.217 E26.95329
G1 X48.199 Y-31.319 E27.06735
G1 X48.13 Y-31.161 E27.08643
G1 X47.805 Y-30.22 E27.19665
G1 X47.755 Y-30.054 E27.21584
G1 X47.586 Y-28.974 E27.33686
G1 X47.577 Y-28.803 E27.35581
G1 X47.598 Y-27.771 E27.47009
G1 X47.616 Y-27.597 E27.48945
G1 X47.823 Y-26.575 E27.60489
G1 X47.873 Y-26.408 E27.62419
G1 X48.254 Y-25.449 E27.73843
G1 X48.329 Y-25.294 E27.75749
G1 X48.873 Y-24.416 E27.87184
G1 X50.403 Y-22.246 E28.16578
G1 X51.749 Y-20.074 E28.44866
G1 X52.976 Y-17.807 E28.73403
G1 X54.038 Y-15.531 E29.01208
G1 X54.985 Y-13.143 E29.29648
G1 X55.785 Y-10.706 E29.58043
G1 X56.442 Y-8.225 E29.86456
G1 X56.944 Y-5.752 E30.14392
G1 X57.299 Y-3.231 E30.42577
G1 X57.509 Y-.656 E30.71178
G1 X57.563 Y1.867 E30.99116
G1 X57.467 Y4.45 E31.27731
G1 X57.224 Y6.972 E31.55781
G1 X56.828 Y9.491 E31.8401
G1 X56.281 Y11.998 E32.12417
G1 X55.59 Y14.458 E32.40705
G1 X54.772 Y16.82 E32.68377
G1 X53.774 Y19.23 E32.97255
G1 X52.659 Y21.527 E33.25522
G1 X51.415 Y23.744 E33.53665
G1 X50.036 Y25.893 E33.81933
G1 X48.54 Y27.946 E34.10055
G1 X46.9 Y29.939 E34.38628
G1 X45.184 Y31.789 E34.66563
G1 X43.317 Y33.576 E34.95174
G1 X41.399 Y35.207 E35.23047
G1 X39.333 Y36.761 E35.51667
G1 X37.295 Y38.114 E35.78748
G1 X36.928 Y38.248 E35.83073
G1 X36.636 Y38.206 E35.86339
G1 X36.391 Y38.031 E35.89672
G1 X36.254 Y37.766 E35.92975
G1 X36.258 Y37.495 E35.95975
G1 X36.413 Y37.219 E35.9948
G1 X36.659 Y37.02 E36.02983
G1 X38.617 Y35.714 E36.29038
G1 X38.673 Y35.686 E36.29731
G1 X40.928 Y33.966 E36.61129
G1 X40.987 Y33.909 E36.62037
G1 X42.918 Y32.23 E36.90365
G1 X44.812 Y30.358 E37.19846
G1 X46.583 Y28.37 E37.49321
G1 X48.245 Y26.24 E37.79231
G1 X49.755 Y24.03 E38.08863
G1 X51.119 Y21.728 E38.38485
M204 S3000
G0 F1500 X44.074 Y29.667
G0 X43.027 Y30.701
G0 X38.269 Y35.105
M204 S1500
G1 F600 X38.301 Y35.089 E38.38881
G1 X40.47 Y33.435 E38.69078
G1 X40.507 Y33.399 E38.6965
G1 X42.442 Y31.716 E38.9804
G1 X44.304 Y29.876 E39.27021
G1 X46.045 Y27.921 E39.56002
G1 X47.68 Y25.827 E39.85413
G1 X49.164 Y23.654 E40.14544
G1 X50.505 Y21.39 E40.43675
G1 X51.658 Y19.127 E40.71792
G1 X51.681 Y19.09 E40.72275
G1 X52.736 Y16.642 E41.01785
G1 X53.624 Y14.158 E41.30989
G1 X54.35 Y11.632 E41.60085
G1 X54.913 Y9.053 E41.89309
G1 X55.31 Y6.464 E42.18306
G1 X55.54 Y3.826 E42.47621
G1 X55.601 Y1.205 E42.76645
G1 X55.496 Y-1.444 E43.05994
G1 X55.485 Y-1.514 E43.06779
G1 X55.232 Y-3.94 E43.33782
G1 X55.232 Y-3.984 E43.34269
G1 X54.774 Y-6.678 E43.64521
G1 X54.764 Y-6.708 E43.64871
G1 X54.194 Y-9.113 E43.92233
G1 X54.186 Y-9.161 E43.92772
G1 X53.407 Y-11.715 E44.22333
G1 X52.476 Y-14.185 E44.51555
G1 X51.395 Y-16.578 E44.80625
G1 X50.159 Y-18.904 E45.09785
G1 X48.796 Y-21.121 E45.38596
G1 X47.258 Y-23.294 E45.68068
G1 X45.611 Y-25.33 E45.97059
G1 X43.795 Y-27.304 E46.26754
G1 X43.766 Y-27.326 E46.27157
G1 X41.93 Y-29.083 E46.5529
G1 X39.908 Y-30.782 E46.84528
G1 X37.783 Y-32.347 E47.13744
G1 X35.575 Y-33.764 E47.42789
G1 X33.272 Y-35.044 E47.71958
G1 X30.906 Y-36.167 E48.00952
G1 X28.446 Y-37.147 E48.30267
G1 X25.957 Y-37.959 E48.59251
G1 X23.409 Y-38.614 E48.88376
G1 X20.813 Y-39.105 E49.17625
G1 X18.218 Y-39.428 E49.46575
G1 X15.572 Y-39.584 E49.75919
G1 X12.952 Y-39.573 E50.04924
G1 X10.305 Y-39.392 E50.34297
G1 X10.258 Y-39.382 E50.34829
G1 X7.828 Y-39.058 E50.61968
G1 X7.802 Y-39.058 E50.62256
G1 X-18.861 Y-34.598 E53.61534
G1 X-32.892 Y-34.598 E55.16866
G1 X-32.892 Y-36.816 E55.4142
G1 X-33.243 Y-37.537 E55.50298
G1 X-33.987 Y-37.744 E55.58847
G1 X-38.847 Y-37.047 E56.13201
G1 X-39.245 Y-36.99 E56.17652
G1 X-39.245 Y-37.392 E56.20423
G1 X-39.245 Y-37.393 E56.20434
G1 X-39.245 Y-39.466 E56.43383
G1 X-39.245 Y-39.467 E56.43394
G1 X-39.245 Y-39.869 E56.47845
G1 X-38.847 Y-39.812 E56.50615
G1 X-33.969 Y-39.114 E57.05168
G1 X-33.202 Y-39.364 E57.14099
G1 X-32.898 Y-40.071 E57.22619
G1 X-32.898 Y-42.298 E57.47273
G1 X46.321 Y-42.298 E66.24278
G1 X46.594 Y-42.298 E66.273
G1 X46.321 Y-41.662 E66.3243
G1 X46.321 Y-35.207 E67.03891
G1 X46.672 Y-34.486 E67.12769
G1 X47.416 Y-34.279 E67.21318
G1 X52.562 Y-35.016 E67.78869
G1 X52.675 Y-35.032 E67.80133
G1 X53.077 Y-35.09 E67.84629
G1 X53.17 Y-35.104 E67.8567
G1 X53.17 Y-34.989 E67.86807
G1 X53.17 Y-34.445 E67.92829
G1 X52.771 Y-34.363 E67.97112
G1 X52.664 Y-34.325 E67.98347
G1 X51.869 Y-34.036 E68.07711
G1 X51.769 Y-33.99 E68.0893
G1 X50.907 Y-33.491 E68.19957
G1 X50.816 Y-33.424 E68.21208
G1 X50.078 Y-32.797 E68.31928
G1 X50.001 Y-32.72 E68.33134
G1 X49.365 Y-31.951 E68.44181
G1 X49.305 Y-31.857 E68.45416
G1 X48.827 Y-31.007 E68.56212
G1 X48.783 Y-30.906 E68.57432
G1 X48.471 Y-30.004 E68.67998
G1 X48.439 Y-29.898 E68.69224
G1 X48.283 Y-28.901 E68.80395
G1 X48.277 Y-28.791 E68.81615
G1 X48.297 Y-27.816 E68.92411
G1 X48.309 Y-27.704 E68.93658
G1 X48.503 Y-26.745 E69.0449
G1 X48.535 Y-26.638 E69.05726
G1 X48.895 Y-25.731 E69.16529
G1 X48.943 Y-25.632 E69.17747
G1 X49.457 Y-24.802 E69.28555
G1 X50.991 Y-22.626 E69.58029
G1 X52.356 Y-20.424 E69.8671
G1 X53.597 Y-18.13 E70.15584
G1 X54.685 Y-15.8 E70.44053
G1 X55.641 Y-13.388 E70.72776
G1 X56.459 Y-10.898 E71.01791
G1 X57.123 Y-8.39 E71.30513
G1 X57.634 Y-5.871 E71.58968
G1 X57.996 Y-3.301 E71.877
G1 X58.208 Y-.695 E72.16646
G1 X58.264 Y1.878 E72.45137
G1 X58.166 Y4.492 E72.74096
G1 X57.918 Y7.065 E73.02713
G1 X57.518 Y9.612 E73.31255
G1 X56.961 Y12.167 E73.60205
G1 X56.26 Y14.66 E73.88875
G1 X55.419 Y17.088 E74.17321
G1 X54.415 Y19.511 E74.46357
G1 X53.281 Y21.849 E74.75124
G1 X52.015 Y24.105 E75.03763
G1 X50.612 Y26.291 E75.32519
G1 X49.089 Y28.381 E75.61148
G1 X47.435 Y30.391 E75.89965
G1 X45.679 Y32.285 E76.18558
G1 X43.795 Y34.088 E76.47428
G1 X41.832 Y35.757 E76.75952
G1 X39.738 Y37.332 E77.0496
G1 X37.634 Y38.729 E77.32919
G1 X37.297 Y38.886 E77.37035
G1 X36.986 Y38.951 E77.40552
G1 X36.668 Y38.94 E77.44075
G1 X36.371 Y38.859 E77.47483
G1 X36.09 Y38.705 E77.5103
G1 X35.86 Y38.494 E77.54486
G1 X35.682 Y38.233 E77.57983
G1 X35.569 Y37.934 E77.61522
G1 X35.532 Y37.638 E77.64824
G1 X35.576 Y37.316 E77.68422
G1 X35.705 Y36.999 E77.72211
G1 X35.904 Y36.73 E77.75915
G1 X36.236 Y36.461 E77.80646
G1 X38.269 Y35.105 E78.07699
M204 S3000
G0 F1500 X42.226 Y31.493
G0 X44.074 Y29.667
G0 X45.807 Y27.719
G0 X47.432 Y25.64
G0 X48.903 Y23.484
G0 X50.23 Y21.247
G0 X51.404 Y18.948
G0 X52.448 Y16.525
G0 X53.328 Y14.064
G0 X54.049 Y11.554
G0 X54.607 Y8.997
G0 X55.003 Y6.42
G0 X55.229 Y3.817
G0 X55.291 Y1.198
G0 X55.176 Y-1.48
G0 X54.921 Y-3.959
G0 X54.469 Y-6.606
G0 X53.882 Y-9.088
G0 X48.804 Y-26.828
G0 X46.633 Y-35.278
G0 X46.639 Y-41.723
G0 X48.696 Y-41.981
G0 X53.099 Y-41.801
M204 S1500
G1 F600 X49.633 Y-42.298 E78.46463
G1 X53.17 Y-42.298 E78.60695
G1 X53.17 Y-41.791 E78.66308
G1 X53.099 Y-41.801
M204 S3000
G0 F1500 X49.648 Y-41.97
G0 X47.444 Y-41.993
G0 X46.633 Y-35.278
G0 X52.895 Y-34.134
G0 X52.974 Y-33.745
M204 S1500
;TYPE:WALL-OUTER
G1 F600 X52.116 Y-33.434 E78.76411
G1 X52.068 Y-33.412 E78.76996
G1 X51.262 Y-32.945 E78.87308
G1 X51.218 Y-32.913 E78.87911
G1 X50.519 Y-32.319 E78.98066
G1 X50.482 Y-32.282 E78.98645
G1 X49.891 Y-31.567 E79.08914
G1 X49.862 Y-31.522 E79.09507
G1 X49.41 Y-30.717 E79.19728
G1 X49.389 Y-30.669 E79.20308
G1 X49.09 Y-29.806 E79.30419
G1 X49.075 Y-29.755 E79.31007
G1 X48.93 Y-28.832 E79.41351
G1 X48.927 Y-28.779 E79.41939
G1 X48.946 Y-27.859 E79.52126
G1 X48.952 Y-27.805 E79.52727
G1 X49.135 Y-26.901 E79.62938
G1 X49.15 Y-26.85 E79.63527
G1 X49.491 Y-25.992 E79.73748
G1 X49.514 Y-25.944 E79.74337
G1 X49.999 Y-25.161 E79.84534
G1 X51.537 Y-22.979 E80.14087
G1 X52.921 Y-20.747 E80.43162
G1 X54.177 Y-18.424 E80.72397
G1 X55.281 Y-16.059 E81.01291
G1 X56.256 Y-13.601 E81.30566
G1 X57.077 Y-11.101 E81.59696
G1 X57.757 Y-8.536 E81.89074
G1 X58.276 Y-5.973 E82.18024
G1 X58.642 Y-3.377 E82.47047
G1 X58.858 Y-.729 E82.7646
G1 X58.915 Y1.888 E83.05438
G1 X58.816 Y4.529 E83.34696
G1 X58.563 Y7.144 E83.63781
G1 X58.157 Y9.734 E83.92804
G1 X57.591 Y12.328 E84.22197
G1 X56.882 Y14.848 E84.51178
G1 X56.023 Y17.329 E84.80244
G1 X55.01 Y19.774 E85.09543
G1 X53.859 Y22.147 E85.38741
G1 X52.574 Y24.438 E85.67821
G1 X51.149 Y26.657 E85.97016
G1 X49.601 Y28.782 E86.26121
G1 X47.922 Y30.822 E86.55371
G1 X46.146 Y32.738 E86.84293
G1 X44.233 Y34.569 E87.13609
G1 X42.238 Y36.264 E87.4259
G1 X40.113 Y37.863 E87.72031
G1 X37.952 Y39.298 E88.00749
G1 X37.502 Y39.508 E88.06246
G1 X37.042 Y39.603 E88.11446
G1 X36.571 Y39.588 E88.16663
G1 X36.127 Y39.466 E88.21761
G1 X35.707 Y39.236 E88.27062
G1 X35.366 Y38.924 E88.32179
G1 X35.101 Y38.534 E88.37399
G1 X34.934 Y38.094 E88.42609
G1 X34.877 Y37.635 E88.47729
G1 X34.943 Y37.149 E88.53159
G1 X35.135 Y36.675 E88.58821
G1 X35.428 Y36.279 E88.64274
G1 X35.855 Y35.933 E88.70358
G1 X37.938 Y34.544 E88.98075
G1 X37.956 Y34.535 E88.98298
G1 X40.041 Y32.945 E89.27326
G1 X40.059 Y32.927 E89.27608
G1 X42 Y31.239 E89.56085
G1 X43.832 Y29.428 E89.84604
G1 X45.546 Y27.504 E90.1313
G1 X47.155 Y25.443 E90.42076
G1 X48.615 Y23.305 E90.70737
G1 X49.935 Y21.076 E90.99416
G1 X51.089 Y18.813 E91.27538
G1 X51.101 Y18.793 E91.27797
G1 X52.131 Y16.404 E91.56598
G1 X53.005 Y13.959 E91.85343
G1 X53.719 Y11.473 E92.13977
G1 X54.274 Y8.934 E92.42749
G1 X54.664 Y6.386 E92.71286
G1 X54.891 Y3.79 E93.00135
G1 X54.951 Y1.21 E93.28705
G1 X54.848 Y-1.379 E93.57389
G1 X54.843 Y-1.41 E93.57737
G1 X54.582 Y-3.911 E93.85575
G1 X54.582 Y-3.929 E93.85774
G1 X54.143 Y-6.514 E94.14801
G1 X54.137 Y-6.531 E94.15001
G1 X53.557 Y-8.981 E94.42874
G1 X53.552 Y-9.01 E94.43199
G1 X52.791 Y-11.505 E94.72077
G1 X51.875 Y-13.936 E95.00837
G1 X50.811 Y-16.291 E95.29446
G1 X49.595 Y-18.581 E95.5815
G1 X48.253 Y-20.763 E95.86509
G1 X46.739 Y-22.901 E96.15512
G1 X45.119 Y-24.905 E96.4404
G1 X43.357 Y-26.82 E96.72848
G1 X43.345 Y-26.829 E96.73015
G1 X41.496 Y-28.599 E97.01351
G1 X39.506 Y-30.271 E97.30126
G1 X37.414 Y-31.811 E97.58884
G1 X35.241 Y-33.206 E97.87471
G1 X32.974 Y-34.466 E98.16184
G1 X30.646 Y-35.571 E98.44712
G1 X28.225 Y-36.535 E98.73561
G1 X25.775 Y-37.335 E99.02093
G1 X23.268 Y-37.979 E99.30749
G1 X20.712 Y-38.463 E99.59548
G1 X18.159 Y-38.78 E99.88028
G1 X15.554 Y-38.934 E100.16918
G1 X12.976 Y-38.923 E100.45458
G1 X10.391 Y-38.746 E100.74143
G1 X10.366 Y-38.741 E100.74425
G1 X7.869 Y-38.408 E101.02313
G1 X7.856 Y-38.408 E101.02457
G1 X-18.808 Y-33.948 E104.01745
G1 X-33.542 Y-33.948 E105.6486
G1 X-33.542 Y-36.632 E105.94574
G1 X-33.542 Y-36.666 E105.9495
G1 X-33.699 Y-36.989 E105.98926
G1 X-34.03 Y-37.081 E106.02729
G1 X-34.063 Y-37.077 E106.03097
G1 X-39.497 Y-36.298 E106.6387
G1 X-39.895 Y-36.241 E106.68321
G1 X-39.895 Y-36.643 E106.71091
G1 X-39.895 Y-36.644 E106.71103
G1 X-39.895 Y-40.215 E107.10636
G1 X-39.895 Y-40.216 E107.10647
G1 X-39.895 Y-40.618 E107.15097
G1 X-39.497 Y-40.561 E107.17868
G1 X-34.06 Y-39.783 E107.78672
G1 X-34.027 Y-39.779 E107.7904
G1 X-33.683 Y-39.891 E107.83045
G1 X-33.548 Y-40.205 E107.86829
G1 X-33.548 Y-40.239 E107.87206
G1 X-33.548 Y-42.948 E108.17196
G1 X53.82 Y-42.948 E117.84415
G1 X53.82 Y-41.445 E118.01054
G1 X53.82 Y-41.444 E118.01065
G1 X53.82 Y-41.042 E118.05516
G1 X53.422 Y-41.099 E118.08287
G1 X47.45 Y-41.954 E118.75075
G1 X47.106 Y-41.842 E118.7908
G1 X46.971 Y-41.528 E118.82864
G1 X46.971 Y-35.357 E119.5118
G1 X47.128 Y-35.034 E119.55156
G1 X47.459 Y-34.942 E119.5896
G1 X53.422 Y-35.796 E120.25647
G1 X53.82 Y-35.853 E120.30098
G1 X53.82 Y-35.451 E120.32869
G1 X53.82 Y-35.45 E120.3288
G1 X53.82 Y-33.897 E120.50073
G1 X53.025 Y-33.76 E120.59004
G1 X52.974 Y-33.745 E120.59592
M204 S3000
G0 F1500 X52.598 Y-33.609
G0 X52.462 Y-33.986
G0 X47.939 Y-34.535
G0 X41.421 Y-35.752
M204 S1500
;TYPE:SKIN
G1 F600 X40.563 Y-36.385 E120.71396
G1 X38.984 Y-37.398 E120.92165
G1 X41.421 Y-37.398 E121.19144
G1 X41.421 Y-35.752 E121.37366
M204 S3000
G0 F1500 X40.166 Y-35.808
M204 S1500
G1 F600 X37.73 Y-37.371 E121.69408
G1 X36.421 Y-38.098 E121.85984
G1 X42.121 Y-38.098 E122.49087
G1 X42.121 Y-34.367 E122.90391
G1 X40.166 Y-35.808 E123.17279
M204 S3000
G0 F1500 X39.769 Y-35.231
M204 S1500
G1 F600 X37.371 Y-36.77 E123.48823
G1 X34.872 Y-38.158 E123.80469
G1 X33.525 Y-38.798 E123.96979
G1 X42.821 Y-38.798 E124.99892
G1 X42.821 Y-34.401 E125.48569
G1 X44.052 Y-31.872 E125.79708
G1 X42.074 Y-33.532 E126.08295
G1 X39.769 Y-35.231 E126.39996
M204 S3000
G0 F1500 X39.372 Y-34.654
M204 S1500
G1 F600 X37.012 Y-36.169 E126.71042
G1 X34.552 Y-37.535 E127.02193
G1 X32.026 Y-38.735 E127.33153
G1 X30.111 Y-39.498 E127.55974
G1 X43.521 Y-39.498 E129.04431
G1 X43.521 Y-34.562 E129.59076
G1 X44.707 Y-32.126 E129.8907
G1 X46.108 Y-31.736 E130.0517
