;FLAVOR:Marlin
;TIME:10733
;Filament used: 11.3132m
;Layer height: 0.317
;MINX:3.195
;MINY:91.429
;MINZ:0.317
;MAXX:178.765
;MAXY:223.131
;MAXZ:10.144
;Generated with Cura_SteamEngine 4.10.0
M104 S228
M105
M109 S228
M82 ;absolute extrusion mode
G28 ; home all axes
 M117 Purge extruder
 G92 E0 ; reset extruder
 G1 Z1.0 F3000 ; move z up little to prevent scratching of surface
 G1 X2 Y20 Z0.3 F5000.0 ; move to start-line position
 G1 X2 Y200.0 Z0.3 F1500.0 E15 ; draw 1st line
 G1 X2 Y200.0 Z0.4 F5000.0 ; move to side a little
 G1 X2 Y20 Z0.4 F1500.0 E30 ; draw 2nd line
 G92 E0 ; reset extruder
 G1 Z1.0 F3000 ; move z up little to prevent scratching of surface
G92 E0
G92 E0
G1 F2400 E-1.6
;LAYER_COUNT:32
;LAYER:0
M106 S89.3
;MESH:Spray_Can_Rack_Improved.stl(2)
G0 F6000 X118.516 Y123.34 Z0.317
;TYPE:WALL-INNER
G1 F2400 E0
G1 F900 X121.3 Y123.34 E0.17233
G1 X121.3 Y123.738 E0.19697
G1 X121.245 Y123.731
G1 X118.516 Y123.34 E0.2669
G1 F2400 E-1.3331
G0 F6000 X35.513 Y123.522
G0 X35.515 Y126.898
G0 X29.168 Y125.989
G0 X29.168 Y128.327
G0 X35.521 Y127.417
G0 X35.519 Y130.758
G0 X49.308 Y130.769
G0 X77.223 Y126.731
G0 X86.383 Y126.111
G1 F2400 E0.2669
G1 F900 X83.767 Y125.954 E0.42912
G1 X81.133 Y125.965 E0.59217
G1 X78.504 Y126.145 E0.75529
G1 X75.907 Y126.491 E0.91746
G1 X49.322 Y130.94 E2.58598
G1 X35.337 Y130.94 E3.45166
G1 X35.337 Y127.905 E3.63953
G1 X35.337 Y127.904 E3.63959
G1 X35.337 Y127.629 E3.65661
G1 X35.064 Y127.668 E3.66723
G1 X29.257 Y128.5 E4.03035
G1 X28.984 Y128.539 E4.04742
G1 X28.984 Y128.264 E4.05801
G1 X28.984 Y128.263 E4.05807
G1 X28.984 Y126.053 E4.19487
G1 X28.984 Y126.052 E4.19493
G1 X28.984 Y125.777 E4.21196
G1 X29.257 Y125.816 E4.22257
G1 X35.058 Y126.647 E4.58532
G1 X35.331 Y126.686 E4.60239
G1 X35.331 Y126.411 E4.61298
G1 X35.331 Y126.41 E4.61304
G1 X35.331 Y123.34 E4.80307
G1 X114.45 Y123.34 E9.70059
G1 X114.45 Y131.248 E10.1901
G1 X114.45 Y131.249 E10.19017
G1 X114.45 Y131.524 E10.20719
G1 X114.723 Y131.485 E10.2178
G1 X121.3 Y130.543 E10.62908
G1 X121.3 Y131.101 E10.66362
G1 X121.004 Y131.151 E10.6822
G1 X119.968 Y131.527 E10.75042
G1 X119.015 Y132.08 E10.81863
G1 X118.176 Y132.794 E10.88682
G1 X117.474 Y133.644 E10.95506
G1 X116.935 Y134.603 E11.02316
G1 X116.574 Y135.645 E11.09142
G1 X116.404 Y136.733 E11.15959
G1 X116.428 Y137.834 E11.22775
G1 X116.646 Y138.914 E11.29596
G1 X117.053 Y139.938 E11.36417
G1 X117.595 Y140.812 E11.42782
G1 X119.124 Y142.98 E11.59204
G1 X120.502 Y145.203 E11.75394
G1 X121.724 Y147.466 E11.91314
G1 X122.822 Y149.819 E12.07387
G1 X123.772 Y152.216 E12.23348
G1 X124.591 Y154.698 E12.39526
G1 X125.257 Y157.217 E12.55655
G1 X125.764 Y159.723 E12.71481
G1 X126.128 Y162.314 E12.87677
G1 X126.336 Y164.851 E13.03434
G1 X126.394 Y167.463 E13.19607
G1 X126.296 Y170.064 E13.35718
G1 X126.045 Y172.665 E13.51894
G1 X125.646 Y175.205 E13.67809
G1 X125.094 Y177.732 E13.8382
G1 X124.401 Y180.199 E13.99682
G1 X123.541 Y182.682 E14.15948
G1 X122.553 Y185.069 E14.31939
G1 X121.417 Y187.41 E14.48046
G1 X120.146 Y189.676 E14.64129
G1 X118.754 Y191.845 E14.80082
G1 X117.231 Y193.936 E14.96095
G1 X115.572 Y195.95 E15.12247
G1 X113.817 Y197.841 E15.28217
G1 X111.945 Y199.635 E15.44266
G1 X109.982 Y201.302 E15.60208
G1 X107.888 Y202.878 E15.76431
G1 X105.78 Y204.278 E15.92095
G1 X105.461 Y204.426 E15.94272
G1 X105.163 Y204.488 E15.96156
G1 X104.857 Y204.479 E15.98051
G1 X104.567 Y204.399 E15.99913
G1 X104.298 Y204.251 E16.01814
G1 X104.078 Y204.051 E16.03654
G1 X103.904 Y203.795 E16.0557
G1 X103.798 Y203.512 E16.07441
G1 X103.762 Y203.23 E16.092
G1 X103.806 Y202.905 E16.11231
G1 X103.923 Y202.62 E16.13138
G1 X104.123 Y202.347 E16.15232
G1 X104.439 Y202.091 E16.1775
G1 X106.559 Y200.679 E16.33517
G1 X108.653 Y199.081 E16.49822
G1 X110.642 Y197.353 E16.66132
G1 X112.515 Y195.502 E16.82432
G1 X114.268 Y193.534 E16.98746
G1 X115.891 Y191.456 E17.15068
G1 X117.376 Y189.281 E17.3137
G1 X118.721 Y187.016 E17.47676
G1 X119.918 Y184.668 E17.6399
G1 X120.961 Y182.249 E17.80296
G1 X121.849 Y179.769 E17.96602
G1 X122.577 Y177.237 E18.1291
G1 X123.139 Y174.663 E18.29219
G1 X123.538 Y172.058 E18.45532
G1 X123.766 Y169.449 E18.61744
G1 X123.768 Y169.434 E18.61837
G1 X123.831 Y166.8 E18.78147
G1 X123.725 Y164.167 E18.94458
G1 X123.452 Y161.547 E19.10764
G1 X123.011 Y158.948 E19.27082
G1 X122.405 Y156.386 E19.43378
G1 X121.636 Y153.865 E19.59693
G1 X120.708 Y151.4 E19.75997
G1 X119.624 Y148.998 E19.9231
G1 X118.389 Y146.67 E20.08623
G1 X117.008 Y144.427 E20.24928
G1 X115.485 Y142.276 E20.41242
G1 X113.83 Y140.227 E20.57546
G1 X112.045 Y138.289 E20.73856
G1 X110.142 Y136.468 E20.9016
G1 X108.125 Y134.772 E21.06472
G1 X106.003 Y133.207 E21.22793
G1 X103.788 Y131.784 E21.3909
G1 X101.485 Y130.504 E21.554
G1 X99.104 Y129.375 E21.71711
G1 X96.658 Y128.398 E21.88015
G1 X94.152 Y127.581 E22.04331
G1 X91.599 Y126.926 E22.20646
G1 X89.011 Y126.436 E22.36951
G1 X88.997 Y126.435 E22.37038
G1 X86.398 Y126.111 E22.5325
G1 X86.383 Y126.111 E22.53343
G0 F6000 X86.354 Y126.589
G1 F900 X83.754 Y126.434 E22.69466
G1 X81.15 Y126.445 E22.85585
G1 X78.552 Y126.623 E23.01704
G1 X75.978 Y126.966 E23.17778
G1 X49.402 Y131.412 E24.84572
G1 X49.359 Y131.42 E24.84842
G1 X34.857 Y131.42 E25.74611
G1 X34.857 Y128.459 E25.9294
G1 X34.857 Y128.458 E25.92946
G1 X34.857 Y128.183 E25.94648
G1 X34.584 Y128.222 E25.9571
G1 X28.777 Y129.054 E26.32022
G1 X28.504 Y129.093 E26.33729
G1 X28.504 Y128.818 E26.34788
G1 X28.504 Y128.817 E26.34794
G1 X28.504 Y125.499 E26.55333
G1 X28.504 Y125.498 E26.55339
G1 X28.504 Y125.223 E26.57041
G1 X28.777 Y125.262 E26.58103
G1 X34.578 Y126.093 E26.94378
G1 X34.851 Y126.132 E26.96085
G1 X34.851 Y125.857 E26.97143
G1 X34.851 Y125.856 E26.9715
G1 X34.851 Y122.86 E27.15695
G1 X114.93 Y122.86 E32.11389
G1 X115.119 Y122.86 E32.12559
G1 X121.78 Y122.86 E32.53791
G1 X121.78 Y124.015 E32.60941
G1 X121.78 Y124.016 E32.60947
G1 X121.78 Y124.291 E32.62649
G1 X121.507 Y124.252 E32.63711
G1 X115.117 Y123.338 E33.03668
G1 X114.93 Y123.312 E33.04804
G1 X114.93 Y123.5 E33.05528
G1 X114.93 Y130.97 E33.51768
G1 X121.78 Y129.989 E33.94602
G1 X121.78 Y131.506 E34.03993
G1 X121.381 Y131.573 E34.06497
G1 X121.127 Y131.617 E34.08093
G1 X120.172 Y131.964 E34.14382
G1 X119.293 Y132.474 E34.20673
G1 X118.519 Y133.132 E34.26961
G1 X117.872 Y133.916 E34.33254
G1 X117.375 Y134.801 E34.39536
G1 X117.042 Y135.762 E34.45832
G1 X116.885 Y136.765 E34.52116
G1 X116.907 Y137.781 E34.58407
G1 X117.108 Y138.777 E34.64697
G1 X117.483 Y139.721 E34.70984
G1 X117.995 Y140.547 E34.77
G1 X119.525 Y142.716 E34.9343
G1 X120.914 Y144.956 E35.09745
G1 X122.156 Y147.256 E35.25926
G1 X123.262 Y149.626 E35.42115
G1 X124.225 Y152.055 E35.58289
G1 X125.051 Y154.561 E35.74622
G1 X125.721 Y157.094 E35.90841
G1 X125.726 Y157.121 E35.91011
G1 X126.233 Y159.627 E36.06838
G1 X126.237 Y159.645 E36.06952
G1 X126.238 Y159.656 E36.0702
G1 X126.605 Y162.259 E36.23292
G1 X126.813 Y164.811 E36.39142
G1 X126.816 Y164.84 E36.39322
G1 X126.874 Y167.47 E36.55606
G1 X126.776 Y170.094 E36.7186
G1 X126.522 Y172.718 E36.88179
G1 X126.117 Y175.297 E37.04339
G1 X125.56 Y177.848 E37.20501
G1 X124.855 Y180.356 E37.36628
G1 X123.989 Y182.856 E37.53005
G1 X122.993 Y185.262 E37.69124
G1 X121.842 Y187.634 E37.85444
G1 X120.562 Y189.916 E38.0164
G1 X119.147 Y192.121 E38.17858
G1 X117.61 Y194.231 E38.34017
G1 X115.932 Y196.269 E38.50358
G1 X114.162 Y198.176 E38.66464
G1 X112.266 Y199.992 E38.82715
G1 X110.278 Y201.681 E38.98863
G1 X108.169 Y203.268 E39.15201
G1 X106.017 Y204.697 E39.31191
G1 X105.613 Y204.885 E39.3395
G1 X105.204 Y204.97 E39.36535
G1 X104.785 Y204.957 E39.3913
G1 X104.385 Y204.847 E39.41698
G1 X104.018 Y204.645 E39.44291
G1 X103.713 Y204.367 E39.46846
G1 X103.476 Y204.019 E39.49452
G1 X103.456 Y203.964 E39.49814
G1 X103.329 Y203.628 E39.52038
G1 X103.287 Y203.291 E39.5414
G1 X103.278 Y203.227 E39.5454
G1 X103.338 Y202.783 E39.57314
G1 X103.503 Y202.379 E39.60015
G1 X103.771 Y202.015 E39.62813
G1 X104.158 Y201.701 E39.65898
G1 X106.28 Y200.288 E39.81679
G1 X108.35 Y198.709 E39.97795
G1 X110.316 Y197.001 E40.13915
G1 X112.167 Y195.171 E40.30027
G1 X113.899 Y193.226 E40.46149
G1 X115.503 Y191.173 E40.62276
G1 X116.971 Y189.023 E40.78391
G1 X118.3 Y186.784 E40.94508
G1 X119.483 Y184.464 E41.10628
G1 X120.514 Y182.073 E41.26746
G1 X121.392 Y179.622 E41.42862
G1 X122.111 Y177.119 E41.58982
G1 X122.667 Y174.575 E41.75102
G1 X123.061 Y172.001 E41.9122
G1 X123.289 Y169.407 E42.07339
G1 X123.351 Y166.804 E42.23457
G1 X123.246 Y164.202 E42.39576
G1 X122.976 Y161.612 E42.55695
G1 X122.54 Y159.044 E42.71819
G1 X121.941 Y156.511 E42.87931
G1 X121.181 Y154.02 E43.04052
G1 X120.264 Y151.583 E43.2017
G1 X119.193 Y149.209 E43.36291
G1 X117.972 Y146.909 E43.5241
G1 X116.607 Y144.692 E43.68526
G1 X115.102 Y142.566 E43.8465
G1 X113.466 Y140.541 E44.00765
G1 X111.702 Y138.625 E44.16886
G1 X109.821 Y136.825 E44.33002
G1 X107.828 Y135.149 E44.49121
G1 X105.731 Y133.603 E44.65248
G1 X103.541 Y132.196 E44.81361
G1 X101.265 Y130.931 E44.97479
G1 X98.912 Y129.815 E45.13599
G1 X96.494 Y128.85 E45.29715
G1 X94.018 Y128.042 E45.45837
G1 X91.495 Y127.395 E45.6196
G1 X88.937 Y126.91 E45.78076
G1 X86.354 Y126.589 E45.94188
G0 F6000 X86.31 Y127.067
;TYPE:WALL-OUTER
G1 F900 X83.741 Y126.914 E46.10119
G1 X81.167 Y126.925 E46.26052
G1 X78.6 Y127.101 E46.41979
G1 X76.049 Y127.441 E46.5791
G1 X49.396 Y131.9 E48.25186
G1 X34.377 Y131.9 E49.18155
G1 X34.377 Y128.737 E49.37734
G1 X28.024 Y129.646 E49.7746
G1 X28.024 Y124.67 E50.08262
G1 X34.371 Y125.578 E50.4795
G1 X34.371 Y122.38 E50.67746
G1 X122.26 Y122.38 E56.11785
G1 X122.26 Y124.844 E56.27037
G1 X115.41 Y123.865 E56.6987
G1 X115.41 Y130.416 E57.10421
G1 X122.26 Y129.436 E57.53255
G1 X122.26 Y131.919 E57.68625
G1 X122.157 Y131.928 E57.69265
G1 X121.25 Y132.083 E57.74961
G1 X120.376 Y132.401 E57.80718
G1 X119.571 Y132.868 E57.86479
G1 X118.862 Y133.47 E57.92236
G1 X118.27 Y134.188 E57.97996
G1 X117.815 Y134.999 E58.03753
G1 X117.51 Y135.879 E58.09518
G1 X117.366 Y136.797 E58.1527
G1 X117.386 Y137.728 E58.21034
G1 X117.57 Y138.64 E58.26793
G1 X117.913 Y139.504 E58.32547
G1 X118.395 Y140.282 E58.38213
G1 X119.926 Y142.452 E58.54652
G1 X121.322 Y144.703 E58.71047
G1 X122.588 Y147.046 E58.87533
G1 X123.702 Y149.433 E59.03838
G1 X124.678 Y151.895 E59.20232
G1 X125.511 Y154.424 E59.36714
G1 X126.185 Y156.971 E59.53023
G1 X126.71 Y159.567 E59.69417
G1 X127.082 Y162.204 E59.85902
G1 X127.296 Y164.829 E60.02205
G1 X127.354 Y167.477 E60.186
G1 X127.256 Y170.124 E60.34997
G1 X126.999 Y172.771 E60.51459
G1 X126.588 Y175.389 E60.67863
G1 X126.026 Y177.964 E60.84178
G1 X125.309 Y180.513 E61.00568
G1 X124.442 Y183.016 E61.16965
G1 X123.425 Y185.472 E61.3342
G1 X122.267 Y187.858 E61.49837
G1 X120.978 Y190.156 E61.66147
G1 X119.54 Y192.397 E61.82629
G1 X117.989 Y194.526 E61.98934
G1 X116.299 Y196.579 E62.15394
G1 X114.499 Y198.519 E62.31776
G1 X112.587 Y200.349 E62.48159
G1 X110.574 Y202.06 E62.64512
G1 X108.457 Y203.653 E62.80912
G1 X106.251 Y205.117 E62.97301
G1 X105.765 Y205.344 E63.00621
G1 X105.245 Y205.452 E63.03909
G1 X104.712 Y205.435 E63.0721
G1 X104.204 Y205.295 E63.10472
G1 X103.738 Y205.039 E63.13763
G1 X103.347 Y204.683 E63.17036
G1 X103.048 Y204.243 E63.20329
G1 X102.86 Y203.744 E63.2363
G1 X102.794 Y203.223 E63.26881
G1 X102.87 Y202.661 E63.30391
G1 X103.082 Y202.141 E63.33867
G1 X103.421 Y201.681 E63.37404
G1 X103.87 Y201.317 E63.40982
G1 X106.001 Y199.897 E63.56833
G1 X108.047 Y198.337 E63.7276
G1 X109.989 Y196.649 E63.88687
G1 X111.819 Y194.84 E64.04616
G1 X113.53 Y192.918 E64.20544
G1 X115.115 Y190.89 E64.36477
G1 X116.566 Y188.765 E64.52405
G1 X117.879 Y186.552 E64.68333
G1 X119.048 Y184.26 E64.84259
G1 X120.067 Y181.897 E65.00189
G1 X120.935 Y179.475 E65.16115
G1 X121.645 Y177.001 E65.32047
G1 X122.195 Y174.487 E65.47977
G1 X122.584 Y171.944 E65.63901
G1 X122.81 Y169.38 E65.79834
G1 X122.871 Y166.808 E65.9576
G1 X122.767 Y164.237 E66.11687
G1 X122.5 Y161.677 E66.2762
G1 X122.069 Y159.14 E66.43549
G1 X121.477 Y156.636 E66.59476
G1 X120.726 Y154.175 E66.75403
G1 X119.82 Y151.766 E66.91335
G1 X118.762 Y149.42 E67.07265
G1 X117.555 Y147.148 E67.23191
G1 X116.206 Y144.957 E67.39118
G1 X114.719 Y142.856 E67.55051
G1 X113.102 Y140.855 E67.70976
G1 X111.359 Y138.961 E67.86909
G1 X109.5 Y137.182 E68.02836
G1 X107.531 Y135.526 E68.18762
G1 X105.459 Y133.999 E68.34695
G1 X103.294 Y132.608 E68.50624
G1 X101.045 Y131.358 E68.66551
G1 X98.72 Y130.255 E68.8248
G1 X96.33 Y129.302 E68.98408
G1 X93.884 Y128.503 E69.14336
G1 X91.391 Y127.864 E69.30266
G1 X88.863 Y127.384 E69.46195
G1 X86.31 Y127.067 E69.62119
G0 F6000 X86.358 Y126.542
G1 F2400 E68.02119
G0 F6000 X91.443 Y127.63
G0 X93.951 Y128.273
G0 X95.39 Y128.781
G0 X101.581 Y130.317
G0 X109.17 Y128.983
;TYPE:SKIN
G1 F2400 E69.62119
G1 F900 X108.999 Y128.857 E69.63434
G1 X108.631 Y128.62 E69.66143
G1 X109.17 Y128.62 E69.6948
G1 X109.17 Y128.983 E69.71727
G0 F6000 X108.726 Y129.252
G1 F900 X106.997 Y128.14 E69.84452
G1 X109.65 Y128.14 E70.00874
G1 X109.65 Y129.934 E70.11979
G1 X108.726 Y129.252 E70.19088
G0 F6000 X108.453 Y129.647
G1 F900 X106.01 Y128.076 E70.37067
G1 X105.262 Y127.66 E70.42365
G1 X110.13 Y127.66 E70.72499
G1 X110.13 Y130.884 E70.92455
G1 X108.453 Y129.647 E71.05355
G0 F6000 X108.18 Y130.042
G1 F900 X105.763 Y128.488 E71.23142
G1 X103.412 Y127.18 E71.39795
G1 X110.61 Y127.18 E71.84351
G1 X110.61 Y131.846 E72.13234
G1 X110.502 Y131.755 E72.14108
G1 X108.18 Y130.042 E72.3197
G0 F6000 X107.907 Y130.437
G1 F900 X105.516 Y128.9 E72.49564
G1 X103.025 Y127.514 E72.6721
G1 X101.304 Y126.7 E72.78994
G1 X111.09 Y126.7 E73.3957
G1 X111.09 Y132.876 E73.778
G1 X110.205 Y132.132 E73.84957
G1 X107.907 Y130.437 E74.02633
G0 F6000 X107.635 Y130.832
G1 F900 X105.269 Y129.312 E74.2004
G1 X102.805 Y127.941 E74.37495
G1 X100.256 Y126.735 E74.5495
G1 X98.973 Y126.22 E74.63508
G1 X111.57 Y126.22 E75.41484
G1 X111.57 Y133.907 E75.89067
G1 X109.908 Y132.509 E76.02511
G1 X107.635 Y130.832 E76.19996
G0 F6000 X107.363 Y131.227
G1 F900 X105.022 Y129.724 E76.37216
G1 X102.585 Y128.368 E76.54479
G1 X100.064 Y127.175 E76.71744
G1 X97.478 Y126.138 E76.8899
G1 X96.253 Y125.74 E76.96963
G1 X112.05 Y125.74 E77.94748
G1 X112.05 Y134.294 E78.47698
G1 X114.63 Y133.923 E78.63832
G1 X114.234 Y135.065 E78.71314
G1 X114 Y136.573 E78.80761
G1 X114.007 Y136.878 E78.82649
G1 X113.759 Y136.609 E78.84914
G1 X111.746 Y134.682 E79.02164
G1 X109.611 Y132.886 E79.19434
G1 X107.363 Y131.227 E79.36728
G0 F6000 X107.091 Y131.623
G1 F900 X104.775 Y130.136 E79.53765
G1 X102.365 Y128.795 E79.70837
G1 X99.872 Y127.615 E79.8791
G1 X97.314 Y126.59 E80.04968
G1 X94.688 Y125.736 E80.22061
G1 X92.831 Y125.26 E80.33928
G1 X112.53 Y125.26 E81.55866
G1 X112.53 Y133.74 E82.08358
G1 X115.453 Y133.32 E82.26637
G1 X115.177 Y133.811 E82.30124
G1 X114.702 Y135.181 E82.39099
G1 X114.481 Y136.605 E82.48019
G1 X114.513 Y138.047 E82.56948
G1 X114.535 Y138.158 E82.57648
G1 X113.416 Y136.945 E82.67864
G1 X111.425 Y135.039 E82.84925
G1 X109.314 Y133.263 E83.02002
G1 X107.091 Y131.623 E83.19102
G0 F6000 X106.819 Y132.019
G1 F900 X104.528 Y130.548 E83.35955
G1 X102.145 Y129.222 E83.52835
G1 X99.68 Y128.055 E83.69718
G1 X97.15 Y127.042 E83.86587
G1 X94.554 Y126.197 E84.03486
G1 X91.911 Y125.52 E84.20375
G1 X89.233 Y125.014 E84.37245
G1 X87.356 Y124.78 E84.48954
G1 X113.01 Y124.78 E86.07754
G1 X113.01 Y133.186 E86.59788
G1 X116.384 Y132.702 E86.80887
G1 X116.282 Y132.826 E86.81881
G1 X115.616 Y134.009 E86.90284
G1 X115.17 Y135.297 E86.98721
G1 X114.962 Y136.637 E87.07115
G1 X114.992 Y137.994 E87.15517
G1 X115.26 Y139.326 E87.23928
G1 X115.558 Y140.073 E87.28906
G1 X114.922 Y139.285 E87.35174
G1 X113.073 Y137.281 E87.52053
G1 X111.104 Y135.396 E87.68926
G1 X109.017 Y133.64 E87.85809
G1 X106.819 Y132.019 E88.02715
G0 F6000 X106.547 Y132.415
G1 F900 X104.281 Y130.96 E88.19384
G1 X101.925 Y129.649 E88.36074
G1 X99.488 Y128.495 E88.52765
G1 X96.986 Y127.494 E88.69446
G1 X94.42 Y126.658 E88.86151
G1 X91.807 Y125.989 E89.02848
G1 X89.159 Y125.488 E89.1953
G1 X86.486 Y125.155 E89.36204
G1 X83.794 Y124.994 E89.52897
G1 X81.098 Y125.005 E89.69586
G1 X78.408 Y125.189 E89.86276
