; generated by PrusaSlicer 2.8.1+win64 on 2024-11-11 at 18:01:10 UTC

; 

; external perimeters extrusion width = 0.44mm
; perimeters extrusion width = 0.44mm
; infill extrusion width = 0.44mm
; solid infill extrusion width = 0.44mm
; top infill extrusion width = 0.40mm
; support material extrusion width = 0.44mm
; first layer extrusion width = 0.44mm

; external perimeters extrusion width = 0.44mm
; perimeters extrusion width = 0.44mm
; infill extrusion width = 0.44mm
; solid infill extrusion width = 0.44mm
; top infill extrusion width = 0.40mm
; support material extrusion width = 0.44mm
; first layer extrusion width = 0.44mm

; external perimeters extrusion width = 0.44mm
; perimeters extrusion width = 0.44mm
; infill extrusion width = 0.44mm
; solid infill extrusion width = 0.44mm
; top infill extrusion width = 0.40mm
; support material extrusion width = 0.44mm
; first layer extrusion width = 0.44mm

; external perimeters extrusion width = 0.44mm
; perimeters extrusion width = 0.44mm
; infill extrusion width = 0.44mm
; solid infill extrusion width = 0.44mm
; top infill extrusion width = 0.40mm
; support material extrusion width = 0.44mm
; first layer extrusion width = 0.44mm

; external perimeters extrusion width = 0.44mm
; perimeters extrusion width = 0.44mm
; infill extrusion width = 0.44mm
; solid infill extrusion width = 0.44mm
; top infill extrusion width = 0.40mm
; support material extrusion width = 0.44mm
; first layer extrusion width = 0.44mm

M73 P0 R51
M190 S40 ; set bed temperature and wait for it to be reached
;TYPE:Custom
;G28 ; home all axes
;G1 Z5 F5000 ; lift nozzle
M109 S230
G28 ;home
G92 E0 ;Reset Extruder
G1 Z4.0 F3000 ;Move Z Axis up
G92 E0 ;Reset Extruder
G1 X3.1 Y20 Z0.28 F5000.0 ;Move to start position
G1 X3.1 Y80.0 Z0.28 F1500.0 E10 ;Draw the first line
G1 X3.4 Y80.0 Z0.28 F5000.0 ;Move to side a little
G1 X3.4 Y20 Z0.28 F1500.0 E20 ;Draw the second line
G92 E0 ;Reset Extruder
G1 Z2.0 F3000 ;Move Z Axis up
G21 ; set units to millimeters
G90 ; use absolute coordinates
M82 ; use absolute distances for extrusion
G92 E0
; Filament gcode
M107
;LAYER_CHANGE
;Z:0.2
;HEIGHT:0.2
G1 E-2 F2400
G1 Z.2 F9000
G1 X24.958 Y150.248
G1 E0 F2400
;TYPE:Skirt/Brim
;WIDTH:0.44
G1 F900
G1 X26.427 Y150.118 E.04626
G1 X60.035 Y148.614 E1.10148
G1 X61.864 Y148.777 E1.15908
G1 X63.947 Y149.293 E1.22639
G1 X65.892 Y150.133 E1.29284
G1 X67.701 Y151.3 E1.36036
G1 X69.074 Y152.521 E1.41799
G1 X70.428 Y154.161 E1.4847
G1 X71.369 Y155.739 E1.54233
G1 X72.171 Y157.729 E1.60963
G1 X72.501 Y159.022 E1.65149
G1 X76.746 Y179.965 E2.32176
G1 X76.869 Y181.196 E2.36056
G1 X76.869 Y192.914 E2.72811
G1 X76.473 Y195.096 E2.79767
G1 X75.054 Y197.297 E2.87981
G1 X52.359 Y216.537 E3.81306
G1 X50.437 Y217.643 E3.88262
G1 X48.355 Y218.003 E3.94889
G1 X42.977 Y218.003 E4.11758
G1 X40.47 Y217.474 E4.19795
G1 X12.805 Y205.241 E5.14675
G1 X10.929 Y203.955 E5.21809
G1 X9.288 Y202.314 E5.29088
G1 X8.025 Y200.49 E5.36047
G1 X7.472 Y197.931 E5.44259
G1 X7.472 Y190.713 E5.66899
G1 X7.536 Y189.83 E5.69676
G1 X11.942 Y159.227 E6.66656
G1 X12.646 Y157.123 E6.73615
G1 X14.045 Y155.402 E6.80572
G1 X15.026 Y154.714 E6.8433
G1 X20.907 Y151.444 E7.05436
G1 X22.889 Y150.697 E7.1208
G1 X24.9 Y150.261 E7.18534
G1 E5.18534 F2400
G92 E0
G1 X24.9 Y150.261 F9000
G92 E0
G1 X32.564 Y171.668
G1 E2 F2400
;TYPE:External perimeter
;WIDTH:0.439999
G1 F540
G1 X32.508 Y171.783 E2.00401
G1 X32.508 Y172.626 E2.03045
;WIDTH:0.482229
G1 X32.486 Y172.9 E2.03999
;WIDTH:0.524459
G1 X32.465 Y173.173 E2.05041
G1 X32.466 Y174.443 E2.09872
;WIDTH:0.526883
G1 X32.468 Y174.485 E2.10033
G1 X32.681 Y174.67 E2.11112
;WIDTH:0.483441
G1 X32.895 Y174.856 E2.12099
;WIDTH:0.439999
G1 X33.066 Y175.184 E2.13259
G1 X33.094 Y175.586 E2.14523
G1 X33.014 Y175.8 E2.1524
G1 X32.799 Y176.085 E2.1636
G1 X31.947 Y176.085 E2.19032
G1 X31.945 Y175.223 E2.21736
;WIDTH:0.481621
G1 X31.966 Y174.834 E2.23086
;WIDTH:0.523243
G1 X31.986 Y174.444 E2.24568
;WIDTH:0.524459
G1 X31.984 Y173.174 E2.29399
;WIDTH:0.529845
G1 X31.981 Y173.123 E2.29596
G1 X31.837 Y172.739 E2.31173
;WIDTH:0.484922
G1 X31.692 Y172.355 E2.32606
;WIDTH:0.439999
G1 X31.348 Y171.917 E2.34353
G1 X31.348 Y170.667 E2.38274
G1 X31.662 Y170.425 E2.39517
G1 X32.086 Y170.057 E2.41278
G1 X32.547 Y169.607 E2.43299
G1 X33.122 Y168.89 E2.46182
G1 X33.606 Y168.105 E2.49075
G1 X33.991 Y167.266 E2.5197
G1 X34.271 Y166.387 E2.54864
G1 X34.44 Y165.484 E2.57746
G1 X34.491 Y164.869 E2.59682
;WIDTH:0.464128
G1 X34.501 Y164.25 E2.61742
G1 X34.428 Y163.639 E2.63789
;WIDTH:0.443765
G1 X34.297 Y162.944 E2.66028
G1 X34.16 Y162.408 E2.6778
;WIDTH:0.442859
G1 X33.968 Y161.847 E2.69653
;WIDTH:0.445275
G1 X33.75 Y161.349 E2.71381
G1 X33.438 Y160.756 E2.73511
;WIDTH:0.445448
G1 X33.078 Y160.215 E2.75577
G1 X32.621 Y159.847 E2.77443
;WIDTH:0.439999
G1 X32.158 Y159.654 E2.79016
G1 X31.795 Y159.591 E2.80172
G1 X28.719 Y159.585 E2.8982
G1 X27.836 Y159.356 E2.92681
G1 X27.117 Y159.287 E2.94947
G1 X26.09 Y159.361 E2.98177
G1 X25.236 Y159.585 E3.00946
G1 X22.302 Y159.585 E3.10149
G1 X21.797 Y159.654 E3.11748
G1 X21.322 Y159.853 E3.13363
G1 X20.833 Y160.251 E3.15341
G1 X20.486 Y160.759 E3.17271
G1 X20.197 Y161.303 E3.19203
G1 X19.948 Y161.884 E3.21186
G1 X19.678 Y162.749 E3.24028
G1 X19.552 Y163.369 E3.26012
G1 X19.463 Y164.274 E3.28864
G1 X19.485 Y165.197 E3.3176
G1 X19.62 Y166.11 E3.34655
G1 X19.866 Y167 E3.37551
G1 X20.22 Y167.853 E3.40448
G1 X20.675 Y168.656 E3.43343
G1 X21.224 Y169.397 E3.46236
G1 X21.843 Y170.032 E3.49018
G1 X22.608 Y170.67 E3.52142
G1 X22.608 Y171.917 E3.56053
G1 X22.263 Y172.355 E3.57802
G1 X22.119 Y172.673 E3.58897
;WIDTH:0.482229
G1 X22.045 Y172.923 E3.59802
;WIDTH:0.524458
G1 X21.971 Y173.174 E3.60797
G1 X21.969 Y174.443 E3.65624
;WIDTH:0.523243
G1 X21.99 Y174.679 E3.66523
;WIDTH:0.481621
G1 X22.01 Y174.915 E3.67344
;WIDTH:0.439999
G1 X22.008 Y176.085 E3.71014
G1 X21.145 Y176.085 E3.73721
G1 X20.93 Y175.806 E3.74826
G1 X20.846 Y175.43 E3.76034
G1 X20.908 Y175.126 E3.77007
G1 X21.078 Y174.844 E3.7804
G1 X21.37 Y174.6 E3.79234
;WIDTH:0.48162
G1 X21.43 Y174.521 E3.79578
;WIDTH:0.523241
G1 X21.489 Y174.443 E3.79949
;WIDTH:0.524458
G1 X21.49 Y173.173 E3.8478
G1 X21.469 Y172.908 E3.85791
;WIDTH:0.482229
G1 X21.448 Y172.644 E3.8671
;WIDTH:0.439999
G1 X21.448 Y171.809 E3.89329
G1 X21.376 Y171.63 E3.89934
G1 X21.249 Y171.585 E3.90357
G1 X18.448 Y171.585 E3.99143
G1 X18.448 Y160.326 E4.34458
G1 X23.067 Y157.714 E4.51102
M73 P0 R50
G1 X23.949 Y157.284 E4.5418
M73 P1 R50
G1 X24.785 Y156.99 E4.5696
G1 X25.873 Y156.765 E4.60445
G1 X26.505 Y156.692 E4.62441
G1 X27.114 Y156.678 E4.64352
G1 X27.696 Y156.71 E4.6618
G1 X28.47 Y156.83 E4.68637
G1 X29.151 Y156.983 E4.70826
G1 X29.691 Y157.159 E4.72607
G1 X30.203 Y157.369 E4.74343
G1 X31.02 Y157.795 E4.77233
G1 X31.733 Y158.273 E4.79925
G1 X32.268 Y158.725 E4.82122
G1 X32.8 Y159.246 E4.84458
;WIDTH:0.441164
G1 X33.177 Y159.687 E4.86283
;WIDTH:0.444514
G1 X33.532 Y160.158 E4.88154
G1 X33.789 Y160.592 E4.89754
;WIDTH:0.445275
G1 X34.114 Y161.179 E4.91887
G1 X34.344 Y161.71 E4.93726
;WIDTH:0.442859
G1 X34.546 Y162.302 E4.95702
;WIDTH:0.443765
G1 X34.691 Y162.871 E4.97561
G1 X34.824 Y163.6 E4.99907
;WIDTH:0.466637
G1 X34.924 Y164.231 E5.02045
G1 X35.043 Y164.82 E5.04056
;WIDTH:0.439999
G1 X36.255 Y171.585 E5.25613
G1 X32.706 Y171.585 E5.36745
G1 X32.598 Y171.622 E5.37103
G1 X32.516 Y172.013 F9000
G1 X31.486 Y171.466
;TYPE:Solid infill
;WIDTH:0.445206
G1 F900
G1 X32.192 Y172.171 E5.40274
G1 X32.193 Y171.701 E5.41768
G1 X32.228 Y171.639 E5.41994
G1 X31.665 Y171.076 E5.44524
G1 X31.665 Y170.823 E5.45328
G1 X31.843 Y170.685 E5.46044
G1 X32.48 Y171.322 E5.48907
G1 X32.695 Y171.267 E5.49612
G1 X32.994 Y171.267 E5.50562
G1 X32.158 Y170.431 E5.54319
G1 X32.445 Y170.149 E5.55598
G1 X33.563 Y171.267 E5.60622
G1 X34.132 Y171.267 E5.6243
G1 X32.733 Y169.868 E5.68717
G1 X32.992 Y169.559 E5.69998
G1 X34.701 Y171.267 E5.77676
G1 X35.27 Y171.267 E5.79484
G1 X33.245 Y169.242 E5.88584
G1 X33.483 Y168.911 E5.8988
G1 X35.839 Y171.267 E6.00468
G1 X35.875 Y171.267 E6.00582
G1 X35.759 Y170.618 E6.02677
G1 X33.7 Y168.56 E6.11928
G1 X33.909 Y168.2 E6.13251
G1 X35.635 Y169.925 E6.21005
G1 X35.511 Y169.232 E6.23242
G1 X34.089 Y167.81 E6.29633
G1 X34.268 Y167.421 E6.30994
G1 X35.386 Y168.539 E6.36018
G1 X35.262 Y167.846 E6.38255
G1 X34.41 Y166.994 E6.42084
G1 X34.547 Y166.562 E6.43524
G1 X35.138 Y167.153 E6.4618
G1 X35.014 Y166.46 E6.48417
G1 X34.648 Y166.094 E6.50062
G1 X34.738 Y165.615 E6.51611
G1 X35.111 Y165.988 E6.53287
G1 E4.53287 F2400
G92 E0
G1 X35.111 Y165.988 F9000
G1 X32.71 Y159.609
G1 E2 F2400
;WIDTH:0.446987
G1 F900
G1 X31.947 Y158.856 E2.03422
G1 X31.518 Y158.508 E2.05185
G1 X30.812 Y158.038 E2.07892
G1 X30.311 Y157.782 E2.09688
G1 X31.808 Y159.278 E2.16443
G1 X31.235 Y159.276 E2.18272
G1 X29.333 Y157.374 E2.26858
G1 X29.009 Y157.271 E2.27943
G1 X28.561 Y157.174 E2.29406
G1 X30.661 Y159.274 E2.38885
G1 X30.088 Y159.272 E2.40714
G1 X27.865 Y157.05 E2.50746
G1 X27.246 Y157.003 E2.52727
G1 X29.514 Y159.27 E2.62962
G1 X28.941 Y159.268 E2.64791
G1 X26.678 Y157.006 E2.75004
G1 X26.466 Y157.011 E2.75681
G1 X26.151 Y157.05 E2.76694
G1 X28.229 Y159.128 E2.86074
G1 X27.919 Y159.047 E2.87097
G1 X27.541 Y159.011 E2.88309
G1 X25.643 Y157.113 E2.96876
G1 X25.625 Y157.115 E2.96934
G1 X25.18 Y157.222 E2.98395
G1 X26.937 Y158.979 E3.06326
G1 X26.404 Y159.017 E3.08032
G1 X24.727 Y157.34 E3.15602
G1 X24.308 Y157.492 E3.17025
G1 X25.901 Y159.085 E3.24216
G1 X25.446 Y159.203 E3.25716
G1 X23.899 Y157.655 E3.32701
G1 X23.517 Y157.844 E3.34061
G1 X24.94 Y159.267 E3.40484
G1 X24.368 Y159.267 E3.4231
G1 X23.139 Y158.038 E3.47858
G1 X22.774 Y158.244 E3.49196
G1 X23.797 Y159.267 E3.53814
G1 X23.225 Y159.267 E3.5564
G1 X22.409 Y158.451 E3.59323
G1 X22.044 Y158.657 E3.60661
G1 X22.654 Y159.267 E3.63415
G1 X22.295 Y159.267 E3.64561
G1 X22.105 Y159.29 E3.65172
G1 X21.679 Y158.864 E3.67095
G1 X21.314 Y159.07 E3.68433
G1 X21.632 Y159.389 E3.69871
G1 X21.219 Y159.547 E3.71282
G1 X20.949 Y159.276 E3.72503
G1 X20.584 Y159.483 E3.73842
G1 X20.892 Y159.791 E3.75232
G1 X20.664 Y159.969 E3.76155
G1 X20.585 Y160.055 E3.76528
G1 X20.219 Y159.689 E3.7818
G1 X19.854 Y159.896 E3.79519
G1 X20.352 Y160.394 E3.81767
G1 X20.133 Y160.747 E3.83093
G1 X19.489 Y160.102 E3.86002
G1 X19.124 Y160.308 E3.8734
G1 X19.935 Y161.12 E3.91003
G1 X19.761 Y161.517 E3.92387
G1 X18.765 Y160.521 E3.96883
G1 X18.765 Y161.093 E3.98709
G1 X19.601 Y161.929 E4.02483
G1 X19.465 Y162.364 E4.03938
G1 X18.765 Y161.664 E4.07098
G1 X18.765 Y162.236 E4.08924
G1 X19.343 Y162.813 E4.11531
G1 X19.246 Y163.288 E4.13078
G1 X18.765 Y162.807 E4.15249
G1 X18.765 Y163.379 E4.17075
G1 X19.189 Y163.803 E4.18989
G1 X19.149 Y164.334 E4.20689
G1 X18.765 Y163.95 E4.22422
G1 X18.765 Y164.521 E4.24245
G1 X19.161 Y164.917 E4.26033
G1 X19.166 Y165.187 E4.26895
G1 X19.218 Y165.546 E4.28053
G1 X18.765 Y165.093 E4.30098
G1 X18.765 Y165.664 E4.31921
G1 X19.321 Y166.22 E4.34431
G1 X19.542 Y167.012 E4.37056
G1 X18.765 Y166.236 E4.40561
G1 X18.765 Y166.807 E4.42384
G1 X20.388 Y168.43 E4.4971
G1 E2.4971 F2400
G92 E0
G1 X20.388 Y168.43 F9000
G1 X18.586 Y170.629
G1 E2 F2400
G1 F900
G1 X19.225 Y171.267 E2.02882
G1 X19.797 Y171.267 E2.04708
G1 X18.765 Y170.236 E2.09364
G1 X18.765 Y169.664 E2.1119
G1 X20.368 Y171.267 E2.18426
G1 X20.94 Y171.267 E2.20252
G1 X18.765 Y169.093 E2.30068
G1 X18.765 Y168.522 E2.31891
G1 X22.169 Y171.925 E2.47254
G1 X22.29 Y171.79 E2.47833
G1 X22.29 Y171.475 E2.48838
G1 X18.765 Y167.95 E2.6475
G1 X18.765 Y167.379 E2.66573
G1 X22.469 Y171.082 E2.8329
G1 X22.469 Y171.082 F9000
G1 X22.084 Y172.411
G1 F900
G1 X21.763 Y172.091 E2.84737
G1 X21.765 Y172.631 E2.86461
G1 X21.774 Y172.673 E2.86598
G1 X21.913 Y172.812 E2.87225
G1 E.87225 F2400
G92 E0
G1 X21.913 Y172.812 F9000
G1 X21.87 Y175.479
G1 E2 F2400
;WIDTH:0.519415
G1 F900
G1 X21.382 Y174.991 E2.02598
G1 X21.245 Y175.145 E2.03374
G1 X21.186 Y175.282 E2.03935
G1 X21.17 Y175.452 E2.04578
G1 X21.663 Y175.946 E2.07205
G1 E.07205 F2400
G92 E0
G1 X21.663 Y175.946 F9000
G1 X32.828 Y175.844
G1 E2 F2400
;WIDTH:0.459909
G1 F900
G1 X32.266 Y175.281 E2.0262
G1 X32.266 Y174.909 E2.03845
G1 X32.298 Y174.767 E2.04324
G1 X32.598 Y175.024 E2.05625
G1 X32.955 Y175.381 E2.07288
G1 E.07288 F2400
G92 E0
G1 X32.955 Y175.381 F9000
G92 E0
G1 X20.703 Y189.397
G1 E2 F2400
;TYPE:External perimeter
;WIDTH:0.649042
G1 F210
G1 X20.965 Y189.375 E2.01259
;WIDTH:0.605786
G1 X21.228 Y189.353 E2.02432
;WIDTH:0.562529
G1 X21.49 Y189.332 E2.03511
;WIDTH:0.519272
G1 X22.036 Y189.323 E2.05566
;WIDTH:0.54553
G1 X22.593 Y189.345 E2.07779
;WIDTH:0.549362
G1 X22.621 Y189.347 E2.07891
G1 X22.221 Y189.351 F9000
G1 E.07891 F2400
G92 E0
G1 X23.139 Y199.248 F9000
G1 E2 F2400
;WIDTH:0.649044
G1 F210
G1 X22.876 Y199.269 E2.01263
;WIDTH:0.605788
G1 X22.614 Y199.291 E2.02432
;WIDTH:0.562532
G1 X22.352 Y199.312 E2.03511
;WIDTH:0.519276
G1 X21.796 Y199.321 E2.05603
;WIDTH:0.545566
G1 X21.248 Y199.299 E2.07781
;WIDTH:0.549366
G1 X21.22 Y199.297 E2.07893
G1 X21.62 Y199.293 F9000
G1 X23.139 Y199.248
;WIDTH:0.649044
G1 F210
G1 X23.286 Y199.185 E2.08659
;WIDTH:0.609031
G1 X23.433 Y199.122 E2.09374
;WIDTH:0.569018
G1 X23.58 Y199.059 E2.10039
;WIDTH:0.529004
G1 X24.615 Y198.723 E2.14217
G1 X25.395 Y198.721 E2.17212
;WIDTH:0.50044
G1 X27.549 Y198.715 E2.24997
;WIDTH:0.500611
G1 X27.566 Y198.715 E2.25058
;WIDTH:0.533953
G1 X28.178 Y198.688 E2.27434
;WIDTH:0.547487
G1 X28.624 Y198.6 E2.29246
G1 X28.96 Y198.589 E2.30586
;WIDTH:0.533801
G1 X29.222 Y198.529 E2.31628
G1 X29.005 Y198.718 E2.32744
;WIDTH:0.547487
G1 X28.407 Y199.179 E2.35753
G1 X28.192 Y199.178 E2.3661
;WIDTH:0.533953
G1 X27.55 Y199.172 E2.391
;WIDTH:0.50044
G1 X25.391 Y199.177 E2.46903
;WIDTH:0.529004
G1 X24.635 Y199.208 E2.49808
G1 X23.627 Y199.307 E2.53697
;WIDTH:0.569018
G1 X23.464 Y199.287 E2.54379
;WIDTH:0.609031
G1 X23.302 Y199.267 E2.55109
;WIDTH:0.649044
G1 X23.198 Y199.255 E2.5561
G1 X23.551 Y199.067 F9000
G1 E.5561 F2400
G92 E0
G1 X29.321 Y190.291 F9000
G1 E2 F2400
;WIDTH:0.60546
G1 F210
G1 X29.43 Y190.376 E2.00614
;WIDTH:0.570648
G1 X29.539 Y190.46 E2.01188
;WIDTH:0.535836
G1 X29.648 Y190.545 E2.01726
;WIDTH:0.501024
G1 X29.787 Y190.746 E2.0261
G1 X29.826 Y190.881 E2.03119
G1 X29.829 Y191.44 E2.05142
;WIDTH:0.462809
G1 X29.818 Y192.157 E2.0752
;WIDTH:0.441862
G1 X29.82 Y195.872 E2.19227
;WIDTH:0.450539
G1 X29.815 Y196.977 E2.22785
;WIDTH:0.482646
G1 X29.816 Y197.367 E2.2414
;WIDTH:0.514753
G1 X29.817 Y197.756 E2.2559
G1 X29.82 Y197.835 E2.25885
G1 X29.632 Y198.106 E2.27114
G1 X29.251 Y198.502 E2.29162
;WIDTH:0.502804
G1 X29.322 Y198.346 E2.29785
;WIDTH:0.514753
G1 X29.382 Y197.295 E2.33709
;WIDTH:0.479189
G1 X29.417 Y196.852 E2.3524
;WIDTH:0.443625
G1 X29.422 Y195.869 E2.38352
;WIDTH:0.441862
G1 X29.42 Y192.157 E2.5005
;WIDTH:0.445422
G1 X29.421 Y191.935 E2.50756
;WIDTH:0.464292
G1 X29.409 Y191.429 E2.52441
;WIDTH:0.501024
G1 X29.37 Y190.899 E2.54364
;WIDTH:0.535836
G1 X29.353 Y190.696 E2.55157
;WIDTH:0.570648
G1 X29.337 Y190.494 E2.56002
;WIDTH:0.60546
G1 X29.325 Y190.351 E2.5664
G1 X29.669 Y190.555 F9000
G1 E.5664 F2400
G92 E0
G1 X22.621 Y189.347 F9000
G1 E2 F2400
;WIDTH:0.549362
G1 F210
G1 X22.796 Y189.324 E2.00706
;WIDTH:0.503578
G1 X22.97 Y189.301 E2.01345
;WIDTH:0.457793
G1 X23.144 Y189.278 E2.0192
;WIDTH:0.412008
G1 X23.633 Y189.279 E2.03346
;WIDTH:0.44737
G1 X23.961 Y189.336 E2.0441
;WIDTH:0.482732
G1 X24.289 Y189.393 E2.05567
;WIDTH:0.518094
G1 X24.617 Y189.45 E2.06817
;WIDTH:0.54654
G1 X24.899 Y189.477 E2.07944
;WIDTH:0.574986
G1 X25.181 Y189.504 E2.09135
;WIDTH:0.580374
G1 X27.699 Y189.5 E2.19825
;WIDTH:0.580945
G1 X27.731 Y189.5 E2.19961
;WIDTH:0.601556
G1 X28.381 Y189.509 E2.2283
G1 X29.018 Y189.988 E2.26347
G1 X29.288 Y190.255 E2.28023
;WIDTH:0.601395
G1 X29.125 Y190.176 E2.28822
;WIDTH:0.601574
G1 X28.253 Y190.065 E2.32701
G1 X27.699 Y190.037 E2.35149
;WIDTH:0.580374
G1 X25.181 Y190.036 E2.45839
;WIDTH:0.574986
G1 X25.095 Y190.036 E2.462
G1 X24.955 Y189.95 E2.46891
;WIDTH:0.549549
G1 X24.613 Y189.924 E2.48264
;WIDTH:0.518094
G1 X24.385 Y189.856 E2.49157
;WIDTH:0.489923
G1 X24.156 Y189.787 E2.50002
;WIDTH:0.461751
