;FLAVOR:Marlin
;TIME:897
;Filament used: 1.10294m
;Layer height: 0.3
;Generated with Cura_SteamEngine 3.6.0
M140 S30
M105
M190 S30
M104 S220
M105
M109 S220
M82 ;absolute extrusion mode
G21 ;metric values
G90 ;absolute positioning
M82 ;set extruder to absolute mode
M107 ;start with the fan off
G28 X0 Y0 ;move X/Y to min endstops
G28 Z0 ;move Z to min endstops
G1 Z15.0 F120 ;move the platform down 15mm
G92 E0 ;zero the extruded length
G1 F200 E3 ;extrude 3mm of feed stock
G92 E0 ;zero the extruded length again
G1 F120
M117 Printing...
G5
G92 E0
G1 F2700 E-6
;LAYER_COUNT:14
;LAYER:0
M106 S255
M204 S3000
M205 X10 Y10
;MESH:CVD19_-_BrimShield_-_Original.stl(3)
G0 F2400 X45.581 Y148.24 Z0.3
M204 S1800
M205 X8 Y8
;TYPE:WALL-INNER
G1 F2700 E0
G1 F1200 X45.263 Y147.938 E0.02879
G1 X44.899 Y147.705 E0.05717
G1 X44.496 Y147.544 E0.08566
G1 X44.071 Y147.462 E0.11408
G1 X43.662 Y147.462 E0.14093
G1 X43.67 Y147.422
G1 X43.676 Y146.211 E0.22044
G1 X43.699 Y146.166 E0.22376
G1 X43.757 Y146.137 E0.22802
G1 X48.276 Y146.137 E0.52472
G1 X48.29 Y146.137 E0.52563
G1 X48.646 Y146.136 E0.54901
G1 X49.028 Y146.135 E0.57409
G1 X49.236 Y146.134 E0.58774
G1 X49.029 Y146.22 E0.58959
G1 X48.647 Y146.433 E0.60114
G1 X48.291 Y146.686 E0.62374
G1 X48.281 Y146.695 E0.62461
G1 X47.962 Y146.981 E0.65274
G1 X47.674 Y147.306 E0.68125
G1 X47.419 Y147.665 E0.71017
G1 X47.21 Y148.05 E0.73893
G1 X47.045 Y148.45 E0.76734
G1 X46.928 Y148.854 E0.79495
G1 X46.879 Y149.107 E0.81187
G1 X46.833 Y149.521 E0.83922
G1 X46.833 Y149.96 E0.86804
G1 X46.884 Y150.397 E0.89693
G1 X46.982 Y150.822 E0.92556
G1 X47.128 Y151.234 E0.95426
G1 X47.317 Y151.626 E0.98283
G1 X47.551 Y151.997 E1.01163
G1 X47.812 Y152.323 E1.03905
G1 X47.99 Y152.512 E1.0561
G1 X48.287 Y152.774 E1.0821
G1 X48.305 Y152.79 E1.08368
G1 X48.662 Y153.043 E1.11241
G1 X49.045 Y153.251 E1.14102
G1 X49.237 Y153.331 E1.15468
G1 X49.045 Y153.331 E1.15534
G1 X48.662 Y153.331 E1.163
G1 X48.305 Y153.331 E1.17999
G1 X48.28 Y153.331 E1.1816
G1 X43.751 Y153.328 E1.47896
G1 X43.707 Y153.306 E1.48219
G1 X43.677 Y153.26 E1.48579
G1 X43.67 Y153.176 E1.49133
G1 X43.666 Y152.004 E1.56827
G1 X44.071 Y152.004 E1.59487
G1 X44.496 Y151.922 E1.62328
G1 X44.899 Y151.761 E1.65178
G1 X45.265 Y151.526 E1.68033
G1 X45.578 Y151.227 E1.70875
G1 X45.83 Y150.873 E1.73728
G1 X45.996 Y150.51 E1.76349
G1 X46.077 Y150.235 E1.78231
G1 X46.132 Y149.84 E1.8085
G1 X46.112 Y149.41 E1.83676
G1 X46.011 Y148.988 E1.86525
G1 X45.832 Y148.596 E1.89354
G1 X45.581 Y148.24 E1.92214
M204 S3000
M205 X10 Y10
G0 F2400 X49.611 Y146.543
G0 X50.2 Y146.408
G0 X52.71 Y146.274
M204 S1800
M205 X8 Y8
G1 F1200 X52.499 Y146.135 E1.93873
G1 X52.71 Y146.135 E1.93981
G1 X52.799 Y146.135
G1 X53.341 Y146.135 E1.9754
G1 X52.799 Y146.404 E1.98729
G1 X52.71 Y146.274 E1.99202
M204 S3000
M205 X10 Y10
G0 F2400 X56.298 Y146.136
M204 S1800
M205 X8 Y8
G1 F1200 X56.846 Y146.136 E2.028
G1 X56.298 Y146.403 E2.03979
G1 X56.031 Y146.136 E2.06458
G1 X56.298 Y146.136 E2.06719
M204 S3000
M205 X10 Y10
G0 F2400 X60.246 Y146.215
M204 S1800
M205 X8 Y8
G1 F1200 X59.848 Y146.453 E2.09764
G1 X59.532 Y146.137 E2.12698
G1 X59.848 Y146.137 E2.13109
G1 X60.246 Y146.137 E2.13955
G1 X60.396 Y146.137 E2.14165
G1 X60.246 Y146.215 E2.14331
M204 S3000
M205 X10 Y10
G0 F2400 X50.339 Y146.376
G0 X49.611 Y146.543
G0 X48.925 Y146.875
G0 X48.333 Y147.348
G0 X47.864 Y147.938
G0 X47.536 Y148.624
G0 X47.354 Y149.552
G0 X47.399 Y150.308
G0 X47.612 Y151.038
G0 X47.974 Y151.692
G0 X48.627 Y152.38
G0 X49.267 Y152.78
G0 X50.182 Y153.069
G0 X60.221 Y153.232
M204 S1800
M205 X8 Y8
G1 F1200 X60.382 Y153.327 E2.15558
G1 X60.166 Y153.327 E2.15827
G1 X60.167 Y153.2 E2.15987
G1 X60.221 Y153.232
M204 S3000
M205 X10 Y10
G0 F2400 X56.22 Y153.182
M204 S1800
M205 X8 Y8
G1 F1200 X56.301 Y153.063 E2.16932
G1 X56.844 Y153.329 E2.20902
G1 X56.301 Y153.329 E2.21669
G1 X56.22 Y153.329
G1 X56.001 Y153.329 E2.2256
G1 X56.22 Y153.182 E2.2297
M204 S3000
M205 X10 Y10
G0 F2400 X52.72 Y153.182
M204 S1800
M205 X8 Y8
G1 F1200 X52.801 Y153.063 E2.23915
G1 X53.346 Y153.33 E2.279
G1 X52.801 Y153.33 E2.28673
G1 X52.72 Y153.33
G1 X52.5 Y153.33 E2.29572
G1 X52.72 Y153.182 E2.2999
M204 S3000
M205 X10 Y10
G0 F2400 X59.677 Y153.147
G0 X59.607 Y153.077
M204 S1800
M205 X8 Y8
G1 F1200 X59.609 Y152.705 E2.32433
G1 X59.61 Y152.704 E2.32442
G1 X59.61 Y152.214 E2.35659
G1 X60.031 Y152.466 E2.37479
G1 X60.636 Y152.828 E2.42107
G1 X60.817 Y152.916 E2.43429
G1 X61.122 Y153.028 E2.45562
G1 X61.304 Y153.078 E2.46801
G1 X61.368 Y153.111 E2.47274
G1 X61.405 Y153.154 E2.47646
G1 X61.424 Y153.207 E2.48016
G1 X61.43 Y153.264 E2.48392
G1 X61.422 Y153.772 E2.51728
G1 X61.401 Y153.819 E2.52066
G1 X61.356 Y153.864 E2.52484
G1 X61.303 Y153.887 E2.52863
G1 X43.801 Y153.893 E3.67774
G1 X43.674 Y153.884 E3.68609
G1 X43.591 Y153.866 E3.69167
G1 X43.492 Y153.829 E3.69861
G1 X43.414 Y153.787 E3.70443
G1 X43.34 Y153.731 E3.71052
G1 X43.272 Y153.663 E3.71683
G1 X43.214 Y153.586 E3.72316
G1 X43.172 Y153.509 E3.72892
G1 X43.137 Y153.415 E3.73551
G1 X43.119 Y153.331 E3.74115
G1 X43.11 Y153.202 E3.74964
G1 X43.106 Y151.989 E3.82928
G1 X43.106 Y151.974 E3.83026
G1 X42.948 Y151.595 E3.85722
G1 X42.798 Y151.445 E3.87115
G1 X42.948 Y151.445 E3.87147
G1 X43.105 Y151.445 E3.87542
G1 X43.12 Y151.445 E3.87639
G1 X44.017 Y151.444 E3.93528
G1 X44.338 Y151.382 E3.95675
G1 X44.642 Y151.261 E3.97823
G1 X44.917 Y151.084 E3.9997
G1 X45.153 Y150.859 E4.02111
G1 X45.343 Y150.592 E4.04262
G1 X45.47 Y150.314 E4.06269
G1 X45.528 Y150.117 E4.07617
G1 X45.57 Y149.814 E4.09626
G1 X45.555 Y149.489 E4.11762
G1 X45.479 Y149.171 E4.13908
G1 X45.344 Y148.876 E4.16038
G1 X45.155 Y148.608 E4.18191
G1 X44.916 Y148.381 E4.20356
G1 X44.642 Y148.205 E4.22494
G1 X44.338 Y148.084 E4.24642
G1 X44.017 Y148.022 E4.26788
G1 X43.168 Y148.022 E4.32363
G1 X43.053 Y148.022 E4.33118
G1 X42.913 Y148.022 E4.34037
G1 X42.797 Y148.021 E4.34798
G1 X42.913 Y147.904 E4.35116
G1 X43.053 Y147.652 E4.36312
G1 X43.075 Y147.539 E4.36969
G1 X43.11 Y147.366 E4.38128
G1 X43.114 Y146.183 E4.45895
G1 X43.126 Y146.097 E4.46465
G1 X43.154 Y146 E4.47128
G1 X43.192 Y145.918 E4.47721
G1 X43.244 Y145.836 E4.48358
G1 X43.3 Y145.771 E4.48922
G1 X43.375 Y145.706 E4.49573
G1 X43.454 Y145.657 E4.50184
G1 X43.543 Y145.616 E4.50827
G1 X43.66 Y145.582 E4.51627
G1 X43.799 Y145.573 E4.52542
G1 X61.29 Y145.577 E5.6738
G1 X61.34 Y145.593 E5.67724
G1 X61.38 Y145.622 E5.68049
G1 X61.411 Y145.665 E5.68397
G1 X61.426 Y145.72 E5.68771
G1 X61.43 Y146.202 E5.71936
G1 X61.417 Y146.288 E5.72507
G1 X61.391 Y146.332 E5.72842
G1 X61.343 Y146.372 E5.73253
G1 X61.303 Y146.389 E5.73538
G1 X61.122 Y146.439 E5.74771
G1 X60.807 Y146.554 E5.76972
G1 X60.519 Y146.704 E5.79104
G1 X59.667 Y147.213 E5.8562
G1 X59.617 Y147.243 E5.86003
G1 X59.606 Y147.25 E5.86089
G1 X59.606 Y147.224
G1 X59.448 Y146.845 E5.87952
G1 X59.158 Y146.555 E5.90644
G1 X58.781 Y146.399 E5.93323
G1 X58.223 Y146.393 E5.96987
G1 X57.913 Y146.41 E5.99025
G1 X57.588 Y146.469 E6.01194
G1 X57.273 Y146.562 E6.0335
G1 X56.994 Y146.682 E6.05344
G1 X56.091 Y147.132 E6.11968
G1 X56.071 Y147.142 E6.12115
G1 X55.948 Y146.845 E6.13467
G1 X55.658 Y146.555 E6.1616
G1 X55.281 Y146.399 E6.18839
G1 X54.718 Y146.393 E6.22535
G1 X54.407 Y146.411 E6.24581
G1 X54.081 Y146.47 E6.26756
G1 X53.781 Y146.561 E6.28814
G1 X53.609 Y146.628 E6.30026
G1 X52.597 Y147.13 E6.37443
G1 X52.568 Y147.145 E6.37657
G1 X52.541 Y147.018 E6.38093
G1 X52.31 Y146.681 E6.40775
G1 X52.004 Y146.479 E6.43183
G1 X51.733 Y146.397 E6.45042
G1 X50.7 Y146.393 E6.51824
G1 X50.347 Y146.414 E6.54146
G1 X49.98 Y146.477 E6.56591
G1 X49.62 Y146.581 E6.59051
G1 X49.273 Y146.725 E6.61517
G1 X48.946 Y146.907 E6.63974
G1 X48.641 Y147.124 E6.66432
G1 X48.36 Y147.376 E6.6891
G1 X48.113 Y147.655 E6.71357
G1 X47.895 Y147.962 E6.73829
G1 X47.716 Y148.291 E6.76288
G1 X47.574 Y148.635 E6.78731
G1 X47.473 Y148.985 E6.81123
G1 X47.433 Y149.191 E6.82501
G1 X47.393 Y149.552 E6.84885
G1 X47.393 Y149.927 E6.87348
G1 X47.437 Y150.301 E6.8982
G1 X47.521 Y150.665 E6.92273
G1 X47.646 Y151.018 E6.94731
G1 X47.808 Y151.354 E6.9718
G1 X48.008 Y151.672 E6.99647
G1 X48.235 Y151.955 E7.02029
G1 X48.38 Y152.109 E7.03417
G1 X48.653 Y152.35 E7.05808
G1 X48.959 Y152.567 E7.08271
G1 X49.287 Y152.745 E7.10722
G1 X49.632 Y152.889 E7.13176
G1 X49.979 Y152.987 E7.15543
G1 X50.186 Y153.03 E7.16931
G1 X50.547 Y153.069 E7.19315
G1 X51.658 Y153.073 E7.2661
G1 X51.981 Y153.004 E7.28778
G1 X52.317 Y152.778 E7.31437
G1 X52.526 Y152.47 E7.33881
G1 X52.569 Y152.321 E7.34899
G1 X52.594 Y152.333
G1 X53.5 Y152.787 E7.41552
G1 X53.777 Y152.905 E7.43529
G1 X54.094 Y153.001 E7.45704
G1 X54.408 Y153.054 E7.47795
G1 X54.59 Y153.07 E7.48994
G1 X55.156 Y153.073 E7.5271
G1 X55.481 Y153.004 E7.54892
G1 X55.817 Y152.778 E7.5755
G1 X56.026 Y152.47 E7.59994
G1 X56.069 Y152.321 E7.61012
G1 X56.094 Y152.333
G1 X57 Y152.787 E7.67666
G1 X57.277 Y152.905 E7.69642
G1 X57.594 Y153.001 E7.71817
G1 X57.908 Y153.054 E7.73908
G1 X58.091 Y153.07 E7.75114
G1 X59.607 Y153.077 E7.85067
M204 S3000
M205 X10 Y10
G0 F2400 X59.677 Y153.147
G0 X42.689 Y153.219
G0 X42.685 Y152.06
G0 X42.591 Y151.834
G0 X42.419 Y151.662
G0 X42.263 Y151.215
G0 X40.352 Y151.211
G0 X39.402 Y151.74
G0 X39.494 Y151.778
M204 S1800
M205 X8 Y8
G1 F1200 X39.44 Y152.047 E7.86869
G1 X39.405 Y152.035
G1 X37.738 Y151.448 E7.98472
G1 X39.493 Y151.447 E8.09995
G1 X39.716 Y151.446 E8.11459
G1 X39.494 Y151.778 E8.12796
M204 S3000
M205 X10 Y10
G0 F2400 X39.402 Y151.74
G0 X44.219 Y150.977
G0 X44.655 Y150.752
G0 X44.977 Y150.381
G0 X45.148 Y149.793
G0 X45.079 Y149.309
G0 X44.835 Y148.884
G0 X44.448 Y148.581
G0 X44.182 Y148.504
G0 X39.402 Y147.726
G0 X39.494 Y147.688
M204 S1800
M205 X8 Y8
G1 F1200 X39.716 Y148.02 E8.15419
G1 X39.494 Y148.02 E8.15597
G1 X37.738 Y148.018 E8.27126
G1 X39.404 Y147.432 E8.38721
G1 X39.44 Y147.419 E8.38972
G1 X39.494 Y147.688 E8.40071
M204 S3000
M205 X10 Y10
G0 F2400 X39.402 Y147.726
G0 X44.219 Y148.489
G0 X44.655 Y148.714
G0 X44.977 Y149.087
G0 X45.137 Y149.549
G0 X45.075 Y150.166
G0 X44.031 Y153.525
G0 X59.708 Y152.617
G0 X59.149 Y152.615
M204 S1800
M205 X8 Y8
;TYPE:WALL-OUTER
G1 F1200 X59.15 Y152.335 E8.41909
G1 X59.152 Y151.896 E8.44791
G1 X59.153 Y151.895 E8.44801
G1 X59.153 Y151.405 E8.48018
G1 X59.574 Y151.657 E8.49837
G1 X60.855 Y152.423 E8.59637
G1 X60.997 Y152.492 E8.60673
G1 X61.263 Y152.59 E8.62534
G1 X61.462 Y152.645 E8.6389
G1 X61.563 Y152.689 E8.64613
G1 X61.66 Y152.753 E8.65376
G1 X61.736 Y152.827 E8.66073
G1 X61.802 Y152.917 E8.66806
G1 X61.849 Y153.015 E8.67519
G1 X61.879 Y153.127 E8.6828
G1 X61.89 Y153.244 E8.69052
G1 X61.886 Y153.788 E8.72624
G1 X61.869 Y153.89 E8.73303
G1 X61.829 Y153.997 E8.74053
G1 X61.778 Y154.086 E8.74726
G1 X61.708 Y154.169 E8.75439
G1 X61.622 Y154.241 E8.76175
G1 X61.532 Y154.293 E8.76858
G1 X61.426 Y154.332 E8.77599
G1 X61.326 Y154.349 E8.78265
G1 X43.783 Y154.353 E9.93445
G1 X43.61 Y154.341 E9.94583
G1 X43.456 Y154.307 E9.95619
G1 X43.304 Y154.25 E9.96685
G1 X43.165 Y154.175 E9.97722
G1 X43.04 Y154.081 E9.98748
G1 X42.922 Y153.963 E9.99844
G1 X42.828 Y153.838 E10.00871
G1 X42.751 Y153.696 E10.01931
G1 X42.696 Y153.549 E10.02962
G1 X42.662 Y153.393 E10.0401
G1 X42.65 Y153.22 E10.05149
G1 X42.646 Y152.067 E10.12719
G1 X42.558 Y151.856 E10.1422
G1 X42.397 Y151.695 E10.15715
G1 X42.185 Y151.607 E10.17222
G1 X40.434 Y151.603 E10.28718
G1 X40.244 Y151.64 E10.29989
G1 X40.054 Y151.769 E10.31497
G1 X39.927 Y151.958 E10.32992
G1 X39.894 Y152.121 E10.34084
G1 X39.89 Y152.145 E10.34244
G1 X39.887 Y152.692 E10.37835
G1 X39.72 Y152.633 E10.37887
G1 X39.697 Y152.625 E10.38042
G1 X37.112 Y151.715 E10.56035
G1 X37.11 Y151.268 E10.5897
G1 X37.11 Y150.988 E10.60808
G1 X37.39 Y150.988 E10.61998
G1 X43.973 Y150.984 E11.05219
G1 X44.208 Y150.939 E11.0679
G1 X44.43 Y150.85 E11.0836
G1 X44.631 Y150.721 E11.09929
G1 X44.804 Y150.556 E11.11498
G1 X44.943 Y150.361 E11.1307
G1 X45.038 Y150.153 E11.14572
G1 X45.077 Y150.02 E11.15482
G1 X45.109 Y149.792 E11.16993
G1 X45.098 Y149.554 E11.18558
G1 X45.042 Y149.322 E11.20125
G1 X44.943 Y149.106 E11.21685
G1 X44.805 Y148.91 E11.23258
G1 X44.631 Y148.745 E11.24833
G1 X44.43 Y148.616 E11.26401
G1 X44.208 Y148.527 E11.27971
G1 X43.973 Y148.482 E11.29542
G1 X37.39 Y148.478 E11.72763
G1 X37.11 Y148.478 E11.74601
G1 X37.11 Y148.198 E11.75792
G1 X37.112 Y147.751 E11.78726
G1 X39.697 Y146.84 E11.96721
G1 X39.719 Y146.833 E11.96873
G1 X39.887 Y146.774 E11.98042
G1 X39.89 Y147.321 E12.00523
G1 X39.894 Y147.344 E12.00677
G1 X39.927 Y147.508 E12.01775
G1 X40.054 Y147.697 E12.0327
G1 X40.244 Y147.826 E12.04778
G1 X40.434 Y147.863 E12.06049
G1 X42.185 Y147.859 E12.17545
G1 X42.397 Y147.771 E12.19052
G1 X42.542 Y147.625 E12.20403
G1 X42.616 Y147.492 E12.21402
G1 X42.65 Y147.32 E12.22554
G1 X42.654 Y146.151 E12.30229
G1 X42.676 Y145.999 E12.31237
G1 X42.721 Y145.842 E12.32309
G1 X42.789 Y145.693 E12.33385
G1 X42.872 Y145.564 E12.34392
G1 X42.978 Y145.441 E12.35458
G1 X43.099 Y145.337 E12.36505
G1 X43.231 Y145.253 E12.37533
G1 X43.384 Y145.183 E12.38637
G1 X43.535 Y145.138 E12.39672
G1 X43.605 Y145.125 E12.40139
G1 X43.783 Y145.113 E12.41311
G1 X61.326 Y145.117 E13.5649
G1 X61.426 Y145.134 E13.57156
G1 X61.532 Y145.173 E13.57898
G1 X61.622 Y145.225 E13.5858
G1 X61.708 Y145.297 E13.59316
G1 X61.778 Y145.38 E13.60029
G1 X61.829 Y145.469 E13.60703
G1 X61.869 Y145.576 E13.61453
G1 X61.886 Y145.678 E13.62132
G1 X61.89 Y146.222 E13.65703
G1 X61.879 Y146.339 E13.66475
G1 X61.849 Y146.451 E13.67236
G1 X61.802 Y146.549 E13.6795
G1 X61.736 Y146.639 E13.68683
G1 X61.66 Y146.713 E13.69379
G1 X61.563 Y146.777 E13.70142
G1 X61.458 Y146.823 E13.70895
G1 X61.263 Y146.877 E13.72223
G1 X60.993 Y146.976 E13.74111
G1 X60.743 Y147.106 E13.75961
G1 X59.57 Y147.808 E13.84937
G1 X59.149 Y148.059 E13.88155
G1 X59.149 Y147.569 E13.89973
G1 X59.148 Y147.568 E13.89983
G1 X59.146 Y147.317 E13.91631
G1 X59.058 Y147.106 E13.93132
G1 X58.897 Y146.945 E13.94626
G1 X58.687 Y146.858 E13.96119
G1 X58.233 Y146.853 E13.991
G1 X57.967 Y146.868 E14.00849
G1 X57.694 Y146.917 E14.0267
G1 X57.43 Y146.995 E14.04477
G1 X57.188 Y147.099 E14.06207
G1 X55.898 Y147.742 E14.1567
G1 X55.866 Y147.758 E14.15905
G1 X55.649 Y147.866 E14.17496
G1 X55.646 Y147.317 E14.19831
G1 X55.633 Y147.284 E14.20053
G1 X55.558 Y147.106 E14.21321
G1 X55.397 Y146.945 E14.22816
G1 X55.187 Y146.858 E14.24309
G1 X54.729 Y146.853 E14.27316
G1 X54.462 Y146.869 E14.29072
G1 X54.189 Y146.918 E14.30893
G1 X53.931 Y146.996 E14.32663
G1 X53.795 Y147.049 E14.33621
G1 X52.417 Y147.733 E14.43722
G1 X52.339 Y147.772 E14.44294
G1 X52.151 Y147.865 E14.45671
G1 X52.15 Y147.393 E14.47555
G1 X52.132 Y147.307 E14.48076
G1 X52.11 Y147.203 E14.48774
G1 X51.981 Y147.015 E14.50271
G1 X51.807 Y146.9 E14.5164
G1 X51.664 Y146.857 E14.5262
G1 X50.713 Y146.853 E14.58864
G1 X50.4 Y146.872 E14.60923
G1 X50.083 Y146.926 E14.63034
G1 X49.773 Y147.016 E14.65154
G1 X49.474 Y147.14 E14.67279
G1 X49.192 Y147.297 E14.69398
G1 X48.929 Y147.484 E14.71517
G1 X48.687 Y147.701 E14.73651
G1 X48.474 Y147.942 E14.75762
G1 X48.286 Y148.206 E14.7789
G1 X48.132 Y148.489 E14.80006
G1 X48.009 Y148.787 E14.82122
G1 X47.921 Y149.093 E14.84213
G1 X47.888 Y149.261 E14.85337
G1 X47.853 Y149.577 E14.87424
G1 X47.853 Y149.9 E14.89545
G1 X47.891 Y150.222 E14.91674
G1 X47.963 Y150.536 E14.93789
G1 X48.071 Y150.841 E14.95913
G1 X48.211 Y151.131 E14.98027
G1 X48.383 Y151.405 E15.00152
G1 X48.582 Y151.653 E15.02239
G1 X48.7 Y151.778 E15.03368
G1 X48.939 Y151.989 E15.05461
G1 X49.203 Y152.176 E15.07585
G1 X49.486 Y152.33 E15.097
G1 X49.784 Y152.454 E15.1182
G1 X50.088 Y152.54 E15.13894
G1 X50.257 Y152.575 E15.15027
G1 X50.573 Y152.609 E15.17114
G1 X51.61 Y152.613 E15.23922
G1 X51.798 Y152.573 E15.25184
G1 X51.986 Y152.446 E15.26674
G1 X52.104 Y152.272 E15.28054
G1 X52.132 Y152.175 E15.28717
G1 X52.146 Y152.126 E15.29051
G1 X52.15 Y151.597 E15.32525
G1 X52.358 Y151.701 E15.32789
G1 X52.403 Y151.723 E15.33099
G1 X53.693 Y152.369 E15.42571
G1 X53.934 Y152.472 E15.44292
G1 X54.199 Y152.552 E15.46109
G1 X54.467 Y152.597 E15.47893
G1 X54.612 Y152.61 E15.48849
G1 X55.109 Y152.613 E15.52112
G1 X55.298 Y152.573 E15.53381
