;FLAVOR:Marlin
;TIME:1445
;Filament used: 1.7118m
;Layer height: 0.3
;MINX:146.436
;MINY:100.606
;MINZ:0.3
;MAXX:178.398
;MAXY:134.798
;MAXZ:22.5
;Generated with Cura_SteamEngine 4.10.0
M104 S205
M105
M109 S205
M82 ;absolute extrusion mode
G21 ;metric values
G90 ;absolute positioning
M82 ;set extruder to absolute mode
M107 ;start with the fan off
G28 X0 Y0 ;move X/Y to min endstops
G28 Z0 ;move Z to min endstops
M501
M420 S1 ;Marlin Bed-leveling on
G1 Z15.0 F120 ;move the platform down 15mm
G92 E0 ;zero the extruded length
G1 F200 E3 ;extrude 3mm of feed stock
G92 E0 ;zero the extruded length again
G1 F120
M117 Printing...
G5
G92 E0
G92 E0
G1 F2400 E-6
;LAYER_COUNT:75
;LAYER:0
M107
M204 S3000
M205 X10 Y10
G1 F600 Z0.375
G0 F2400 X148.3 Y110.303 Z0.375
M204 S2500
M205 X8 Y8
;TYPE:SKIRT
G1 F600 Z0.3
G1 F2400 E0
G1 F1200 X148.63 Y109.888 E0.04398
G1 X148.768 Y109.728 E0.0615
G1 X149.168 Y109.303 E0.10991
G1 X149.658 Y108.85 E0.16526
G1 X149.825 Y108.709 E0.18339
G1 X150.256 Y108.374 E0.22866
G1 X150.43 Y108.25 E0.24639
G1 X150.901 Y107.944 E0.29297
G1 X151.08 Y107.838 E0.31023
G1 X151.532 Y107.593 E0.35287
G1 X151.723 Y107.499 E0.37053
G1 X152.227 Y107.277 E0.4162
G1 X152.744 Y107.088 E0.46186
G1 X152.97 Y106.452 E0.51784
G1 X153.173 Y105.983 E0.56023
G1 X153.263 Y105.795 E0.57752
G1 X153.52 Y105.309 E0.62312
G1 X153.889 Y104.714 E0.68119
G1 X154.008 Y104.541 E0.69861
G1 X154.335 Y104.106 E0.74374
G1 X154.468 Y103.943 E0.76119
G1 X154.823 Y103.541 E0.80568
G1 X155.285 Y103.082 E0.85969
G1 X155.421 Y102.958 E0.87496
G1 X155.851 Y102.598 E0.92147
G1 X156.019 Y102.469 E0.93904
G1 X156.446 Y102.167 E0.98242
G1 X157.036 Y101.804 E1.03987
G1 X157.212 Y101.707 E1.05654
G1 X157.73 Y101.45 E1.1045
G1 X157.931 Y101.361 E1.12274
G1 X158.426 Y101.165 E1.16689
G1 X158.626 Y101.095 E1.18447
G1 X159.113 Y100.945 E1.22674
G1 X159.316 Y100.891 E1.24416
G1 X159.836 Y100.775 E1.28835
G1 X160.045 Y100.737 E1.30597
G1 X160.564 Y100.664 E1.34944
G1 X160.771 Y100.643 E1.3667
G1 X161.317 Y100.61 E1.41207
G1 X161.529 Y100.606 E1.42965
G1 X162.18 Y100.626 E1.48367
G1 X162.744 Y100.679 E1.53066
G1 X162.935 Y100.704 E1.54664
G1 X163.508 Y100.805 E1.59489
G1 X164.188 Y100.974 E1.65301
G1 X164.385 Y101.033 E1.67007
G1 X164.947 Y101.229 E1.71944
G1 X165.147 Y101.309 E1.7373
G1 X165.651 Y101.535 E1.78311
G1 X166.229 Y101.841 E1.83736
G1 X166.413 Y101.949 E1.85506
G1 X166.876 Y102.247 E1.90072
G1 X167.045 Y102.366 E1.91787
G1 X167.506 Y102.722 E1.96618
G1 X168.02 Y103.177 E2.02312
G1 X168.166 Y103.319 E2.04001
G1 X168.551 Y103.727 E2.08654
G1 X168.689 Y103.886 E2.104
G1 X169.013 Y104.291 E2.14702
G1 X169.132 Y104.452 E2.16362
G1 X169.563 Y104.46 E2.19938
G1 X170.105 Y104.503 E2.24447
G1 X170.313 Y104.528 E2.26185
G1 X170.859 Y104.616 E2.30772
G1 X171.521 Y104.769 E2.36408
G1 X171.721 Y104.825 E2.3813
G1 X172.354 Y105.037 E2.43667
G1 X173.021 Y105.318 E2.4967
G1 X173.209 Y105.408 E2.51399
G1 X173.685 Y105.66 E2.55866
G1 X173.867 Y105.766 E2.57613
G1 X174.295 Y106.038 E2.61819
G1 X174.469 Y106.158 E2.63572
G1 X174.895 Y106.477 E2.67987
G1 X175.057 Y106.609 E2.6972
G1 X175.463 Y106.968 E2.74215
G1 X175.922 Y107.43 E2.79617
G1 X176.046 Y107.566 E2.81143
G1 X176.395 Y107.981 E2.85641
G1 X176.524 Y108.148 E2.87391
G1 X176.852 Y108.612 E2.92104
G1 X177.191 Y109.166 E2.97491
G1 X177.288 Y109.341 E2.9915
G1 X177.551 Y109.87 E3.0405
G1 X177.641 Y110.073 E3.05892
G1 X177.835 Y110.561 E3.10248
G1 X177.905 Y110.76 E3.11998
G1 X178.059 Y111.257 E3.16313
G1 X178.113 Y111.46 E3.18055
G1 X178.23 Y111.986 E3.22525
G1 X178.268 Y112.196 E3.24295
G1 X178.339 Y112.702 E3.28533
G1 X178.36 Y112.907 E3.30242
G1 X178.394 Y113.46 E3.34838
G1 X178.398 Y113.673 E3.36605
G1 X178.378 Y114.324 E3.42007
G1 X178.325 Y114.888 E3.46705
G1 X178.3 Y115.079 E3.48303
G1 X178.199 Y115.652 E3.53129
G1 X178.153 Y115.86 E3.54896
G1 X178.024 Y116.353 E3.59122
G1 X177.964 Y116.551 E3.60838
G1 X177.772 Y117.097 E3.65639
G1 X177.5 Y117.73 E3.71353
G1 X177.407 Y117.921 E3.73115
G1 X177.15 Y118.398 E3.77609
G1 X177.044 Y118.577 E3.79335
G1 X176.746 Y119.036 E3.83874
G1 X176.624 Y119.208 E3.85623
G1 X176.304 Y119.623 E3.8997
G1 X176.698 Y120.144 E3.95387
G1 X176.816 Y120.316 E3.97117
G1 X177.114 Y120.792 E4.01775
G1 X177.218 Y120.975 E4.03521
G1 X177.476 Y121.478 E4.0821
G1 X177.736 Y122.079 E4.13641
G1 X177.812 Y122.278 E4.15408
G1 X178.004 Y122.858 E4.20476
G1 X178.06 Y123.058 E4.22198
G1 X178.184 Y123.585 E4.26689
G1 X178.3 Y124.258 E4.32353
G1 X178.323 Y124.442 E4.33891
G1 X178.369 Y125.015 E4.38659
G1 X178.377 Y125.226 E4.4041
G1 X178.377 Y125.73 E4.44591
G1 X178.369 Y125.941 E4.46342
G1 X178.323 Y126.51 E4.51077
G1 X178.222 Y127.184 E4.56729
G1 X178.181 Y127.392 E4.58488
G1 X178.046 Y127.95 E4.6325
G1 X177.988 Y128.151 E4.64985
G1 X177.818 Y128.663 E4.69459
G1 X177.57 Y129.274 E4.74929
G1 X177.483 Y129.464 E4.76662
G1 X177.215 Y129.987 E4.81536
G1 X177.113 Y130.166 E4.83245
G1 X176.849 Y130.591 E4.87395
G1 X176.729 Y130.769 E4.89175
G1 X176.395 Y131.222 E4.93843
G1 X176.263 Y131.386 E4.9559
G1 X175.924 Y131.776 E4.99876
G1 X175.778 Y131.931 E5.01642
G1 X175.396 Y132.304 E5.0607
G1 X175.24 Y132.445 E5.07814
G1 X174.822 Y132.794 E5.12331
G1 X174.656 Y132.921 E5.14064
G1 X174.238 Y133.215 E5.18303
G1 X173.648 Y133.578 E5.24049
G1 X173.472 Y133.675 E5.25715
G1 X172.954 Y133.932 E5.30512
G1 X172.753 Y134.021 E5.32335
G1 X172.286 Y134.207 E5.36504
G1 X172.086 Y134.278 E5.38264
G1 X171.541 Y134.445 E5.42992
G1 X171.338 Y134.498 E5.44732
G1 X170.848 Y134.607 E5.48896
G1 X170.639 Y134.645 E5.50658
G1 X170.12 Y134.718 E5.55005
G1 X169.913 Y134.739 E5.56731
G1 X169.367 Y134.772 E5.61268
G1 X169.155 Y134.776 E5.63026
G1 X168.651 Y134.766 E5.67207
G1 X168.441 Y134.754 E5.68952
G1 X167.875 Y134.698 E5.7367
G1 X167.666 Y134.668 E5.75421
G1 X167.139 Y134.57 E5.79867
G1 X166.505 Y134.411 E5.85288
G1 X166.307 Y134.352 E5.87002
G1 X165.726 Y134.149 E5.92106
G1 X165.527 Y134.069 E5.93885
G1 X165.058 Y133.86 E5.98144
G1 X164.449 Y133.539 E6.03854
G1 X164.267 Y133.432 E6.05605
G1 X163.656 Y133.026 E6.1169
G1 X163.212 Y132.683 E6.16343
G1 X162.74 Y133.05 E6.21302
G1 X162.157 Y133.437 E6.27106
G1 X161.672 Y133.713 E6.31735
G1 X161.482 Y133.811 E6.33508
G1 X161.019 Y134.028 E6.37749
G1 X160.827 Y134.109 E6.39477
G1 X160.307 Y134.303 E6.44081
G1 X160.105 Y134.369 E6.45843
G1 X159.608 Y134.511 E6.50131
G1 X159.406 Y134.56 E6.51855
G1 X158.901 Y134.662 E6.56128
G1 X158.691 Y134.696 E6.57892
G1 X158.165 Y134.759 E6.62286
G1 X157.955 Y134.776 E6.64034
G1 X157.418 Y134.798 E6.68492
G1 X157.207 Y134.798 E6.70242
G1 X156.668 Y134.776 E6.74716
G1 X156.459 Y134.759 E6.76455
G1 X155.94 Y134.696 E6.80791
G1 X155.729 Y134.662 E6.82564
G1 X155.212 Y134.558 E6.86938
G1 X155.011 Y134.509 E6.88654
G1 X154.53 Y134.372 E6.92802
G1 X154.327 Y134.306 E6.94573
G1 X153.798 Y134.109 E6.99255
G1 X153.606 Y134.028 E7.00983
G1 X153.13 Y133.805 E7.05343
G1 X152.941 Y133.707 E7.07109
G1 X152.475 Y133.44 E7.11564
G1 X152.296 Y133.328 E7.13315
G1 X151.874 Y133.041 E7.17548
G1 X151.706 Y132.917 E7.1928
G1 X151.312 Y132.603 E7.23458
G1 X151.152 Y132.465 E7.25211
G1 X150.712 Y132.049 E7.30233
G1 X150.283 Y131.585 E7.35475
G1 X150.143 Y131.42 E7.37269
G1 X149.794 Y130.971 E7.41986
G1 X149.671 Y130.798 E7.43747
G1 X149.328 Y130.262 E7.49025
G1 X149.21 Y130.057 E7.50987
G1 X148.943 Y129.544 E7.55784
G1 X148.686 Y128.966 E7.6103
G1 X148.436 Y128.269 E7.67172
G1 X148.268 Y127.651 E7.72484
G1 X148.224 Y127.457 E7.74134
G1 X148.128 Y126.943 E7.78471
G1 X148.096 Y126.723 E7.80315
G1 X148.04 Y126.175 E7.84884
G1 X148.027 Y125.964 E7.86637
G1 X148.015 Y125.43 E7.91067
G1 X148.019 Y125.218 E7.92826
G1 X148.051 Y124.684 E7.97263
G1 X148.072 Y124.473 E7.99022
G1 X148.148 Y123.931 E8.03561
G1 X148.295 Y123.237 E8.09445
G1 X148.348 Y123.035 E8.11177
G1 X148.51 Y122.506 E8.15766
G1 X148.71 Y121.98 E8.20434
G1 X148.644 Y121.904 E8.21268
G1 X148.308 Y121.484 E8.2573
G1 X148.183 Y121.314 E8.2748
G1 X147.898 Y120.894 E8.3169
G1 X147.787 Y120.716 E8.3343
G1 X147.52 Y120.246 E8.37913
G1 X147.213 Y119.609 E8.43778
G1 X147.131 Y119.416 E8.45517
G1 X146.924 Y118.863 E8.50415
G1 X146.728 Y118.202 E8.56133
G1 X146.679 Y118.003 E8.57833
G1 X146.571 Y117.476 E8.62295
G1 X146.537 Y117.266 E8.64059
G1 X146.472 Y116.713 E8.68678
G1 X146.456 Y116.505 E8.70408
G1 X146.436 Y115.995 E8.74641
G1 X146.436 Y115.782 E8.76408
G1 X146.455 Y115.274 E8.80624
G1 X146.471 Y115.065 E8.82363
G1 X146.537 Y114.51 E8.86999
G1 X146.571 Y114.3 E8.88763
G1 X146.675 Y113.788 E8.93097
G1 X146.724 Y113.587 E8.94813
G1 X146.864 Y113.097 E8.99039
G1 X146.93 Y112.895 E9.00802
G1 X147.119 Y112.387 E9.05298
G1 X147.2 Y112.194 E9.07034
G1 X147.435 Y111.693 E9.11624
G1 X147.533 Y111.505 E9.13382
G1 X147.798 Y111.043 E9.178
G1 X148.177 Y110.471 E9.23491
G1 X148.3 Y110.303 E9.25218
M204 S3000
M205 X10 Y10
G0 F2400 X148.742 Y110.884
M204 S2500
M205 X8 Y8
G1 F1200 X149.16 Y110.345 E9.30875
G1 X149.298 Y110.185 E9.32628
G1 X149.656 Y109.805 E9.36958
G1 X150.11 Y109.385 E9.42088
G1 X150.662 Y108.945 E9.47943
G1 X150.836 Y108.821 E9.49715
G1 X151.257 Y108.546 E9.53886
G1 X151.841 Y108.221 E9.59429
G1 X152.483 Y107.928 E9.65282
G1 X153.111 Y107.7 E9.70824
G1 X153.312 Y107.619 E9.72621
G1 X153.37 Y107.419 E9.74348
G1 X153.537 Y106.927 E9.78658
G1 X153.804 Y106.285 E9.84425
G1 X154.125 Y105.663 E9.9023
G1 X154.466 Y105.111 E9.95612
G1 X154.877 Y104.548 E10.01394
G1 X155.328 Y104.026 E10.07115
G1 X155.756 Y103.599 E10.1213
G1 X155.892 Y103.475 E10.13656
G1 X156.277 Y103.153 E10.17819
G1 X156.827 Y102.754 E10.23455
G1 X157.374 Y102.417 E10.28784
G1 X157.55 Y102.32 E10.30451
G1 X158.013 Y102.09 E10.34739
G1 X158.657 Y101.826 E10.40512
G1 X159.293 Y101.622 E10.46052
G1 X159.962 Y101.464 E10.51753
G1 X160.634 Y101.36 E10.57393
G1 X161.33 Y101.31 E10.63181
G1 X161.542 Y101.306 E10.64939
G1 X162.124 Y101.324 E10.69769
G1 X162.653 Y101.373 E10.74175
G1 X162.844 Y101.398 E10.75773
G1 X163.357 Y101.488 E10.80093
G1 X163.987 Y101.644 E10.85476
G1 X164.184 Y101.703 E10.87182
G1 X164.687 Y101.879 E10.91602
G1 X165.338 Y102.161 E10.97486
G1 X165.875 Y102.445 E11.02525
G1 X166.473 Y102.819 E11.08375
G1 X166.642 Y102.938 E11.10089
G1 X167.054 Y103.257 E11.14411
G1 X167.531 Y103.679 E11.19694
G1 X167.677 Y103.821 E11.21383
G1 X168.023 Y104.186 E11.25554
G1 X168.451 Y104.707 E11.31147
G1 X168.764 Y105.155 E11.3568
G1 X169.325 Y105.151 E11.40333
G1 X170.021 Y105.198 E11.46119
G1 X170.718 Y105.302 E11.51964
G1 X171.332 Y105.443 E11.57189
G1 X171.532 Y105.499 E11.58912
G1 X172.099 Y105.689 E11.63872
G1 X172.719 Y105.949 E11.69448
G1 X173.333 Y106.264 E11.75172
G1 X173.898 Y106.614 E11.80684
G1 X174.452 Y107.019 E11.86376
G1 X174.978 Y107.473 E11.92139
G1 X175.405 Y107.901 E11.97154
G1 X175.841 Y108.409 E12.02706
G1 X175.97 Y108.576 E12.04457
G1 X176.263 Y108.991 E12.0867
G1 X176.579 Y109.505 E12.13675
G1 X176.676 Y109.68 E12.15334
G1 X176.911 Y110.153 E12.19715
G1 X177.175 Y110.794 E12.25465
G1 X177.382 Y111.437 E12.31068
G1 X177.541 Y112.111 E12.36811
G1 X177.643 Y112.774 E12.42375
G1 X177.694 Y113.473 E12.48188
G1 X177.698 Y113.686 E12.49955
G1 X177.68 Y114.268 E12.54785
G1 X177.631 Y114.797 E12.59191
G1 X177.606 Y114.988 E12.60789
G1 X177.516 Y115.501 E12.65109
G1 X177.354 Y116.15 E12.70657
G1 X177.294 Y116.348 E12.72373
G1 X177.123 Y116.837 E12.7667
G1 X176.871 Y117.424 E12.81968
G1 X176.548 Y118.042 E12.87752
G1 X176.175 Y118.631 E12.93534
G1 X175.773 Y119.167 E12.99092
G1 X175.376 Y119.621 E13.04094
G1 X175.724 Y120.02 E13.08485
G1 X176.12 Y120.54 E13.13906
G1 X176.238 Y120.712 E13.15636
G1 X176.505 Y121.138 E13.19806
G1 X176.609 Y121.321 E13.21552
G1 X176.84 Y121.771 E13.25748
G1 X177.082 Y122.329 E13.30792
G1 X177.158 Y122.528 E13.32559
G1 X177.33 Y123.047 E13.37094
G1 X177.497 Y123.718 E13.42829
G1 X177.605 Y124.345 E13.48106
G1 X177.628 Y124.529 E13.49644
G1 X177.67 Y125.042 E13.53914
G1 X177.678 Y125.703 E13.59397
G1 X177.67 Y125.914 E13.61148
G1 X177.628 Y126.424 E13.65392
G1 X177.536 Y127.049 E13.70632
G1 X177.495 Y127.257 E13.7239
G1 X177.374 Y127.756 E13.76649
G1 X177.163 Y128.415 E13.82388
G1 X176.934 Y128.982 E13.8746
G1 X176.847 Y129.172 E13.89194
G1 X176.607 Y129.641 E13.93563
G1 X176.269 Y130.2 E13.98982
G1 X176.149 Y130.378 E14.00762
G1 X175.85 Y130.783 E14.04938
G1 X175.414 Y131.296 E14.10522
G1 X174.927 Y131.785 E14.16246
G1 X174.396 Y132.238 E14.22035
G1 X173.857 Y132.628 E14.27553
G1 X173.31 Y132.965 E14.32882
G1 X173.134 Y133.062 E14.34549
G1 X172.671 Y133.292 E14.38837
G1 X172.052 Y133.547 E14.44389
G1 X171.852 Y133.618 E14.4615
G1 X171.364 Y133.768 E14.50384
G1 X170.722 Y133.918 E14.55853
G1 X170.05 Y134.022 E14.61493
G1 X169.354 Y134.072 E14.6728
G1 X168.691 Y134.067 E14.7278
G1 X168.481 Y134.055 E14.74524
G1 X167.975 Y134.005 E14.78742
G1 X167.294 Y133.887 E14.84474
G1 X166.705 Y133.74 E14.89509
G1 X166.507 Y133.681 E14.91223
G1 X165.987 Y133.5 E14.9579
G1 X165.369 Y133.232 E15.01377
G1 X164.803 Y132.935 E15.06678
G1 X164.621 Y132.828 E15.08429
G1 X164.075 Y132.465 E15.13868
G1 X163.623 Y132.115 E15.18609
G1 X163.209 Y131.754 E15.23165
G1 X162.496 Y132.361 E15.30932
G1 X161.962 Y132.733 E15.3633
G1 X161.352 Y133.091 E15.42196
G1 X160.747 Y133.383 E15.47768
G1 X160.09 Y133.638 E15.53613
G1 X159.443 Y133.83 E15.59211
G1 X158.789 Y133.971 E15.6476
G1 X158.108 Y134.062 E15.70459
G1 X157.418 Y134.098 E15.7619
G1 X156.725 Y134.078 E15.8194
G1 X156.051 Y134.005 E15.87563
G1 X155.378 Y133.878 E15.93243
G1 X154.746 Y133.706 E15.98676
G1 X154.543 Y133.64 E16.00446
G1 X154.07 Y133.464 E16.04632
G1 X153.452 Y133.183 E16.10263
G1 X152.846 Y132.847 E16.16011
G1 X152.29 Y132.478 E16.21545
G1 X151.769 Y132.073 E16.27019
G1 X151.609 Y131.935 E16.28771
G1 X151.215 Y131.562 E16.33271
G1 X150.817 Y131.133 E16.38125
G1 X150.677 Y130.968 E16.3992
G1 X150.365 Y130.566 E16.4414
G1 X150.242 Y130.393 E16.45901
G1 X149.934 Y129.913 E16.50631
G1 X149.816 Y129.708 E16.52593
G1 X149.578 Y129.249 E16.56882
G1 X149.331 Y128.694 E16.6192
G1 X149.107 Y128.07 E16.67419
G1 X148.95 Y127.496 E16.72355
G1 X148.821 Y126.842 E16.77884
G1 X148.738 Y126.132 E16.83813
G1 X148.715 Y125.443 E16.89531
G1 X148.747 Y124.754 E16.95252
G1 X148.837 Y124.058 E17.01073
G1 X148.972 Y123.415 E17.06522
G1 X149.17 Y122.74 E17.12357
G1 X149.405 Y122.127 E17.17802
G1 X149.535 Y121.842 E17.204
G1 X149.172 Y121.445 E17.24862
G1 X148.747 Y120.9 E17.30594
G1 X148.381 Y120.345 E17.36108
G1 X148.045 Y119.737 E17.4187
G1 X147.775 Y119.143 E17.47282
G1 X147.59 Y118.648 E17.51665
G1 X147.408 Y118.035 E17.56969
G1 X147.262 Y117.364 E17.62664
G1 X147.17 Y116.659 E17.68561
G1 X147.136 Y115.995 E17.74076
G1 X147.153 Y115.328 E17.7961
G1 X147.169 Y115.119 E17.81349
G1 X147.228 Y114.622 E17.855
G1 X147.355 Y113.954 E17.9114
G1 X147.529 Y113.314 E17.96641
G1 X147.765 Y112.657 E18.02431
G1 X148.056 Y112.017 E18.08262
G1 X148.391 Y111.415 E18.13976
G1 X148.742 Y110.884 E18.19256
M204 S3000
M205 X10 Y10
G0 F2400 X149.307 Y111.298
M204 S2500
M205 X8 Y8
G1 F1200 X149.69 Y110.802 E18.24453
G1 X150.144 Y110.307 E18.30024
G1 X150.561 Y109.92 E18.34743
G1 X151.068 Y109.515 E18.40125
G1 X151.614 Y109.149 E18.45577
G1 X152.15 Y108.85 E18.50668
G1 X152.739 Y108.58 E18.56042
G1 X153.316 Y108.37 E18.61135
G1 X153.888 Y108.21 E18.66061
G1 X154.043 Y107.614 E18.71169
G1 X154.275 Y106.958 E18.7694
G1 X154.526 Y106.399 E18.82023
G1 X154.836 Y105.833 E18.87375
G1 X155.162 Y105.335 E18.92312
G1 X155.552 Y104.828 E18.97618
G1 X155.978 Y104.36 E19.02867
G1 X156.364 Y103.992 E19.0729
G1 X156.872 Y103.579 E19.1272
G1 X157.386 Y103.226 E19.17892
G1 X157.888 Y102.933 E19.22713
G1 X158.497 Y102.642 E19.28311
G1 X159.089 Y102.417 E19.33564
G1 X159.676 Y102.244 E19.3864
G1 X160.296 Y102.115 E19.43893
G1 X160.912 Y102.036 E19.49044
G1 X161.555 Y102.006 E19.54383
G1 X162.069 Y102.021 E19.58648
G1 X162.753 Y102.092 E19.64352
G1 X163.414 Y102.218 E19.69933
G1 X163.983 Y102.374 E19.74826
G1 X164.627 Y102.608 E19.8051
G1 X165.211 Y102.88 E19.85853
G1 X165.705 Y103.156 E19.90546
G1 X166.239 Y103.51 E19.9586
G1 X166.77 Y103.933 E20.01491
G1 X167.189 Y104.322 E20.06233
G1 X167.632 Y104.804 E20.11663
