;FLAVOR:Marlin
;TIME:6835
;Filament used: 12.6053m
;Layer height: 0.3
;MINX:28.85
;MINY:28.849
;MINZ:0.3
;MAXX:181.148
;MAXY:181.148
;MAXZ:29.1
;Generated with Cura_SteamEngine 4.10.0
M104 S205
M105
M109 S205
M82 ;absolute extrusion mode
G21 ;metric values
G90 ;absolute positioning
M82 ;set extruder to absolute mode
M107 ;start with the fan off
G28 X0 Y0 ;move X/Y to min endstops
G28 Z0 ;move Z to min endstops
M501
M420 S1 ;Marlin Bed-leveling on
G1 Z15.0 F120 ;move the platform down 15mm
G92 E0 ;zero the extruded length
G1 F200 E3 ;extrude 3mm of feed stock
G92 E0 ;zero the extruded length again
G1 F120
M117 Printing...
G5
G92 E0
G92 E0
G1 F2400 E-6
;LAYER_COUNT:97
;LAYER:0
M107
M204 S3000
M205 X10 Y10
G1 F600 Z0.375
G0 F1200 X117.935 Y131.95 Z0.375
M204 S2500
M205 X8 Y8
;TYPE:SUPPORT
G1 F600 Z0.3
G1 F2400 E0
G1 F600 X136.034 Y150.05 E2.12304
G1 X134.866 Y151.221 E2.26022
G1 X127.483 Y143.835 E3.12641
G1 X126.894 Y143.592 E3.17926
G1 X124.392 Y143.592 E3.38678
G1 X124.392 Y141.088 E3.59447
G1 X124.149 Y140.499 E3.64732
G1 X116.766 Y133.119 E4.51315
G1 X117.935 Y131.95 E4.65028
M204 S3000
M205 X10 Y10
G0 F1200 X120 Y134.404
M204 S2500
M205 X8 Y8
G1 F600 X120 Y135.962 E4.7795
M204 S3000
M205 X10 Y10
G0 F1200 X121.648 Y137.612
M204 S2500
M205 X8 Y8
G1 F600 X122.637 Y137.041 E4.87422
M204 S3000
M205 X10 Y10
G0 F1200 X124.666 Y141.258
M204 S2500
M205 X8 Y8
G1 F600 X129.844 Y144.247 E5.37012
M204 S3000
M205 X10 Y10
G1 F2400 E-0.62988
;MESH:Slide_Assembly.stl
G0 F1200 X120.803 Y127.015
G0 X120.743 Y125.327
G0 X95.2 Y83.626
M204 S2500
M205 X8 Y8
;TYPE:WALL-INNER
G1 F2400 E5.37012
G1 F600 X95.061 Y83.182 E5.4087
G1 X95.352 Y83.473 E5.41293
G1 X95.805 Y83.926 E5.46606
G1 X177.611 Y165.732 E15.06177
G1 X177.635 Y165.756 E15.06459
G1 X177.861 Y166.07 E15.09668
G1 X177.643 Y166.388 E15.12865
G1 X177.619 Y166.412 E15.13147
G1 X166.397 Y177.633 E16.44773
G1 X166.083 Y177.86 E16.47987
G1 X165.772 Y177.651 E16.51095
G1 X140.25 Y152.129 E19.50464
G1 X141.992 Y150.385 E19.70909
G1 X142.458 Y149.835 E19.76888
G1 X142.86 Y149.161 E19.83397
G1 X143.145 Y148.43 E19.89905
G1 X143.306 Y147.659 E19.96437
G1 X143.339 Y146.877 E20.02929
G1 X143.241 Y146.097 E20.0945
G1 X143.017 Y145.345 E20.15958
G1 X142.674 Y144.64 E20.22461
G1 X142.231 Y144.019 E20.28788
G1 X141.969 Y143.738 E20.31974
G1 X124.224 Y125.993 E22.4012
G1 X123.674 Y125.526 E22.46105
G1 X122.998 Y125.123 E22.52632
G1 X122.266 Y124.838 E22.59148
G1 X121.496 Y124.676 E22.65674
G1 X120.714 Y124.644 E22.72166
G1 X119.935 Y124.742 E22.78678
G1 X119.182 Y124.964 E22.85189
G1 X118.475 Y125.311 E22.91721
G1 X117.859 Y125.751 E22.98
G1 X117.576 Y126.011 E23.01188
G1 X115.854 Y127.732 E23.2138
G1 X83.885 Y95.763 E26.96372
G1 X83.696 Y95.574 E26.98588
G1 X83.237 Y95.115 E27.03972
G1 X83.217 Y95.095 E27.04207
G1 X83.244 Y95.107
G1 X84.02 Y95.249 E27.06955
G1 X84.287 Y95.233 E27.08824
G1 X84.805 Y95.2 E27.13129
G1 X85.555 Y94.966 E27.19646
G1 X86.189 Y94.582 E27.25794
G1 X86.475 Y94.33 E27.28955
G1 X87.289 Y93.516 E27.38503
G1 X87.712 Y92.973 E27.44212
G1 X88.036 Y92.259 E27.50716
G1 X88.178 Y91.482 E27.57267
G1 X88.129 Y90.697 E27.63791
G1 X87.895 Y89.948 E27.70299
G1 X87.51 Y89.309 E27.76487
G1 X87.256 Y89.024 E27.79653
G1 X68.062 Y69.83 E30.04796
G1 X67.518 Y69.405 E30.10522
G1 X66.802 Y69.081 E30.1704
G1 X66.026 Y68.939 E30.23583
G1 X65.241 Y68.988 E30.30107
G1 X64.493 Y69.222 E30.36608
G1 X63.854 Y69.606 E30.42791
G1 X63.568 Y69.861 E30.45969
G1 X62.757 Y70.672 E30.55482
G1 X62.334 Y71.215 E30.61191
G1 X62.01 Y71.929 E30.67694
G1 X61.868 Y72.706 E30.74246
G1 X61.877 Y72.85 E30.75442
G1 X61.917 Y73.491 E30.80769
G1 X62.055 Y73.933 E30.8461
G1 X61.765 Y73.643 E30.85035
G1 X61.311 Y73.189 E30.88631
G1 X59.136 Y71.014 E31.14144
G1 X58.947 Y70.825 E31.16361
G1 X58.488 Y70.366 E31.21745
G1 X58.467 Y70.345 E31.21991
G1 X58.496 Y70.358
G1 X59.271 Y70.5 E31.24738
G1 X59.538 Y70.484 E31.26607
G1 X60.054 Y70.451 E31.30895
G1 X60.804 Y70.218 E31.37409
G1 X61.446 Y69.831 E31.43627
G1 X61.73 Y69.577 E31.46787
G1 X62.537 Y68.77 E31.56253
G1 X62.963 Y68.226 E31.61984
G1 X63.287 Y67.508 E31.68517
G1 X63.429 Y66.733 E31.75052
G1 X63.38 Y65.95 E31.8156
G1 X63.147 Y65.199 E31.88081
G1 X62.762 Y64.562 E31.94255
G1 X62.51 Y64.278 E31.97404
G1 X43.314 Y45.081 E34.22576
G1 X42.767 Y44.654 E34.28331
G1 X42.051 Y44.334 E34.34836
G1 X41.278 Y44.191 E34.41357
G1 X40.494 Y44.238 E34.47871
G1 X39.744 Y44.472 E34.54387
G1 X39.108 Y44.857 E34.60554
G1 X38.822 Y45.109 E34.63715
G1 X38.008 Y45.923 E34.73263
G1 X37.583 Y46.47 E34.79009
G1 X37.263 Y47.183 E34.85491
G1 X37.119 Y47.955 E34.92004
G1 X37.129 Y48.101 E34.93218
G1 X37.168 Y48.741 E34.98536
G1 X37.305 Y49.183 E35.02375
G1 X37.016 Y48.894 E35.0279
G1 X36.563 Y48.441 E35.0638
G1 X32.033 Y43.911 E35.59517
G1 X32.028 Y43.906 E35.59575
G1 X31.896 Y43.709 E35.61542
G1 X31.886 Y43.464 E35.63576
G1 X32.041 Y43.222 E35.6596
G1 X32.046 Y43.217 E35.66018
G1 X39.916 Y35.349 E36.5832
G1 X43.212 Y32.05 E36.96999
G1 X43.473 Y31.884 E36.99565
G1 X43.585 Y31.872 E37.00499
G1 X43.78 Y31.928 E37.02182
G1 X43.91 Y32.03 E37.03552
G1 X48.485 Y36.605 E37.57216
G1 X48.674 Y36.794 E37.59433
G1 X49.133 Y37.253 E37.64817
G1 X49.159 Y37.279 E37.65122
G1 X49.123 Y37.263
G1 X48.35 Y37.119 E37.67874
G1 X48.083 Y37.135 E37.69743
G1 X47.565 Y37.168 E37.74048
G1 X46.815 Y37.401 E37.80562
G1 X46.179 Y37.786 E37.86728
G1 X45.893 Y38.038 E37.8989
G1 X45.079 Y38.852 E37.99438
G1 X44.654 Y39.399 E38.05183
G1 X44.334 Y40.112 E38.11665
G1 X44.191 Y40.885 E38.18186
G1 X44.238 Y41.669 E38.247
G1 X44.472 Y42.42 E38.31224
G1 X44.859 Y43.059 E38.37421
G1 X45.111 Y43.343 E38.4057
G1 X64.308 Y62.54 E40.65747
G1 X64.85 Y62.962 E40.71445
G1 X65.565 Y63.287 E40.77959
G1 X66.342 Y63.429 E40.84511
G1 X67.125 Y63.38 E40.91018
G1 X67.877 Y63.147 E40.97547
G1 X68.515 Y62.76 E41.03737
G1 X68.799 Y62.508 E41.06886
G1 X69.609 Y61.699 E41.16381
G1 X70.034 Y61.153 E41.2212
G1 X70.358 Y60.437 E41.28638
G1 X70.5 Y59.662 E41.35173
G1 X70.49 Y59.516 E41.36387
G1 X70.451 Y58.879 E41.41681
G1 X70.312 Y58.432 E41.45563
G1 X70.605 Y58.725 E41.45998
G1 X71.056 Y59.176 E41.49579
G1 X73.235 Y61.355 E41.75138
G1 X73.422 Y61.542 E41.77332
G1 X73.881 Y62.001 E41.82716
G1 X73.904 Y62.024 E41.82985
G1 X73.873 Y62.01
G1 X73.097 Y61.868 E41.8575
G1 X72.833 Y61.884 E41.876
G1 X72.312 Y61.917 E41.9193
G1 X71.562 Y62.151 E41.98447
G1 X70.928 Y62.535 E42.04595
G1 X70.642 Y62.787 E42.07756
G1 X69.83 Y63.6 E42.17287
G1 X69.405 Y64.144 E42.23013
G1 X69.081 Y64.858 E42.29516
G1 X68.939 Y65.635 E42.36067
G1 X68.988 Y66.42 E42.42591
G1 X69.222 Y67.169 E42.49099
G1 X69.607 Y67.808 E42.55287
G1 X69.861 Y68.093 E42.58454
G1 X89.055 Y87.287 E44.83596
G1 X89.599 Y87.712 E44.89322
G1 X90.315 Y88.036 E44.9584
G1 X91.091 Y88.178 E45.02383
G1 X91.876 Y88.129 E45.08907
G1 X92.626 Y87.895 E45.15424
G1 X93.26 Y87.511 E45.21571
G1 X93.546 Y87.259 E45.24733
G1 X94.36 Y86.445 E45.34281
G1 X94.783 Y85.902 E45.3999
G1 X95.107 Y85.188 E45.46493
G1 X95.249 Y84.411 E45.53045
G1 X95.239 Y84.266 E45.5425
G1 X95.2 Y83.626 E45.57847
M204 S3000
M205 X10 Y10
G0 F1200 X94.214 Y85.557
G0 X92.867 Y86.977
G0 X91.755 Y87.475
G0 X90.496 Y87.458
G0 X90.525 Y87.363
M204 S2500
M205 X8 Y8
G1 F600 X91.133 Y87.474 E45.62973
G1 X91.748 Y87.436 E45.68084
G1 X92.336 Y87.252 E45.73194
G1 X92.844 Y86.945 E45.78117
G1 X93.066 Y86.749 E45.80573
G1 X93.834 Y85.981 E45.89582
G1 X94.18 Y85.537 E45.94251
G1 X94.434 Y84.977 E45.99351
G1 X94.545 Y84.369 E46.04477
G1 X94.507 Y83.754 E46.09588
G1 X94.323 Y83.166 E46.14698
G1 X94.015 Y82.655 E46.19647
G1 X93.818 Y82.434 E46.22102
G1 X74.669 Y63.284 E48.46723
G1 X74.224 Y62.937 E48.51403
G1 X73.663 Y62.683 E48.56511
G1 X73.055 Y62.572 E48.61637
G1 X72.44 Y62.61 E48.66748
G1 X71.852 Y62.794 E48.71858
G1 X71.344 Y63.101 E48.76781
G1 X71.122 Y63.297 E48.79238
G1 X70.355 Y64.064 E48.88235
G1 X70.008 Y64.509 E48.92915
G1 X69.754 Y65.069 E48.98015
G1 X69.643 Y65.677 E49.03141
G1 X69.681 Y66.292 E49.08252
G1 X69.865 Y66.88 E49.13362
G1 X70.173 Y67.391 E49.18311
G1 X70.37 Y67.612 E49.20767
G1 X89.519 Y86.762 E51.45387
G1 X89.964 Y87.109 E51.50068
G1 X90.525 Y87.363 E51.55175
M204 S3000
M205 X10 Y10
G0 F1200 X90.496 Y87.458
G0 X87.143 Y92.628
G0 X85.796 Y94.048
G0 X84.684 Y94.546
G0 X83.425 Y94.529
G0 X83.454 Y94.434
M204 S2500
M205 X8 Y8
G1 F600 X84.062 Y94.545 E51.60302
G1 X84.677 Y94.507 E51.65412
G1 X85.265 Y94.323 E51.70522
G1 X85.773 Y94.016 E51.75446
G1 X85.995 Y93.82 E51.77902
G1 X86.763 Y93.052 E51.8691
G1 X87.109 Y92.608 E51.91579
G1 X87.363 Y92.048 E51.96679
G1 X87.474 Y91.44 E52.01806
G1 X87.436 Y90.825 E52.06916
G1 X87.252 Y90.237 E52.12027
G1 X86.944 Y89.726 E52.16975
G1 X86.747 Y89.505 E52.19431
G1 X67.598 Y70.355 E54.44051
G1 X67.153 Y70.008 E54.48732
G1 X66.592 Y69.754 E54.5384
G1 X65.984 Y69.643 E54.58966
G1 X65.369 Y69.681 E54.64077
G1 X64.782 Y69.865 E54.69179
G1 X64.271 Y70.172 E54.74123
G1 X64.049 Y70.37 E54.76591
G1 X63.283 Y71.136 E54.85576
G1 X62.937 Y71.58 E54.90244
G1 X62.683 Y72.14 E54.95345
G1 X62.572 Y72.748 E55.00471
G1 X62.61 Y73.363 E55.05582
G1 X62.794 Y73.951 E55.10692
G1 X63.102 Y74.462 E55.15641
G1 X63.299 Y74.683 E55.18096
G1 X82.448 Y93.833 E57.42717
G1 X82.893 Y94.18 E57.47397
G1 X83.454 Y94.434 E57.52505
M204 S3000
M205 X10 Y10
G0 F1200 X83.425 Y94.529
G0 X82.422 Y93.862
G0 X63.07 Y74.485
G0 X58.677 Y69.78
G0 X58.706 Y69.685
M204 S2500
M205 X8 Y8
G1 F600 X59.313 Y69.796 E57.57623
G1 X59.927 Y69.758 E57.62725
G1 X60.515 Y69.575 E57.67833
G1 X61.028 Y69.266 E57.728
G1 X61.249 Y69.068 E57.75261
G1 X62.012 Y68.305 E57.84211
G1 X62.36 Y67.861 E57.8889
G1 X62.614 Y67.298 E57.94013
G1 X62.725 Y66.691 E57.99131
G1 X62.687 Y66.077 E58.04234
G1 X62.504 Y65.488 E58.09349
G1 X62.196 Y64.979 E58.14284
G1 X62 Y64.758 E58.16734
G1 X42.849 Y45.606 E60.41378
G1 X42.403 Y45.258 E60.4607
G1 X41.842 Y45.007 E60.51168
G1 X41.235 Y44.895 E60.56287
G1 X40.621 Y44.932 E60.61389
G1 X40.033 Y45.115 E60.66497
G1 X39.524 Y45.423 E60.71431
G1 X39.302 Y45.619 E60.73888
G1 X38.534 Y46.387 E60.82896
G1 X38.187 Y46.833 E60.87583
G1 X37.936 Y47.393 E60.92673
G1 X37.823 Y47.998 E60.97778
G1 X37.861 Y48.614 E61.02897
G1 X38.044 Y49.202 E61.08005
G1 X38.352 Y49.711 E61.12939
G1 X38.548 Y49.933 E61.15395
G1 X57.7 Y69.084 E63.40039
G1 X58.145 Y69.431 E63.4472
G1 X58.706 Y69.685 E63.49828
M204 S3000
M205 X10 Y10
G0 F1200 X58.677 Y69.78
G0 X59.934 Y69.797
G0 X61.276 Y69.097
G0 X62.041 Y68.331
G0 X65.747 Y62.709
G0 X65.776 Y62.614
M204 S2500
M205 X8 Y8
G1 F600 X66.384 Y62.725 E63.54954
G1 X66.998 Y62.687 E63.60056
G1 X67.587 Y62.504 E63.65172
G1 X68.098 Y62.194 E63.70129
G1 X68.319 Y61.998 E63.72579
G1 X69.084 Y61.234 E63.81547
G1 X69.431 Y60.789 E63.86227
G1 X69.685 Y60.227 E63.91342
G1 X69.796 Y59.62 E63.96461
G1 X69.758 Y59.006 E64.01563
G1 X69.575 Y58.418 E64.06671
G1 X69.267 Y57.908 E64.11612
G1 X69.069 Y57.685 E64.14086
G1 X49.919 Y38.534 E66.38718
G1 X49.473 Y38.187 E66.43405
G1 X48.913 Y37.936 E66.48495
G1 X48.307 Y37.823 E66.53608
G1 X47.692 Y37.861 E66.58719
G1 X47.104 Y38.044 E66.63826
G1 X46.595 Y38.352 E66.68761
G1 X46.373 Y38.548 E66.71217
G1 X45.605 Y39.316 E66.80226
G1 X45.258 Y39.762 E66.84913
G1 X45.007 Y40.322 E66.90003
G1 X44.895 Y40.928 E66.95114
G1 X44.932 Y41.542 E67.00216
G1 X45.115 Y42.13 E67.05324
G1 X45.425 Y42.642 E67.10288
G1 X45.621 Y42.863 E67.12738
G1 X64.772 Y62.014 E69.37376
G1 X65.215 Y62.359 E69.42034
G1 X65.776 Y62.614 E69.47145
M204 S3000
M205 X10 Y10
G0 F1200 X65.747 Y62.709
G0 X118.238 Y126.218
G0 X118.301 Y126.295
M204 S2500
M205 X8 Y8
G1 F600 X118.061 Y126.516 E69.49851
G1 X115.854 Y128.722 E69.75733
G1 X31.505 Y44.373 E79.65133
G1 X31.327 Y44.15 E79.67499
G1 X31.224 Y43.921 E79.69582
G1 X31.166 Y43.624 E79.72092
G1 X31.199 Y43.303 E79.74768
G1 X31.282 Y43.078 E79.76757
G1 X31.507 Y42.766 E79.79948
G1 X39.421 Y34.854 E80.72766
G1 X42.755 Y31.517 E81.11891
G1 X43.066 Y31.288 E81.15094
G1 X43.31 Y31.197 E81.17254
G1 X43.617 Y31.166 E81.19813
G1 X43.926 Y31.224 E81.22421
G1 X44.147 Y31.326 E81.2444
G1 X44.376 Y31.506 E81.26856
G1 X178.154 Y165.285 E96.96056
G1 X178.434 Y165.631 E96.99748
G1 X178.525 Y165.82 E97.01487
G1 X178.571 Y166.058 E97.03498
G1 X178.556 Y166.213 E97.0479
G1 X178.445 Y166.5 E97.07342
G1 X178.168 Y166.853 E97.11064
G1 X166.863 Y178.157 E98.43663
G1 X166.516 Y178.437 E98.47362
G1 X166.332 Y178.525 E98.49053
G1 X166.094 Y178.571 E98.51064
G1 X165.94 Y178.556 E98.52347
G1 X165.654 Y178.445 E98.54892
G1 X165.307 Y178.176 E98.58533
G1 X139.26 Y152.129 E101.64061
G1 X141.476 Y149.911 E101.90066
G1 X141.886 Y149.427 E101.95327
G1 X142.229 Y148.852 E102.0088
G1 X142.472 Y148.23 E102.06419
G1 X142.609 Y147.572 E102.11993
G1 X142.637 Y146.906 E102.17522
G1 X142.554 Y146.241 E102.23081
G1 X142.363 Y145.6 E102.28628
G1 X142.07 Y144.999 E102.34174
G1 X141.688 Y144.463 E102.39633
G1 X141.465 Y144.224 E102.42344
G1 X123.749 Y126.508 E104.5015
G1 X123.265 Y126.097 E104.55417
G1 X122.69 Y125.754 E104.6097
G1 X122.066 Y125.511 E104.66524
G1 X121.409 Y125.373 E104.72092
G1 X120.743 Y125.346 E104.77621
G1 X120.079 Y125.429 E104.83171
G1 X119.437 Y125.619 E104.88724
G1 X118.835 Y125.914 E104.94285
G1 X118.301 Y126.295 E104.99726
M204 S3000
M205 X10 Y10
G0 F1200 X118.712 Y126.8
M204 S2500
M205 X8 Y8
;TYPE:WALL-OUTER
G1 F600 X118.512 Y126.985 E105.01985
G1 X115.854 Y129.642 E105.33157
G1 X31.025 Y44.813 E115.28188
G1 X30.768 Y44.491 E115.31605
G1 X30.6 Y44.119 E115.3499
G1 X30.51 Y43.651 E115.38943
G1 X30.56 Y43.158 E115.43053
G1 X30.703 Y42.768 E115.46499
G1 X31.011 Y42.342 E115.50859
G1 X38.961 Y34.394 E116.44099
G1 X42.327 Y31.025 E116.83599
G1 X42.753 Y30.711 E116.87989
G1 X43.165 Y30.558 E116.91634
G1 X43.645 Y30.51 E116.95635
G1 X44.123 Y30.6 E116.99669
G1 X44.49 Y30.769 E117.03021
G1 X44.809 Y31.019 E117.06382
G1 X178.639 Y164.85 E132.76192
G1 X178.984 Y165.277 E132.80745
G1 X179.147 Y165.615 E132.83858
G1 X179.226 Y166.027 E132.87337
G1 X179.195 Y166.364 E132.90144
G1 X179.024 Y166.805 E132.94067
G1 X178.806 Y167.12 E132.97245
G1 X178.636 Y167.305 E132.99328
G1 X167.301 Y178.639 E134.3228
G1 X166.865 Y178.99 E134.36923
G1 X166.538 Y179.147 E134.39931
G1 X166.125 Y179.226 E134.43419
G1 X165.789 Y179.195 E134.46218
G1 X165.348 Y179.024 E134.50141
G1 X165.029 Y178.803 E134.5336
G1 X164.847 Y178.636 E134.55408
G1 X138.34 Y152.129 E137.66331
G1 X140.997 Y149.471 E137.97503
G1 X141.355 Y149.048 E138.021
G1 X141.643 Y148.565 E138.06764
G1 X141.847 Y148.044 E138.11405
G1 X141.962 Y147.492 E138.16081
G1 X141.985 Y146.933 E138.20722
G1 X141.916 Y146.375 E138.25385
G1 X141.755 Y145.837 E138.30043
G1 X141.509 Y145.332 E138.34702
G1 X141.183 Y144.875 E138.39358
G1 X140.997 Y144.675 E138.41623
G1 X123.308 Y126.986 E140.49113
G1 X122.886 Y126.628 E140.53703
G1 X122.403 Y126.34 E140.58367
G1 X121.88 Y126.136 E140.63023
G1 X121.329 Y126.02 E140.67693
G1 X120.77 Y125.998 E140.72333
G1 X120.212 Y126.067 E140.76997
G1 X119.674 Y126.227 E140.81652
G1 X119.169 Y126.474 E140.86315
G1 X118.712 Y126.8 E140.90971
M204 S3000
M205 X10 Y10
G0 F1200 X118.512 Y126.985
G0 X118.493 Y127.004
G0 X117.964 Y126.473
G0 X83.339 Y94.491
G0 X83.649 Y93.809
M204 S2500
M205 X8 Y8
G1 F600 X84.101 Y93.891 E140.94781
G1 X84.558 Y93.863 E140.98579
G1 X84.996 Y93.726 E141.02385
G1 X85.387 Y93.49 E141.06173
G1 X85.55 Y93.346 E141.07977
G1 X86.275 Y92.621 E141.16481
G1 X86.549 Y92.269 E141.20181
G1 X86.738 Y91.853 E141.23971
G1 X86.82 Y91.401 E141.27781
G1 X86.792 Y90.944 E141.31579
G1 X86.655 Y90.506 E141.35385
G1 X86.418 Y90.113 E141.39192
G1 X86.274 Y89.951 E141.4099
G1 X67.166 Y70.843 E143.65123
G1 X66.814 Y70.568 E143.68828
G1 X66.397 Y70.379 E143.72626
G1 X65.945 Y70.297 E143.76436
G1 X65.488 Y70.325 E143.80233
G1 X65.05 Y70.462 E143.8404
G1 X64.658 Y70.698 E143.87835
G1 X64.495 Y70.843 E143.89644
G1 X63.771 Y71.567 E143.98137
G1 X63.497 Y71.919 E144.01837
G1 X63.308 Y72.335 E144.05626
G1 X63.226 Y72.787 E144.09437
G1 X63.254 Y73.244 E144.13234
G1 X63.391 Y73.682 E144.17041
G1 X63.628 Y74.075 E144.20847
G1 X63.772 Y74.237 E144.22645
G1 X82.88 Y93.345 E146.46779
G1 X83.232 Y93.62 E146.50483
G1 X83.649 Y93.809 E146.54281
M204 S3000
