;FLAVOR:Marlin
;TIME:3258
;Filament used: 4.67004m
;Layer height: 0.3
;MINX:10.475
;MINY:15.952
;MINZ:0.3
;MAXX:199.027
;MAXY:191.641
;MAXZ:3
;Generated with Cura_SteamEngine 4.10.0
M104 S205
M105
M109 S205
M82 ;absolute extrusion mode
G21 ;metric values
G90 ;absolute positioning
M82 ;set extruder to absolute mode
M107 ;start with the fan off
G28 X0 Y0 ;move X/Y to min endstops
G28 Z0 ;move Z to min endstops
M501
M420 S1 ;Marlin Bed-leveling on
G1 Z15.0 F120 ;move the platform down 15mm
G92 E0 ;zero the extruded length
G1 F200 E3 ;extrude 3mm of feed stock
G92 E0 ;zero the extruded length again
G1 F120
M117 Printing...
G5
G92 E0
G92 E0
G1 F2400 E-6
;LAYER_COUNT:10
;LAYER:0
M107
M204 S3000
M205 X10 Y10
G1 F600 Z0.375
;MESH:Right_Grip_Cover.stl
G0 F1200 X64.471 Y116.947 Z0.375
M204 S2500
M205 X8 Y8
;TYPE:WALL-INNER
G1 F600 Z0.3
G1 F2400 E0
G1 F600 X64.889 Y117.011 E0.03507
G1 X64.815 Y117.142
G1 X64.731 Y117.29 E0.04919
G1 X63.815 Y118.899 E0.20275
G1 X63.028 Y120.27 E0.33387
G1 X55.567 Y133.199 E1.57198
G1 X31.648 Y174.631 E5.54
G1 X31.56 Y174.784 E5.55464
G1 X31.212 Y175.386 E5.61232
G1 X30.827 Y176.052 E5.67612
G1 X30.436 Y176.729 E5.74097
G1 X30.055 Y177.389 E5.80418
G1 X29.707 Y177.991 E5.86185
G1 X29.617 Y178.147 E5.87679
G1 X25.464 Y185.34 E6.56569
G1 X22.972 Y189.649 E6.97856
G1 X22.69 Y189.966 E7.01375
G1 X22.418 Y190.124 E7.03984
G1 X22.13 Y190.201 E7.06456
G1 X21.832 Y190.201 E7.08928
G1 X21.514 Y190.116 E7.11658
G1 X21.295 Y190.006 E7.13691
G1 X12.445 Y184.896 E7.98453
G1 X108.632 Y18.293 E23.94066
G1 X109.507 Y18.284 E24.01324
G1 X110.277 Y18.19 E24.07758
G1 X111.195 Y17.972 E24.15584
G1 X111.866 Y17.729 E24.21503
G1 X112.393 Y17.525 E24.2619
G1 X112.828 Y17.417 E24.29907
G1 X113.253 Y17.372 E24.33452
G1 X113.691 Y17.384 E24.37086
G1 X114.117 Y17.452 E24.40664
G1 X114.532 Y17.578 E24.44262
G1 X114.92 Y17.755 E24.47799
G1 X115.293 Y17.99 E24.51456
G1 X115.634 Y18.275 E24.55142
G1 X115.919 Y18.588 E24.58653
G1 X116.16 Y18.935 E24.62157
G1 X116.367 Y19.338 E24.65915
G1 X116.505 Y19.724 E24.69315
G1 X116.594 Y20.15 E24.72924
G1 X116.628 Y20.592 E24.76601
G1 X116.604 Y21.014 E24.80107
G1 X116.52 Y21.442 E24.83725
G1 X116.43 Y21.703 E24.86015
G1 X116.366 Y21.891 E24.87662
G1 X116.242 Y22.107 E24.89728
G1 X115.896 Y22.705 E24.95458
G1 X115.562 Y23.283 E25.00995
G1 X115.746 Y22.619 E25.01817
G1 X115.775 Y21.868 E25.05129
G1 X115.777 Y21.839 E25.05137
G1 X115.737 Y21.645 E25.06657
G1 X115.618 Y21.068 E25.11543
G1 X115.278 Y20.358 E25.18073
G1 X114.78 Y19.752 E25.24578
G1 X114.15 Y19.282 E25.31098
G1 X113.421 Y18.972 E25.37668
G1 X112.595 Y18.85 E25.44594
G1 X111.864 Y18.917 E25.50682
G1 X111.122 Y19.164 E25.57168
G1 X110.458 Y19.588 E25.63703
G1 X109.915 Y20.156 E25.7022
G1 X109.525 Y20.836 E25.76722
G1 X109.308 Y21.592 E25.83246
G1 X109.276 Y22.376 E25.89754
G1 X109.435 Y23.147 E25.96283
G1 X109.775 Y23.86 E26.02835
G1 X110.274 Y24.465 E26.0934
G1 X110.903 Y24.936 E26.15857
G1 X111.627 Y25.241 E26.22374
G1 X112.397 Y25.364 E26.28841
G1 X113.184 Y25.303 E26.35388
G1 X113.715 Y25.124 E26.40036
G1 X113.93 Y25.052 E26.41917
G1 X114.595 Y24.628 E26.48458
G1 X115.073 Y24.129 E26.54189
G1 X114.738 Y24.71 E26.54801
G1 X114.388 Y25.316 E26.57993
G1 X114.275 Y25.512 E26.59654
G1 X113.253 Y27.279 E26.76585
G1 X112.872 Y28.011 E26.83429
G1 X112.606 Y28.639 E26.89086
G1 X112.338 Y29.447 E26.96147
G1 X112.172 Y30.107 E27.01791
G1 X112.033 Y30.955 E27.08919
G1 X111.977 Y31.622 E27.14471
G1 X111.958 Y32.481 E27.21597
G1 X111.955 Y33.057 E27.26375
G1 X111.971 Y33.635 E27.31171
G1 X111.989 Y33.967 E27.33928
G1 X112.036 Y34.543 E27.38722
G1 X112.103 Y35.125 E27.43581
G1 X112.193 Y35.708 E27.48474
G1 X112.302 Y36.283 E27.53328
G1 X112.43 Y36.851 E27.58157
G1 X112.512 Y37.172 E27.60905
G1 X112.67 Y37.73 E27.65715
G1 X112.849 Y38.287 E27.70568
G1 X113.047 Y38.839 E27.75432
G1 X113.266 Y39.385 E27.80311
G1 X113.501 Y39.914 E27.85112
G1 X113.642 Y40.213 E27.87854
G1 X113.906 Y40.732 E27.92684
G1 X114.19 Y41.247 E27.97562
G1 X114.492 Y41.749 E28.02421
G1 X114.807 Y42.238 E28.07245
G1 X115.146 Y42.721 E28.1214
G1 X115.495 Y43.185 E28.16955
G1 X115.7 Y43.444 E28.19695
G1 X116.074 Y43.889 E28.24516
G1 X116.469 Y44.326 E28.29402
G1 X116.878 Y44.746 E28.34265
G1 X117.295 Y45.15 E28.3908
G1 X117.734 Y45.545 E28.43979
G1 X118.181 Y45.916 E28.48797
G1 X118.439 Y46.121 E28.5153
G1 X118.903 Y46.469 E28.56341
G1 X119.384 Y46.804 E28.61202
G1 X119.879 Y47.124 E28.66091
G1 X120.381 Y47.422 E28.70933
G1 X120.897 Y47.705 E28.75815
G1 X121.413 Y47.966 E28.80611
G1 X121.714 Y48.108 E28.83371
G1 X122.246 Y48.342 E28.88192
G1 X122.79 Y48.558 E28.93046
G1 X123.344 Y48.757 E28.97929
G1 X123.902 Y48.934 E29.02784
G1 X124.461 Y49.09 E29.07598
G1 X124.783 Y49.172 E29.10354
G1 X125.348 Y49.298 E29.15155
G1 X125.925 Y49.405 E29.20023
G1 X126.505 Y49.493 E29.24888
G1 X127.088 Y49.56 E29.29756
G1 X127.67 Y49.607 E29.34599
G1 X128.257 Y49.634 E29.39473
G1 X128.843 Y49.639 E29.44333
G1 X129.43 Y49.624 E29.49204
G1 X129.757 Y49.605 E29.5192
G1 X130.293 Y49.566 E29.56378
G1 X131.217 Y49.477 E29.64077
G1 X133.4 Y49.296 E29.82246
G1 X135.382 Y49.155 E29.98726
G1 X137.394 Y49.038 E30.15443
G1 X139.383 Y48.946 E30.31958
G1 X141.401 Y48.878 E30.48705
G1 X143.403 Y48.835 E30.65314
G1 X145.403 Y48.816 E30.81903
G1 X147.389 Y48.822 E30.98375
G1 X149.392 Y48.853 E31.14991
G1 X151.404 Y48.908 E31.31685
G1 X153.41 Y48.986 E31.48336
G1 X155.397 Y49.092 E31.6484
G1 X157.413 Y49.222 E31.81596
G1 X159.416 Y49.374 E31.98257
G1 X161.396 Y49.552 E32.14746
G1 X163.395 Y49.756 E32.31412
G1 X165.389 Y49.982 E32.48057
G1 X167.372 Y50.233 E32.64636
G1 X169.349 Y50.508 E32.81191
G1 X171.333 Y50.808 E32.97834
G1 X173.349 Y51.138 E33.14778
G1 X176.862 Y51.754 E33.4436
G1 X187.951 Y53.709 E34.37753
G1 X192.797 Y54.566 E34.78571
G1 X193.37 Y54.692 E34.83437
G1 X193.979 Y54.896 E34.88764
G1 X194.549 Y55.158 E34.93967
G1 X195.079 Y55.476 E34.99094
G1 X195.583 Y55.86 E35.04349
G1 X196.035 Y56.287 E35.09507
G1 X196.444 Y56.772 E35.14769
G1 X196.789 Y57.284 E35.1989
G1 X197.082 Y57.838 E35.25088
G1 X197.312 Y58.423 E35.30301
G1 X197.481 Y59.052 E35.35703
G1 X197.579 Y59.678 E35.40959
G1 X197.605 Y60.266 E35.45841
G1 X197.566 Y60.912 E35.51208
G1 X197.46 Y61.518 E35.56311
G1 X197.284 Y62.129 E35.61585
G1 X197.037 Y62.728 E35.66959
G1 X196.895 Y63.007 E35.69556
G1 X178.314 Y95.195 E38.77821
G1 X177.946 Y95.783 E38.83574
G1 X177.562 Y96.273 E38.88737
G1 X177.132 Y96.711 E38.93828
G1 X176.643 Y97.115 E38.99089
G1 X176.113 Y97.462 E39.04344
G1 X175.541 Y97.752 E39.09663
G1 X175.294 Y97.855 E39.11883
G1 X174.668 Y98.053 E39.17328
G1 X174.051 Y98.176 E39.22547
G1 X173.439 Y98.23 E39.27642
G1 X172.791 Y98.215 E39.33019
G1 X172.21 Y98.139 E39.37879
G1 X171.083 Y97.942 E39.47368
G1 X170.555 Y97.813 E39.51876
G1 X170.086 Y97.635 E39.56037
G1 X169.619 Y97.39 E39.60411
G1 X169.179 Y97.086 E39.64847
G1 X169.131 Y97.046 E39.65365
G1 X168.688 Y96.697 E39.70043
G1 X168.213 Y96.348 E39.74931
G1 X167.735 Y96.023 E39.79726
G1 X167.457 Y95.843 E39.82473
G1 X166.96 Y95.542 E39.87292
G1 X166.447 Y95.254 E39.92172
G1 X165.924 Y94.986 E39.97046
G1 X165.394 Y94.737 E40.01903
G1 X164.854 Y94.508 E40.06768
G1 X164.314 Y94.297 E40.11576
G1 X164.002 Y94.186 E40.14323
G1 X163.45 Y94.005 E40.19141
G1 X162.885 Y93.842 E40.24019
G1 X162.315 Y93.699 E40.28893
G1 X161.743 Y93.578 E40.33742
G1 X161.164 Y93.475 E40.3862
G1 X160.581 Y93.393 E40.43503
G1 X160.005 Y93.332 E40.48307
G1 X159.678 Y93.306 E40.51028
G1 X159.096 Y93.274 E40.55863
G1 X158.508 Y93.266 E40.6074
G1 X157.923 Y93.275 E40.65593
G1 X157.337 Y93.308 E40.70461
G1 X156.752 Y93.36 E40.75332
G1 X156.174 Y93.432 E40.80163
G1 X155.847 Y93.481 E40.82906
G1 X155.276 Y93.584 E40.87718
G1 X154.701 Y93.707 E40.92595
G1 X154.134 Y93.851 E40.97448
G1 X153.63 Y93.997 E41.018
G1 X152.987 Y94.164 E41.0731
G1 X152.586 Y94.207 E41.10655
G1 X152.146 Y94.194 E41.14306
G1 X151.726 Y94.127 E41.17834
G1 X151.308 Y94.002 E41.21452
G1 X150.901 Y93.814 E41.25171
G1 X150.203 Y93.379 E41.31992
G1 X149.707 Y93.087 E41.36766
G1 X149.2 Y92.81 E41.41558
G1 X148.905 Y92.66 E41.44303
G1 X148.383 Y92.409 E41.49107
G1 X147.847 Y92.177 E41.53952
G1 X147.302 Y91.96 E41.58817
G1 X146.751 Y91.765 E41.63665
G1 X146.199 Y91.592 E41.68463
G1 X145.884 Y91.501 E41.71183
G1 X145.322 Y91.355 E41.75999
G1 X144.75 Y91.23 E41.80855
G1 X144.177 Y91.123 E41.8569
G1 X143.601 Y91.038 E41.90519
G1 X143.019 Y90.97 E41.95379
G1 X142.434 Y90.925 E42.00245
G1 X141.851 Y90.899 E42.05086
G1 X141.267 Y90.896 E42.0993
G1 X140.687 Y90.91 E42.14742
G1 X140.356 Y90.929 E42.17492
G1 X139.782 Y90.975 E42.22268
G1 X139.201 Y91.043 E42.2712
G1 X138.622 Y91.129 E42.31975
G1 X137.988 Y91.251 E42.3733
G1 X137.333 Y91.336 E42.42808
G1 X136.914 Y91.324 E42.46285
G1 X136.501 Y91.258 E42.49754
G1 X136.068 Y91.129 E42.53501
G1 X135.688 Y90.956 E42.56964
G1 X135.245 Y90.67 E42.61338
G1 X134.79 Y90.335 E42.66024
G1 X134.309 Y90.005 E42.70862
G1 X133.817 Y89.694 E42.7569
G1 X133.317 Y89.398 E42.80509
G1 X132.811 Y89.124 E42.85282
G1 X132.516 Y88.972 E42.88035
G1 X131.994 Y88.725 E42.92824
G1 X131.459 Y88.492 E42.97664
G1 X130.914 Y88.279 E43.02518
G1 X130.367 Y88.087 E43.07326
G1 X129.811 Y87.912 E43.12161
G1 X129.257 Y87.759 E43.16928
G1 X128.936 Y87.679 E43.19672
G1 X128.372 Y87.555 E43.24461
G1 X127.797 Y87.449 E43.29311
G1 X127.22 Y87.364 E43.34148
G1 X126.643 Y87.3 E43.38963
G1 X126.062 Y87.255 E43.43797
G1 X125.48 Y87.229 E43.48629
G1 X124.896 Y87.226 E43.53473
G1 X124.315 Y87.243 E43.58294
G1 X123.739 Y87.278 E43.6308
G1 X123.41 Y87.307 E43.6582
G1 X122.837 Y87.373 E43.70604
G1 X122.261 Y87.461 E43.75436
G1 X121.689 Y87.568 E43.80263
G1 X121.119 Y87.696 E43.85109
G1 X120.56 Y87.842 E43.89901
G1 X120.244 Y87.933 E43.92628
G1 X119.689 Y88.11 E43.9746
G1 X118.994 Y88.362 E44.03592
G1 X118.524 Y88.477 E44.07605
G1 X118.102 Y88.522 E44.11125
G1 X117.377 Y88.473 E44.17152
G1 X112.08 Y87.542 E44.6176
G1 X103.354 Y86.001 E45.35255
G1 X102.981 Y85.874 E45.38524
G1 X102.683 Y85.679 E45.41477
G1 X102.326 Y85.331 E45.45613
G1 X101.834 Y84.897 E45.51054
G1 X101.156 Y84.386 E45.58096
G1 X100.587 Y84.024 E45.6369
G1 X99.828 Y83.621 E45.70817
G1 X99.039 Y83.29 E45.77914
G1 X98.414 Y83.082 E45.83377
G1 X97.985 Y82.967 E45.87061
G1 X97.452 Y82.838 E45.9161
G1 X96.843 Y82.714 E45.96765
G1 X95.991 Y82.605 E46.03889
G1 X95.128 Y82.573 E46.11052
G1 X94.448 Y82.604 E46.16698
G1 X93.598 Y82.708 E46.238
G1 X92.931 Y82.847 E46.29451
G1 X92.115 Y83.083 E46.36497
G1 X91.427 Y83.343 E46.42597
G1 X90.606 Y83.724 E46.50104
G1 X89.893 Y84.139 E46.56947
G1 X89.361 Y84.502 E46.62289
G1 X89.054 Y84.74 E46.65511
G1 X88.439 Y85.316 E46.725
G1 X87.69 Y86.024 E46.81048
G1 X86.421 Y87.25 E46.95683
G1 X85.17 Y88.492 E47.10305
G1 X83.932 Y89.748 E47.24932
G1 X82.71 Y91.021 E47.39568
G1 X81.503 Y92.307 E47.54197
G1 X80.313 Y93.61 E47.68833
G1 X79.14 Y94.927 E47.83461
G1 X77.983 Y96.256 E47.98076
G1 X76.886 Y97.552 E48.12159
G1 X75.723 Y99.223 E48.29045
G1 X75.251 Y99.8 E48.35228
G1 X74.333 Y100.753 E48.46204
G1 X73.815 Y101.337 E48.52678
G1 X73.332 Y101.986 E48.59388
G1 X72.996 Y102.516 E48.64593
G1 X72.842 Y102.784 E48.67157
G1 X72.076 Y104.184 E48.80393
G1 X68.12 Y111.323 E49.4809
G1 X68.053 Y111.444 E49.49237
G1 X67.944 Y111.636 E49.51068
G1 X67.87 Y111.767 E49.52316
G1 X67.787 Y111.666 E49.52542
G1 X67.599 Y111.441 E49.54008
G1 X67.488 Y111.359 E49.55153
G1 X66.953 Y110.965 E49.60664
G1 X66.221 Y110.667 E49.67219
G1 X65.45 Y110.551 E49.73686
G1 X64.666 Y110.623 E49.80216
G1 X63.923 Y110.88 E49.86737
G1 X63.255 Y111.316 E49.93353
G1 X62.721 Y111.89 E49.99855
G1 X62.336 Y112.586 E50.06453
G1 X62.132 Y113.337 E50.12907
G1 X62.108 Y114.071 E50.18998
G1 X62.263 Y114.835 E50.25464
G1 X62.598 Y115.547 E50.31991
G1 X63.096 Y116.158 E50.38529
G1 X63.733 Y116.637 E50.45139
G1 X64.314 Y116.881 E50.50366
G1 X64.471 Y116.947 E50.51519
M204 S3000
M205 X10 Y10
G0 F1200 X29.692 Y176.172
G0 X26.913 Y177.898
M204 S2500
M205 X8 Y8
G1 F600 X27.69 Y178.022 E50.58045
G1 X28.472 Y177.961 E50.64551
G1 X29.048 Y177.767 E50.69592
G1 X29.219 Y177.71 E50.70951
G1 X29.883 Y177.29 E50.7516
G1 X30.427 Y176.724 E50.76381
G1 X30.818 Y176.047 E50.76466
G1 X31.04 Y175.288 E50.77549
G1 X31.069 Y174.502 E50.81357
G1 X31.034 Y174.329 E50.8269
G1 X30.913 Y173.733 E50.87734
G1 X30.576 Y173.023 E50.94253
G1 X30.08 Y172.415 E51.00761
G1 X29.45 Y171.941 E51.073
G1 X28.724 Y171.633 E51.13841
G1 X27.951 Y171.509 E51.20335
G1 X27.169 Y171.571 E51.26841
G1 X26.423 Y171.819 E51.33362
G1 X25.758 Y172.239 E51.39885
G1 X25.214 Y172.806 E51.46403
G1 X24.821 Y173.486 E51.52917
G1 X24.6 Y174.245 E51.59474
G1 X24.571 Y175.029 E51.65981
G1 X24.727 Y175.797 E51.72481
G1 X25.064 Y176.508 E51.79007
G1 X25.563 Y177.116 E51.85531
G1 X26.188 Y177.588 E51.92027
G1 X26.913 Y177.898 E51.98567
M204 S3000
M205 X10 Y10
G0 F1200 X28.825 Y176.881
G0 X32.685 Y174.691
G0 X63.463 Y112.428
G0 X85.813 Y89.137
G0 X89.646 Y85.433
G0 X91.027 Y84.532
G0 X92.411 Y83.946
G0 X93.744 Y83.607
G0 X95.122 Y83.484
G0 X96.694 Y83.613
G0 X128.2 Y88.449
G0 X162.105 Y94.585
G0 X172.583 Y96.997
M204 S2500
M205 X8 Y8
G1 F600 X173.367 Y97.094 E52.05119
G1 X174.15 Y96.997 E52.11663
G1 X174.887 Y96.711 E52.1822
G1 X175.53 Y96.256 E52.24754
G1 X176.043 Y95.656 E52.31301
G1 X176.395 Y94.949 E52.37852
G1 X176.563 Y94.179 E52.44389
G1 X176.539 Y93.39 E52.50936
G1 X176.324 Y92.634 E52.57455
G1 X175.932 Y91.95 E52.63994
G1 X175.379 Y91.379 E52.70587
G1 X174.707 Y90.966 E52.77129
G1 X173.996 Y90.739 E52.83319
G1 X173.522 Y90.681 E52.8728
G1 X172.776 Y90.727 E52.93479
G1 X172.025 Y90.966 E53.00016
G1 X171.355 Y91.38 E53.06549
G1 X170.805 Y91.948 E53.13107
G1 X170.409 Y92.631 E53.19655
G1 X170.194 Y93.39 E53.26198
G1 X170.17 Y94.178 E53.32737
G1 X170.337 Y94.951 E53.39296
G1 X170.691 Y95.66 E53.45869
G1 X171.205 Y96.256 E53.52397
G1 X171.847 Y96.711 E53.58923
G1 X172.583 Y96.997 E53.65473
M204 S3000
M205 X10 Y10
G0 F1200 X174.911 Y95.578
G0 X190.476 Y62.682
M204 S2500
M205 X8 Y8
G1 F600 X191.298 Y62.803 E53.72364
G1 X192.033 Y62.74 E53.78483
G1 X192.776 Y62.49 E53.84985
G1 X193.44 Y62.066 E53.91519
G1 X193.988 Y61.492 E53.98101
G1 X194.394 Y60.764 E54.05015
G1 X194.59 Y60.056 E54.11108
G1 X194.621 Y59.276 E54.17583
G1 X194.463 Y58.509 E54.24078
G1 X194.123 Y57.794 E54.30645
G1 X193.622 Y57.188 E54.37167
G1 X192.994 Y56.72 E54.43663
G1 X192.265 Y56.41 E54.50233
G1 X191.443 Y56.289 E54.57124
G1 X190.708 Y56.352 E54.63243
G1 X189.965 Y56.602 E54.69745
G1 X189.301 Y57.026 E54.7628
G1 X188.753 Y57.6 E54.82862
G1 X188.347 Y58.328 E54.89776
G1 X188.151 Y59.036 E54.95869
G1 X188.12 Y59.816 E55.02343
G1 X188.278 Y60.583 E55.08839
G1 X188.618 Y61.298 E55.15405
G1 X189.119 Y61.904 E55.21927
G1 X189.747 Y62.372 E55.28423
G1 X190.476 Y62.682 E55.34994
M204 S3000
M205 X10 Y10
G0 F1200 X190.667 Y62.003
M204 S2500
M205 X8 Y8
G1 F600 X191.319 Y62.099 E55.4046
G1 X191.889 Y62.05 E55.45205
G1 X192.472 Y61.854 E55.50306
G1 X192.992 Y61.522 E55.55424
G1 X193.42 Y61.073 E55.60569
G1 X193.742 Y60.496 E55.66049
G1 X193.894 Y59.947 E55.70774
G1 X193.918 Y59.334 E55.75862
G1 X193.794 Y58.733 E55.80952
G1 X193.528 Y58.173 E55.86094
G1 X193.136 Y57.699 E55.91196
G1 X192.643 Y57.331 E55.96299
G1 X192.074 Y57.089 E56.01427
G1 X191.422 Y56.993 E56.06893
G1 X190.852 Y57.042 E56.11638
G1 X190.269 Y57.238 E56.1674
G1 X189.749 Y57.57 E56.21857
G1 X189.321 Y58.019 E56.27002
G1 X188.999 Y58.596 E56.32483
G1 X188.847 Y59.145 E56.37207
G1 X188.823 Y59.758 E56.42296
G1 X188.947 Y60.359 E56.47386
G1 X189.213 Y60.919 E56.52528
G1 X189.605 Y61.393 E56.57629
G1 X190.098 Y61.761 E56.62732
G1 X190.667 Y62.003 E56.67861
M204 S3000
M205 X10 Y10
G0 F1200 X175.277 Y95.151
G0 X174.451 Y95.903
G0 X172.755 Y96.313
M204 S2500
M205 X8 Y8
G1 F600 X173.367 Y96.389 E56.72976
G1 X173.978 Y96.313 E56.78083
G1 X174.553 Y96.09 E56.83198
G1 X175.055 Y95.735 E56.88297
G1 X175.455 Y95.267 E56.93404
G1 X175.73 Y94.715 E56.98519
G1 X175.861 Y94.114 E57.03621
G1 X175.842 Y93.498 E57.08732
G1 X175.674 Y92.908 E57.13821
G1 X175.368 Y92.374 E57.18925
G1 X174.937 Y91.929 E57.24064
G1 X174.413 Y91.607 E57.29165
