;FLAVOR:Marlin
;TIME:917
;Filament used: 0.847007m
;Layer height: 0.2
;MINX:-13.3
;MINY:-12.55
;MINZ:0.3
;MAXX:13.3
;MAXY:12.55
;MAXZ:13.7
;Generated with Cura_SteamEngine 4.10.0
M104 S205
M105
M109 S205
M82 ;absolute extrusion mode
G21        ;metric values
G90        ;absolute positioning
M107       ;start with the fan off
G28   ;move to endstops

;Z-Offset Reset und dann Z +0,1 für PLA
;MacroZOffset0
;MacroZOffsetPlus0100

G92 E0                  ;zero the extruded length
G1 F200 E3              ;extrude 3mm of feed stock
G92 E0                  ;zero the extruded length again
G1 F150.0
;Put printing message on LCD screen
M117 Printing...
G92 E0
G92 E0
G1 F2400 E-6
;LAYER_COUNT:68
;LAYER:0
M106 S255
M204 S3000
G1 F600 Z1.3
G0 F1500 X-4.968 Y9.472 Z1.3
M204 S1500
;TYPE:SKIRT
G1 F600 Z0.3
G1 F2400 E0
G1 F600 X-5.271 Y9.391 E0.01408
G1 X-5.79 Y9.206 E0.03882
G1 X-6.276 Y8.947 E0.06355
G1 X-6.72 Y8.621 E0.08828
G1 X-7.025 Y8.77 E0.10352
G1 X-7.526 Y8.999 E0.12826
G1 X-8.056 Y9.152 E0.15303
G1 X-8.833 Y9.236 E0.18812
G1 X-9.085 Y9.237 E0.19943
G1 X-9.635 Y9.199 E0.22419
G1 X-10.173 Y9.082 E0.24891
G1 X-10.925 Y8.77 E0.28547
G1 X-11.146 Y8.649 E0.29678
G1 X-11.609 Y8.35 E0.32153
G1 X-12.024 Y7.987 E0.34628
G1 X-12.381 Y7.568 E0.371
G1 X-12.691 Y7.089 E0.39662
G1 X-12.945 Y6.6 E0.42136
G1 X-13.173 Y5.878 E0.45536
G1 X-13.215 Y5.677 E0.46458
G1 X-13.29 Y5.09 E0.49115
G1 X-13.3 Y4.8 E0.50418
G1 X-13.3 Y-4.8 E0.93523
G1 X-13.257 Y-5.408 E0.9626
G1 X-13.159 Y-5.95 E0.98733
G1 X-12.971 Y-6.505 E1.01364
G1 X-12.863 Y-6.757 E1.02595
G1 X-12.61 Y-7.246 E1.05067
G1 X-12.288 Y-7.694 E1.07544
G1 X-11.906 Y-8.09 E1.10015
G1 X-11.486 Y-8.426 E1.1243
G1 X-11.026 Y-8.729 E1.14903
G1 X-10.527 Y-8.962 E1.17376
G1 X-9.804 Y-9.159 E1.20741
G1 X-9.567 Y-9.199 E1.2182
G1 X-9.019 Y-9.251 E1.24292
G1 X-8.469 Y-9.223 E1.26764
G1 X-7.68 Y-9.039 E1.30402
G1 X-7.44 Y-8.955 E1.31544
G1 X-6.934 Y-8.735 E1.34021
G1 X-6.722 Y-8.604 E1.3514
G1 X-6.493 Y-8.799 E1.36491
G1 X-6.026 Y-9.092 E1.38966
G1 X-5.521 Y-9.313 E1.41441
G1 X-4.986 Y-9.469 E1.43944
G1 X-4.792 Y-9.881 E1.45988
G1 X-4.526 Y-10.364 E1.48464
G1 X-4.201 Y-10.793 E1.50881
G1 X-4.015 Y-11.006 E1.52151
G1 X-3.624 Y-11.394 E1.54624
G1 X-3.19 Y-11.715 E1.57048
G1 X-2.949 Y-11.868 E1.5833
G1 X-2.463 Y-12.129 E1.60807
G1 X-1.97 Y-12.31 E1.63165
G1 X-1.694 Y-12.39 E1.64455
G1 X-1.155 Y-12.504 E1.66929
G1 X-.466 Y-12.55 E1.70029
G1 X4.501 Y-12.55 E1.92332
G1 X5.055 Y-12.509 E1.94826
G1 X5.34 Y-12.467 E1.9612
G1 X5.878 Y-12.348 E1.98594
G1 X6.378 Y-12.159 E2.00994
G1 X6.636 Y-12.04 E2.02269
G1 X7.118 Y-11.773 E2.04744
G1 X7.543 Y-11.451 E2.07138
G1 X7.756 Y-11.265 E2.08407
G1 X8.144 Y-10.874 E2.10881
G1 X8.465 Y-10.44 E2.13305
G1 X8.618 Y-10.199 E2.14586
G1 X8.879 Y-9.713 E2.17063
G1 X8.928 Y-9.578 E2.17708
G1 X9.455 Y-9.503 E2.20098
G1 X10.008 Y-9.349 E2.22676
G1 X10.523 Y-9.153 E2.2515
G1 X10.978 Y-8.901 E2.27485
G1 X11.221 Y-8.744 E2.28784
G1 X11.661 Y-8.412 E2.31259
G1 X12.041 Y-8.028 E2.33685
G1 X12.224 Y-7.815 E2.34946
G1 X12.552 Y-7.372 E2.37421
G1 X12.812 Y-6.888 E2.39888
G1 X12.929 Y-6.626 E2.41176
G1 X13.116 Y-6.108 E2.43649
G1 X13.259 Y-5.359 E2.47073
G1 X13.3 Y-4.801 E2.49585
G1 X13.3 Y4.802 E2.92704
G1 X13.26 Y5.349 E2.95167
G1 X13.219 Y5.631 E2.96446
G1 X13.101 Y6.169 E2.98919
G1 X12.912 Y6.671 E3.01328
G1 X12.793 Y6.93 E3.02607
G1 X12.527 Y7.412 E3.05079
G1 X12.207 Y7.837 E3.07468
G1 X12.02 Y8.052 E3.08748
G1 X11.629 Y8.44 E3.11221
G1 X11.184 Y8.77 E3.13708
G1 X10.942 Y8.923 E3.14994
G1 X10.456 Y9.183 E3.17469
G1 X9.957 Y9.364 E3.19852
G1 X9.681 Y9.443 E3.21141
G1 X9.141 Y9.556 E3.23619
G1 X8.928 Y9.577 E3.2458
G1 X8.792 Y9.881 E3.26075
G1 X8.526 Y10.363 E3.28547
G1 X8.201 Y10.793 E3.30967
G1 X8.015 Y11.006 E3.32237
G1 X7.624 Y11.394 E3.3471
G1 X7.19 Y11.715 E3.37134
G1 X6.949 Y11.868 E3.38416
G1 X6.463 Y12.129 E3.40893
G1 X5.97 Y12.31 E3.43251
G1 X5.694 Y12.39 E3.44541
G1 X4.915 Y12.53 E3.48095
G1 X4.5 Y12.55 E3.4996
G1 X-.501 Y12.55 E3.72416
G1 X-1.055 Y12.509 E3.7491
G1 X-1.34 Y12.467 E3.76203
G1 X-1.878 Y12.348 E3.78677
G1 X-2.378 Y12.159 E3.81078
G1 X-2.636 Y12.04 E3.82353
G1 X-3.118 Y11.773 E3.84827
G1 X-3.545 Y11.45 E3.87231
G1 X-3.76 Y11.262 E3.88514
G1 X-4.148 Y10.87 E3.9099
G1 X-4.473 Y10.428 E3.93454
G1 X-4.625 Y10.187 E3.94733
G1 X-4.885 Y9.701 E3.97208
G1 X-4.968 Y9.472 E3.98302
M204 S3000
G0 F1500 X-4.53 Y9.513
M204 S1500
G1 F600 X-4.668 Y9.128 E4.00138
G1 X-5.164 Y9.006 E4.02431
G1 X-5.654 Y8.828 E4.04772
G1 X-6.111 Y8.578 E4.07111
G1 X-6.678 Y8.114 E4.10401
G1 X-6.697 Y8.094 E4.10525
G1 X-7.217 Y8.419 E4.13278
G1 X-7.692 Y8.633 E4.15617
G1 X-8.194 Y8.773 E4.17958
G1 X-8.835 Y8.836 E4.2085
G1 X-9.087 Y8.837 E4.21981
G1 X-9.606 Y8.799 E4.24318
G1 X-10.114 Y8.682 E4.26658
G1 X-10.733 Y8.419 E4.29678
G1 X-10.954 Y8.298 E4.3081
G1 X-11.39 Y8.014 E4.33146
G1 X-11.778 Y7.666 E4.35486
G1 X-12.218 Y7.095 E4.38723
G1 X-12.35 Y6.88 E4.39856
G1 X-12.588 Y6.416 E4.42197
G1 X-12.781 Y5.796 E4.45113
G1 X-12.823 Y5.595 E4.46035
G1 X-12.891 Y5.07 E4.48412
G1 X-12.9 Y4.8 E4.49625
G1 X-12.9 Y-4.8 E4.9273
G1 X-12.859 Y-5.366 E4.95278
G1 X-12.765 Y-5.878 E4.97615
G1 X-12.495 Y-6.599 E5.01072
G1 X-12.254 Y-7.061 E5.03412
G1 X-11.945 Y-7.481 E5.05753
G1 X-11.44 Y-7.957 E5.08869
G1 X-11.242 Y-8.109 E5.0999
G1 X-10.806 Y-8.394 E5.12329
G1 X-10.331 Y-8.608 E5.14668
G1 X-9.738 Y-8.765 E5.17423
G1 X-9.501 Y-8.805 E5.18502
G1 X-8.982 Y-8.852 E5.20842
G1 X-8.462 Y-8.819 E5.23181
G1 X-7.812 Y-8.661 E5.26185
G1 X-7.572 Y-8.577 E5.27327
G1 X-7.095 Y-8.368 E5.29665
G1 X-6.684 Y-8.106 E5.31854
G1 X-6.632 Y-8.157 E5.32181
G1 X-6.234 Y-8.493 E5.34519
G1 X-5.789 Y-8.764 E5.36859
G1 X-5.131 Y-9.016 E5.40023
G1 X-4.674 Y-9.122 E5.42129
G1 X-4.428 Y-9.714 E5.45007
G1 X-4.175 Y-10.17 E5.47349
G1 X-3.714 Y-10.743 E5.50651
G1 X-3.342 Y-11.108 E5.52991
G1 X-2.734 Y-11.53 E5.56314
G1 X-2.274 Y-11.775 E5.58654
G1 X-1.583 Y-12.006 E5.61926
G1 X-.836 Y-12.134 E5.65329
G1 X-.466 Y-12.15 E5.66992
G1 X4.501 Y-12.15 E5.89294
G1 X5.282 Y-12.072 E5.92818
G1 X5.79 Y-11.956 E5.95158
G1 X6.468 Y-11.676 E5.98452
G1 X6.923 Y-11.423 E6.00789
G1 X7.493 Y-10.964 E6.04075
G1 X7.858 Y-10.592 E6.06416
G1 X8.28 Y-9.984 E6.09739
G1 X8.525 Y-9.524 E6.12079
G1 X8.645 Y-9.195 E6.13651
G1 X8.882 Y-9.182 E6.14717
G1 X9.623 Y-9.047 E6.18099
G1 X9.893 Y-8.966 E6.19365
G1 X10.379 Y-8.778 E6.21704
G1 X11.004 Y-8.408 E6.24966
G1 X11.419 Y-8.092 E6.27308
G1 X11.921 Y-7.555 E6.30609
G1 X12.229 Y-7.135 E6.32947
G1 X12.564 Y-6.463 E6.36319
G1 X12.739 Y-5.973 E6.38655
G1 X12.863 Y-5.301 E6.41723
G1 X12.9 Y-4.801 E6.43974
G1 X12.9 Y4.802 E6.87093
G1 X12.824 Y5.573 E6.90572
G1 X12.709 Y6.082 E6.92915
G1 X12.43 Y6.763 E6.96219
G1 X12.176 Y7.218 E6.98559
G1 X11.718 Y7.789 E7.01846
G1 X11.347 Y8.155 E7.04186
G1 X10.728 Y8.585 E7.0757
G1 X10.267 Y8.829 E7.09912
G1 X9.571 Y9.059 E7.13203
G1 X8.839 Y9.184 E7.16538
G1 X8.647 Y9.195 E7.17401
G1 X8.429 Y9.714 E7.19929
G1 X8.175 Y10.169 E7.22268
G1 X7.714 Y10.743 E7.25574
G1 X7.342 Y11.108 E7.27914
G1 X6.734 Y11.53 E7.31237
G1 X6.274 Y11.775 E7.33577
G1 X5.583 Y12.006 E7.36849
G1 X4.885 Y12.131 E7.40033
G1 X4.5 Y12.15 E7.41764
G1 X-.501 Y12.15 E7.64219
G1 X-1.282 Y12.072 E7.67743
G1 X-1.79 Y11.956 E7.70083
G1 X-2.468 Y11.676 E7.73376
G1 X-2.923 Y11.423 E7.75714
G1 X-3.497 Y10.96 E7.79025
G1 X-3.862 Y10.588 E7.81365
G1 X-4.287 Y9.974 E7.84718
G1 X-4.53 Y9.513 E7.87058
M204 S3000
G0 F1500 X-4.175 Y9.326
M204 S1500
G1 F600 X-4.357 Y8.771 E7.89681
G1 X-5.057 Y8.621 E7.92895
G1 X-5.516 Y8.452 E7.95091
G1 X-5.942 Y8.21 E7.97291
G1 X-6.393 Y7.834 E7.99928
G1 X-6.65 Y7.558 E8.01621
G1 X-6.756 Y7.658 E8.02275
G1 X-7.195 Y7.951 E8.04645
G1 X-7.856 Y8.267 E8.07935
G1 X-8.33 Y8.391 E8.10135
G1 X-8.836 Y8.436 E8.12416
G1 X-9.576 Y8.399 E8.15743
G1 X-10.051 Y8.282 E8.17939
G1 X-10.541 Y8.068 E8.2034
G1 X-11.17 Y7.678 E8.23663
G1 X-11.53 Y7.346 E8.25862
G1 X-11.878 Y6.886 E8.28452
G1 X-12.231 Y6.234 E8.31781
G1 X-12.39 Y5.715 E8.34218
G1 X-12.491 Y5.05 E8.37239
G1 X-12.5 Y4.8 E8.38362
G1 X-12.5 Y-4.8 E8.81467
G1 X-12.461 Y-5.324 E8.83826
G1 X-12.37 Y-5.804 E8.8602
G1 X-12.127 Y-6.442 E8.89085
G1 X-11.899 Y-6.874 E8.91279
G1 X-11.602 Y-7.264 E8.9348
G1 X-11.197 Y-7.64 E8.95961
G1 X-10.588 Y-8.057 E8.99275
G1 X-10.139 Y-8.252 E9.01473
G1 X-9.434 Y-8.41 E9.04717
G1 X-8.947 Y-8.452 E9.06912
G1 X-8.459 Y-8.414 E9.0911
G1 X-7.944 Y-8.284 E9.11495
G1 X-7.257 Y-8.001 E9.14831
G1 X-6.848 Y-7.732 E9.17029
G1 X-6.654 Y-7.549 E9.18227
G1 X-6.352 Y-7.872 E9.20212
G1 X-5.976 Y-8.185 E9.22409
G1 X-5.554 Y-8.434 E9.24609
G1 X-5.028 Y-8.63 E9.27129
G1 X-4.357 Y-8.774 E9.30211
G1 X-4.185 Y-9.286 E9.32636
G1 X-3.825 Y-9.974 E9.36123
G1 X-3.413 Y-10.48 E9.39052
G1 X-3.062 Y-10.821 E9.4125
G1 X-2.52 Y-11.193 E9.44201
G1 X-2.087 Y-11.42 E9.46397
G1 X-1.471 Y-11.621 E9.49306
G1 X-.812 Y-11.735 E9.52309
G1 X-.466 Y-11.75 E9.53864
G1 X4.501 Y-11.75 E9.76167
G1 X5.223 Y-11.676 E9.79425
G1 X5.7 Y-11.565 E9.81624
G1 X6.301 Y-11.313 E9.84551
G1 X6.727 Y-11.073 E9.86746
G1 X7.23 Y-10.663 E9.8966
G1 X7.571 Y-10.312 E9.91857
G1 X7.943 Y-9.77 E9.94809
G1 X8.17 Y-9.337 E9.97004
G1 X8.348 Y-8.8 E9.99544
G1 X8.854 Y-8.783 E10.01818
G1 X9.508 Y-8.663 E10.04803
G1 X10.234 Y-8.404 E10.08264
G1 X10.787 Y-8.072 E10.1116
G1 X11.175 Y-7.774 E10.13357
G1 X11.618 Y-7.294 E10.1629
G1 X11.905 Y-6.898 E10.18486
G1 X12.198 Y-6.3 E10.21476
G1 X12.361 Y-5.839 E10.23671
G1 X12.467 Y-5.242 E10.26394
G1 X12.5 Y-4.801 E10.2838
G1 X12.5 Y4.802 E10.71498
G1 X12.428 Y5.516 E10.7472
G1 X12.318 Y5.993 E10.76918
G1 X12.066 Y6.596 E10.79853
G1 X11.826 Y7.022 E10.82048
G1 X11.417 Y7.527 E10.84966
G1 X11.066 Y7.869 E10.87167
G1 X10.514 Y8.247 E10.90171
G1 X10.08 Y8.474 E10.9237
G1 X9.461 Y8.674 E10.95291
G1 X8.815 Y8.785 E10.98234
G1 X8.35 Y8.8 E11.00323
G1 X8.184 Y9.288 E11.02637
G1 X7.825 Y9.973 E11.0611
G1 X7.413 Y10.48 E11.09043
G1 X7.062 Y10.821 E11.11241
G1 X6.52 Y11.193 E11.14192
G1 X6.087 Y11.42 E11.16387
G1 X5.471 Y11.621 E11.19297
G1 X4.856 Y11.732 E11.22103
G1 X4.5 Y11.75 E11.23703
G1 X-.501 Y11.75 E11.46159
G1 X-1.223 Y11.676 E11.49417
G1 X-1.7 Y11.565 E11.51616
G1 X-2.301 Y11.313 E11.54543
G1 X-2.727 Y11.073 E11.56738
G1 X-3.234 Y10.659 E11.59677
G1 X-3.575 Y10.308 E11.61874
G1 X-3.948 Y9.76 E11.64851
G1 X-4.175 Y9.326 E11.6705
M204 S3000
G0 F1500 X-4.698 Y8.305
M204 S1500
G1 F600 X-5.377 Y8.075 E11.70269
G1 X-5.769 Y7.843 E11.72314
G1 X-6.287 Y7.371 E11.75461
G1 X-6.618 Y6.946 E11.7788
G1 X-7.056 Y7.385 E11.80664
G1 X-7.601 Y7.717 E11.8353
G1 X-8.018 Y7.9 E11.85574
G1 X-8.461 Y8.007 E11.87621
G1 X-9.09 Y8.037 E11.90448
G1 X-9.544 Y7.999 E11.92494
G1 X-9.984 Y7.882 E11.94538
G1 X-10.57 Y7.597 E11.97464
G1 X-10.949 Y7.344 E11.9951
G1 X-11.278 Y7.028 E12.01558
G1 X-11.669 Y6.461 E12.04651
G1 X-11.872 Y6.054 E12.06693
G1 X-12.04 Y5.432 E12.09586
G1 X-12.097 Y4.93 E12.11855
G1 X-12.1 Y4.8 E12.12438
G1 X-12.1 Y-4.8 E12.55544
G1 X-12.064 Y-5.281 E12.57709
G1 X-11.976 Y-5.729 E12.59759
G1 X-11.76 Y-6.284 E12.62433
G1 X-11.544 Y-6.686 E12.64483
G1 X-11.262 Y-7.043 E12.66525
G1 X-10.755 Y-7.474 E12.69513
G1 X-10.371 Y-7.719 E12.71558
G1 X-9.95 Y-7.893 E12.73604
G1 X-9.368 Y-8.016 E12.76275
G1 X-8.914 Y-8.052 E12.7832
G1 X-8.46 Y-8.008 E12.80368
G1 X-7.836 Y-7.822 E12.83291
G1 X-7.421 Y-7.634 E12.85337
G1 X-7.045 Y-7.377 E12.87382
G1 X-6.618 Y-6.943 E12.90116
G1 X-6.253 Y-7.408 E12.9277
G1 X-5.72 Y-7.876 E12.95955
G1 X-5.323 Y-8.1 E12.98002
G1 X-4.675 Y-8.311 E13.01062
G1 X-4.034 Y-8.395 E13.03965
G1 X-3.927 Y-8.85 E13.06063
G1 X-3.701 Y-9.38 E13.0865
G1 X-3.475 Y-9.776 E13.10698
G1 X-3.111 Y-10.217 E13.13265
G1 X-2.783 Y-10.533 E13.1531
G1 X-2.306 Y-10.855 E13.17894
G1 X-1.901 Y-11.065 E13.19943
G1 X-1.36 Y-11.237 E13.22492
G1 X-.789 Y-11.336 E13.25094
G1 X-.466 Y-11.35 E13.26546
G1 X4.501 Y-11.35 E13.48848
G1 X5.165 Y-11.28 E13.51846
G1 X5.608 Y-11.175 E13.5389
G1 X6.133 Y-10.95 E13.56455
G1 X6.528 Y-10.724 E13.58498
G1 X6.967 Y-10.361 E13.61056
G1 X7.283 Y-10.033 E13.63101
G1 X7.605 Y-9.556 E13.65685
G1 X7.815 Y-9.151 E13.67734
G1 X7.987 Y-8.61 E13.70283
G1 X8.025 Y-8.4 E13.71241
G1 X8.682 Y-8.394 E13.74191
G1 X8.826 Y-8.384 E13.74839
G1 X9.393 Y-8.28 E13.77427
G1 X10.086 Y-8.031 E13.80734
G1 X10.57 Y-7.736 E13.83279
G1 X10.93 Y-7.456 E13.85327
G1 X11.314 Y-7.033 E13.87892
G1 X11.58 Y-6.663 E13.89938
G1 X11.833 Y-6.137 E13.92559
G1 X12.031 Y-5.459 E13.9573
G1 X12.1 Y-4.801 E13.98701
G1 X12.1 Y4.802 E14.4182
G1 X12.032 Y5.458 E14.44781
G1 X11.822 Y6.17 E14.48114
G1 X11.477 Y6.824 E14.51434
G1 X11.115 Y7.264 E14.53992
G1 X10.787 Y7.581 E14.56041
G1 X10.3 Y7.909 E14.58677
G1 X9.626 Y8.211 E14.61993
G1 X9.35 Y8.29 E14.63282
G1 X8.791 Y8.385 E14.65828
G1 X8.032 Y8.4 E14.69237
G1 X7.924 Y8.859 E14.71354
G1 X7.702 Y9.38 E14.73897
G1 X7.476 Y9.775 E14.7594
G1 X7.111 Y10.217 E14.78514
G1 X6.783 Y10.533 E14.80559
G1 X6.306 Y10.855 E14.83143
G1 X5.901 Y11.065 E14.85192
G1 X5.36 Y11.237 E14.87741
G1 X4.827 Y11.333 E14.90173
G1 X4.5 Y11.35 E14.91643
G1 X-.501 Y11.35 E15.14098
G1 X-1.165 Y11.28 E15.17096
G1 X-1.608 Y11.175 E15.1914
G1 X-2.133 Y10.95 E15.21705
G1 X-2.528 Y10.724 E15.23748
G1 X-2.97 Y10.358 E15.26325
G1 X-3.286 Y10.029 E15.28373
G1 X-3.61 Y9.547 E15.30981
G1 X-3.909 Y8.88 E15.34263
G1 X-4.024 Y8.398 E15.36488
G1 X-4.698 Y8.305 E15.39543
M204 S3000
G0 F1500 X-4.591 Y7.92
M204 S1500
G1 F600 X-5.234 Y7.7 E15.42594
G1 X-5.59 Y7.478 E15.44478
G1 X-6.002 Y7.091 E15.47016
G1 X-6.266 Y6.765 E15.489
G1 X-6.463 Y6.396 E15.50778
G1 X-6.557 Y6.122 E15.52079
G1 X-6.779 Y6.502 E15.54055
G1 X-7.037 Y6.832 E15.55936
G1 X-7.353 Y7.107 E15.57817
G1 X-7.793 Y7.366 E15.60109
G1 X-8.178 Y7.531 E15.6199
G1 X-8.839 Y7.636 E15.64995
G1 X-9.509 Y7.599 E15.68008
G1 X-9.911 Y7.482 E15.69888
G1 X-10.378 Y7.246 E15.72237
G1 X-10.724 Y7.01 E15.74118
G1 X-11.02 Y6.714 E15.75998
G1 X-11.328 Y6.252 E15.78491
G1 X-11.512 Y5.876 E15.8037
G1 X-11.648 Y5.35 E15.8281
G1 X-11.7 Y4.8 E15.8529
G1 X-11.7 Y-4.8 E16.28395
G1 X-11.666 Y-5.239 E16.30373
G1 X-11.5 Y-5.875 E16.33324
G1 X-11.191 Y-6.494 E16.3643
G1 X-10.924 Y-6.817 E16.38312
G1 X-10.512 Y-7.157 E16.40711
G1 X-10.156 Y-7.379 E16.42594
G1 X-9.538 Y-7.581 E16.45514
G1 X-8.883 Y-7.651 E16.48471
G1 X-8.467 Y-7.602 E16.50352
G1 X-7.968 Y-7.444 E16.52702
G1 X-7.588 Y-7.269 E16.54581
G1 X-7.247 Y-7.025 E16.56464
G1 X-6.877 Y-6.632 E16.58887
G1 X-6.633 Y-6.292 E16.60766
G1 X-6.559 Y-6.11 E16.61649
G1 X-6.399 Y-6.536 E16.63692
G1 X-6.177 Y-6.892 E16.65576
G1 X-5.791 Y-7.302 E16.68104
G1 X-5.465 Y-7.566 E16.69988
G1 X-5.096 Y-7.763 E16.71866
G1 X-4.571 Y-7.924 E16.74332
G1 X-3.999 Y-8 E16.76922
G1 X-3.682 Y-8 E16.78346
G1 X-3.537 Y-8.757 E16.81807
G1 X-3.338 Y-9.213 E16.84041
G1 X-2.996 Y-9.741 E16.86865
G1 X-2.506 Y-10.242 E16.90012
G1 X-2.091 Y-10.517 E16.92247
G1 X-1.524 Y-10.773 E16.95041
G1 X-.765 Y-10.936 E16.98526
G1 X-.466 Y-10.95 E16.9987
G1 X4.501 Y-10.95 E17.22173
G1 X5.107 Y-10.884 E17.2491
G1 X5.707 Y-10.706 E17.2772
G1 X5.965 Y-10.587 E17.28996
G1 X6.491 Y-10.246 E17.3181
G1 X6.992 Y-9.756 E17.34957
G1 X7.267 Y-9.341 E17.37192
G1 X7.523 Y-8.774 E17.39986
G1 X7.684 Y-8.049 E17.4332
G1 X7.688 Y-8 E17.43541
G1 X8.502 Y-8 E17.47196
G1 X8.798 Y-7.985 E17.48527
G1 X9.548 Y-7.816 E17.51979
G1 X10.11 Y-7.557 E17.54757
G1 X10.682 Y-7.14 E17.57936
G1 X11.011 Y-6.773 E17.60149
G1 X11.351 Y-6.236 E17.63003
G1 X11.468 Y-5.974 E17.64291
G1 X11.635 Y-5.4 E17.66975
G1 X11.7 Y-4.801 E17.69681
G1 X11.7 Y4.802 E18.12799
G1 X11.636 Y5.401 E18.15504
G1 X11.458 Y6.003 E18.18323
G1 X11.339 Y6.262 E18.19603
G1 X11 Y6.787 E18.22409
G1 X10.509 Y7.29 E18.25565
G1 X10.087 Y7.571 E18.27841
G1 X9.516 Y7.826 E18.30649
G1 X8.767 Y7.986 E18.34088
G1 X8.469 Y8 E18.35428
G1 X7.681 Y8 E18.38966
G1 X7.634 Y8.357 E18.40583
G1 X7.457 Y8.954 E18.43379
G1 X7.128 Y9.575 E18.46534
G1 X6.81 Y9.954 E18.48756
G1 X6.332 Y10.364 E18.51583
G1 X6.091 Y10.517 E18.52865
G1 X5.524 Y10.773 E18.55659
G1 X4.797 Y10.934 E18.59002
G1 X4.5 Y10.95 E18.60337
G1 X-.501 Y10.95 E18.82793
G1 X-1.107 Y10.884 E18.8553
G1 X-1.707 Y10.706 E18.8834
G1 X-2.328 Y10.376 E18.91497
G1 X-2.707 Y10.057 E18.93722
G1 X-3.12 Y9.575 E18.96572
G1 X-3.272 Y9.334 E18.97851
G1 X-3.525 Y8.769 E19.00631
