; generated by PrusaSlicer 2.8.1+win64 on 2025-02-25 at 19:42:58 UTC

; 

; external perimeters extrusion width = 0.44mm
; perimeters extrusion width = 0.44mm
; infill extrusion width = 0.44mm
; solid infill extrusion width = 0.44mm
; top infill extrusion width = 0.40mm
; support material extrusion width = 0.44mm
; first layer extrusion width = 0.44mm

M73 P0 R63
;TYPE:Custom
;G28 ; home all axes
;G1 Z5 F5000 ; lift nozzle
M109 S205
G28 ;home
G92 E0 ;Reset Extruder
G1 Z4.0 F3000 ;Move Z Axis up
G92 E0 ;Reset Extruder
G1 X3.1 Y20 Z0.28 F5000.0 ;Move to start position
G1 X3.1 Y80.0 Z0.28 F1500.0 E10 ;Draw the first line
G1 X3.4 Y80.0 Z0.28 F5000.0 ;Move to side a little
G1 X3.4 Y20 Z0.28 F1500.0 E20 ;Draw the second line
G92 E0 ;Reset Extruder
G1 Z2.0 F3000 ;Move Z Axis up
G21 ; set units to millimeters
G90 ; use absolute coordinates
M82 ; use absolute distances for extrusion
G92 E0
; Filament gcode
M107
;LAYER_CHANGE
;Z:0.3
;HEIGHT:0.3
G1 E-2 F2400
G1 Z.7 F18000
G1 X44.401 Y91.823
G1 Z.3
G1 E0 F2400
;TYPE:Skirt/Brim
;WIDTH:0.44
G1 F1200
G1 X202.593 Y15.329 E7.82056
G1 X205.286 Y14.712 E7.94352
G1 X220.913 Y14.712 E8.63903
G1 X223.094 Y15.109 E8.73769
G1 X224.994 Y16.248 E8.83628
G1 X226.371 Y17.984 E8.9349
G1 X227.101 Y20.9 E9.06869
G1 X227.101 Y214.1 E17.66742
G1 X226.704 Y216.28 E17.76604
G1 X225.565 Y218.181 E17.86467
G1 X223.829 Y219.558 E17.96329
G1 X220.913 Y220.288 E18.09708
G1 X205.286 Y220.288 E18.79259
G1 X202.593 Y219.671 E18.91555
G1 X17.671 Y130.259 E28.05742
G1 X16.639 Y129.694 E28.10978
G1 X15.618 Y129.017 E28.1643
G1 X13.954 Y127.601 E28.26154
G1 X12.573 Y126.009 E28.35534
G1 X11.856 Y124.952 E28.41219
G1 X11.284 Y123.927 E28.46443
G1 X10.757 Y122.761 E28.52138
M73 P1 R63
G1 X10.258 Y121.269 E28.5914
G1 X9.938 Y119.811 E28.65784
G1 X9.796 Y118.644 E28.71016
G1 X9.75 Y117.367 E28.76703
G1 X9.846 Y115.85 E28.83468
G1 X10.045 Y114.616 E28.89031
G1 X10.417 Y113.194 E28.95573
G1 X10.858 Y111.993 E29.01267
G1 X11.536 Y110.596 E29.08178
G1 X12.188 Y109.532 E29.13732
G1 X13.053 Y108.382 E29.20137
G1 X14.126 Y107.231 E29.2714
G1 X15.064 Y106.406 E29.327
G1 X16.078 Y105.662 E29.38297
G1 X17.361 Y104.899 E29.44941
G1 X44.347 Y91.849 E30.78354
G1 E28.78354 F2400
G92 E0
G1 X44.347 Y91.849 Z.7 F18000
G92 E0
G1 X190.388 Y39.979
G1 Z.3
M73 P1 R62
G1 E2 F2400
;TYPE:External perimeter
;WIDTH:0.44
G1 F1080
G1 X190.914 Y39.911 E2.02361
G1 X191.917 Y39.847 E2.06834
G1 X193.013 Y39.868 E2.11713
G1 X194.067 Y39.983 E2.16432
G1 X194.605 Y40.077 E2.18863
G1 X195.582 Y40.313 E2.23336
G1 X196.623 Y40.658 E2.28217
G1 X197.595 Y41.08 E2.32933
G1 X198.541 Y41.591 E2.37718
G1 X199.412 Y42.164 E2.42358
G1 X199.839 Y42.486 E2.44738
G1 X200.651 Y43.185 E2.49507
G1 X201.391 Y43.943 E2.54222
G1 X202.063 Y44.762 E2.58937
G1 X202.653 Y45.621 E2.63575
G1 X202.927 Y46.08 E2.65954
G1 X203.408 Y47.019 E2.7065
G1 X203.809 Y47.999 E2.75363
G1 X203.982 Y48.517 E2.77794
G1 X204.239 Y49.489 E2.82269
G1 X204.43 Y50.569 E2.8715
G1 X204.522 Y51.641 E2.91939
G1 X204.522 Y183.359 E8.78174
G1 X204.432 Y184.414 E8.82887
G1 X204.352 Y184.942 E8.85264
G1 X204.248 Y185.474 E8.87677
G1 X203.982 Y186.482 E8.92317
G1 X203.809 Y187.001 E8.94752
G1 X203.415 Y187.967 E8.99395
G1 X202.933 Y188.909 E9.04105
G1 X202.653 Y189.379 E9.0654
G1 X202.063 Y190.238 E9.11178
G1 X201.391 Y191.057 E9.15893
G1 X200.647 Y191.818 E9.2063
G1 X200.26 Y192.152 E9.22905
G1 X199.849 Y192.506 E9.25319
G1 X199.422 Y192.829 E9.27702
G1 X198.541 Y193.408 E9.32394
G1 X198.066 Y193.679 E9.34828
G1 X197.129 Y194.135 E9.39466
G1 X196.623 Y194.341 E9.41898
G1 X195.67 Y194.662 E9.46374
G1 X194.589 Y194.926 E9.51327
G1 X193.558 Y195.084 E9.55969
G1 X193.026 Y195.131 E9.58346
G1 X191.971 Y195.155 E9.63043
G1 X191.425 Y195.132 E9.65475
G1 X190.389 Y195.022 E9.70112
G1 X189.344 Y194.819 E9.7485
G1 X188.33 Y194.53 E9.79543
G1 X187.827 Y194.35 E9.81921
G1 X186.854 Y193.931 E9.86636
G1 X51.706 Y128.586 E16.54756
G1 X50.774 Y128.085 E16.59465
G1 X49.886 Y127.503 E16.6419
G1 X49.065 Y126.857 E16.6884
G1 X48.665 Y126.5 E16.71226
G1 X47.914 Y125.734 E16.76
G1 X47.273 Y124.957 E16.80483
G1 X46.936 Y124.494 E16.83032
G1 X46.374 Y123.598 E16.87739
G1 X46.052 Y122.972 E16.90872
G1 X45.628 Y122.019 E16.95514
G1 X45.371 Y121.325 E16.98808
G1 X45.274 Y121.008 E17.00283
G1 X45.045 Y120.142 E17.0427
G1 X44.917 Y119.41 E17.07577
G1 X44.828 Y118.708 E17.10726
G1 X44.771 Y118.039 E17.13714
G1 X44.77 Y116.978 E17.18436
G1 X44.804 Y116.443 E17.20822
G1 X44.977 Y115.221 E17.26315
G1 X45.166 Y114.358 E17.30247
G1 X45.41 Y113.572 E17.3391
G1 X45.63 Y112.977 E17.36733
G1 X45.882 Y112.361 E17.39695
G1 X46.374 Y111.402 E17.44492
G1 X46.929 Y110.517 E17.49141
G1 X47.242 Y110.082 E17.51526
G1 X47.914 Y109.267 E17.56227
G1 X48.289 Y108.868 E17.58664
G1 X49.064 Y108.143 E17.63387
G1 X49.899 Y107.488 E17.6811
G1 X50.788 Y106.907 E17.72837
G1 X51.713 Y106.41 E17.7751
G1 X186.854 Y41.069 E24.45595
G1 X187.815 Y40.654 E24.50254
G1 X188.319 Y40.474 E24.52636
G1 X189.333 Y40.184 E24.5733
G1 X190.329 Y39.989 E24.61847
G1 X190.726 Y39.936 F18000
G1 E22.61847 F2400
G92 E0
G1 Z.7 F18000
G1 X36.485 Y113.051
G1 Z.3
G1 E2 F2400
G1 F1080
G1 X36.843 Y113.56 E2.0277
G1 X37.163 Y114.113 E2.05614
G1 X37.433 Y114.691 E2.08453
G1 X37.652 Y115.291 E2.11296
G1 X37.91 Y116.437 E2.16524
G1 X37.97 Y117.052 E2.19274
G1 X37.987 Y117.807 E2.22635
G1 X37.937 Y118.402 E2.25292
G1 X37.822 Y119.075 E2.28331
G1 X37.657 Y119.693 E2.31178
G1 X37.439 Y120.294 E2.34023
G1 X37.17 Y120.873 E2.36864
G1 X36.851 Y121.426 E2.39705
G1 X36.5 Y121.907 E2.42355
G1 X35.985 Y122.529 E2.45949
G1 X35.139 Y123.3 E2.51043
G1 X34.613 Y123.669 E2.53903
G1 X34.061 Y123.989 E2.56743
G1 X33.482 Y124.26 E2.59588
G1 X32.58 Y124.567 E2.63829
G1 X31.997 Y124.698 E2.66488
G1 X31.32 Y124.791 E2.69529
G1 X30.682 Y124.82 E2.72371
G1 X29.73 Y124.759 E2.76617
G1 X29.097 Y124.648 E2.79477
G1 X28.48 Y124.484 E2.82318
G1 X27.88 Y124.266 E2.85159
G1 X27.301 Y123.997 E2.88
G1 X26.485 Y123.503 E2.92245
G1 X25.975 Y123.113 E2.95102
G1 X25.503 Y122.682 E2.97947
G1 X25.071 Y122.211 E3.00791
G1 X24.682 Y121.705 E3.03632
G1 X24.338 Y121.167 E3.06474
G1 X23.991 Y120.466 E3.09955
G1 X23.726 Y119.796 E3.13162
G1 X23.529 Y119.092 E3.16416
G1 X23.427 Y118.439 E3.19358
G1 X23.37 Y117.879 E3.21863
G1 X23.353 Y117.496 E3.23569
G1 X23.408 Y116.656 E3.27316
G1 X23.516 Y115.968 E3.30416
G1 X23.69 Y115.308 E3.33454
G1 X24.003 Y114.498 E3.37319
G1 X24.308 Y113.887 E3.40358
G1 X24.672 Y113.309 E3.43398
G1 X25.061 Y112.801 E3.46246
G1 X25.72 Y112.111 E3.50493
G1 X26.176 Y111.726 E3.53149
G1 X26.733 Y111.331 E3.56188
G1 X27.286 Y111.011 E3.59032
G1 X27.865 Y110.74 E3.61877
G1 X28.465 Y110.521 E3.6472
G1 X29.081 Y110.355 E3.67559
G1 X30.024 Y110.209 E3.71806
G1 X30.62 Y110.181 E3.74462
G1 X31.302 Y110.207 E3.775
G1 X31.936 Y110.29 E3.80346
G1 X32.56 Y110.427 E3.83189
G1 X33.464 Y110.733 E3.87437
G1 X34.046 Y111.003 E3.90292
G1 X34.862 Y111.497 E3.94537
G1 X35.337 Y111.859 E3.97195
G1 X35.843 Y112.318 E4.00236
G1 X36.447 Y113.005 E4.04307
G1 X36.68 Y113.33 F18000
G1 E2.04307 F2400
G92 E0
G1 Z.7 F18000
G1 X220.543 Y213.73
G1 Z.3
G1 E2 F2400
G1 F1080
G1 X205.371 Y213.73 E2.67526
G1 X20.65 Y124.417 E11.80715
G1 X20.061 Y124.101 E11.8369
M73 P2 R62
G1 X19.509 Y123.739 E11.86628
G1 X18.759 Y123.125 E11.90942
G1 X18.277 Y122.636 E11.93998
G1 X17.857 Y122.127 E11.96935
G1 X17.324 Y121.318 E12.01247
G1 X17.009 Y120.708 E12.04303
G1 X16.759 Y120.097 E12.07241
G1 X16.49 Y119.166 E12.11554
G1 X16.371 Y118.49 E12.14609
G1 X16.314 Y117.832 E12.17549
G1 X16.334 Y116.863 E12.21863
G1 X16.421 Y116.182 E12.24919
G1 X16.562 Y115.536 E12.27862
G1 X16.759 Y114.905 E12.30804
G1 X17.008 Y114.294 E12.33741
G1 X17.606 Y113.238 E12.39142
G1 X17.945 Y112.766 E12.41728
G1 X18.373 Y112.266 E12.44657
G1 X18.841 Y111.805 E12.47581
G1 X19.347 Y111.386 E12.50505
G1 X19.96 Y110.968 E12.53807
G1 X20.648 Y110.584 E12.57314
G1 X205.371 Y21.27 E21.70513
G1 X220.543 Y21.27 E22.38039
G1 X220.543 Y33.545 E22.92671
G1 X220.543 Y213.67 E30.9435
G1 X220.148 Y213.729 F18000
M73 P2 R61
G1 E28.9435 F2400
G92 E0
G1 Z.7 F18000
G1 X220.412 Y63.128
G1 Z.3
G1 E2 F2400
;TYPE:Solid infill
;WIDTH:0.44058
G1 F1500
G1 X203.149 Y45.865 E3.08825
G1 X203.705 Y46.953 E3.14271
G1 X220.243 Y63.491 E4.18525
G1 X220.243 Y64.023 E4.20896
G1 X204.072 Y47.853 E5.22834
G1 X204.324 Y48.636 E5.26501
M73 P3 R61
G1 X220.243 Y64.555 E6.26853
G1 X220.243 Y65.087 E6.29224
G1 X204.516 Y49.36 E7.28366
G1 X204.636 Y50.013 E7.31326
G1 X220.243 Y65.619 E8.29708
G1 X220.243 Y66.151 E8.32079
G1 X204.737 Y50.646 E9.29825
G1 X204.789 Y51.229 E9.32434
G1 X220.243 Y66.683 E10.29855
G1 X220.243 Y67.215 E10.32226
G1 X204.821 Y51.794 E11.29442
G1 X204.821 Y52.326 E11.31813
G1 X220.243 Y67.747 E12.29029
G1 X220.243 Y68.279 E12.314
G1 X204.821 Y52.858 E13.28616
G1 X204.821 Y53.39 E13.30987
G1 X220.243 Y68.811 E14.28203
G1 X220.243 Y69.343 E14.30574
G1 X204.821 Y53.922 E15.2779
G1 X204.821 Y54.454 E15.30161
G1 X220.243 Y69.875 E16.27377
G1 X220.243 Y70.407 E16.29748
G1 X204.821 Y54.986 E17.26964
G1 X204.821 Y55.518 E17.29335
G1 X220.243 Y70.939 E18.26551
G1 X220.243 Y71.471 E18.28922
G1 X204.821 Y56.05 E19.26138
G1 X204.821 Y56.582 E19.28509
G1 X220.243 Y72.003 E20.25725
G1 X220.243 Y72.535 E20.28096
G1 X204.821 Y57.114 E21.25312
G1 X204.821 Y57.646 E21.27683
G1 X220.243 Y73.067 E22.24899
G1 X220.243 Y73.599 E22.2727
G1 X204.821 Y58.178 E23.24486
G1 X204.821 Y58.71 E23.26857
G1 X220.243 Y74.132 E24.24076
G1 X220.243 Y74.664 E24.26447
G1 X204.821 Y59.242 E25.23666
G1 X204.821 Y59.774 E25.26037
G1 X220.243 Y75.196 E26.23256
G1 X220.243 Y75.728 E26.25627
G1 X204.821 Y60.306 E27.22846
G1 X204.821 Y60.838 E27.25217
G1 X220.243 Y76.26 E28.22436
G1 X220.243 Y76.792 E28.24807
G1 X204.821 Y61.37 E29.22026
G1 X204.821 Y61.902 E29.24397
G1 X220.243 Y77.324 E30.21616
G1 X220.243 Y77.856 E30.23987
G1 X204.822 Y62.434 E31.21203
G1 X204.822 Y62.966 E31.23574
G1 X220.243 Y78.388 E32.2079
G1 X220.243 Y78.92 E32.23161
G1 X204.822 Y63.498 E33.20377
G1 X204.822 Y64.03 E33.22748
G1 X220.243 Y79.452 E34.19964
G1 X220.243 Y79.984 E34.22335
G1 X204.822 Y64.562 E35.19551
G1 X204.822 Y65.094 E35.21922
G1 X220.243 Y80.516 E36.19138
G1 X220.243 Y81.048 E36.21509
G1 X204.822 Y65.626 E37.18725
G1 X204.822 Y66.158 E37.21096
G1 X220.243 Y81.58 E38.18312
G1 X220.243 Y82.112 E38.20683
G1 X204.822 Y66.691 E39.17896
G1 X204.822 Y67.223 E39.20267
G1 X220.243 Y82.644 E40.1748
G1 X220.243 Y83.176 E40.19851
G1 X204.822 Y67.755 E41.17064
G1 X204.822 Y68.287 E41.19435
G1 X220.243 Y83.708 E42.16648
G1 X220.243 Y84.24 E42.19019
G1 X204.822 Y68.819 E43.16232
G1 X204.822 Y69.351 E43.18603
G1 X220.243 Y84.772 E44.15816
G1 X220.243 Y85.304 E44.18187
G1 X204.822 Y69.883 E45.154
G1 X204.822 Y70.415 E45.17771
G1 X220.243 Y85.836 E46.14984
G1 X220.243 Y86.368 E46.17355
G1 X204.822 Y70.947 E47.14568
G1 X204.822 Y71.479 E47.16939
G1 X220.243 Y86.9 E48.14152
G1 X220.243 Y87.432 E48.16523
M73 P4 R61
G1 X204.822 Y72.011 E49.13736
G1 X204.822 Y72.543 E49.16107
G1 X220.243 Y87.964 E50.1332
G1 X220.243 Y88.496 E50.15691
G1 X204.822 Y73.075 E51.12904
G1 X204.822 Y73.607 E51.15275
G1 X220.243 Y89.028 E52.12488
G1 X220.243 Y89.56 E52.14859
G1 X204.822 Y74.139 E53.12072
G1 X204.822 Y74.671 E53.14443
G1 X220.243 Y90.092 E54.11656
G1 X220.243 Y90.624 E54.14027
G1 X204.822 Y75.203 E55.1124
G1 X204.822 Y75.735 E55.13611
G1 X220.243 Y91.156 E56.10824
G1 X220.243 Y91.688 E56.13195
G1 X204.822 Y76.267 E57.10408
G1 X204.822 Y76.799 E57.12779
G1 X220.243 Y92.22 E58.09992
G1 X220.243 Y92.752 E58.12363
M73 P4 R60
G1 X204.822 Y77.331 E59.09576
G1 X204.822 Y77.863 E59.11947
G1 X220.243 Y93.284 E60.0916
G1 X220.243 Y93.816 E60.11531
G1 X204.822 Y78.395 E61.08744
G1 X204.822 Y78.927 E61.11115
G1 X220.243 Y94.348 E62.08328
G1 X220.243 Y94.881 E62.10704
G1 X204.822 Y79.459 E63.0792
G1 X204.822 Y79.991 E63.10291
G1 X220.243 Y95.413 E64.07507
G1 X220.243 Y95.945 E64.09878
G1 X204.822 Y80.523 E65.07094
G1 X204.822 Y81.055 E65.09465
G1 X220.243 Y96.477 E66.06681
G1 X220.243 Y97.009 E66.09052
G1 X204.822 Y81.587 E67.06268
G1 X204.822 Y82.119 E67.08639
G1 X220.243 Y97.541 E68.05855
G1 X220.243 Y98.073 E68.08226
G1 X204.822 Y82.651 E69.05442
G1 X204.822 Y83.183 E69.07813
G1 X220.243 Y98.605 E70.05029
G1 X220.243 Y99.137 E70.074
G1 X204.822 Y83.716 E71.04613
G1 X204.822 Y84.248 E71.06984
G1 X220.243 Y99.669 E72.04197
G1 X220.243 Y100.201 E72.06568
G1 X204.822 Y84.78 E73.03781
G1 X204.822 Y85.312 E73.06152
G1 X220.243 Y100.733 E74.03365
G1 X220.243 Y101.265 E74.05736
G1 X204.822 Y85.844 E75.02949
G1 X204.822 Y86.376 E75.0532
G1 X220.243 Y101.797 E76.02533
G1 X220.243 Y102.329 E76.04904
G1 X204.822 Y86.908 E77.02117
G1 X204.822 Y87.44 E77.04488
G1 X220.243 Y102.861 E78.01701
G1 X220.243 Y103.393 E78.04072
G1 X204.822 Y87.972 E79.01285
G1 X204.822 Y88.504 E79.03656
G1 X220.243 Y103.925 E80.00869
G1 X220.243 Y104.457 E80.0324
G1 X204.822 Y89.036 E81.00453
G1 X204.822 Y89.568 E81.02824
G1 X220.243 Y104.989 E82.00037
G1 X220.243 Y105.521 E82.02408
G1 X204.822 Y90.1 E82.99621
G1 X204.822 Y90.632 E83.01992
G1 X220.243 Y106.053 E83.99205
G1 X220.243 Y106.585 E84.01576
G1 X204.822 Y91.164 E84.98789
G1 X204.822 Y91.696 E85.0116
G1 X220.243 Y107.117 E85.98373
G1 X220.243 Y107.649 E86.00744
G1 X204.822 Y92.228 E86.97957
G1 X204.822 Y92.76 E87.00328
G1 X220.243 Y108.181 E87.97541
G1 X220.243 Y108.713 E87.99912
G1 X204.822 Y93.292 E88.97125
G1 X204.822 Y93.824 E88.99496
G1 X220.243 Y109.245 E89.96709
G1 X220.243 Y109.777 E89.9908
G1 X204.822 Y94.356 E90.96293
G1 X204.822 Y94.888 E90.98664
M73 P5 R60
G1 X220.243 Y110.309 E91.95877
G1 X220.243 Y110.841 E91.98248
G1 X204.822 Y95.42 E92.95461
G1 X204.822 Y95.952 E92.97832
G1 X220.243 Y111.373 E93.95045
G1 X220.243 Y111.905 E93.97416
G1 X204.822 Y96.484 E94.94629
G1 X204.822 Y97.016 E94.97
G1 X220.243 Y112.437 E95.94213
G1 X220.243 Y112.969 E95.96584
G1 X204.822 Y97.548 E96.93797
G1 X204.822 Y98.08 E96.96168
G1 X220.243 Y113.501 E97.93381
G1 X220.243 Y114.033 E97.95752
G1 X204.822 Y98.612 E98.92965
G1 X204.822 Y99.144 E98.95336
G1 X220.243 Y114.565 E99.92549
G1 X220.243 Y115.097 E99.9492
G1 X204.822 Y99.676 E100.92133
G1 X204.822 Y100.208 E100.94504
G1 X220.243 Y115.63 E101.9172
G1 X220.243 Y116.162 E101.94091
G1 X204.822 Y100.741 E102.91304
G1 X204.822 Y101.273 E102.93675
G1 X220.243 Y116.694 E103.90888
G1 X220.243 Y117.226 E103.93259
G1 X204.822 Y101.805 E104.90472
G1 X204.822 Y102.337 E104.92843
G1 X220.243 Y117.758 E105.90056
G1 X220.243 Y118.29 E105.92427
G1 X204.822 Y102.869 E106.8964
G1 X204.822 Y103.401 E106.92011
G1 X220.243 Y118.822 E107.89224
G1 X220.243 Y119.354 E107.91595
G1 X204.822 Y103.933 E108.88808
G1 X204.822 Y104.465 E108.91179
G1 X220.243 Y119.886 E109.88392
G1 X220.243 Y120.418 E109.90763
G1 X204.822 Y104.997 E110.87976
G1 X204.822 Y105.529 E110.90347
G1 X220.243 Y120.95 E111.8756
G1 X220.243 Y121.482 E111.89931
G1 X204.822 Y106.061 E112.87144
G1 X204.822 Y106.593 E112.89515
G1 X220.243 Y122.014 E113.86728
G1 X220.243 Y122.546 E113.89099
G1 X204.822 Y107.125 E114.86312
G1 X204.822 Y107.657 E114.88683
G1 X220.243 Y123.078 E115.85896
G1 X220.243 Y123.61 E115.88267
G1 X204.822 Y108.189 E116.8548
G1 X204.822 Y108.721 E116.87851
G1 X220.243 Y124.142 E117.85064
G1 X220.243 Y124.674 E117.87435
G1 X204.822 Y109.253 E118.84648
G1 X204.822 Y109.785 E118.87019
G1 X220.243 Y125.206 E119.84232
G1 X220.243 Y125.738 E119.86603
G1 X204.822 Y110.317 E120.83816
G1 X204.822 Y110.849 E120.86187
G1 X220.243 Y126.27 E121.834
G1 X220.243 Y126.802 E121.85771
G1 X204.822 Y111.381 E122.82984
G1 X204.822 Y111.913 E122.85355
G1 X220.243 Y127.334 E123.82568
G1 X220.243 Y127.866 E123.84939
G1 X204.822 Y112.445 E124.82152
G1 X204.822 Y112.977 E124.84523
M73 P5 R59
G1 X220.243 Y128.398 E125.81736
G1 X220.243 Y128.93 E125.84107
G1 X204.822 Y113.509 E126.8132
G1 X204.822 Y114.041 E126.83691
G1 X220.243 Y129.462 E127.80904
G1 X220.243 Y129.994 E127.83275
G1 X204.822 Y114.573 E128.80488
G1 X204.822 Y115.105 E128.82859
G1 X220.243 Y130.526 E129.80072
G1 X220.243 Y131.058 E129.82443
G1 X204.822 Y115.637 E130.79656
G1 X204.822 Y116.169 E130.82027
