; generated by PrusaSlicer 2.7.1+win64 on 2024-03-08 at 10:39:27 UTC


;
;
; 

; external perimeters extrusion width = 0.40mm
; perimeters extrusion width = 0.40mm
; infill extrusion width = 0.40mm
; solid infill extrusion width = 0.40mm
; top infill extrusion width = 0.40mm
; first layer extrusion width = 0.44mm

;TYPE:Custom
G90 ; use absolute coordinates
M83 ; extruder relative mode
M140 S100 ; set bed temp
M190 S100 ; wait for bed temp
M104 S255 ; set extruder temp
M109 S255 ; wait for extruder temp
G28                                        ; move X/Y/Z to min endstops
G1 Z0.28                                   ; lift nozzle a bit 
G92 E0 
G1 Y3 F2400                                    ; zero the extruded length 
G1 X180  E40 F500                       ; Extrude 25mm of filament in a 5cm line. 
G92 E0                                     ; zero the extruded length again 
G1 E-0.2 F3000                                ; Retract a little 
G1 X181 F4000                              ; Quickly wipe away from the filament line
M117
G21 ; set units to millimeters
G90 ; use absolute coordinates
M82 ; use absolute distances for extrusion
G92 E0
; Filament gcode
M107
;LAYER_CHANGE
;Z:0.2
;HEIGHT:0.2
; BEFORE_LAYER_CHANGE 0 @ 0.2mm
G1 E-2.5 F4800
G92 E0
G1 Z-1.48 F18000
; AFTER_LAYER_CHANGE 0 @ 0.2mm
G1 X104.356 Y104.382
G1 E2.5 F4800
M204 S5000
;TYPE:Skirt/Brim
;WIDTH:0.44
G1 X105.116 Y103.797 E2.53008
G1 X105.89 Y103.03 E2.56426
G1 X107.008 Y102.254 E2.60695
G1 X108.021 Y101.796 E2.64182
G1 X108.874 Y101.268 E2.67329
G1 X110.064 Y100.778 E2.71366
G1 X111.386 Y100.513 E2.75595
G1 X112.252 Y100.222 E2.78461
G1 X115.16 Y100.054 E2.87598
G1 X116.458 Y100.019 E2.91671
G1 X117.703 Y100.209 E2.95621
G1 X118.568 Y100.497 E2.98481
G1 X119.991 Y100.798 E3.03043
G1 X121.163 Y101.287 E3.07026
G1 X121.992 Y101.803 E3.10089
G1 X123.015 Y102.267 E3.13612
G1 X124.121 Y103.04 E3.17844
G1 X124.932 Y103.837 E3.21411
G1 X125.643 Y104.384 E3.24225
G1 X126.872 Y105.78 E3.30059
G1 X127.289 Y106.502 E3.32674
G1 X127.856 Y107.209 E3.35517
G1 X128.534 Y108.416 E3.39859
G1 X128.959 Y109.68 E3.44042
G1 X129.491 Y110.94 E3.48332
G1 X129.772 Y112.164 E3.52271
G1 X129.819 Y113.171 E3.55433
G1 X130.018 Y114.237 E3.58834
G1 X129.985 Y116.105 E3.64694
G1 X129.833 Y116.805 E3.66941
G1 X129.784 Y117.727 E3.69837
G1 X129.419 Y119.284 E3.74853
G1 X128.49 Y121.673 E3.82893
G1 X127.894 Y122.739 E3.86724
G1 X127.323 Y123.443 E3.89567
G1 X126.493 Y124.721 E3.94347
G1 X125.615 Y125.646 E3.98347
G1 X124.865 Y126.212 E4.01294
G1 X124.059 Y127.013 E4.04858
G1 X122.94 Y127.774 E4.09103
G1 X121.916 Y128.246 E4.1264
G1 X121.264 Y128.659 E4.15061
G1 X119.317 Y129.394 E4.21589
G1 X118.543 Y129.511 E4.24044
G1 X117.181 Y129.894 E4.28482
G1 X115.92 Y130.006 E4.32453
G1 X114.978 Y129.94 E4.35415
G1 X113.542 Y129.981 E4.39921
G1 X112.297 Y129.791 E4.43871
G1 X111.395 Y129.488 E4.46856
G1 X110.269 Y129.281 E4.50447
G1 X108.953 Y128.77 E4.54875
G1 X108.065 Y128.233 E4.5813
G1 X107.187 Y127.845 E4.61141
G1 X106.11 Y127.149 E4.65163
G1 X105.152 Y126.226 E4.69336
G1 X104.559 Y125.798 E4.7163
G1 X103.075 Y124.145 E4.78598
G1 X102.689 Y123.459 E4.81067
G1 X101.847 Y122.321 E4.85507
G1 X101.295 Y121.182 E4.89477
G1 X101.016 Y120.253 E4.9252
G1 X100.506 Y119.052 E4.96613
G1 X100.221 Y117.768 E5.00738
G1 X100.167 Y116.779 E5.03845
G1 X99.974 Y115.679 E5.07348
G1 X100 Y114.034 E5.12508
G1 X100.173 Y113.181 E5.15238
G1 X100.222 Y112.233 E5.18216
G1 X100.56 Y110.78 E5.22895
G1 X101.038 Y109.673 E5.26677
G1 X101.262 Y108.905 E5.29186
G1 X101.929 Y107.543 E5.33943
G1 X102.687 Y106.549 E5.37864
G1 X103.416 Y105.394 E5.42148
G1 X104.316 Y104.426 E5.46294
M204 S20000
G1 X104.606 Y104.696 F18000
M204 S5000
G1 F4800
G1 X104.636 Y104.664 E5.46432
G1 X105.377 Y104.097 E5.49359
G1 X106.132 Y103.346 E5.52699
G1 X107.219 Y102.591 E5.5685
G1 X108.208 Y102.147 E5.6025
G1 X109.041 Y101.629 E5.63327
G1 X110.197 Y101.153 E5.67248
G1 X111.49 Y100.897 E5.71382
G1 X112.309 Y100.616 E5.74098
G1 X114.917 Y100.414 E5.82303
G1 X116.416 Y100.414 E5.87005
G1 X117.626 Y100.599 E5.90844
G1 X118.464 Y100.881 E5.93617
G1 X119.856 Y101.172 E5.98078
G1 X120.995 Y101.647 E6.01949
G1 X121.804 Y102.154 E6.04944
G1 X122.803 Y102.603 E6.08379
G1 X123.879 Y103.356 E6.12498
G1 X124.671 Y104.137 E6.15987
G1 X125.359 Y104.662 E6.18702
G1 X126.538 Y105.996 E6.24286
G1 X126.96 Y106.727 E6.26934
G1 X127.518 Y107.419 E6.29722
G1 X128.164 Y108.561 E6.33837
G1 X128.588 Y109.822 E6.3801
G1 X129.108 Y111.046 E6.42181
G1 X129.381 Y112.235 E6.46008
G1 X129.424 Y113.217 E6.49091
G1 X129.621 Y114.251 E6.52393
G1 X129.593 Y116.04 E6.58005
G1 X129.438 Y116.753 E6.60294
G1 X129.393 Y117.655 E6.63127
G1 X129.048 Y119.14 E6.67909
G1 X128.136 Y121.493 E6.75825
G1 X127.556 Y122.53 E6.79552
G1 X127.001 Y123.209 E6.82303
G1 X126.192 Y124.461 E6.86979
G1 X125.338 Y125.361 E6.90871
G1 X124.604 Y125.911 E6.93748
G1 X123.82 Y126.696 E6.97228
G1 X122.731 Y127.436 E7.01358
G1 X121.727 Y127.896 E7.04822
G1 X121.068 Y128.313 E7.07268
G1 X119.237 Y129.005 E7.13408
G1 X118.459 Y129.123 E7.15876
G1 X117.127 Y129.501 E7.20219
G1 X115.901 Y129.609 E7.24079
G1 X114.986 Y129.543 E7.26956
G1 X113.584 Y129.586 E7.31356
G1 X112.375 Y129.401 E7.35192
G1 X111.494 Y129.103 E7.38109
G1 X110.395 Y128.904 E7.41612
G1 X109.113 Y128.406 E7.45926
G1 X108.249 Y127.88 E7.49099
G1 X107.389 Y127.503 E7.52044
G1 X106.342 Y126.826 E7.55955
G1 X105.408 Y125.922 E7.60032
G1 X104.808 Y125.488 E7.62355
G1 X103.41 Y123.931 E7.68918
G1 X103.022 Y123.242 E7.71398
G1 X102.196 Y122.131 E7.7574
G1 X101.66 Y121.023 E7.79601
G1 X101.39 Y120.118 E7.82563
G1 X100.889 Y118.948 E7.86555
G1 X100.612 Y117.699 E7.90568
G1 X100.562 Y116.733 E7.93602
G1 X100.371 Y115.666 E7.97002
G1 X100.397 Y114.06 E8.0204
G1 X100.568 Y113.231 E8.04695
G1 X100.613 Y112.305 E8.07603
G1 X100.943 Y110.888 E8.12167
G1 X101.412 Y109.807 E8.15863
G1 X101.626 Y109.063 E8.18291
G1 X102.257 Y107.768 E8.22809
G1 X103.014 Y106.776 E8.26723
G1 X103.72 Y105.65 E8.30892
G1 X104.566 Y104.74 E8.34789
M204 S20000
G1 X104.856 Y105.011 F18000
M204 S5000
G1 F4800
G1 X104.914 Y104.948 E8.35058
G1 X105.639 Y104.396 E8.37916
G1 X106.373 Y103.662 E8.41172
G1 X107.43 Y102.928 E8.45208
G1 X108.395 Y102.499 E8.4852
G1 X109.208 Y101.99 E8.51529
G1 X110.33 Y101.528 E8.55335
G1 X111.593 Y101.282 E8.59371
G1 X112.414 Y100.999 E8.62095
G1 X114.873 Y100.81 E8.69831
G1 X116.375 Y100.81 E8.74542
G1 X117.548 Y100.989 E8.78264
G1 X118.359 Y101.265 E8.80951
G1 X119.721 Y101.546 E8.85313
G1 X120.826 Y102.007 E8.89069
G1 X121.617 Y102.505 E8.92001
G1 X122.591 Y102.94 E8.95347
G1 X123.638 Y103.671 E8.99352
G1 X124.411 Y104.438 E9.02768
G1 X125.076 Y104.941 E9.05383
G1 X126.205 Y106.212 E9.10715
G1 X126.632 Y106.953 E9.13398
G1 X127.181 Y107.629 E9.1613
G1 X127.808 Y108.739 E9.20129
G1 X128.216 Y109.963 E9.24176
G1 X128.725 Y111.152 E9.28233
G1 X128.99 Y112.306 E9.31947
G1 X129.028 Y113.263 E9.34951
G1 X129.224 Y114.267 E9.3816
G1 X129.2 Y115.975 E9.43518
G1 X129.042 Y116.702 E9.45852
G1 X129.002 Y117.584 E9.48621
G1 X128.677 Y118.997 E9.53169
G1 X128.281 Y119.887 E9.56224
G1 X127.781 Y121.314 E9.60967
G1 X127.218 Y122.321 E9.64586
G1 X126.68 Y122.975 E9.67242
G1 X125.891 Y124.201 E9.71815
G1 X125.062 Y125.075 E9.75593
G1 X124.344 Y125.61 E9.78402
G1 X123.58 Y126.378 E9.818
G1 X122.522 Y127.098 E9.85814
G1 X121.538 Y127.545 E9.89204
G1 X120.873 Y127.967 E9.91674
G1 X119.157 Y128.615 E9.97427
G1 X118.373 Y128.734 E9.99914
G1 X117.073 Y129.107 E10.04156
G1 X115.882 Y129.212 E10.07906
G1 X114.995 Y129.145 E10.10696
G1 X113.626 Y129.191 E10.14992
G1 X112.453 Y129.011 E10.18714
G1 X111.594 Y128.717 E10.21562
G1 X110.52 Y128.527 E10.24983
G1 X109.274 Y128.043 E10.29176
G1 X108.433 Y127.527 E10.32271
G1 X107.591 Y127.161 E10.35151
G1 X106.575 Y126.503 E10.38948
G1 X105.664 Y125.617 E10.42934
G1 X105.058 Y125.179 E10.45279
G1 X103.745 Y123.717 E10.51443
G1 X103.356 Y123.025 E10.53933
G1 X102.545 Y121.94 E10.58182
G1 X102.024 Y120.865 E10.61929
G1 X101.764 Y119.983 E10.64813
G1 X101.273 Y118.844 E10.68703
G1 X101.004 Y117.63 E10.72603
G1 X100.957 Y116.688 E10.75561
G1 X100.769 Y115.653 E10.78861
G1 X100.794 Y114.085 E10.8378
G1 X100.963 Y113.281 E10.86357
G1 X101.004 Y112.377 E10.89195
G1 X101.325 Y110.996 E10.93642
G1 X101.787 Y109.941 E10.97255
G1 X101.992 Y109.22 E10.99606
G1 X102.585 Y107.993 E11.03881
G1 X103.341 Y107.002 E11.07791
G1 X104.046 Y105.877 E11.11955
G1 X104.815 Y105.054 E11.15488
M204 S20000
G1 X105.104 Y105.326 F18000
M204 S5000
G1 F4800
G1 X105.191 Y105.233 E11.15887
G1 X105.901 Y104.696 E11.18679
G1 X106.615 Y103.978 E11.21855
G1 X107.64 Y103.265 E11.25771
G1 X108.582 Y102.851 E11.28998
G1 X109.375 Y102.35 E11.3194
G1 X110.462 Y101.903 E11.35627
G1 X111.695 Y101.667 E11.39565
G1 X112.519 Y101.383 E11.42299
G1 X114.83 Y101.205 E11.49569
G1 X116.333 Y101.205 E11.54283
G1 X117.47 Y101.379 E11.57891
G1 X118.254 Y101.649 E11.60492
G1 X119.586 Y101.92 E11.64756
G1 X120.658 Y102.366 E11.68398
G1 X121.429 Y102.857 E11.71265
G1 X122.38 Y103.277 E11.74526
G1 X123.396 Y103.987 E11.78414
G1 X124.15 Y104.739 E11.81754
G1 X124.793 Y105.221 E11.84275
G1 X125.871 Y106.429 E11.89353
G1 X126.305 Y107.18 E11.92074
G1 X126.844 Y107.84 E11.94747
G1 X127.438 Y108.883 E11.98512
G1 X127.845 Y110.105 E12.02552
G1 X128.342 Y111.259 E12.06493
G1 X128.598 Y112.376 E12.10087
G1 X128.633 Y113.309 E12.13016
G1 X128.826 Y114.284 E12.16134
G1 X128.808 Y115.911 E12.21238
G1 X128.647 Y116.651 E12.23613
G1 X128.61 Y117.514 E12.26322
G1 X128.307 Y118.853 E12.30628
G1 X127.903 Y119.76 E12.33742
G1 X127.426 Y121.134 E12.38304
G1 X126.881 Y122.111 E12.41813
G1 X126.359 Y122.74 E12.44377
G1 X125.59 Y123.942 E12.48853
G1 X124.786 Y124.788 E12.52514
G1 X124.083 Y125.309 E12.55259
G1 X123.341 Y126.061 E12.58573
G1 X122.313 Y126.76 E12.62472
G1 X121.349 Y127.195 E12.65789
G1 X120.677 Y127.621 E12.68285
G1 X119.077 Y128.226 E12.7365
G1 X118.288 Y128.345 E12.76153
G1 X117.018 Y128.713 E12.803
G1 X115.864 Y128.815 E12.83934
G1 X115.003 Y128.748 E12.86643
G1 X113.667 Y128.795 E12.90836
G1 X112.531 Y128.622 E12.9444
G1 X111.694 Y128.331 E12.9722
G1 X110.645 Y128.149 E13.00559
G1 X109.435 Y127.679 E13.04631
G1 X108.617 Y127.174 E13.07646
G1 X107.792 Y126.818 E13.10464
G1 X106.808 Y126.181 E13.14141
G1 X105.921 Y125.313 E13.18034
G1 X105.308 Y124.869 E13.20408
G1 X104.08 Y123.503 E13.26169
G1 X103.689 Y122.807 E13.28673
G1 X102.894 Y121.75 E13.32822
G1 X102.389 Y120.707 E13.36457
G1 X102.138 Y119.847 E13.39267
G1 X101.656 Y118.739 E13.43057
G1 X101.395 Y117.561 E13.46842
G1 X101.353 Y116.642 E13.49728
G1 X101.166 Y115.639 E13.52928
G1 X101.19 Y114.112 E13.57718
G1 X101.359 Y113.332 E13.60221
G1 X101.395 Y112.449 E13.62993
G1 X101.708 Y111.105 E13.67321
G1 X102.162 Y110.075 E13.70852
G1 X102.357 Y109.375 E13.73131
G1 X102.913 Y108.218 E13.77157
G1 X103.668 Y107.228 E13.81062
G1 X104.372 Y106.105 E13.85219
G1 X105.063 Y105.37 E13.88383
M204 S20000
G1 X105.351 Y105.642 F18000
M204 S5000
G1 F4800
G1 X105.468 Y105.518 E13.88918
G1 X106.163 Y104.996 E13.91644
G1 X106.857 Y104.293 E13.94743
G1 X107.851 Y103.602 E13.9854
G1 X108.769 Y103.202 E14.01681
G1 X109.543 Y102.711 E14.04556
G1 X110.595 Y102.278 E14.08124
G1 X111.797 Y102.052 E14.1196
G1 X112.625 Y101.767 E14.14707
G1 X114.786 Y101.601 E14.21505
G1 X116.292 Y101.6 E14.26229
G1 X117.392 Y101.768 E14.29719
G1 X118.149 Y102.033 E14.32235
G1 X119.452 Y102.294 E14.36403
G1 X120.489 Y102.726 E14.39927
G1 X121.241 Y103.208 E14.42729
G1 X122.169 Y103.614 E14.45906
G1 X123.154 Y104.302 E14.49675
G1 X123.89 Y105.04 E14.52944
G1 X124.511 Y105.501 E14.5537
G1 X125.538 Y106.646 E14.60194
G1 X125.978 Y107.407 E14.62951
G1 X126.508 Y108.052 E14.6557
G1 X127.083 Y109.062 E14.69215
G1 X127.473 Y110.246 E14.73125
G1 X127.959 Y111.366 E14.76955
G1 X128.207 Y112.445 E14.80428
G1 X128.237 Y113.356 E14.83287
G1 X128.429 Y114.302 E14.86315
G1 X128.415 Y115.847 E14.91161
G1 X128.252 Y116.601 E14.93581
G1 X128.219 Y117.444 E14.96227
G1 X127.924 Y118.746 E15.00414
G1 X127.524 Y119.633 E15.03466
G1 X127.072 Y120.955 E15.07848
G1 X126.543 Y121.9 E15.11245
G1 X126.038 Y122.505 E15.13717
G1 X125.289 Y123.682 E15.18093
G1 X124.511 Y124.502 E15.21638
G1 X123.821 Y125.008 E15.24322
G1 X123.101 Y125.744 E15.27552
G1 X122.104 Y126.422 E15.31334
G1 X121.159 Y126.845 E15.34582
G1 X120.516 Y127.257 E15.36977
G1 X118.996 Y127.836 E15.42079
G1 X118.202 Y127.957 E15.44598
G1 X116.963 Y128.319 E15.48647
G1 X115.846 Y128.418 E15.52164
G1 X115.012 Y128.35 E15.54789
G1 X113.708 Y128.4 E15.58882
G1 X112.609 Y128.232 E15.62369
G1 X111.793 Y127.946 E15.65081
G1 X110.77 Y127.772 E15.68336
G1 X109.596 Y127.316 E15.72286
G1 X108.801 Y126.821 E15.75223
G1 X107.993 Y126.475 E15.7798
G1 X107.041 Y125.859 E15.81537
G1 X106.179 Y125.009 E15.85334
G1 X105.558 Y124.56 E15.87738
G1 X104.416 Y123.289 E15.93098
G1 X104.021 Y122.589 E15.95619
G1 X103.242 Y121.559 E15.9967
G1 X102.754 Y120.55 E16.03186
G1 X102.512 Y119.712 E16.05922
G1 X102.04 Y118.633 E16.09616
G1 X101.786 Y117.492 E16.13283
G1 X101.748 Y116.596 E16.16096
G1 X101.563 Y115.624 E16.192
G1 X101.587 Y114.139 E16.23859
G1 X101.754 Y113.382 E16.26291
G1 X101.786 Y112.52 E16.28997
G1 X102.09 Y111.214 E16.33203
G1 X102.537 Y110.209 E16.36653
G1 X102.724 Y109.529 E16.38865
G1 X103.241 Y108.442 E16.42641
G1 X103.994 Y107.455 E16.46535
G1 X104.698 Y106.332 E16.50692
G1 X105.309 Y105.686 E16.53481
M204 S20000
G1 X105.598 Y105.958 F18000
M204 S5000
G1 F4800
G1 X105.744 Y105.804 E16.54147
G1 X106.425 Y105.296 E16.56812
G1 X107.099 Y104.608 E16.59833
G1 X108.061 Y103.94 E16.63507
G1 X108.956 Y103.554 E16.66564
G1 X109.711 Y103.071 E16.69375
G1 X110.726 Y102.653 E16.72818
G1 X111.9 Y102.436 E16.76563
G1 X112.683 Y102.16 E16.79167
G1 X114.743 Y101.996 E16.85649
G1 X115.024 Y102.045 E16.86544
G1 X116.251 Y101.996 E16.90396
G1 X117.313 Y102.158 E16.93766
G1 X118.043 Y102.417 E16.96196
G1 X119.318 Y102.669 E17.00273
G1 X120.319 Y103.086 E17.03674
G1 X121.053 Y103.559 E17.06413
G1 X121.958 Y103.951 E17.09507
G1 X122.912 Y104.617 E17.13156
G1 X123.63 Y105.342 E17.16357
G1 X124.23 Y105.782 E17.18691
G1 X125.228 Y106.895 E17.2338
G1 X125.65 Y107.634 E17.26049
G1 X126.172 Y108.263 E17.28613
G1 X126.728 Y109.241 E17.32142
G1 X127.102 Y110.388 E17.35926
G1 X127.576 Y111.473 E17.3964
G1 X127.816 Y112.515 E17.42994
G1 X127.841 Y113.402 E17.45777
G1 X128.032 Y114.321 E17.48721
G1 X128.023 Y115.783 E17.53307
G1 X127.856 Y116.552 E17.55775
G1 X127.827 Y117.376 E17.58361
G1 X127.553 Y118.601 E17.62298
G1 X127.145 Y119.509 E17.6542
G1 X126.717 Y120.776 E17.69615
G1 X126.206 Y121.69 E17.729
G1 X125.717 Y122.269 E17.75277
G1 X124.987 Y123.423 E17.7956
G1 X124.236 Y124.215 E17.82983
G1 X123.56 Y124.707 E17.85606
G1 X122.86 Y125.427 E17.88756
G1 X121.896 Y126.083 E17.92413
G1 X120.969 Y126.494 E17.95594
G1 X120.353 Y126.894 E17.97898
G1 X118.915 Y127.447 E18.02731
G1 X118.115 Y127.568 E18.05269
G1 X116.908 Y127.925 E18.09217
G1 X115.829 Y128.021 E18.12615
G1 X115.021 Y127.952 E18.15159
G1 X113.749 Y128.004 E18.19152
G1 X112.688 Y127.842 E18.22519
G1 X111.893 Y127.559 E18.25166
G1 X110.894 Y127.394 E18.28342
G1 X109.758 Y126.953 E18.32164
G1 X108.985 Y126.468 E18.35026
G1 X108.194 Y126.133 E18.3772
G1 X107.274 Y125.537 E18.41158
G1 X106.437 Y124.705 E18.4486
G1 X105.807 Y124.25 E18.47298
G1 X104.751 Y123.075 E18.52253
G1 X104.354 Y122.37 E18.54791
G1 X103.591 Y121.368 E18.58741
G1 X103.119 Y120.393 E18.62139
G1 X102.887 Y119.577 E18.648
G1 X102.423 Y118.528 E18.68398
G1 X102.178 Y117.424 E18.71945
G1 X102.144 Y116.55 E18.74689
G1 X101.961 Y115.608 E18.77699
G1 X101.979 Y114.204 E18.82103
G1 X102.15 Y113.432 E18.84583
G1 X102.177 Y112.591 E18.87222
G1 X102.473 Y111.323 E18.91306
G1 X102.912 Y110.343 E18.94674
G1 X103.09 Y109.683 E18.96818
G1 X103.591 Y108.632 E19.0047
G1 X104.321 Y107.681 E19.0423
G1 X105 Y106.591 E19.08258
G1 X105.557 Y106.002 E19.10801
M204 S20000
G1 X105.845 Y106.275 F18000
M204 S5000
G1 F4800
G1 X106.021 Y106.089 E19.11604
G1 X106.688 Y105.596 E19.14206
G1 X107.342 Y104.923 E19.1715
G1 X108.27 Y104.278 E19.20695
