; generated by PrusaSlicer 2.7.1+win64 on 2024-03-24 at 18:39:37 UTC


;
;
; 

; external perimeters extrusion width = 0.40mm
; perimeters extrusion width = 0.40mm
; infill extrusion width = 0.40mm
; solid infill extrusion width = 0.40mm
; top infill extrusion width = 0.40mm
; first layer extrusion width = 0.44mm

;TYPE:Custom
G90 ; use absolute coordinates
M83 ; extruder relative mode
M140 S100 ; set bed temp
M190 S100 ; wait for bed temp
M104 S255 ; set extruder temp
M109 S255 ; wait for extruder temp
G28                                        ; move X/Y/Z to min endstops
G1 Z0.28                                   ; lift nozzle a bit 
G92 E0 
G1 Y3 F2400                                    ; zero the extruded length 
G1 X180  E40 F500                       ; Extrude 25mm of filament in a 5cm line. 
G92 E0                                     ; zero the extruded length again 
G1 E-0.2 F3000                                ; Retract a little 
G1 X181 F4000                              ; Quickly wipe away from the filament line
M117
G21 ; set units to millimeters
G90 ; use absolute coordinates
M82 ; use absolute distances for extrusion
G92 E0
; Filament gcode
M107
;LAYER_CHANGE
;Z:0.2
;HEIGHT:0.2
; BEFORE_LAYER_CHANGE 0 @ 0.2mm
G1 E-2.5 F4800
G92 E0
G1 Z-1.48 F18000
; AFTER_LAYER_CHANGE 0 @ 0.2mm
G1 X104.403 Y104.34
G1 E2.5 F4800
M204 S5000
;TYPE:Skirt/Brim
;WIDTH:0.44
G1 X105.122 Y103.791 E2.52838
G1 X105.89 Y103.031 E2.56227
G1 X107.005 Y102.256 E2.60486
G1 X108.036 Y101.79 E2.64035
G1 X108.864 Y101.273 E2.67097
G1 X110.061 Y100.779 E2.71159
G1 X111.383 Y100.514 E2.75388
G1 X112.247 Y100.223 E2.78248
G1 X115.158 Y100.054 E2.87394
G1 X116.459 Y100.019 E2.91476
G1 X117.705 Y100.21 E2.9543
G1 X118.569 Y100.498 E2.98287
G1 X120.006 Y100.803 E3.02895
G1 X121.209 Y101.311 E3.06991
G1 X121.967 Y101.782 E3.0979
G1 X122.894 Y102.2 E3.1298
G1 X124.062 Y102.99 E3.17403
G1 X124.871 Y103.792 E3.20976
G1 X125.65 Y104.391 E3.24058
G1 X126.932 Y105.865 E3.30185
G1 X127.312 Y106.542 E3.3262
G1 X128.153 Y107.678 E3.37053
G1 X128.704 Y108.816 E3.41019
G1 X128.98 Y109.733 E3.44023
G1 X129.502 Y110.976 E3.48252
G1 X129.786 Y112.276 E3.52426
G1 X129.831 Y113.226 E3.55409
G1 X130.024 Y114.25 E3.58677
G1 X130.043 Y115.508 E3.62623
G1 X129.895 Y116.46 E3.65645
G1 X129.803 Y117.843 E3.69993
G1 X129.345 Y119.565 E3.75582
G1 X128.909 Y120.484 E3.78773
G1 X128.479 Y121.707 E3.82839
G1 X127.85 Y122.802 E3.868
G1 X127.267 Y123.527 E3.89718
G1 X126.506 Y124.705 E3.94117
G1 X125.627 Y125.635 E3.98131
G1 X124.867 Y126.209 E4.01118
G1 X124.054 Y127.017 E4.04713
G1 X122.94 Y127.774 E4.08938
G1 X121.917 Y128.245 E4.12471
G1 X121.264 Y128.659 E4.14896
G1 X119.316 Y129.395 E4.21428
G1 X118.542 Y129.512 E4.23883
G1 X117.182 Y129.894 E4.28314
G1 X115.919 Y130.007 E4.32291
G1 X114.911 Y129.931 E4.35462
G1 X113.622 Y129.991 E4.3951
G1 X112.364 Y129.804 E4.43499
G1 X111.386 Y129.503 E4.46709
G1 X110.164 Y129.249 E4.50624
G1 X108.937 Y128.764 E4.54762
G1 X108.055 Y128.22 E4.58012
G1 X107.101 Y127.8 E4.61282
G1 X106.053 Y127.1 E4.65235
G1 X105.065 Y126.164 E4.69504
G1 X104.521 Y125.765 E4.7162
G1 X103.143 Y124.24 E4.78067
G1 X102.729 Y123.521 E4.80669
G1 X102.167 Y122.831 E4.8346
G1 X101.389 Y121.431 E4.88484
G1 X100.454 Y119.086 E4.96403
G1 X100.175 Y117.744 E5.00702
G1 X100.129 Y116.619 E5.04234
G1 X99.975 Y115.693 E5.07178
G1 X100.016 Y113.897 E5.12813
G1 X100.173 Y113.17 E5.15146
G1 X100.222 Y112.23 E5.18098
G1 X100.585 Y110.706 E5.23012
G1 X101.039 Y109.669 E5.26563
G1 X101.264 Y108.897 E5.29085
G1 X101.868 Y107.643 E5.33451
G1 X102.69 Y106.545 E5.37753
G1 X103.477 Y105.315 E5.42333
G1 X104.361 Y104.383 E5.46362
M204 S20000
G1 X104.649 Y104.657 F18000
M204 S5000
G1 F4800
G1 X104.679 Y104.626 E5.46497
G1 X105.383 Y104.091 E5.4927
G1 X106.131 Y103.347 E5.52579
G1 X107.216 Y102.592 E5.56725
G1 X108.223 Y102.141 E5.60186
G1 X109.032 Y101.633 E5.63182
G1 X110.194 Y101.154 E5.67124
G1 X111.487 Y100.898 E5.71258
G1 X112.304 Y100.617 E5.73968
G1 X114.912 Y100.414 E5.82173
G1 X116.417 Y100.414 E5.86894
G1 X117.627 Y100.599 E5.90733
G1 X118.465 Y100.882 E5.93507
G1 X119.87 Y101.177 E5.9801
G1 X121.04 Y101.67 E6.01992
G1 X121.78 Y102.133 E6.0473
G1 X122.687 Y102.539 E6.07847
G1 X123.823 Y103.308 E6.1215
G1 X124.609 Y104.092 E6.15632
G1 X125.365 Y104.668 E6.18613
G1 X126.596 Y106.078 E6.24484
G1 X126.979 Y106.759 E6.26935
G1 X127.804 Y107.869 E6.31273
G1 X128.339 Y108.974 E6.35124
G1 X128.606 Y109.867 E6.38048
G1 X129.118 Y111.079 E6.42175
G1 X129.394 Y112.344 E6.46236
G1 X129.435 Y113.272 E6.4915
G1 X129.627 Y114.274 E6.5235
G1 X129.646 Y115.496 E6.56183
G1 X129.497 Y116.435 E6.59165
G1 X129.409 Y117.792 E6.6343
G1 X128.967 Y119.444 E6.68794
G1 X128.542 Y120.333 E6.71885
G1 X128.125 Y121.526 E6.75849
G1 X127.513 Y122.59 E6.79699
G1 X126.944 Y123.294 E6.82538
G1 X126.205 Y124.446 E6.86831
G1 X125.35 Y125.35 E6.90734
G1 X124.606 Y125.909 E6.93653
G1 X123.815 Y126.7 E6.97162
G1 X122.731 Y127.436 E7.01272
G1 X121.727 Y127.895 E7.04735
G1 X121.068 Y128.313 E7.07183
G1 X119.235 Y129.005 E7.13329
G1 X118.458 Y129.123 E7.15794
G1 X117.128 Y129.5 E7.2013
G1 X115.901 Y129.61 E7.23994
G1 X114.917 Y129.533 E7.2709
G1 X113.661 Y129.595 E7.31034
G1 X112.438 Y129.414 E7.34912
G1 X111.485 Y129.118 E7.38042
G1 X110.294 Y128.873 E7.41856
G1 X109.099 Y128.401 E7.45886
G1 X108.24 Y127.868 E7.49057
G1 X107.307 Y127.46 E7.52251
G1 X106.288 Y126.779 E7.56095
G1 X105.32 Y125.859 E7.60284
G1 X104.773 Y125.457 E7.62413
G1 X103.453 Y123.991 E7.68601
G1 X103.058 Y123.295 E7.71111
G1 X102.505 Y122.621 E7.73846
G1 X101.757 Y121.282 E7.78657
G1 X100.839 Y118.986 E7.86413
G1 X100.567 Y117.68 E7.90597
G1 X100.524 Y116.577 E7.94059
G1 X100.372 Y115.683 E7.96903
G1 X100.412 Y113.926 E8.02416
G1 X100.568 Y113.223 E8.04675
G1 X100.613 Y112.304 E8.07561
G1 X100.967 Y110.815 E8.12362
G1 X101.413 Y109.804 E8.15828
G1 X101.63 Y109.053 E8.1828
G1 X102.197 Y107.865 E8.22409
G1 X103.017 Y106.771 E8.26697
G1 X103.801 Y105.546 E8.31259
G1 X104.607 Y104.701 E8.34922
M204 S20000
G1 X104.895 Y104.975 F18000
M204 S5000
G1 F4800
G1 X104.955 Y104.912 E8.35195
G1 X105.644 Y104.391 E8.37904
G1 X106.372 Y103.663 E8.41133
G1 X107.427 Y102.929 E8.45164
G1 X108.411 Y102.492 E8.48541
G1 X109.199 Y101.994 E8.51465
G1 X110.327 Y101.529 E8.55292
G1 X111.59 Y101.282 E8.59329
G1 X112.409 Y101 E8.62046
G1 X114.868 Y100.809 E8.69782
G1 X115.102 Y100.85 E8.70527
G1 X116.376 Y100.81 E8.74525
G1 X117.55 Y100.989 E8.7825
G1 X118.36 Y101.266 E8.80935
G1 X119.733 Y101.55 E8.85333
G1 X120.87 Y102.03 E8.89204
G1 X121.593 Y102.485 E8.91883
G1 X122.479 Y102.878 E8.94923
G1 X123.585 Y103.626 E8.99111
G1 X124.347 Y104.392 E9.025
G1 X125.08 Y104.946 E9.05382
G1 X126.26 Y106.291 E9.10994
G1 X126.645 Y106.976 E9.13459
G1 X127.455 Y108.059 E9.17701
G1 X127.975 Y109.132 E9.21441
G1 X128.231 Y110.002 E9.24286
G1 X128.734 Y111.182 E9.28309
G1 X129.003 Y112.411 E9.32255
G1 X129.04 Y113.318 E9.35102
G1 X129.231 Y114.298 E9.38234
G1 X129.249 Y115.485 E9.41958
G1 X129.099 Y116.41 E9.44897
G1 X129.015 Y117.74 E9.49077
G1 X128.588 Y119.322 E9.54217
G1 X128.174 Y120.181 E9.57208
G1 X127.772 Y121.344 E9.61068
G1 X127.177 Y122.378 E9.6481
G1 X126.622 Y123.061 E9.6757
G1 X125.903 Y124.187 E9.7176
G1 X125.074 Y125.064 E9.75545
G1 X124.345 Y125.608 E9.78398
G1 X123.576 Y126.382 E9.8182
G1 X122.522 Y127.098 E9.85817
G1 X121.538 Y127.545 E9.89207
G1 X120.873 Y127.967 E9.91677
G1 X119.155 Y128.616 E9.97437
G1 X118.373 Y128.734 E9.99918
G1 X117.074 Y129.107 E10.04157
G1 X115.882 Y129.213 E10.07911
G1 X114.923 Y129.135 E10.10929
G1 X113.699 Y129.2 E10.14774
G1 X112.512 Y129.023 E10.18538
G1 X111.584 Y128.733 E10.21588
G1 X110.423 Y128.497 E10.25304
G1 X109.263 Y128.039 E10.29216
G1 X108.426 Y127.516 E10.32312
G1 X107.512 Y127.119 E10.35438
G1 X106.523 Y126.459 E10.39167
G1 X105.575 Y125.553 E10.4328
G1 X105.053 Y125.175 E10.45302
G1 X103.787 Y123.775 E10.51222
G1 X103.386 Y123.069 E10.53769
G1 X102.843 Y122.412 E10.56443
G1 X102.113 Y121.104 E10.61141
G1 X101.223 Y118.884 E10.68643
G1 X100.96 Y117.616 E10.72705
G1 X100.92 Y116.536 E10.76095
G1 X100.77 Y115.671 E10.78849
G1 X100.804 Y113.992 E10.84117
G1 X100.963 Y113.275 E10.86421
G1 X101.004 Y112.377 E10.89241
G1 X101.349 Y110.926 E10.93919
G1 X101.787 Y109.94 E10.97303
G1 X101.995 Y109.209 E10.99687
G1 X102.547 Y108.055 E11.03699
G1 X103.343 Y106.998 E11.07849
G1 X104.102 Y105.806 E11.12281
G1 X104.853 Y105.018 E11.15695
M204 S20000
G1 X105.141 Y105.292 F18000
M204 S5000
G1 F4800
G1 X105.231 Y105.198 E11.16103
G1 X105.906 Y104.692 E11.18749
G1 X106.614 Y103.978 E11.21903
G1 X107.638 Y103.266 E11.25815
G1 X108.599 Y102.844 E11.29107
G1 X109.367 Y102.354 E11.31964
G1 X110.46 Y101.904 E11.35672
G1 X111.692 Y101.667 E11.39607
G1 X112.515 Y101.384 E11.42337
G1 X114.825 Y101.205 E11.49604
G1 X116.334 Y101.205 E11.54337
G1 X117.471 Y101.379 E11.57945
G1 X118.255 Y101.649 E11.60546
G1 X119.597 Y101.924 E11.64843
G1 X120.7 Y102.389 E11.68598
G1 X121.405 Y102.836 E11.71216
G1 X122.271 Y103.217 E11.74184
G1 X123.346 Y103.944 E11.78255
G1 X124.086 Y104.693 E11.81558
G1 X124.796 Y105.224 E11.84339
G1 X125.924 Y106.504 E11.8969
G1 X126.312 Y107.194 E11.92173
G1 X127.106 Y108.25 E11.96317
G1 X127.61 Y109.29 E11.99942
G1 X127.857 Y110.136 E12.02706
G1 X128.35 Y111.286 E12.06631
G1 X128.611 Y112.479 E12.10462
G1 X128.644 Y113.365 E12.13243
G1 X128.834 Y114.322 E12.16303
G1 X128.851 Y115.473 E12.19914
G1 X128.7 Y116.386 E12.22817
G1 X128.621 Y117.687 E12.26905
G1 X128.21 Y119.199 E12.3182
G1 X127.806 Y120.029 E12.34715
G1 X127.418 Y121.163 E12.38474
G1 X126.841 Y122.166 E12.42103
G1 X126.299 Y122.828 E12.44787
G1 X125.601 Y123.928 E12.48873
G1 X124.797 Y124.779 E12.52545
G1 X124.084 Y125.307 E12.55328
G1 X123.336 Y126.065 E12.58668
G1 X122.313 Y126.76 E12.62547
G1 X121.35 Y127.194 E12.6586
G1 X120.677 Y127.621 E12.6836
G1 X119.075 Y128.226 E12.73731
G1 X118.287 Y128.345 E12.76231
G1 X117.019 Y128.713 E12.80372
G1 X115.865 Y128.816 E12.84006
G1 X114.928 Y128.737 E12.86955
G1 X113.737 Y128.804 E12.90697
G1 X112.586 Y128.633 E12.94347
G1 X111.683 Y128.347 E12.97318
G1 X110.552 Y128.122 E13.00935
G1 X109.426 Y127.676 E13.04734
G1 X108.611 Y127.163 E13.07755
G1 X107.717 Y126.779 E13.10807
G1 X106.759 Y126.138 E13.14423
G1 X105.83 Y125.247 E13.18461
G1 X105.302 Y124.865 E13.20505
G1 X104.122 Y123.56 E13.26024
G1 X103.713 Y122.842 E13.28616
G1 X103.18 Y122.201 E13.31231
G1 X102.482 Y120.956 E13.35708
G1 X101.608 Y118.783 E13.43055
G1 X101.352 Y117.552 E13.46999
G1 X101.316 Y116.494 E13.50319
G1 X101.167 Y115.658 E13.52983
G1 X101.196 Y114.058 E13.58002
G1 X101.358 Y113.327 E13.60351
G1 X101.395 Y112.449 E13.63107
G1 X101.72 Y111.07 E13.67551
G1 X102.162 Y110.074 E13.70969
G1 X102.361 Y109.364 E13.73282
G1 X102.896 Y108.245 E13.77172
G1 X103.67 Y107.224 E13.81191
G1 X104.403 Y106.065 E13.85492
G1 X105.099 Y105.336 E13.88653
M204 S20000
G1 X105.387 Y105.61 F18000
M204 S5000
G1 F4800
G1 X105.506 Y105.484 E13.89197
G1 X106.167 Y104.992 E13.91782
G1 X106.856 Y104.294 E13.94858
G1 X107.848 Y103.604 E13.98648
G1 X108.787 Y103.195 E14.01861
G1 X109.535 Y102.714 E14.0465
G1 X110.592 Y102.279 E14.08235
G1 X111.794 Y102.052 E14.12072
G1 X112.62 Y101.768 E14.14812
G1 X114.781 Y101.6 E14.21611
G1 X116.293 Y101.6 E14.26354
G1 X117.393 Y101.769 E14.29845
G1 X118.149 Y102.033 E14.32357
G1 X119.462 Y102.298 E14.36558
G1 X120.53 Y102.748 E14.40193
G1 X121.218 Y103.188 E14.42755
G1 X122.064 Y103.556 E14.45649
G1 X123.106 Y104.262 E14.49597
G1 X123.824 Y104.993 E14.52811
G1 X124.513 Y105.503 E14.555
G1 X125.589 Y106.717 E14.60588
G1 X125.98 Y107.412 E14.63089
G1 X126.757 Y108.441 E14.67133
G1 X127.245 Y109.448 E14.70643
G1 X127.482 Y110.27 E14.73326
G1 X127.967 Y111.39 E14.77154
G1 X128.219 Y112.545 E14.80862
G1 X128.248 Y113.411 E14.8358
G1 X128.437 Y114.347 E14.86575
G1 X128.454 Y115.46 E14.90066
G1 X128.301 Y116.363 E14.92939
G1 X128.227 Y117.635 E14.96936
G1 X127.832 Y119.076 E15.01623
G1 X127.438 Y119.877 E15.04423
G1 X127.064 Y120.982 E15.08082
G1 X126.505 Y121.953 E15.11596
G1 X125.977 Y122.595 E15.14203
G1 X125.299 Y123.67 E15.1819
G1 X124.521 Y124.493 E15.21742
G1 X123.823 Y125.006 E15.24459
G1 X123.097 Y125.748 E15.27715
G1 X122.105 Y126.421 E15.31475
G1 X121.16 Y126.844 E15.34723
G1 X120.516 Y127.257 E15.37123
G1 X118.994 Y127.837 E15.42232
G1 X118.201 Y127.957 E15.44748
G1 X116.964 Y128.319 E15.48791
G1 X115.847 Y128.419 E15.52309
G1 X114.933 Y128.339 E15.55187
G1 X113.775 Y128.408 E15.58826
G1 X112.66 Y128.242 E15.62362
G1 X111.782 Y127.962 E15.65253
G1 X110.681 Y127.746 E15.68772
G1 X109.59 Y127.314 E15.72453
G1 X108.796 Y126.81 E15.75403
G1 X107.922 Y126.438 E15.78382
G1 X106.994 Y125.818 E15.81883
G1 X106.085 Y124.942 E15.85843
G1 X105.552 Y124.556 E15.87907
G1 X104.456 Y123.345 E15.9303
G1 X104.041 Y122.614 E15.95667
G1 X103.517 Y121.99 E15.98223
G1 X102.837 Y120.778 E16.02582
G1 X101.992 Y118.681 E16.09673
G1 X101.744 Y117.488 E16.13495
G1 X101.712 Y116.451 E16.16749
G1 X101.564 Y115.644 E16.19322
G1 X101.588 Y114.124 E16.2409
G1 X101.754 Y113.377 E16.2649
G1 X101.786 Y112.52 E16.2918
G1 X102.09 Y111.214 E16.33386
G1 X102.537 Y110.208 E16.36839
G1 X102.727 Y109.519 E16.39081
G1 X103.246 Y108.435 E16.42851
G1 X103.996 Y107.451 E16.46732
G1 X104.705 Y106.325 E16.50906
G1 X105.345 Y105.653 E16.53817
M204 S20000
G1 X105.632 Y105.927 F18000
M204 S5000
G1 F4800
G1 X105.781 Y105.771 E16.54494
G1 X106.429 Y105.293 E16.5702
G1 X107.098 Y104.609 E16.60021
G1 X108.058 Y103.941 E16.63689
G1 X108.974 Y103.546 E16.66818
G1 X109.704 Y103.074 E16.69545
G1 X110.724 Y102.654 E16.73005
G1 X111.897 Y102.437 E16.76747
G1 X112.678 Y102.161 E16.79345
G1 X114.738 Y101.996 E16.85827
G1 X115.023 Y102.045 E16.86734
G1 X116.252 Y101.996 E16.90592
G1 X117.314 Y102.158 E16.93962
G1 X118.043 Y102.417 E16.96389
G1 X119.326 Y102.671 E17.00491
G1 X120.36 Y103.107 E17.04011
G1 X121.031 Y103.539 E17.06514
G1 X121.858 Y103.896 E17.09339
G1 X122.867 Y104.579 E17.13161
G1 X123.563 Y105.294 E17.16291
G1 X124.231 Y105.784 E17.1889
G1 X125.253 Y106.93 E17.23706
G1 X125.647 Y107.631 E17.26228
G1 X126.409 Y108.632 E17.30174
G1 X126.88 Y109.605 E17.33565
G1 X127.107 Y110.405 E17.36173
G1 X127.583 Y111.494 E17.39901
G1 X127.827 Y112.612 E17.4349
G1 X127.852 Y113.457 E17.46142
G1 X128.04 Y114.372 E17.49072
G1 X128.057 Y115.447 E17.52444
G1 X127.902 Y116.341 E17.5529
G1 X127.833 Y117.582 E17.59189
G1 X127.455 Y118.951 E17.63644
G1 X127.071 Y119.725 E17.66354
G1 X126.709 Y120.802 E17.69918
G1 X126.17 Y121.741 E17.73314
G1 X125.654 Y122.362 E17.75847
G1 X124.997 Y123.411 E17.79729
G1 X124.245 Y124.207 E17.83164
G1 X123.561 Y124.705 E17.85818
G1 X122.856 Y125.431 E17.88992
G1 X121.896 Y126.083 E17.92632
G1 X120.97 Y126.494 E17.9581
G1 X120.353 Y126.894 E17.98116
G1 X118.913 Y127.447 E18.02954
G1 X118.114 Y127.568 E18.05489
G1 X116.909 Y127.925 E18.09431
G1 X115.83 Y128.021 E18.12829
G1 X114.939 Y127.941 E18.15635
G1 X113.812 Y128.012 E18.19177
G1 X112.735 Y127.852 E18.22592
G1 X111.881 Y127.577 E18.25406
G1 X110.81 Y127.369 E18.28828
G1 X109.754 Y126.952 E18.32389
G1 X108.982 Y126.458 E18.35264
G1 X108.127 Y126.097 E18.38175
G1 X107.23 Y125.498 E18.41558
G1 X106.342 Y124.637 E18.45438
G1 X105.802 Y124.247 E18.47527
G1 X104.767 Y123.097 E18.5238
G1 X104.368 Y122.386 E18.54937
G1 X103.854 Y121.779 E18.57432
G1 X103.192 Y120.599 E18.61676
G1 X102.377 Y118.579 E18.68508
G1 X102.137 Y117.425 E18.72205
G1 X102.108 Y116.409 E18.75393
G1 X101.961 Y115.629 E18.77883
G1 X101.98 Y114.19 E18.82397
G1 X102.149 Y113.426 E18.84851
G1 X102.177 Y112.591 E18.87472
G1 X102.473 Y111.323 E18.91556
G1 X102.913 Y110.342 E18.94928
G1 X103.093 Y109.674 E18.97098
G1 X103.595 Y108.625 E19.00746
G1 X104.323 Y107.678 E19.04493
G1 X105.006 Y106.584 E19.08538
G1 X105.591 Y105.97 E19.11198
M204 S20000
G1 X105.878 Y106.244 F18000
M204 S5000
G1 F4800
G1 X106.056 Y106.058 E19.12006
G1 X106.69 Y105.593 E19.14472
G1 X107.341 Y104.924 E19.174
G1 X108.268 Y104.279 E19.20942
G1 X109.162 Y103.898 E19.2399
G1 X109.873 Y103.434 E19.26653
G1 X110.855 Y103.029 E19.29985
G1 X111.999 Y102.822 E19.33632
