;FLAVOR:Marlin
;TIME:7781
;Filament used: 8.91967m
;Layer height: 0.3
;MINX:-54.123
;MINY:-53.068
;MINZ:0.3
;MAXX:42.379
;MAXY:52.728
;MAXZ:30
;Generated with Cura_SteamEngine 4.10.0
M140 S90
M105
M190 S90
M104 S230
M105
M109 S230
M82 ;absolute extrusion mode
G21        ;metric values
G90        ;absolute positioning
M107       ;start with the fan off
G28   ;move to endstops

;Z-Offset Reset und dann Z +0,1 für PLA
;MacroZOffset0
;MacroZOffsetPlus0100

G92 E0                  ;zero the extruded length
G1 F200 E3              ;extrude 3mm of feed stock
G92 E0                  ;zero the extruded length again
G1 F120
;Put printing message on LCD screen
M117 Printing...
G92 E0
G92 E0
G1 F2400 E-2
;LAYER_COUNT:100
;LAYER:0
M107
G0 F1800 X-41.913 Y7.147 Z0.3
;TYPE:SKIRT
G1 F2400 E0
G1 F600 X-42.646 Y6.709 E0.04452
G1 X-42.967 Y6.504 E0.06437
G1 X-44.581 Y5.403 E0.16624
G1 X-45.125 Y5.02 E0.20092
G1 X-45.498 Y4.724 E0.22575
G1 X-46.253 Y4.049 E0.27855
G1 X-47.204 Y3.166 E0.3462
G1 X-47.677 Y2.714 E0.38031
G1 X-48.005 Y2.361 E0.40543
G1 X-48.832 Y1.359 E0.47317
G1 X-49.489 Y0.535 E0.52811
G1 X-49.888 Y0.021 E0.56204
G1 X-50.162 Y-.379 E0.58731
G1 X-50.72 Y-1.308 E0.64381
G1 X-51.356 Y-2.41 E0.71015
G1 X-51.669 Y-2.969 E0.74355
G1 X-51.882 Y-3.407 E0.76894
G1 X-52.273 Y-4.355 E0.8224
G1 X-52.748 Y-5.57 E0.89042
G1 X-52.98 Y-6.186 E0.92473
G1 X-53.124 Y-6.649 E0.95001
G1 X-53.377 Y-7.68 E1.00536
G1 X-53.657 Y-8.907 E1.07097
G1 X-53.796 Y-9.555 E1.10553
G1 X-53.87 Y-10.038 E1.131
G1 X-53.967 Y-11.102 E1.1867
G1 X-54.061 Y-12.353 E1.25211
G1 X-54.106 Y-13.087 E1.29045
G1 X-54.123 Y-13.784 E1.3268
G1 X-54.123 Y-27.11 E2.02155
G1 X-54.113 Y-27.816 E2.05836
G1 X-54.066 Y-28.633 E2.10103
G1 X-53.98 Y-29.689 E2.15626
G1 X-53.909 Y-30.43 E2.19507
G1 X-53.828 Y-30.945 E2.22225
G1 X-53.626 Y-31.796 E2.26785
G1 X-53.435 Y-32.574 E2.30962
G1 X-53.248 Y-33.287 E2.34805
G1 X-53.039 Y-33.901 E2.38186
G1 X-52.881 Y-34.286 E2.40356
G1 X-52.423 Y-35.358 E2.46434
G1 X-52.145 Y-35.985 E2.50009
G1 X-51.791 Y-36.64 E2.53891
G1 X-51.616 Y-36.924 E2.5563
G1 X-51.005 Y-37.891 E2.61594
G1 X-50.608 Y-38.5 E2.65384
G1 X-50.217 Y-39.015 E2.68755
G1 X-50.114 Y-39.136 E2.69583
G1 X-49.136 Y-40.241 E2.77277
G1 X-48.696 Y-40.723 E2.80679
G1 X-48.241 Y-41.156 E2.83954
G1 X-47.858 Y-41.477 E2.86559
G1 X-47.065 Y-42.123 E2.91892
G1 X-46.43 Y-42.624 E2.96109
G1 X-45.873 Y-43.001 E2.99615
G1 X-45.574 Y-43.179 E3.01429
G1 X-44.5 Y-43.798 E3.07892
G1 X-43.941 Y-44.111 E3.11232
G1 X-43.312 Y-44.404 E3.1485
G1 X-42.916 Y-44.559 E3.17067
G1 X-41.893 Y-44.946 E3.22769
G1 X-41.208 Y-45.195 E3.26569
G1 X-40.646 Y-45.357 E3.29618
G1 X-39.728 Y-45.553 E3.34512
G1 X-39.094 Y-45.682 E3.37885
G1 X-38.351 Y-45.824 E3.41829
G1 X-37.751 Y-45.895 E3.44979
G1 X-36.887 Y-45.938 E3.49489
G1 X-36.148 Y-45.967 E3.53345
G1 X-35.416 Y-45.987 E3.57163
G1 X-34.88 Y-45.968 E3.59959
G1 X-34.079 Y-45.879 E3.64161
G1 X-33.204 Y-45.773 E3.68756
G1 X-32.485 Y-45.675 E3.72539
G1 X-32.147 Y-45.615 E3.74329
G1 X-31.077 Y-45.376 E3.80045
G1 X-30.672 Y-45.279 E3.82216
G1 X-27.999 Y-44.719 E3.96454
G1 X-25.352 Y-44.243 E4.10476
G1 X-22.666 Y-43.837 E4.24638
G1 X-19.956 Y-43.506 E4.38872
G1 X-17.259 Y-43.253 E4.52995
G1 X-14.563 Y-43.077 E4.6708
G1 X-11.863 Y-42.978 E4.81166
G1 X-9.124 Y-42.954 E4.95447
G1 X-6.424 Y-43.007 E5.09526
G1 X-3.726 Y-43.137 E5.23608
G1 X-1.028 Y-43.343 E5.37715
G1 X1.694 Y-43.629 E5.51985
G1 X4.372 Y-43.987 E5.66071
G1 X7.05 Y-44.423 E5.80216
G1 X9.724 Y-44.935 E5.9441
G1 X12.332 Y-45.512 E6.08336
G1 X14.983 Y-46.177 E6.22585
G1 X17.605 Y-46.915 E6.36786
G1 X20.213 Y-47.729 E6.5103
G1 X22.744 Y-48.599 E6.64983
G1 X25.309 Y-49.561 E6.79266
G1 X27.797 Y-50.577 E6.93277
G1 X30.302 Y-51.682 E7.07551
G1 X32.12 Y-52.546 E7.18045
G1 X32.421 Y-52.684 E7.19771
G1 X32.957 Y-52.886 E7.22758
G1 X33.515 Y-53.011 E7.25739
G1 X34.224 Y-53.063 E7.29445
G1 X34.625 Y-53.067 E7.31536
G1 X37.523 Y-53.068 E7.46645
G1 X38.186 Y-53.058 E7.50102
G1 X38.756 Y-53.009 E7.53084
G1 X39.314 Y-52.881 E7.56069
G1 X39.849 Y-52.678 E7.59052
G1 X40.35 Y-52.401 E7.62037
G1 X40.808 Y-52.057 E7.65023
G1 X41.177 Y-51.702 E7.67693
G1 X41.551 Y-51.269 E7.70676
G1 X41.861 Y-50.788 E7.73659
G1 X42.101 Y-50.268 E7.76645
G1 X42.266 Y-49.72 E7.79629
G1 X42.365 Y-48.959 E7.8363
G1 X42.378 Y-48.428 E7.86399
G1 X42.379 Y47.889 E12.8855
G1 X42.369 Y48.611 E12.92315
G1 X42.321 Y49.181 E12.95297
G1 X42.194 Y49.739 E12.9828
G1 X41.991 Y50.274 E13.01264
G1 X41.715 Y50.776 E13.0425
G1 X41.372 Y51.234 E13.07233
G1 X40.968 Y51.64 E13.1022
G1 X40.633 Y51.907 E13.12453
G1 X40.153 Y52.219 E13.15438
G1 X39.634 Y52.461 E13.18423
G1 X39.087 Y52.628 E13.21405
G1 X38.522 Y52.718 E13.24388
G1 X37.95 Y52.728 E13.2737
G1 X37.382 Y52.659 E13.30353
G1 X36.829 Y52.511 E13.33338
G1 X36.16 Y52.211 E13.3716
G1 X35.538 Y51.863 E13.40876
G1 X-41.913 Y7.147 E18.07135
G0 F1800 X-41.687 Y6.77
G1 F600 X-42.412 Y6.336 E18.1154
G1 X-42.719 Y6.14 E18.13439
G1 X-44.328 Y5.044 E18.23589
G1 X-44.872 Y4.661 E18.27058
G1 X-45.205 Y4.396 E18.29276
G1 X-45.953 Y3.726 E18.34512
G1 X-46.9 Y2.848 E18.41244
G1 X-47.373 Y2.396 E18.44655
G1 X-47.666 Y2.081 E18.46898
G1 X-48.488 Y1.084 E18.53635
G1 X-49.141 Y0.265 E18.59096
G1 X-49.54 Y-.249 E18.62488
G1 X-49.785 Y-.606 E18.64746
G1 X-50.339 Y-1.528 E18.70354
G1 X-50.972 Y-2.625 E18.76957
G1 X-51.285 Y-3.184 E18.80297
G1 X-51.475 Y-3.575 E18.82563
G1 X-51.863 Y-4.516 E18.8787
G1 X-52.336 Y-5.725 E18.94638
G1 X-52.568 Y-6.341 E18.9807
G1 X-52.697 Y-6.755 E19.00331
G1 X-52.948 Y-7.778 E19.05822
G1 X-53.227 Y-8.999 E19.12352
G1 X-53.366 Y-9.647 E19.15807
G1 X-53.431 Y-10.078 E19.1808
G1 X-53.529 Y-11.135 E19.23614
G1 X-53.622 Y-12.38 E19.30123
G1 X-53.673 Y-13.235 E19.34589
G1 X-53.683 Y-13.788 E19.37472
G1 X-53.683 Y-27.104 E20.06895
G1 X-53.673 Y-27.81 E20.10577
G1 X-53.627 Y-28.603 E20.14718
G1 X-53.542 Y-29.647 E20.20179
G1 X-53.471 Y-30.388 E20.2406
G1 X-53.371 Y-30.974 E20.27159
G1 X-53.199 Y-31.691 E20.31003
G1 X-53.009 Y-32.463 E20.35148
G1 X-52.822 Y-33.176 E20.38991
G1 X-52.628 Y-33.744 E20.4212
G1 X-52.476 Y-34.113 E20.44201
G1 X-52.021 Y-35.179 E20.50244
G1 X-51.743 Y-35.806 E20.53819
G1 X-51.412 Y-36.416 E20.57438
G1 X-51.244 Y-36.689 E20.59109
G1 X-50.636 Y-37.651 E20.65042
G1 X-50.239 Y-38.26 E20.68832
G1 X-49.876 Y-38.737 E20.71957
G1 X-49.784 Y-38.845 E20.72697
G1 X-48.811 Y-39.945 E20.80353
G1 X-48.371 Y-40.427 E20.83756
G1 X-47.951 Y-40.825 E20.86772
G1 X-47.58 Y-41.136 E20.89296
G1 X-46.745 Y-41.815 E20.94907
G1 X-46.158 Y-42.279 E20.98808
G1 X-45.641 Y-42.627 E21.02057
G1 X-45.354 Y-42.798 E21.03799
G1 X-44.285 Y-43.414 E21.10231
G1 X-43.726 Y-43.727 E21.13572
G1 X-43.142 Y-43.997 E21.16926
G1 X-42.76 Y-44.147 E21.19066
G1 X-41.742 Y-44.533 E21.24742
G1 X-41.057 Y-44.782 E21.28542
G1 X-40.545 Y-44.928 E21.31317
G1 X-39.639 Y-45.122 E21.36148
G1 X-39.011 Y-45.25 E21.39489
G1 X-38.268 Y-45.392 E21.43433
G1 X-37.72 Y-45.456 E21.46309
G1 X-36.869 Y-45.498 E21.50752
G1 X-36.136 Y-45.528 E21.54576
G1 X-35.404 Y-45.548 E21.58394
G1 X-34.812 Y-45.519 E21.61484
G1 X-34.131 Y-45.443 E21.65057
G1 X-33.264 Y-45.337 E21.6961
G1 X-32.545 Y-45.239 E21.73393
G1 X-32.243 Y-45.185 E21.74993
G1 X-31.179 Y-44.948 E21.80676
G1 X-30.757 Y-44.847 E21.82938
G1 X-28.095 Y-44.289 E21.97118
G1 X-25.424 Y-43.809 E22.11267
G1 X-22.718 Y-43.399 E22.25536
G1 X-20.014 Y-43.069 E22.39738
G1 X-17.293 Y-42.814 E22.53986
G1 X-14.609 Y-42.639 E22.68009
G1 X-11.847 Y-42.537 E22.82418
G1 X-9.119 Y-42.514 E22.96641
G1 X-6.43 Y-42.567 E23.10663
G1 X-3.67 Y-42.699 E23.25069
G1 X-.985 Y-42.905 E23.39108
G1 X1.726 Y-43.19 E23.5332
G1 X4.428 Y-43.551 E23.67532
G1 X7.137 Y-43.992 E23.81841
G1 X9.829 Y-44.507 E23.96131
G1 X12.428 Y-45.082 E24.10008
G1 X15.112 Y-45.755 E24.24435
G1 X17.717 Y-46.489 E24.38545
G1 X20.338 Y-47.306 E24.52858
G1 X22.891 Y-48.184 E24.66933
G1 X25.46 Y-49.148 E24.81239
G1 X28.002 Y-50.186 E24.95554
G1 X30.457 Y-51.269 E25.09543
G1 X32.304 Y-52.146 E25.20203
G1 X32.605 Y-52.284 E25.21929
G1 X33.112 Y-52.472 E25.24748
G1 X33.641 Y-52.584 E25.27567
G1 X34.239 Y-52.623 E25.30692
G1 X34.625 Y-52.627 E25.32704
G1 X37.516 Y-52.628 E25.47776
G1 X38.179 Y-52.618 E25.51233
G1 X38.718 Y-52.57 E25.54055
G1 X39.243 Y-52.443 E25.56871
G1 X39.745 Y-52.24 E25.59694
G1 X40.21 Y-51.965 E25.6251
G1 X40.721 Y-51.537 E25.65985
G1 X40.865 Y-51.392 E25.67051
G1 X41.217 Y-50.981 E25.69872
G1 X41.504 Y-50.523 E25.7269
G1 X41.721 Y-50.028 E25.75508
G1 X41.862 Y-49.506 E25.78327
G1 X41.926 Y-48.943 E25.81281
G1 X41.938 Y-48.423 E25.83993
G1 X41.939 Y47.883 E30.86086
G1 X41.929 Y48.605 E30.89851
G1 X41.881 Y49.143 E30.92667
G1 X41.755 Y49.669 E30.95487
G1 X41.553 Y50.171 E30.98308
G1 X41.279 Y50.637 E31.01126
G1 X40.939 Y51.057 E31.03944
G1 X40.474 Y51.475 E31.07203
G1 X40.368 Y51.555 E31.07896
G1 X39.913 Y51.848 E31.10717
G1 X39.421 Y52.071 E31.13533
G1 X38.9 Y52.219 E31.16357
G1 X38.364 Y52.288 E31.19175
G1 X37.824 Y52.278 E31.2199
G1 X37.29 Y52.188 E31.24814
G1 X36.776 Y52.021 E31.27631
G1 X36.375 Y51.827 E31.29954
G1 X35.758 Y51.482 E31.33639
G1 X-41.687 Y6.77 E35.99861
G0 F1800 X-41.462 Y6.392
G1 F600 X-42.177 Y5.964 E36.04205
G1 X-42.472 Y5.776 E36.06029
G1 X-44.075 Y4.684 E36.16141
G1 X-44.619 Y4.301 E36.1961
G1 X-44.911 Y4.068 E36.21557
G1 X-45.654 Y3.403 E36.26756
G1 X-46.596 Y2.53 E36.33452
G1 X-47.069 Y2.078 E36.36863
G1 X-47.327 Y1.801 E36.38836
G1 X-48.144 Y0.81 E36.45532
G1 X-48.794 Y-0.005 E36.50967
G1 X-49.193 Y-.519 E36.54359
G1 X-49.408 Y-.833 E36.56343
G1 X-49.958 Y-1.748 E36.61909
G1 X-50.589 Y-2.84 E36.68485
G1 X-50.902 Y-3.399 E36.71825
G1 X-51.068 Y-3.743 E36.73816
G1 X-51.453 Y-4.676 E36.79078
G1 X-51.924 Y-5.88 E36.85818
G1 X-52.156 Y-6.496 E36.8925
G1 X-52.269 Y-6.86 E36.91237
G1 X-52.519 Y-7.876 E36.96692
G1 X-52.796 Y-9.092 E37.03194
G1 X-52.935 Y-9.74 E37.06649
G1 X-52.993 Y-10.119 E37.08648
G1 X-53.09 Y-11.168 E37.14141
G1 X-53.183 Y-12.407 E37.20618
G1 X-53.233 Y-13.247 E37.25006
G1 X-53.243 Y-13.793 E37.27853
G1 X-53.243 Y-27.098 E37.97219
G1 X-53.233 Y-27.804 E38.009
G1 X-53.188 Y-28.573 E38.04916
G1 X-53.104 Y-29.605 E38.10314
G1 X-53.033 Y-30.346 E38.14195
G1 X-52.943 Y-30.871 E38.16972
G1 X-52.771 Y-31.587 E38.20811
G1 X-52.584 Y-32.351 E38.24912
G1 X-52.397 Y-33.064 E38.28755
G1 X-52.217 Y-33.587 E38.31638
G1 X-52.071 Y-33.941 E38.33635
G1 X-51.619 Y-35.001 E38.39642
G1 X-51.341 Y-35.628 E38.43218
G1 X-51.033 Y-36.193 E38.46573
G1 X-50.872 Y-36.454 E38.48172
G1 X-50.267 Y-37.41 E38.5407
G1 X-49.87 Y-38.019 E38.5786
G1 X-49.536 Y-38.458 E38.60736
G1 X-49.455 Y-38.553 E38.61387
G1 X-48.486 Y-39.648 E38.6901
G1 X-48.046 Y-40.13 E38.72413
G1 X-47.661 Y-40.494 E38.75175
G1 X-47.302 Y-40.794 E38.77614
G1 X-46.472 Y-41.47 E38.83195
G1 X-45.885 Y-41.934 E38.87096
G1 X-45.41 Y-42.253 E38.90079
G1 X-45.134 Y-42.417 E38.91753
G1 X-44.07 Y-43.031 E38.98157
G1 X-43.511 Y-43.344 E39.01497
G1 X-42.973 Y-43.591 E39.04584
G1 X-42.604 Y-43.736 E39.06651
G1 X-41.592 Y-44.119 E39.12292
G1 X-40.907 Y-44.368 E39.16092
G1 X-40.379 Y-44.515 E39.18949
G1 X-39.551 Y-44.691 E39.23363
G1 X-38.928 Y-44.818 E39.26678
G1 X-38.185 Y-44.96 E39.30621
G1 X-37.621 Y-45.021 E39.33579
G1 X-36.851 Y-45.058 E39.37598
G1 X-36.124 Y-45.088 E39.41391
G1 X-35.392 Y-45.108 E39.45209
G1 X-34.861 Y-45.082 E39.47981
G1 X-34.184 Y-45.006 E39.51533
G1 X-33.323 Y-44.902 E39.56054
G1 X-32.604 Y-44.804 E39.59837
G1 X-32.339 Y-44.756 E39.61241
G1 X-31.281 Y-44.52 E39.66893
G1 X-30.869 Y-44.422 E39.69101
G1 X-28.163 Y-43.855 E39.83515
G1 X-25.501 Y-43.376 E39.97616
G1 X-22.76 Y-42.961 E40.12069
G1 X-20.075 Y-42.633 E40.26172
G1 X-17.326 Y-42.375 E40.40567
G1 X-14.618 Y-42.199 E40.54715
G1 X-11.868 Y-42.098 E40.69061
G1 X-9.115 Y-42.074 E40.83415
G1 X-6.4 Y-42.127 E40.97572
G1 X-3.687 Y-42.258 E41.11733
G1 X-.904 Y-42.471 E41.26285
G1 X1.759 Y-42.75 E41.40244
G1 X4.525 Y-43.12 E41.54793
G1 X7.184 Y-43.553 E41.68839
G1 X9.901 Y-44.073 E41.83261
G1 X12.557 Y-44.661 E41.97443
G1 X15.198 Y-45.323 E42.11638
G1 X17.86 Y-46.072 E42.26056
G1 X20.473 Y-46.888 E42.40327
G1 X23.05 Y-47.773 E42.54533
G1 X25.63 Y-48.741 E42.68899
G1 X28.147 Y-49.769 E42.83074
G1 X30.671 Y-50.883 E42.97458
G1 X32.487 Y-51.746 E43.0794
G1 X32.788 Y-51.884 E43.09666
G1 X33.264 Y-52.058 E43.12309
G1 X33.762 Y-52.156 E43.14955
G1 X34.339 Y-52.185 E43.17967
G1 X34.625 Y-52.187 E43.19458
G1 X37.51 Y-52.188 E43.34499
G1 X38.173 Y-52.178 E43.37956
G1 X38.677 Y-52.13 E43.40595
G1 X39.169 Y-52.004 E43.43243
G1 X39.634 Y-51.802 E43.45886
G1 X40.062 Y-51.53 E43.4853
G1 X40.553 Y-51.082 E43.51996
G1 X40.881 Y-50.695 E43.5464
G1 X41.144 Y-50.262 E43.57282
G1 X41.336 Y-49.792 E43.59929
G1 X41.451 Y-49.298 E43.62573
G1 X41.493 Y-48.73 E43.65542
G1 X41.498 Y-48.377 E43.67383
G1 X41.499 Y47.877 E48.69206
G1 X41.489 Y48.599 E48.7297
G1 X41.442 Y49.104 E48.75614
G1 X41.316 Y49.595 E48.78257
G1 X41.115 Y50.06 E48.80898
G1 X40.843 Y50.489 E48.83546
G1 X40.507 Y50.869 E48.86191
G1 X40.103 Y51.204 E48.88927
G1 X39.675 Y51.477 E48.91574
G1 X39.21 Y51.679 E48.94217
G1 X38.719 Y51.806 E48.96861
G1 X38.214 Y51.854 E48.99506
G1 X37.708 Y51.822 E49.02149
G1 X37.213 Y51.711 E49.04794
G1 X36.59 Y51.443 E49.0833
G1 X35.978 Y51.101 E49.11985
G1 X-41.462 Y6.392 E53.78176
G1 F2400 E51.78176
;MESH:Kitchen_Roll_Holder_right.STL
G0 F1800 X-40.753 Y3.851
G0 X-40.083 Y2.688
G0 X-42.12 Y0.788
;TYPE:WALL-INNER
G1 F2400 E53.78176
G1 F600 X-44.105 Y-1.053 E53.9229
G1 X-45.787 Y-3.162 E54.06354
G1 X-47.132 Y-5.49 E54.20371
G1 X-48.119 Y-8.008 E54.34472
G1 X-48.717 Y-10.633 E54.48508
G1 X-48.923 Y-13.363 E54.62781
G1 X-48.923 Y-27.707 E55.37564
G1 X-48.751 Y-29.852 E55.48783
G1 X-48.25 Y-31.887 E55.59709
G1 X-47.424 Y-33.823 E55.70683
G1 X-46.301 Y-35.603 E55.81655
G1 X-44.913 Y-37.169 E55.92565
G1 X-43.284 Y-38.498 E56.03526
G1 X-41.466 Y-39.548 E56.14471
G1 X-39.509 Y-40.29 E56.25383
G1 X-37.45 Y-40.71 E56.36339
G1 X-35.345 Y-40.796 E56.47322
G1 X-33.267 Y-40.543 E56.58236
G1 X-31.241 Y-39.957 E56.69231
G1 X-29.306 Y-39.04 E56.80395
G1 X17.189 Y-12.195 E59.60301
G1 X17.446 Y-12.071 E59.61788
G1 X18.891 Y-11.387 E59.70123
G1 X20.738 Y-10.851 E59.8015
G1 X22.645 Y-10.62 E59.90165
G1 X22.974 Y-10.631 E59.91881
G1 X24.569 Y-10.698 E60.00204
G1 X26.454 Y-11.082 E60.10233
G1 X28.251 Y-11.763 E60.20252
G1 X29.917 Y-12.726 E60.30285
G1 X31.408 Y-13.944 E60.40322
G1 X32.682 Y-15.383 E60.50342
G1 X33.711 Y-17.008 E60.6037
G1 X34.465 Y-18.778 E60.704
G1 X34.924 Y-20.642 E60.80408
G1 X34.953 Y-20.971 E60.8213
G1 X35.077 Y-22.519 E60.90227
G1 X35.077 Y-47.867 E62.22379
G1 X36.958 Y-47.868 E62.32186
G1 X37.178 Y-47.868 E62.33333
G1 X37.178 Y-47.648 E62.34074
G1 X37.179 Y46.807 E67.26518
G1 X23.242 Y38.761 E68.10418
G1 X23.163 Y38.715 E68.10895
G1 X23.052 Y38.651 E68.11563
G1 X-39.862 Y2.329 E71.90305
G1 X-42.12 Y0.788 E72.04558
G0 F1800 X-31.506 Y3.516
G0 X-28.374 Y3.782
G0 X-25.238 Y3.516
G0 X-22.773 Y2.875
G0 X-19.13 Y1.776
G1 F600 X-16.466 Y-0.022 E72.21314
G1 X-14.145 Y-2.248 E72.3808
G1 X-12.233 Y-4.831 E72.54835
G1 X-10.787 Y-7.701 E72.71589
G1 X-10.631 Y-8.202 E72.74325
G1 X-9.844 Y-10.777 E72.88363
G1 X-9.437 Y-13.965 E73.05118
G1 X-9.573 Y-17.175 E73.21869
G1 X-10.249 Y-20.318 E73.3863
G1 X-11.448 Y-23.3 E73.55386
G1 X-11.722 Y-23.749 E73.58128
G1 X-13.133 Y-26.039 E73.72152
G1 X-15.257 Y-28.452 E73.88911
G1 X-17.76 Y-30.472 E74.0568
G1 X-20.567 Y-32.04 E74.22443
G1 X-23.598 Y-33.11 E74.39201
G1 X-26.766 Y-33.654 E74.55959
G1 X-29.979 Y-33.654 E74.7271
G1 X-33.147 Y-33.11 E74.89468
G1 X-36.178 Y-32.04 E75.06226
G1 X-38.985 Y-30.471 E75.22992
G1 X-41.487 Y-28.452 E75.39753
G1 X-43.611 Y-26.039 E75.56513
G1 X-45.295 Y-23.302 E75.73267
G1 X-46.495 Y-20.318 E75.90035
G1 X-47.172 Y-17.178 E76.06782
G1 X-47.197 Y-16.654 E76.09517
G1 X-47.308 Y-13.965 E76.23548
G1 X-46.9 Y-10.776 E76.40309
G1 X-45.958 Y-7.702 E76.57071
G1 X-44.511 Y-4.832 E76.73828
G1 X-42.6 Y-2.248 E76.90584
G1 X-40.278 Y-0.022 E77.07354
G1 X-37.615 Y1.777 E77.24109
G1 X-34.686 Y3.101 E77.40867
G1 X-31.575 Y3.912 E77.57628
G1 X-28.375 Y4.183 E77.74371
G1 X-27.851 Y4.142 E77.77111
G1 X-25.169 Y3.912 E77.91145
G1 X-22.061 Y3.103 E78.07889
