;FLAVOR:Marlin
;TIME:2563
;Filament used: 2.32725m
;Layer height: 0.25
;MINX:142.733
;MINY:25.76
;MINZ:0.3
;MAXX:208.453
;MAXY:91.465
;MAXZ:20.05
;Generated with Cura_SteamEngine 4.10.0
M104 S228
M105
M109 S228
M82 ;absolute extrusion mode
G28 ; home all axes
 M117 Purge extruder
 G92 E0 ; reset extruder
 G1 Z1.0 F3000 ; move z up little to prevent scratching of surface
 G1 X2 Y20 Z0.3 F5000.0 ; move to start-line position
 G1 X2 Y200.0 Z0.3 F1500.0 E15 ; draw 1st line
 G1 X2 Y200.0 Z0.4 F5000.0 ; move to side a little
 G1 X2 Y20 Z0.4 F1500.0 E30 ; draw 2nd line
 G92 E0 ; reset extruder
 G1 Z1.0 F3000 ; move z up little to prevent scratching of surface
G92 E0
G92 E0
G1 F2400 E-1.6
;LAYER_COUNT:80
;LAYER:0
M106 S165.8
G0 F6000 X144.607 Y47.724 Z0.3
;TYPE:SKIRT
G1 F2400 E0
G1 F900 X144.845 Y47.036 E0.04624
G1 X145.083 Y46.411 E0.08872
G1 X145.206 Y46.122 E0.10866
G1 X145.446 Y45.578 E0.14643
G1 X145.954 Y44.462 E0.22431
G1 X146.263 Y43.807 E0.27031
G1 X146.511 Y43.315 E0.3053
G1 X146.72 Y42.937 E0.33274
G1 X147.032 Y42.399 E0.37224
G1 X147.624 Y41.395 E0.44627
G1 X148 Y40.777 E0.49221
G1 X148.462 Y40.081 E0.54527
G1 X148.87 Y39.516 E0.58953
G1 X149.611 Y38.521 E0.66833
G1 X150.036 Y37.966 E0.71273
G1 X150.448 Y37.461 E0.75412
G1 X150.72 Y37.15 E0.78037
G1 X151.062 Y36.774 E0.81265
G1 X151.861 Y35.911 E0.88735
G1 X152.39 Y35.355 E0.93609
G1 X152.802 Y34.944 E0.97305
G1 X152.942 Y34.812 E0.98527
G1 X153.156 Y34.616 E1.0037
G1 X153.506 Y34.304 E1.03348
G1 X154.424 Y33.502 E1.11091
G1 X154.979 Y33.03 E1.15718
G1 X155.427 Y32.669 E1.19372
G1 X155.759 Y32.422 E1.22001
G1 X156.247 Y32.072 E1.25815
G1 X157.09 Y31.479 E1.32361
G1 X157.852 Y30.96 E1.38217
G1 X158.365 Y30.632 E1.42084
G1 X158.666 Y30.454 E1.44305
G1 X159.127 Y30.193 E1.4767
G1 X160.251 Y29.572 E1.55826
G1 X160.841 Y29.256 E1.60077
G1 X161.385 Y28.984 E1.6394
G1 X161.583 Y28.892 E1.65327
G1 X161.819 Y28.786 E1.6697
G1 X162.194 Y28.623 E1.69567
G1 X163.363 Y28.131 E1.77623
G1 X164.052 Y27.851 E1.82346
G1 X164.698 Y27.612 E1.86721
G1 X164.982 Y27.519 E1.88619
G1 X165.583 Y27.332 E1.92617
G1 X166.681 Y27.002 E1.99899
G1 X167.384 Y26.8 E2.04545
G1 X168.242 Y26.591 E2.10154
G1 X169.022 Y26.436 E2.15205
G1 X170.121 Y26.228 E2.22309
G1 X170.787 Y26.111 E2.26604
G1 X171.43 Y26.018 E2.3073
G1 X171.812 Y25.976 E2.33171
G1 X172.324 Y25.93 E2.36436
G1 X173.625 Y25.827 E2.44725
G1 X174.319 Y25.782 E2.49142
G1 X174.942 Y25.76 E2.53102
G1 X175.325 Y25.76 E2.55534
G1 X175.851 Y25.769 E2.58875
G1 X177.094 Y25.803 E2.66773
G1 X177.786 Y25.831 E2.71172
G1 X178.403 Y25.874 E2.751
G1 X178.876 Y25.924 E2.78121
G1 X179.293 Y25.976 E2.8079
G1 X180.424 Y26.127 E2.88038
G1 X181.271 Y26.253 E2.93476
G1 X181.819 Y26.349 E2.9701
G1 X182.031 Y26.392 E2.98384
G1 X182.325 Y26.456 E3.00295
G1 X182.711 Y26.546 E3.02812
G1 X184.055 Y26.876 E3.11602
G1 X184.685 Y27.04 E3.15737
G1 X185.294 Y27.218 E3.19767
G1 X185.648 Y27.335 E3.22135
G1 X186.185 Y27.522 E3.25746
G1 X187.306 Y27.928 E3.33319
G1 X187.973 Y28.179 E3.37845
G1 X188.53 Y28.407 E3.41668
G1 X188.702 Y28.483 E3.42862
G1 X188.969 Y28.605 E3.44727
G1 X189.392 Y28.806 E3.47701
G1 X190.354 Y29.273 E3.54493
G1 X191.132 Y29.663 E3.60021
G1 X191.75 Y29.999 E3.64489
G1 X192.053 Y30.178 E3.66724
G1 X192.447 Y30.419 E3.69657
G1 X193.452 Y31.048 E3.77188
G1 X194.157 Y31.504 E3.8252
G1 X194.625 Y31.825 E3.86125
G1 X194.775 Y31.934 E3.87303
G1 X195.009 Y32.109 E3.89159
G1 X195.32 Y32.349 E3.91654
G1 X196.358 Y33.164 E4.00036
G1 X196.914 Y33.613 E4.04575
G1 X197.373 Y34.006 E4.08413
G1 X197.673 Y34.282 E4.11002
G1 X198.078 Y34.669 E4.1456
G1 X198.956 Y35.526 E4.22352
G1 X199.45 Y36.022 E4.26799
G1 X199.84 Y36.434 E4.30402
G1 X199.969 Y36.578 E4.3163
G1 X200.164 Y36.802 E4.33516
G1 X200.468 Y37.163 E4.36514
G1 X201.265 Y38.126 E4.44453
G1 X201.696 Y38.66 E4.48812
G1 X201.999 Y39.054 E4.51969
G1 X202.109 Y39.204 E4.5315
G1 X202.336 Y39.526 E4.55652
G1 X202.596 Y39.91 E4.58598
G1 X203.289 Y40.958 E4.66578
G1 X203.682 Y41.569 E4.71192
G1 X203.974 Y42.049 E4.7476
G1 X204.046 Y42.175 E4.75682
G1 X204.195 Y42.446 E4.77646
G1 X204.47 Y42.962 E4.8136
G1 X204.936 Y43.858 E4.87775
G1 X205.343 Y44.669 E4.93538
G1 X205.584 Y45.183 E4.97143
G1 X205.649 Y45.332 E4.98176
G1 X205.766 Y45.611 E5.00098
G1 X205.941 Y46.047 E5.03081
G1 X206.42 Y47.273 E5.11442
G1 X206.649 Y47.885 E5.15592
G1 X206.844 Y48.454 E5.19412
G1 X206.977 Y48.891 E5.22313
G1 X207.115 Y49.38 E5.25541
G1 X207.442 Y50.587 E5.33483
G1 X207.614 Y51.255 E5.37864
G1 X207.749 Y51.848 E5.41727
G1 X207.831 Y52.276 E5.44495
G1 X207.913 Y52.754 E5.47575
G1 X208.096 Y53.887 E5.54865
G1 X208.216 Y54.701 E5.60091
G1 X208.283 Y55.259 E5.6366
G1 X208.32 Y55.699 E5.66465
G1 X208.354 Y56.234 E5.69869
G1 X208.419 Y57.48 E5.77794
G1 X208.447 Y58.191 E5.82313
G1 X208.453 Y58.83 E5.86372
G1 X208.442 Y59.214 E5.88812
G1 X208.418 Y59.77 E5.92347
G1 X208.353 Y61.002 E6.00183
G1 X208.308 Y61.669 E6.04429
G1 X208.255 Y62.229 E6.08001
G1 X208.194 Y62.702 E6.1103
G1 X208.113 Y63.233 E6.14442
G1 X207.913 Y64.465 E6.22369
G1 X207.8 Y65.116 E6.26566
G1 X207.658 Y65.802 E6.31015
G1 X207.562 Y66.188 E6.33542
G1 X207.439 Y66.656 E6.36615
G1 X207.121 Y67.82 E6.44279
G1 X206.907 Y68.56 E6.49172
G1 X206.744 Y69.075 E6.52603
G1 X206.693 Y69.223 E6.53597
G1 X206.585 Y69.523 E6.55622
G1 X206.438 Y69.909 E6.58246
G1 X205.948 Y71.156 E6.66755
G1 X205.684 Y71.805 E6.71205
G1 X205.462 Y72.312 E6.74721
G1 X205.403 Y72.438 E6.75604
G1 X205.255 Y72.742 E6.77752
G1 X204.996 Y73.252 E6.81385
G1 X204.461 Y74.277 E6.88729
G1 X204.124 Y74.906 E6.93261
G1 X203.793 Y75.48 E6.97469
G1 X203.57 Y75.836 E7.00137
G1 X203.3 Y76.252 E7.03287
G1 X202.626 Y77.266 E7.11021
G1 X202.221 Y77.859 E7.15582
G1 X201.861 Y78.355 E7.19474
G1 X201.596 Y78.694 E7.22207
G1 X201.266 Y79.1 E7.2553
G1 X200.475 Y80.053 E7.33396
G1 X200.004 Y80.605 E7.38005
G1 X199.636 Y81.015 E7.41504
G1 X199.548 Y81.108 E7.42318
G1 X199.3 Y81.361 E7.44568
G1 X198.965 Y81.692 E7.47559
G1 X198.064 Y82.568 E7.5554
G1 X197.554 Y83.051 E7.60002
G1 X197.074 Y83.48 E7.64091
G1 X196.784 Y83.719 E7.66478
G1 X196.234 Y84.158 E7.70947
G1 X195.467 Y84.76 E7.7714
G1 X194.824 Y85.251 E7.82278
G1 X194.353 Y85.591 E7.85968
G1 X194.212 Y85.687 E7.87051
G1 X193.947 Y85.862 E7.89068
G1 X193.59 Y86.089 E7.91755
G1 X192.472 Y86.789 E8.00133
G1 X191.909 Y87.132 E8.04321
G1 X191.306 Y87.473 E8.0872
G1 X190.991 Y87.636 E8.10973
G1 X190.493 Y87.883 E8.14504
G1 X189.442 Y88.393 E8.21924
G1 X188.753 Y88.716 E8.26757
G1 X188.195 Y88.959 E8.30622
G1 X187.803 Y89.113 E8.33297
G1 X187.316 Y89.295 E8.36599
G1 X186.174 Y89.705 E8.44306
G1 X185.49 Y89.942 E8.48904
G1 X184.846 Y90.143 E8.53189
G1 X184.491 Y90.239 E8.55524
G1 X184.041 Y90.354 E8.58474
G1 X182.735 Y90.673 E8.67013
G1 X182.106 Y90.817 E8.71112
G1 X181.476 Y90.941 E8.7519
G1 X181.054 Y91.01 E8.77906
G1 X180.619 Y91.072 E8.80697
G1 X179.284 Y91.25 E8.89251
G1 X178.591 Y91.331 E8.93682
G1 X177.983 Y91.384 E8.97558
G1 X177.594 Y91.405 E9.00033
G1 X177.131 Y91.422 E9.02975
G1 X175.832 Y91.456 E9.11229
G1 X175.156 Y91.465 E9.15523
G1 X174.613 Y91.459 E9.18972
G1 X174.506 Y91.455 E9.19652
G1 X174.11 Y91.432 E9.22171
G1 X173.252 Y91.368 E9.27636
G1 X172.358 Y91.297 E9.33332
G1 X171.653 Y91.231 E9.37829
G1 X171.087 Y91.163 E9.4145
G1 X170.711 Y91.103 E9.43868
G1 X169.963 Y90.969 E9.48695
G1 X168.936 Y90.774 E9.55334
G1 X168.196 Y90.624 E9.6013
G1 X167.598 Y90.485 E9.64029
G1 X167.263 Y90.393 E9.66236
G1 X166.6 Y90.2 E9.70622
G1 X165.516 Y89.872 E9.77815
G1 X164.864 Y89.666 E9.82158
G1 X164.316 Y89.476 E9.85842
G1 X163.888 Y89.311 E9.88755
G1 X163.411 Y89.116 E9.92028
G1 X162.201 Y88.604 E10.00373
G1 X161.572 Y88.326 E10.04741
G1 X161.064 Y88.085 E10.08312
G1 X160.904 Y88.004 E10.09451
G1 X160.646 Y87.869 E10.11301
G1 X160.268 Y87.664 E10.14032
G1 X159.136 Y87.036 E10.22254
G1 X158.526 Y86.687 E10.26717
G1 X158.043 Y86.393 E10.30309
G1 X157.908 Y86.306 E10.31329
G1 X157.631 Y86.121 E10.33445
G1 X157.249 Y85.858 E10.3639
G1 X156.361 Y85.235 E10.4328
G1 X155.634 Y84.71 E10.48976
G1 X155.111 Y84.307 E10.53169
G1 X154.825 Y84.069 E10.55532
G1 X154.401 Y83.705 E10.59082
G1 X153.651 Y83.049 E10.6541
G1 X152.974 Y82.441 E10.7119
G1 X152.489 Y81.977 E10.75453
G1 X152.222 Y81.702 E10.77887
G1 X151.923 Y81.384 E10.8066
G1 X151.022 Y80.408 E10.89096
G1 X150.53 Y79.856 E10.93793
G1 X150.162 Y79.42 E10.97416
G1 X149.884 Y79.067 E11.0027
G1 X149.648 Y78.755 E11.02755
G1 X148.876 Y77.715 E11.10981
G1 X148.452 Y77.128 E11.15581
G1 X148.081 Y76.579 E11.19789
G1 X147.903 Y76.294 E11.21923
G1 X147.569 Y75.738 E11.26043
G1 X146.976 Y74.731 E11.33465
G1 X146.64 Y74.143 E11.37767
G1 X146.36 Y73.618 E11.41546
G1 X146.185 Y73.261 E11.44071
G1 X145.907 Y72.663 E11.48259
G1 X145.455 Y71.663 E11.5523
G1 X145.145 Y70.953 E11.6015
G1 X144.919 Y70.393 E11.63986
G1 X144.794 Y70.046 E11.66328
G1 X144.603 Y69.489 E11.70068
G1 X144.223 Y68.334 E11.77791
G1 X144.012 Y67.668 E11.82228
G1 X143.826 Y67.01 E11.86571
G1 X143.752 Y66.706 E11.88558
G1 X143.623 Y66.138 E11.92258
G1 X143.365 Y64.944 E12.00017
G1 X143.224 Y64.24 E12.04577
G1 X143.126 Y63.674 E12.08225
G1 X143.07 Y63.262 E12.10866
G1 X143.003 Y62.686 E12.14549
G1 X142.872 Y61.447 E12.22462
G1 X142.81 Y60.769 E12.26787
G1 X142.779 Y60.356 E12.29417
G1 X142.763 Y60.055 E12.31332
G1 X142.749 Y59.691 E12.33645
G1 X142.742 Y59.412 E12.35418
G1 X142.733 Y58.689 E12.4001
G1 X142.733 Y58.386 E12.41935
G1 X142.741 Y57.881 E12.45143
G1 X142.749 Y57.623 E12.46782
G1 X142.774 Y56.997 E12.50761
G1 X142.797 Y56.603 E12.53268
G1 X142.821 Y56.312 E12.55122
G1 X142.881 Y55.684 E12.59129
G1 X143.006 Y54.522 E12.66552
G1 X143.091 Y53.817 E12.71062
G1 X143.18 Y53.219 E12.74902
G1 X143.216 Y53.017 E12.76206
G1 X143.267 Y52.751 E12.77926
G1 X143.356 Y52.321 E12.80715
G1 X143.626 Y51.075 E12.88812
G1 X143.796 Y50.347 E12.93561
G1 X143.947 Y49.773 E12.9733
G1 X144.092 Y49.288 E13.00546
G1 X144.215 Y48.906 E13.03094
G1 X144.607 Y47.724 E13.11004
G0 F6000 X145.061 Y47.881
G1 F900 X145.299 Y47.193 E13.15628
G1 X145.526 Y46.596 E13.19684
G1 X145.646 Y46.315 E13.21625
G1 X145.884 Y45.776 E13.25367
G1 X146.388 Y44.667 E13.33104
G1 X146.697 Y44.012 E13.37704
G1 X146.934 Y43.542 E13.41048
G1 X147.135 Y43.178 E13.43688
G1 X147.446 Y42.642 E13.47624
G1 X148.034 Y41.645 E13.54976
G1 X148.41 Y41.027 E13.59571
G1 X148.851 Y40.361 E13.64644
G1 X149.255 Y39.803 E13.69019
G1 X149.992 Y38.813 E13.76858
G1 X150.417 Y38.258 E13.81298
G1 X150.811 Y37.775 E13.85257
G1 X151.076 Y37.472 E13.87814
G1 X151.414 Y37.099 E13.91011
G1 X152.105 Y36.351 E13.97479
G1 X152.737 Y35.686 E14.03306
G1 X153.131 Y35.293 E14.0684
G1 X153.271 Y35.161 E14.08062
G1 X153.475 Y34.974 E14.0982
G1 X153.823 Y34.665 E14.12776
G1 X154.735 Y33.867 E14.20473
G1 X155.29 Y33.395 E14.251
G1 X155.718 Y33.051 E14.28588
G1 X156.039 Y32.812 E14.3113
G1 X156.523 Y32.465 E14.34912
G1 X157.366 Y31.872 E14.41458
G1 X158.122 Y31.357 E14.47268
G1 X158.612 Y31.043 E14.50965
G1 X158.903 Y30.871 E14.53112
G1 X159.359 Y30.613 E14.56439
G1 X160.477 Y29.995 E14.64553
G1 X161.067 Y29.679 E14.68804
G1 X161.587 Y29.42 E14.72494
G1 X162.011 Y29.226 E14.75455
G1 X162.381 Y29.065 E14.78018
G1 X163.544 Y28.575 E14.86034
G1 X164.233 Y28.295 E14.90757
G1 X164.85 Y28.067 E14.94935
G1 X165.126 Y27.977 E14.96779
G1 X165.722 Y27.792 E15.00743
G1 X166.813 Y27.463 E15.0798
G1 X167.516 Y27.261 E15.12626
G1 X168.336 Y27.062 E15.17985
G1 X169.111 Y26.907 E15.23005
G1 X170.204 Y26.7 E15.30071
G1 X170.87 Y26.583 E15.34365
G1 X171.484 Y26.495 E15.38305
G1 X171.857 Y26.454 E15.40688
G1 X172.362 Y26.408 E15.43909
G1 X173.656 Y26.306 E15.52153
G1 X174.35 Y26.261 E15.56571
G1 X174.946 Y26.24 E15.60358
G1 X175.318 Y26.24 E15.62721
G1 X175.838 Y26.249 E15.66024
G1 X177.075 Y26.282 E15.73884
G1 X177.767 Y26.31 E15.78283
G1 X178.356 Y26.351 E15.82033
G1 X178.549 Y26.37 E15.83264
G1 X178.816 Y26.4 E15.84971
G1 X179.229 Y26.452 E15.87615
G1 X180.517 Y26.625 E15.95869
G1 X181.2 Y26.727 E16.00255
G1 X181.724 Y26.819 E16.03634
G1 X181.936 Y26.862 E16.05008
G1 X182.216 Y26.923 E16.06828
G1 X182.597 Y27.013 E16.09314
G1 X183.934 Y27.34 E16.18057
G1 X184.564 Y27.504 E16.22191
G1 X185.146 Y27.674 E16.26042
G1 X185.491 Y27.788 E16.2835
G1 X186.022 Y27.973 E16.31922
G1 X187.137 Y28.377 E16.39454
G1 X187.804 Y28.628 E16.4398
G1 X188.336 Y28.846 E16.47632
G1 X188.508 Y28.922 E16.48826
G1 X188.763 Y29.039 E16.50608
G1 X189.182 Y29.238 E16.53554
G1 X190.263 Y29.764 E16.6119
G1 X190.917 Y30.092 E16.65837
G1 X191.508 Y30.413 E16.70109
G1 X191.803 Y30.588 E16.72287
G1 X192.193 Y30.826 E16.75189
G1 X193.338 Y31.544 E16.83773
G1 X193.896 Y31.906 E16.87998
G1 X194.343 Y32.213 E16.91442
G1 X194.493 Y32.322 E16.92619
G1 X194.716 Y32.49 E16.94393
G1 X195.024 Y32.727 E16.96861
G1 X196.057 Y33.537 E17.05199
G1 X196.613 Y33.986 E17.09738
G1 X197.051 Y34.362 E17.13404
G1 X197.342 Y34.629 E17.15912
G1 X197.743 Y35.013 E17.19439
G1 X198.616 Y35.865 E17.27187
G1 X199.11 Y36.361 E17.31633
G1 X199.482 Y36.754 E17.3507
G1 X199.611 Y36.898 E17.36298
G1 X199.798 Y37.113 E17.38108
G1 X200.099 Y37.469 E17.41069
G1 X200.891 Y38.428 E17.48968
G1 X201.322 Y38.962 E17.53327
G1 X201.612 Y39.337 E17.56338
G1 X201.722 Y39.487 E17.57519
G1 X201.939 Y39.795 E17.59912
G1 X202.196 Y40.175 E17.62826
G1 X202.809 Y41.1 E17.69874
G1 X203.278 Y41.829 E17.7538
G1 X203.557 Y42.288 E17.78791
G1 X203.629 Y42.414 E17.79713
G1 X203.771 Y42.672 E17.81583
G1 X204.044 Y43.183 E17.85263
G1 X204.581 Y44.219 E17.92675
G1 X204.914 Y44.884 E17.97398
G1 X205.144 Y45.375 E18.00842
G1 X205.209 Y45.524 E18.01874
G1 X205.321 Y45.791 E18.03713
G1 X205.494 Y46.223 E18.06669
G1 X205.971 Y47.441 E18.14977
G1 X206.2 Y48.053 E18.19127
G1 X206.386 Y48.597 E18.22779
G1 X206.515 Y49.022 E18.256
G1 X206.652 Y49.506 E18.28795
G1 X206.978 Y50.707 E18.36699
G1 X207.15 Y51.375 E18.4108
G1 X207.278 Y51.942 E18.44772
G1 X207.358 Y52.358 E18.47463
G1 X207.439 Y52.83 E18.50504
G1 X207.644 Y54.109 E18.58731
G1 X207.741 Y54.77 E18.62975
G1 X207.806 Y55.303 E18.66385
G1 X207.819 Y55.442 E18.67272
G1 X207.841 Y55.73 E18.69106
G1 X207.875 Y56.259 E18.72473
G1 X207.939 Y57.499 E18.80359
G1 X207.967 Y58.21 E18.84879
G1 X207.973 Y58.821 E18.8876
G1 X207.963 Y59.194 E18.9113
G1 X207.939 Y59.745 E18.94633
G1 X207.874 Y60.969 E19.02418
G1 X207.829 Y61.636 E19.06664
G1 X207.778 Y62.172 E19.10083
G1 X207.719 Y62.631 E19.13023
G1 X207.639 Y63.156 E19.16396
G1 X207.44 Y64.383 E19.24291
G1 X207.327 Y65.034 E19.28487
G1 X207.191 Y65.689 E19.32736
G1 X207.098 Y66.066 E19.35202
G1 X206.976 Y66.53 E19.3825
G1 X206.66 Y67.687 E19.45867
G1 X206.446 Y68.427 E19.5076
G1 X206.29 Y68.918 E19.54032
G1 X206.136 Y69.353 E19.56963
G1 X205.991 Y69.734 E19.59552
G1 X205.503 Y70.975 E19.68022
G1 X205.239 Y71.624 E19.72472
G1 X205.028 Y72.108 E19.75826
G1 X204.969 Y72.234 E19.76709
G1 X204.827 Y72.525 E19.78766
G1 X204.57 Y73.03 E19.82365
G1 X204.038 Y74.05 E19.89671
G1 X203.701 Y74.679 E19.94204
G1 X203.385 Y75.227 E19.98222
G1 X203.167 Y75.575 E20.0083
G1 X202.9 Y75.986 E20.03943
G1 X202.23 Y76.995 E20.11635
G1 X201.825 Y77.588 E20.16196
G1 X201.481 Y78.062 E20.19916
G1 X201.223 Y78.392 E20.22577
G1 X200.897 Y78.794 E20.25864
G1 X200.11 Y79.742 E20.3369
G1 X199.639 Y80.294 E20.38298
G1 X199.287 Y80.685 E20.4164
G1 X199.199 Y80.778 E20.42453
G1 X198.962 Y81.02 E20.44605
G1 X198.63 Y81.348 E20.47569
G1 X197.734 Y82.22 E20.5551
G1 X197.224 Y82.703 E20.59971
G1 X196.765 Y83.112 E20.63876
G1 X196.485 Y83.344 E20.66185
G1 X195.937 Y83.78 E20.70633
G1 X195.061 Y84.467 E20.77704
G1 X194.533 Y84.87 E20.81923
G1 X194.083 Y85.194 E20.85445
G1 X193.942 Y85.29 E20.86528
G1 X193.688 Y85.458 E20.88462
G1 X193.335 Y85.683 E20.91121
G1 X192.223 Y86.379 E20.99453
G1 X191.66 Y86.722 E21.0364
G1 X191.083 Y87.048 E21.0785
G1 X190.776 Y87.207 E21.10046
G1 X190.283 Y87.452 E21.13542
G1 X189.239 Y87.959 E21.20914
G1 X188.55 Y88.282 E21.25747
G1 X188.016 Y88.514 E21.29445
G1 X187.635 Y88.664 E21.32045
G1 X187.153 Y88.844 E21.35313
G1 X186.017 Y89.252 E21.4298
G1 X185.333 Y89.489 E21.47577
G1 X184.717 Y89.68 E21.51674
G1 X184.371 Y89.774 E21.53951
G1 X183.927 Y89.888 E21.56862
