;FLAVOR:Marlin
;TIME:8528
;Filament used: 8.22403m
;Layer height: 0.25
;MINX:136.753
;MINY:59.383
;MINZ:0.3
;MAXX:246.494
;MAXY:178.416
;MAXZ:30.05
;Generated with Cura_SteamEngine 4.10.0
M104 S228
M105
M109 S228
M82 ;absolute extrusion mode
G28 ; home all axes
 M117 Purge extruder
 G92 E0 ; reset extruder
 G1 Z1.0 F3000 ; move z up little to prevent scratching of surface
 G1 X2 Y20 Z0.3 F5000.0 ; move to start-line position
 G1 X2 Y200.0 Z0.3 F1500.0 E15 ; draw 1st line
 G1 X2 Y200.0 Z0.4 F5000.0 ; move to side a little
 G1 X2 Y20 Z0.4 F1500.0 E30 ; draw 2nd line
 G92 E0 ; reset extruder
 G1 Z1.0 F3000 ; move z up little to prevent scratching of surface
G92 E0
G92 E0
G1 F2400 E-1.6
;LAYER_COUNT:120
;LAYER:0
M106 S165.8
G0 F6000 X139.872 Y79.288 Z0.3
;TYPE:SKIRT
G1 F2400 E0
G1 F900 X140.105 Y78.898 E0.02885
G1 X140.276 Y78.623 E0.04942
G1 X140.949 Y77.558 E0.12944
G1 X141.327 Y76.977 E0.17346
G1 X142.086 Y75.951 E0.25452
G1 X142.343 Y75.645 E0.2799
G1 X142.633 Y75.311 E0.308
G1 X143.462 Y74.376 E0.38736
G1 X143.904 Y73.892 E0.42899
G1 X144.767 Y73.048 E0.50566
G1 X145.12 Y72.742 E0.53533
G1 X145.393 Y72.515 E0.55788
G1 X146.419 Y71.679 E0.64194
G1 X146.945 Y71.263 E0.68454
G1 X147.939 Y70.565 E0.76168
G1 X148.285 Y70.352 E0.78749
G1 X148.68 Y70.119 E0.81662
G1 X149.766 Y69.495 E0.89617
G1 X150.34 Y69.175 E0.93791
G1 X151.43 Y68.645 E1.01489
G1 X151.842 Y68.476 E1.04317
G1 X152.241 Y68.32 E1.07038
G1 X153.325 Y67.91 E1.14399
G1 X154.023 Y67.656 E1.19117
G1 X155.184 Y67.307 E1.26817
G1 X155.585 Y67.214 E1.29431
G1 X156.284 Y67.066 E1.33969
G1 X157.158 Y66.888 E1.39635
G1 X157.899 Y66.746 E1.44427
G1 X159.188 Y66.579 E1.52682
G1 X159.481 Y66.561 E1.54546
G1 X160.385 Y66.517 E1.60295
G1 X161.167 Y66.486 E1.65266
G1 X161.899 Y66.466 E1.69917
G1 X163.082 Y66.499 E1.77433
G1 X163.472 Y66.536 E1.79921
G1 X164.21 Y66.619 E1.84638
G1 X165.186 Y66.738 E1.90883
G1 X165.905 Y66.836 E1.95492
G1 X166.788 Y66.994 E2.0119
G1 X167.798 Y67.219 E2.07762
G1 X168.283 Y67.334 E2.10928
G1 X170.722 Y67.845 E2.26755
G1 X173.265 Y68.303 E2.43167
G1 X175.721 Y68.674 E2.58943
G1 X178.245 Y68.983 E2.75093
G1 X180.759 Y69.218 E2.9113
G1 X183.253 Y69.381 E3.07005
G1 X185.791 Y69.474 E3.23135
G1 X188.335 Y69.496 E3.39294
G1 X190.833 Y69.447 E3.55163
G1 X193.372 Y69.325 E3.71308
G1 X195.913 Y69.13 E3.87494
G1 X198.391 Y68.87 E4.03319
G1 X200.883 Y68.537 E4.19288
G1 X203.385 Y68.13 E4.35388
G1 X205.869 Y67.655 E4.51451
G1 X208.324 Y67.111 E4.67422
G1 X210.796 Y66.491 E4.83609
G1 X213.215 Y65.81 E4.9957
G1 X215.625 Y65.058 E5.15605
G1 X218.004 Y64.24 E5.31583
G1 X220.393 Y63.344 E5.47789
G1 X222.716 Y62.396 E5.63724
G1 X225.026 Y61.376 E5.79763
G1 X226.857 Y60.507 E5.92636
G1 X227.158 Y60.369 E5.94739
G1 X228.016 Y60.02 E6.00622
G1 X228.9 Y59.746 E6.065
G1 X229.805 Y59.55 E6.12381
G1 X230.723 Y59.432 E6.1826
G1 X231.26 Y59.4 E6.21677
G1 X231.494 Y59.392 E6.23164
G1 X231.778 Y59.386 E6.24968
G1 X232.118 Y59.384 E6.27127
G1 X234.953 Y59.383 E6.45134
G1 X235.782 Y59.394 E6.504
G1 X236.706 Y59.448 E6.56278
G1 X237.622 Y59.582 E6.62158
G1 X238.523 Y59.794 E6.68037
G1 X239.403 Y60.083 E6.7392
G1 X240.254 Y60.446 E6.79796
G1 X241.071 Y60.882 E6.85678
G1 X241.847 Y61.387 E6.91558
G1 X242.577 Y61.957 E6.97441
G1 X243.226 Y62.559 E7.03063
G1 X243.37 Y62.704 E7.04361
G1 X243.994 Y63.389 E7.10247
G1 X244.556 Y64.124 E7.16123
G1 X245.052 Y64.906 E7.22005
G1 X245.479 Y65.727 E7.27882
G1 X245.834 Y66.582 E7.33762
G1 X246.114 Y67.465 E7.39646
G1 X246.316 Y68.369 E7.45529
G1 X246.44 Y69.286 E7.51406
G1 X246.477 Y69.877 E7.55167
G1 X246.49 Y70.32 E7.57982
G1 X246.494 Y70.694 E7.60358
G1 X246.494 Y167.051 E13.72362
G1 X246.484 Y167.773 E13.76948
G1 X246.431 Y168.698 E13.82833
G1 X246.299 Y169.614 E13.88711
G1 X246.088 Y170.516 E13.94594
G1 X245.8 Y171.396 E14.00475
G1 X245.437 Y172.247 E14.06352
G1 X245.002 Y173.065 E14.12236
G1 X244.498 Y173.842 E14.18118
G1 X243.929 Y174.572 E14.23997
G1 X243.3 Y175.25 E14.29871
G1 X242.614 Y175.872 E14.35752
G1 X242.223 Y176.182 E14.38922
G1 X242.117 Y176.262 E14.39765
G1 X241.354 Y176.787 E14.45648
G1 X240.55 Y177.244 E14.51522
G1 X239.708 Y177.631 E14.57407
G1 X238.837 Y177.943 E14.63284
G1 X237.941 Y178.179 E14.69169
G1 X237.029 Y178.337 E14.75047
G1 X236.107 Y178.416 E14.80925
G1 X235.181 Y178.414 E14.86806
G1 X234.258 Y178.333 E14.92691
G1 X233.347 Y178.173 E14.98566
G1 X232.452 Y177.934 E15.0445
G1 X231.581 Y177.619 E15.10332
G1 X230.421 Y177.058 E15.18516
G1 X229.724 Y176.667 E15.23592
G1 X152.323 Y131.981 E20.91246
G1 X151.544 Y131.517 E20.97005
G1 X151.315 Y131.377 E20.98709
G1 X150.912 Y131.119 E21.01749
G1 X150.623 Y130.926 E21.03956
G1 X149.075 Y129.869 E21.15861
G1 X148.572 Y129.515 E21.19768
G1 X147.599 Y128.741 E21.27665
G1 X146.707 Y127.942 E21.35271
G1 X145.708 Y127.013 E21.43935
G1 X145.246 Y126.572 E21.47992
G1 X144.379 Y125.641 E21.56072
G1 X143.624 Y124.726 E21.63607
G1 X142.866 Y123.777 E21.71321
G1 X142.393 Y123.169 E21.76213
G1 X141.67 Y122.114 E21.84337
G1 X140.946 Y120.905 E21.93287
G1 X140.368 Y119.903 E22.00634
G1 X140.061 Y119.356 E22.04618
G1 X139.499 Y118.197 E22.12799
G1 X139.034 Y117.066 E22.20566
G1 X138.551 Y115.83 E22.28995
G1 X138.316 Y115.205 E22.33236
G1 X137.942 Y113.999 E22.41255
G1 X137.721 Y113.103 E22.47117
G1 X137.401 Y111.707 E22.56213
G1 X137.227 Y110.902 E22.61444
G1 X137.035 Y109.649 E22.69495
G1 X136.944 Y108.672 E22.75728
G1 X136.928 Y108.482 E22.76939
G1 X136.827 Y107.124 E22.85588
G1 X136.782 Y106.39 E22.90258
G1 X136.766 Y106.036 E22.92509
G1 X136.757 Y105.637 E22.95044
G1 X136.753 Y105.244 E22.9754
G1 X136.754 Y91.867 E23.82503
G1 X136.764 Y91.161 E23.86988
G1 X136.779 Y90.723 E23.89771
G1 X136.793 Y90.472 E23.91368
G1 X136.836 Y89.857 E23.95284
G1 X136.926 Y88.751 E24.02332
G1 X136.997 Y88.01 E24.07059
G1 X137.175 Y86.836 E24.14601
G1 X137.256 Y86.468 E24.16995
G1 X137.417 Y85.795 E24.2139
G1 X137.66 Y84.811 E24.27827
G1 X137.835 Y84.137 E24.3225
G1 X138.216 Y82.955 E24.40138
G1 X138.292 Y82.759 E24.41473
G1 X138.484 Y82.29 E24.44692
G1 X138.972 Y81.144 E24.52603
G1 X139.308 Y80.386 E24.57869
G1 X139.872 Y79.288 E24.65709
G0 F6000 X140.286 Y79.532
G1 F900 X140.513 Y79.151 E24.68526
G1 X140.682 Y78.879 E24.7056
G1 X141.352 Y77.82 E24.78519
G1 X141.73 Y77.239 E24.82922
G1 X142.454 Y76.258 E24.90665
G1 X142.706 Y75.959 E24.93149
G1 X142.992 Y75.629 E24.95923
G1 X143.712 Y74.816 E25.0282
G1 X144.259 Y74.216 E25.07977
G1 X145.083 Y73.409 E25.15302
G1 X145.429 Y73.11 E25.18207
G1 X145.696 Y72.887 E25.20416
G1 X146.717 Y72.055 E25.28782
G1 X147.243 Y71.639 E25.33041
G1 X148.192 Y70.972 E25.40408
G1 X148.53 Y70.765 E25.42926
G1 X148.92 Y70.535 E25.45802
G1 X150 Y69.914 E25.53714
G1 X150.574 Y69.594 E25.57888
G1 X151.615 Y69.088 E25.6524
G1 X152.017 Y68.923 E25.68
G1 X152.411 Y68.769 E25.70687
G1 X153.489 Y68.361 E25.78007
G1 X154.187 Y68.107 E25.82725
G1 X155.296 Y67.773 E25.90081
G1 X155.425 Y67.742 E25.90924
G1 X155.685 Y67.684 E25.92616
G1 X156.381 Y67.536 E25.97135
G1 X157.249 Y67.359 E26.02762
G1 X157.99 Y67.217 E26.07554
G1 X159.22 Y67.058 E26.15431
G1 X159.504 Y67.04 E26.17239
G1 X160.405 Y66.996 E26.22968
G1 X161.18 Y66.966 E26.27894
G1 X161.912 Y66.946 E26.32545
G1 X163.042 Y66.977 E26.39725
G1 X163.419 Y67.013 E26.4213
G1 X164.153 Y67.096 E26.46822
G1 X165.121 Y67.214 E26.53016
G1 X165.84 Y67.312 E26.57624
G1 X166.684 Y67.463 E26.6307
G1 X167.845 Y67.723 E26.70627
G1 X168.182 Y67.803 E26.72827
G1 X170.647 Y68.32 E26.88824
G1 X173.142 Y68.769 E27.04925
G1 X175.659 Y69.15 E27.21094
G1 X178.214 Y69.462 E27.37442
G1 X180.717 Y69.697 E27.5341
G1 X183.239 Y69.861 E27.69462
G1 X185.77 Y69.954 E27.85548
G1 X188.34 Y69.976 E28.01872
G1 X190.865 Y69.927 E28.17912
G1 X193.395 Y69.805 E28.34
G1 X195.931 Y69.611 E28.50154
G1 X198.437 Y69.348 E28.66158
G1 X200.986 Y69.007 E28.82492
G1 X203.485 Y68.6 E28.98574
G1 X205.949 Y68.129 E29.14507
G1 X208.445 Y67.576 E29.30744
G1 X210.901 Y66.96 E29.46827
G1 X213.347 Y66.272 E29.62965
G1 X215.783 Y65.512 E29.79173
G1 X218.188 Y64.685 E29.95326
G1 X220.528 Y63.807 E30.112
G1 X222.919 Y62.831 E30.27603
G1 X225.241 Y61.806 E30.43724
G1 X227.057 Y60.944 E30.56491
G1 X227.358 Y60.806 E30.58594
G1 X228.197 Y60.465 E30.64346
G1 X229.062 Y60.2 E30.70092
G1 X229.947 Y60.013 E30.75838
G1 X231.276 Y59.88 E30.84321
G1 X231.51 Y59.872 E30.85808
G1 X231.782 Y59.866 E30.87536
G1 X232.118 Y59.864 E30.8967
G1 X234.953 Y59.863 E31.07676
G1 X235.774 Y59.874 E31.12891
G1 X236.678 Y59.928 E31.18643
G1 X237.573 Y60.061 E31.2439
G1 X238.453 Y60.273 E31.30139
G1 X239.31 Y60.561 E31.35882
G1 X240.139 Y60.924 E31.4163
G1 X240.933 Y61.359 E31.4738
G1 X241.685 Y61.862 E31.53126
G1 X242.389 Y62.43 E31.58871
G1 X242.886 Y62.897 E31.63203
G1 X243.03 Y63.042 E31.64501
G1 X243.638 Y63.712 E31.70247
G1 X244.186 Y64.433 E31.75999
G1 X244.667 Y65.199 E31.81744
G1 X245.079 Y66.005 E31.87493
G1 X245.418 Y66.843 E31.93235
G1 X245.682 Y67.709 E31.98985
G1 X245.868 Y68.595 E32.04735
G1 X245.998 Y69.894 E32.13027
G1 X246.01 Y70.326 E32.15772
G1 X246.014 Y70.694 E32.18109
G1 X246.014 Y167.045 E38.30075
G1 X246.004 Y167.767 E38.34661
G1 X245.952 Y168.67 E38.40406
G1 X245.819 Y169.565 E38.46153
G1 X245.609 Y170.445 E38.51899
G1 X245.322 Y171.303 E38.57645
G1 X244.959 Y172.133 E38.63399
G1 X244.526 Y172.927 E38.69143
G1 X244.023 Y173.679 E38.7489
G1 X243.457 Y174.385 E38.80637
G1 X242.83 Y175.038 E38.86387
G1 X241.934 Y175.798 E38.93849
G1 X241.828 Y175.878 E38.94693
G1 X241.082 Y176.391 E39.00443
G1 X240.294 Y176.836 E39.06191
G1 X239.47 Y177.209 E39.11936
G1 X238.616 Y177.509 E39.17685
G1 X237.739 Y177.732 E39.23432
G1 X236.846 Y177.876 E39.29177
G1 X235.943 Y177.941 E39.34927
G1 X235.038 Y177.926 E39.40676
G1 X234.138 Y177.831 E39.46424
G1 X233.25 Y177.658 E39.5217
G1 X232.381 Y177.406 E39.57917
G1 X231.538 Y177.079 E39.6366
G1 X230.656 Y176.639 E39.6992
G1 X229.964 Y176.251 E39.74959
G1 X152.438 Y131.492 E45.43532
G1 X151.789 Y131.105 E45.48331
G1 X151.395 Y130.86 E45.51278
G1 X151.178 Y130.719 E45.52922
G1 X150.894 Y130.529 E45.55092
G1 X149.352 Y129.476 E45.66952
G1 X148.849 Y129.122 E45.70858
G1 X147.919 Y128.383 E45.78403
G1 X147.033 Y127.59 E45.85955
G1 X146.144 Y126.765 E45.93658
G1 X145.578 Y126.225 E45.98627
G1 X144.75 Y125.335 E46.06348
G1 X143.888 Y124.289 E46.14957
G1 X143.157 Y123.371 E46.2241
G1 X142.772 Y122.875 E46.26398
G1 X142.082 Y121.867 E46.34156
G1 X141.362 Y120.665 E46.43056
G1 X140.786 Y119.668 E46.50369
G1 X140.479 Y119.121 E46.54353
G1 X139.943 Y118.014 E46.62165
G1 X139.481 Y116.891 E46.69877
G1 X139 Y115.661 E46.78266
G1 X138.765 Y115.036 E46.82507
G1 X138.408 Y113.884 E46.90167
G1 X138.187 Y112.988 E46.96028
G1 X137.869 Y111.6 E47.05072
G1 X137.697 Y110.802 E47.10257
G1 X137.513 Y109.605 E47.17949
G1 X137.422 Y108.628 E47.24181
G1 X137.316 Y107.236 E47.33048
G1 X137.261 Y106.361 E47.38617
G1 X137.246 Y106.022 E47.40772
G1 X137.237 Y105.632 E47.4325
G1 X137.233 Y105.244 E47.45714
G1 X137.234 Y91.874 E48.30633
G1 X137.244 Y91.168 E48.35117
G1 X137.258 Y90.744 E48.37812
G1 X137.272 Y90.504 E48.39339
G1 X137.314 Y89.895 E48.43216
G1 X137.404 Y88.796 E48.50219
G1 X137.475 Y88.055 E48.54947
G1 X137.645 Y86.934 E48.62149
G1 X137.723 Y86.579 E48.64457
G1 X137.883 Y85.91 E48.68826
G1 X138.125 Y84.932 E48.75225
G1 X138.3 Y84.258 E48.79648
G1 X138.664 Y83.129 E48.87182
G1 X138.831 Y82.705 E48.90077
G1 X138.965 Y82.384 E48.92286
G1 X139.471 Y81.2 E49.00464
G1 X139.746 Y80.58 E49.04772
G1 X140.286 Y79.532 E49.1226
G1 F2400 E47.5226
;MESH:Kitchen_Roll_Holder_right.STL
G0 F6000 X151.956 Y105.028
G0 X149.896 Y105.12
G0 X152.9 Y114.293
;TYPE:WALL-INNER
G1 F2400 E49.1226
G1 F900 X154.82 Y116.89 E49.3118
G1 X157.154 Y119.127 E49.50118
G1 X159.832 Y120.937 E49.69053
G1 X162.778 Y122.267 E49.87989
G1 X165.905 Y123.082 E50.06919
G1 X169.124 Y123.356 E50.25844
G1 X172.343 Y123.082 E50.4477
G1 X175.47 Y122.267 E50.637
G1 X178.415 Y120.937 E50.8263
G1 X181.094 Y119.127 E51.0157
G1 X183.428 Y116.89 E51.20509
G1 X185.348 Y114.293 E51.39429
G1 X186.803 Y111.408 E51.58357
G1 X186.961 Y110.898 E51.61485
G1 X187.75 Y108.316 E51.77301
G1 X188.153 Y105.15 E51.95997
G1 X188.159 Y105.109 E51.9624
G1 X188.023 Y101.883 E52.15155
G1 X187.343 Y98.724 E52.34085
G1 X186.137 Y95.727 E52.53009
G1 X185.859 Y95.271 E52.56138
G1 X184.443 Y92.972 E52.71955
G1 X182.307 Y90.546 E52.90891
G1 X179.793 Y88.516 E53.0982
G1 X176.97 Y86.94 E53.2876
G1 X173.923 Y85.864 E53.4769
G1 X170.739 Y85.317 E53.66615
G1 X167.508 Y85.317 E53.85543
G1 X164.324 Y85.864 E54.04468
G1 X161.277 Y86.939 E54.23396
G1 X160.808 Y87.199 E54.26538
G1 X158.454 Y88.517 E54.42342
G1 X155.941 Y90.546 E54.61263
G1 X153.833 Y92.943 E54.79962
G1 X153.805 Y92.974 E54.80207
G1 X152.111 Y95.725 E54.99133
G1 X150.905 Y98.724 E55.18069
G1 X150.224 Y101.881 E55.36988
G1 X150.199 Y102.414 E55.40114
G1 X150.088 Y105.111 E55.55927
G1 X150.498 Y108.318 E55.74867
G1 X151.445 Y111.407 E55.93794
G1 X152.9 Y114.293 E56.12727
G0 F6000 X153.31 Y114.04
G1 F900 X155.182 Y116.572 E56.31174
G1 X157.457 Y118.752 E56.49632
G1 X160.067 Y120.516 E56.68086
G1 X162.938 Y121.813 E56.86541
G1 X165.986 Y122.607 E57.04993
G1 X169.124 Y122.874 E57.23442
G1 X172.262 Y122.607 E57.41891
G1 X175.31 Y121.813 E57.60342
G1 X178.18 Y120.516 E57.78792
G1 X180.791 Y118.752 E57.97251
G1 X183.066 Y116.572 E58.15709
G1 X184.938 Y114.04 E58.34156
G1 X186.356 Y111.228 E58.52605
G1 X186.502 Y110.757 E58.55494
G1 X187.279 Y108.215 E58.71065
G1 X187.678 Y105.089 E58.89526
G1 X187.545 Y101.944 E59.07966
G1 X186.882 Y98.865 E59.26417
G1 X185.707 Y95.943 E59.44866
G1 X185.45 Y95.522 E59.47756
G1 X184.056 Y93.259 E59.63326
G1 X181.974 Y90.894 E59.81784
G1 X179.523 Y88.915 E60.00238
G1 X176.772 Y87.379 E60.18696
G1 X173.802 Y86.33 E60.37148
G1 X170.698 Y85.797 E60.55597
G1 X167.549 Y85.797 E60.74045
G1 X164.445 Y86.33 E60.92494
G1 X161.475 Y87.378 E61.10944
G1 X161.042 Y87.618 E61.13844
G1 X158.724 Y88.916 E61.29408
G1 X156.274 Y90.894 E61.47854
G1 X154.192 Y93.26 E61.66316
G1 X152.541 Y95.942 E61.84766
G1 X151.366 Y98.865 E62.03221
G1 X150.702 Y101.943 E62.21667
G1 X150.679 Y102.435 E62.24552
G1 X150.569 Y105.09 E62.40119
G1 X150.969 Y108.216 E62.58581
G1 X151.892 Y111.227 E62.77029
G1 X153.31 Y114.04 E62.95484
G0 F6000 X153.72 Y113.787
;TYPE:WALL-OUTER
G1 F900 X155.544 Y116.254 E63.13457
G1 X157.76 Y118.377 E63.31434
G1 X160.302 Y120.095 E63.49408
G1 X163.098 Y121.359 E63.67383
G1 X166.067 Y122.132 E63.85355
G1 X169.124 Y122.392 E64.03328
G1 X172.181 Y122.132 E64.21301
G1 X175.149 Y121.359 E64.39268
G1 X177.945 Y120.095 E64.57243
G1 X180.488 Y118.377 E64.75221
G1 X182.704 Y116.254 E64.93199
G1 X184.528 Y113.787 E65.11172
G1 X185.909 Y111.047 E65.29147
G1 X186.043 Y110.616 E65.31791
G1 X186.808 Y108.114 E65.47118
G1 X187.197 Y105.069 E65.65101
G1 X187.067 Y102.005 E65.83066
G1 X186.421 Y99.006 E66.01037
G1 X185.276 Y96.159 E66.19014
G1 X185.041 Y95.773 E66.21661
G1 X183.669 Y93.546 E66.36984
G1 X181.641 Y91.242 E66.54965
G1 X179.253 Y89.314 E66.72944
G1 X176.574 Y87.818 E66.90919
G1 X173.681 Y86.796 E67.08893
G1 X170.657 Y86.277 E67.26867
G1 X167.59 Y86.277 E67.44834
G1 X164.566 Y86.796 E67.62808
G1 X161.673 Y87.817 E67.8078
G1 X161.276 Y88.037 E67.83439
G1 X158.994 Y89.315 E67.98761
G1 X156.607 Y91.242 E68.16732
G1 X154.579 Y93.546 E68.34713
G1 X152.971 Y96.159 E68.52686
G1 X151.827 Y99.006 E68.7066
G1 X151.18 Y102.005 E68.88633
G1 X151.159 Y102.456 E68.91278
G1 X151.05 Y105.069 E69.06598
G1 X151.44 Y108.114 E69.24582
G1 X152.339 Y111.047 E69.42553
G1 X153.72 Y113.787 E69.60528
G0 F6000 X153.271 Y114.063
G1 F2400 E68.00528
G0 F6000 X155.363 Y116.413
G0 X157.609 Y118.564
G0 X160.185 Y120.304
G0 X163.018 Y121.585
G0 X166.027 Y122.369
G0 X169.124 Y122.633
G0 X172.221 Y122.369
G0 X175.229 Y121.585
G0 X177.778 Y120.433
G0 X183.571 Y117.016
G0 X182.018 Y115.659
G0 X188.432 Y121.349
G0 X186.899 Y119.984
G0 X188.04 Y118.99
;TYPE:WALL-INNER
G1 F2400 E69.60528
G1 F900 X185.889 Y121.404 E69.79469
G1 X183.403 Y123.527 E69.9862
G1 X180.546 Y125.361 E70.18508
G1 X180.113 Y125.651 E70.21561
G1 X179.631 Y126.095 E70.254
G1 X179.226 Y126.616 E70.29266
G1 X178.913 Y127.194 E70.33116
