;FLAVOR:Marlin
;TIME:8398
;Filament used: 6.90516m
;Layer height: 0.25
;MINX:82.155
;MINY:24.905
;MINZ:0.3
;MAXX:131.895
;MAXY:144.646
;MAXZ:90.05
;Generated with Cura_SteamEngine 4.10.0
M104 S228
M105
M109 S228
M82 ;absolute extrusion mode
G28 ; home all axes
 M117 Purge extruder
 G92 E0 ; reset extruder
 G1 Z1.0 F3000 ; move z up little to prevent scratching of surface
 G1 X2 Y20 Z0.3 F5000.0 ; move to start-line position
 G1 X2 Y200.0 Z0.3 F1500.0 E15 ; draw 1st line
 G1 X2 Y200.0 Z0.4 F5000.0 ; move to side a little
 G1 X2 Y20 Z0.4 F1500.0 E30 ; draw 2nd line
 G92 E0 ; reset extruder
 G1 Z1.0 F3000 ; move z up little to prevent scratching of surface
G92 E0
G92 E0
G1 F2400 E-1.6
;LAYER_COUNT:360
;LAYER:0
M106 S165.8
G0 F6000 X82.852 Y32.002 Z0.3
;TYPE:SKIRT
G1 F2400 E0
G1 F900 X83.215 Y31.151 E0.05876
G1 X83.651 Y30.334 E0.11758
G1 X84.155 Y29.557 E0.1764
G1 X84.725 Y28.827 E0.23523
G1 X85.304 Y28.2 E0.28944
G1 X85.448 Y28.056 E0.30237
G1 X86.13 Y27.43 E0.36117
G1 X86.864 Y26.865 E0.42
G1 X87.644 Y26.366 E0.47881
G1 X88.464 Y25.936 E0.53762
G1 X89.318 Y25.579 E0.59641
G1 X90.199 Y25.296 E0.65518
G1 X91.102 Y25.09 E0.71401
G1 X92.019 Y24.964 E0.7728
G1 X92.659 Y24.922 E0.81353
G1 X92.891 Y24.914 E0.82828
G1 X93.177 Y24.908 E0.84645
G1 X93.517 Y24.906 E0.86804
G1 X120.316 Y24.905 E2.57016
G1 X121.173 Y24.916 E2.6246
G1 X122.097 Y24.969 E2.68338
G1 X123.014 Y25.102 E2.74223
G1 X123.915 Y25.313 E2.80101
G1 X124.795 Y25.601 E2.85982
G1 X125.647 Y25.964 E2.91864
G1 X126.464 Y26.4 E2.97745
G1 X127.24 Y26.904 E3.03622
G1 X127.971 Y27.473 E3.09506
G1 X128.653 Y28.107 E3.1542
G1 X128.797 Y28.253 E3.16723
G1 X129.418 Y28.94 E3.22605
G1 X129.978 Y29.678 E3.28489
G1 X130.472 Y30.461 E3.34369
G1 X130.896 Y31.284 E3.40249
G1 X131.248 Y32.14 E3.46128
G1 X131.524 Y33.024 E3.5201
G1 X131.724 Y33.928 E3.5789
G1 X131.844 Y34.846 E3.6377
G1 X131.879 Y35.432 E3.67499
G1 X131.891 Y35.85 E3.70155
G1 X131.895 Y36.216 E3.7248
G1 X131.895 Y133.082 E9.87716
G1 X131.885 Y133.81 E9.92341
G1 X131.832 Y134.735 E9.98225
G1 X131.7 Y135.651 E10.04103
G1 X131.489 Y136.552 E10.09981
G1 X131.201 Y137.432 E10.15862
G1 X130.839 Y138.284 E10.21741
G1 X130.592 Y138.769 E10.25198
G1 X130.553 Y138.841 E10.25718
G1 X130.315 Y139.258 E10.28768
G1 X130.208 Y139.436 E10.30087
G1 X129.697 Y140.208 E10.35967
G1 X129.121 Y140.933 E10.41848
G1 X128.485 Y141.606 E10.4773
G1 X127.794 Y142.222 E10.53609
G1 X127.052 Y142.775 E10.59487
G1 X126.264 Y143.263 E10.65374
G1 X125.438 Y143.68 E10.71251
G1 X124.579 Y144.025 E10.7713
G1 X123.327 Y144.382 E10.85399
G1 X122.416 Y144.543 E10.91275
G1 X121.151 Y144.636 E10.99331
G1 X120.354 Y144.646 E11.04394
G1 X93.581 Y144.646 E12.7444
G1 X92.88 Y144.636 E12.78893
G1 X91.956 Y144.583 E12.84771
G1 X91.039 Y144.45 E12.90657
G1 X90.138 Y144.239 E12.96534
G1 X89.258 Y143.95 E13.02417
G1 X88.407 Y143.587 E13.08293
G1 X87.589 Y143.152 E13.14178
G1 X86.813 Y142.648 E13.20055
G1 X86.083 Y142.079 E13.25933
G1 X85.404 Y141.448 E13.31821
G1 X84.783 Y140.762 E13.37698
G1 X84.223 Y140.025 E13.43577
G1 X83.782 Y139.333 E13.48789
G1 X83.645 Y139.099 E13.50511
G1 X83.212 Y138.281 E13.56389
G1 X82.851 Y137.428 E13.62272
G1 X82.566 Y136.547 E13.68153
G1 X82.357 Y135.645 E13.74034
G1 X82.227 Y134.729 E13.7991
G1 X82.178 Y133.903 E13.85166
G1 X82.157 Y132.882 E13.91652
G1 X82.155 Y132.662 E13.93049
G1 X82.155 Y36.31 E20.05022
G1 X82.165 Y35.624 E20.09379
G1 X82.219 Y34.699 E20.15264
G1 X82.352 Y33.783 E20.21143
G1 X82.563 Y32.882 E20.27021
G1 X82.852 Y32.002 E20.32903
G0 F6000 X83.33 Y32.095
G1 F900 X83.693 Y31.266 E20.38651
G1 X84.127 Y30.472 E20.44399
G1 X84.63 Y29.72 E20.50145
G1 X85.197 Y29.015 E20.55891
G1 X85.643 Y28.539 E20.60034
G1 X85.787 Y28.395 E20.61328
G1 X86.455 Y27.784 E20.67078
G1 X87.174 Y27.235 E20.72823
G1 X87.938 Y26.751 E20.78567
G1 X88.742 Y26.336 E20.84314
G1 X89.58 Y25.994 E20.90063
G1 X90.445 Y25.727 E20.95813
G1 X91.33 Y25.538 E21.0156
G1 X92.675 Y25.402 E21.10147
G1 X92.907 Y25.394 E21.11621
G1 X93.18 Y25.388 E21.13355
G1 X93.517 Y25.386 E21.15496
G1 X120.316 Y25.385 E22.85708
G1 X121.166 Y25.396 E22.91107
G1 X122.07 Y25.449 E22.96858
G1 X122.965 Y25.581 E23.02604
G1 X123.845 Y25.792 E23.08352
G1 X124.703 Y26.08 E23.141
G1 X125.532 Y26.442 E23.19846
G1 X126.326 Y26.876 E23.25593
G1 X127.078 Y27.379 E23.31339
G1 X127.783 Y27.946 E23.37085
G1 X128.312 Y28.444 E23.417
G1 X128.456 Y28.59 E23.43002
G1 X129.062 Y29.262 E23.4875
G1 X129.607 Y29.985 E23.545
G1 X130.085 Y30.752 E23.6024
G1 X130.494 Y31.56 E23.65992
G1 X130.831 Y32.4 E23.71741
G1 X131.091 Y33.266 E23.77484
G1 X131.275 Y34.152 E23.83231
G1 X131.4 Y35.448 E23.91501
G1 X131.411 Y35.856 E23.94093
G1 X131.415 Y36.216 E23.9638
G1 X131.415 Y133.076 E30.11579
G1 X131.405 Y133.804 E30.16203
G1 X131.353 Y134.707 E30.21948
G1 X131.221 Y135.602 E30.27694
G1 X131.01 Y136.482 E30.33441
G1 X130.723 Y137.34 E30.39188
G1 X130.17 Y138.54 E30.4758
G1 X130.131 Y138.612 E30.481
G1 X129.903 Y139.011 E30.51019
G1 X129.796 Y139.189 E30.52338
G1 X129.296 Y139.943 E30.58084
G1 X128.732 Y140.65 E30.63828
G1 X128.107 Y141.304 E30.69574
G1 X127.427 Y141.901 E30.75321
G1 X126.696 Y142.436 E30.81075
G1 X125.922 Y142.903 E30.86816
G1 X125.109 Y143.301 E30.92565
G1 X124.264 Y143.625 E30.98313
G1 X123.223 Y143.913 E31.05174
G1 X122.332 Y144.07 E31.1092
G1 X121.144 Y144.156 E31.18485
G1 X120.354 Y144.166 E31.23503
G1 X93.588 Y144.166 E32.93505
G1 X92.887 Y144.156 E32.97958
G1 X91.984 Y144.103 E33.03703
G1 X91.088 Y143.971 E33.09456
G1 X90.209 Y143.76 E33.15197
G1 X89.351 Y143.472 E33.20945
G1 X88.521 Y143.11 E33.26697
G1 X87.728 Y142.675 E33.32441
G1 X86.975 Y142.173 E33.38189
G1 X86.27 Y141.606 E33.43936
G1 X85.618 Y140.979 E33.49681
G1 X85.023 Y140.297 E33.55429
G1 X84.491 Y139.565 E33.61177
G1 X84.196 Y139.091 E33.64723
G1 X84.059 Y138.857 E33.66445
G1 X83.637 Y138.056 E33.72195
G1 X83.287 Y137.222 E33.7794
G1 X83.012 Y136.36 E33.83687
G1 X82.814 Y135.477 E33.89434
G1 X82.695 Y134.58 E33.95181
G1 X82.658 Y133.894 E33.99545
G1 X82.637 Y132.873 E34.06031
G1 X82.635 Y132.662 E34.07371
G1 X82.635 Y36.317 E40.19299
G1 X82.645 Y35.631 E40.23657
G1 X82.698 Y34.727 E40.29408
G1 X82.831 Y33.832 E40.35155
G1 X83.042 Y32.952 E40.40903
G1 X83.33 Y32.095 E40.46645
G1 F2400 E38.86645
;MESH:Kitchen_Roll_Holder_left.STL
G0 F6000 X101.248 Y53.059
G0 X100.401 Y51.179
G0 X103.273 Y52.012
G0 X103.788 Y52.319
G0 X104.12 Y52.587
G0 X104.463 Y52.974
G0 X104.614 Y53.221
G0 X105.64 Y55.742
;TYPE:WALL-INNER
G1 F2400 E40.46645
G1 F900 X105.688 Y55.632 E40.47348
G1 X105.77 Y54.975 E40.51227
G1 X105.776 Y54.934 E40.51469
G1 X105.749 Y54.3 E40.55187
G1 X105.616 Y53.677 E40.58919
G1 X105.377 Y53.086 E40.62653
G1 X105.044 Y52.542 E40.6639
G1 X104.619 Y52.062 E40.70145
G1 X104.261 Y51.776 E40.7283
G1 X104.169 Y51.688 E40.73575
G1 X103.57 Y51.353 E40.77596
G1 X102.97 Y51.143 E40.8132
G1 X102.361 Y51.037 E40.84941
G1 X101.997 Y51.027 E40.87074
G1 X101.682 Y51.04 E40.88921
G1 X101.083 Y51.143 E40.92482
G1 X100.48 Y51.353 E40.96222
G1 X99.92 Y51.668 E40.99986
G1 X99.572 Y51.952 E41.02617
G1 X99.459 Y52.027 E41.03412
G1 X99.124 Y52.411 E41.06397
G1 X99.036 Y52.493 E41.07102
G1 X98.673 Y53.087 E41.1118
G1 X98.434 Y53.677 E41.14909
G1 X98.301 Y54.3 E41.18641
G1 X98.274 Y54.934 E41.22358
G1 X98.355 Y55.568 E41.26102
G1 X98.542 Y56.178 E41.2984
G1 X98.741 Y56.568 E41.32405
G1 X98.782 Y56.684 E41.33126
G1 X99.207 Y57.257 E41.37305
G1 X99.667 Y57.697 E41.41034
G1 X100.194 Y58.054 E41.44763
G1 X100.776 Y58.315 E41.48499
G1 X101.391 Y58.476 E41.52223
G1 X101.86 Y58.515 E41.5498
G1 X101.999 Y58.533 E41.55801
G1 X102.66 Y58.476 E41.59688
G1 X103.275 Y58.315 E41.63412
G1 X103.856 Y58.054 E41.67143
G1 X104.383 Y57.697 E41.70872
G1 X104.845 Y57.255 E41.74618
G1 X105.114 Y56.887 E41.77288
G1 X105.201 Y56.788 E41.7806
G1 X105.446 Y56.298 E41.8127
G1 X105.5 Y56.204 E41.81905
G1 X105.64 Y55.742 E41.84733
G0 F6000 X105.191 Y55.571
G1 F900 X105.22 Y55.504 E41.8516
G1 X105.295 Y54.914 E41.88644
G1 X105.271 Y54.361 E41.91887
G1 X105.155 Y53.818 E41.9514
G1 X104.947 Y53.303 E41.98393
G1 X104.657 Y52.829 E42.01649
G1 X104.287 Y52.411 E42.04919
G1 X103.962 Y52.15 E42.07361
G1 X103.938 Y52.131 E42.0754
G1 X103.882 Y52.078 E42.07992
G1 X103.372 Y51.792 E42.11417
G1 X102.849 Y51.609 E42.14663
G1 X102.313 Y51.516 E42.1785
G1 X102 Y51.507 E42.19684
G1 X101.733 Y51.518 E42.2125
G1 X101.203 Y51.609 E42.244
G1 X100.678 Y51.792 E42.27657
G1 X100.191 Y52.066 E42.3093
G1 X99.855 Y52.34 E42.3347
G1 X99.779 Y52.391 E42.34006
G1 X99.47 Y52.744 E42.36754
G1 X99.451 Y52.761 E42.36904
G1 X99.411 Y52.799 E42.37227
G1 X99.103 Y53.303 E42.40687
G1 X98.895 Y53.818 E42.43941
G1 X98.779 Y54.361 E42.47194
G1 X98.755 Y54.914 E42.50436
G1 X98.826 Y55.466 E42.53696
G1 X98.989 Y55.997 E42.5695
G1 X99.184 Y56.379 E42.59463
G1 X99.211 Y56.457 E42.59946
G1 X99.568 Y56.938 E42.63455
G1 X99.97 Y57.322 E42.66712
G1 X100.429 Y57.633 E42.6996
G1 X100.936 Y57.861 E42.73217
G1 X101.472 Y58.001 E42.76462
G1 X101.918 Y58.038 E42.79084
G1 X102.01 Y58.05 E42.79627
G1 X102.578 Y58.001 E42.82967
G1 X103.115 Y57.861 E42.86218
G1 X103.621 Y57.633 E42.89469
G1 X104.08 Y57.322 E42.92717
G1 X104.483 Y56.937 E42.95982
G1 X104.74 Y56.585 E42.98535
G1 X104.8 Y56.517 E42.99067
G1 X105.022 Y56.073 E43.01975
G1 X105.057 Y56.012 E43.02387
G1 X105.191 Y55.571 E43.05087
G0 F6000 X104.737 Y55.411
;TYPE:WALL-OUTER
G1 F900 X104.752 Y55.376 E43.0531
G1 X104.814 Y54.894 E43.08157
G1 X104.793 Y54.422 E43.10924
G1 X104.694 Y53.959 E43.13698
G1 X104.517 Y53.519 E43.16476
G1 X104.27 Y53.116 E43.19245
G1 X103.955 Y52.76 E43.2203
G1 X103.628 Y52.498 E43.24484
G1 X103.596 Y52.468 E43.24741
G1 X103.174 Y52.231 E43.27577
G1 X102.728 Y52.075 E43.30345
G1 X102.265 Y51.995 E43.33097
G1 X102.003 Y51.987 E43.34633
G1 X101.784 Y51.996 E43.35917
G1 X101.323 Y52.075 E43.38657
G1 X100.876 Y52.231 E43.4143
G1 X100.462 Y52.464 E43.44213
G1 X100.136 Y52.729 E43.46674
G1 X100.099 Y52.754 E43.46936
G1 X99.815 Y53.079 E43.49464
G1 X99.786 Y53.106 E43.49696
G1 X99.533 Y53.519 E43.52534
G1 X99.356 Y53.959 E43.55312
G1 X99.257 Y54.422 E43.58085
G1 X99.236 Y54.894 E43.60853
G1 X99.297 Y55.364 E43.6363
G1 X99.436 Y55.816 E43.664
G1 X99.627 Y56.192 E43.6887
G1 X99.64 Y56.229 E43.691
G1 X99.929 Y56.619 E43.71944
G1 X100.272 Y56.947 E43.74724
G1 X100.664 Y57.212 E43.77496
G1 X101.096 Y57.407 E43.80272
G1 X101.553 Y57.526 E43.83039
G1 X101.971 Y57.561 E43.85496
G1 X102.019 Y57.567 E43.85779
G1 X102.497 Y57.526 E43.8859
G1 X102.955 Y57.407 E43.91362
G1 X103.386 Y57.212 E43.94133
G1 X103.778 Y56.947 E43.96905
G1 X104.121 Y56.619 E43.99685
G1 X104.364 Y56.287 E44.02095
G1 X104.398 Y56.248 E44.02399
G1 X104.592 Y55.859 E44.04945
G1 X104.613 Y55.822 E44.05194
G1 X104.737 Y55.411 E44.07709
G0 F6000 X105.233 Y55.591
G1 F2400 E42.47709
G0 F6000 X104.503 Y57.846
G0 X103.211 Y56.239
G0 X102.174 Y112.897
G0 X102.381 Y110.846
G0 X104.463 Y112.974
G0 X104.731 Y113.411
G0 X104.924 Y113.889
G0 X105.031 Y114.391
G0 X105.054 Y114.903
G0 X104.96 Y115.498
G0 X104.801 Y115.976
G0 X104.546 Y116.443
G0 X104.302 Y116.777
G0 X104.092 Y116.978
G0 X101.86 Y118.515
;TYPE:WALL-INNER
G1 F2400 E44.07709
G1 F900 X101.999 Y118.533 E44.0853
G1 X102.66 Y118.476 E44.12417
G1 X103.275 Y118.315 E44.16141
G1 X103.856 Y118.054 E44.19872
G1 X104.383 Y117.697 E44.23601
G1 X104.845 Y117.255 E44.27347
G1 X105.114 Y116.887 E44.30017
G1 X105.201 Y116.788 E44.30789
G1 X105.446 Y116.299 E44.33993
G1 X105.5 Y116.204 E44.34633
G1 X105.64 Y115.742 E44.37461
G1 X105.688 Y115.632 E44.38164
G1 X105.77 Y114.975 E44.42043
G1 X105.776 Y114.934 E44.42286
G1 X105.749 Y114.3 E44.46003
G1 X105.616 Y113.677 E44.49735
G1 X105.377 Y113.086 E44.53469
G1 X105.044 Y112.542 E44.57206
G1 X104.619 Y112.062 E44.60962
G1 X104.261 Y111.776 E44.63646
G1 X104.169 Y111.688 E44.64392
G1 X103.57 Y111.353 E44.68412
G1 X102.97 Y111.143 E44.72136
G1 X102.361 Y111.037 E44.75757
G1 X101.997 Y111.027 E44.7789
G1 X101.682 Y111.04 E44.79737
G1 X101.083 Y111.143 E44.83298
G1 X100.48 Y111.353 E44.87038
G1 X99.92 Y111.668 E44.90802
G1 X99.572 Y111.952 E44.93434
G1 X99.459 Y112.027 E44.94228
G1 X99.124 Y112.411 E44.97213
G1 X99.036 Y112.493 E44.97918
G1 X98.673 Y113.087 E45.01996
G1 X98.434 Y113.677 E45.05725
G1 X98.301 Y114.3 E45.09457
G1 X98.274 Y114.934 E45.13174
G1 X98.355 Y115.568 E45.16919
G1 X98.542 Y116.178 E45.20656
G1 X98.741 Y116.568 E45.23221
G1 X98.782 Y116.684 E45.23942
G1 X99.207 Y117.257 E45.28121
G1 X99.667 Y117.697 E45.3185
G1 X100.194 Y118.054 E45.35579
G1 X100.776 Y118.315 E45.39315
G1 X101.391 Y118.476 E45.4304
G1 X101.86 Y118.515 E45.45797
G0 F6000 X101.918 Y118.038
G1 F900 X102.01 Y118.05 E45.4634
G1 X102.578 Y118.001 E45.4968
G1 X103.115 Y117.861 E45.52931
G1 X103.621 Y117.633 E45.56182
G1 X104.08 Y117.322 E45.5943
G1 X104.483 Y116.937 E45.62695
G1 X104.74 Y116.585 E45.65248
G1 X104.8 Y116.517 E45.65779
G1 X105.022 Y116.073 E45.68687
G1 X105.057 Y116.012 E45.69099
G1 X105.191 Y115.571 E45.71799
G1 X105.22 Y115.504 E45.72227
G1 X105.295 Y114.914 E45.75711
G1 X105.271 Y114.361 E45.78954
G1 X105.155 Y113.818 E45.82207
G1 X104.947 Y113.303 E45.8546
G1 X104.657 Y112.829 E45.88715
G1 X104.287 Y112.411 E45.91986
G1 X103.962 Y112.15 E45.94427
G1 X103.938 Y112.131 E45.94607
G1 X103.882 Y112.078 E45.95058
G1 X103.372 Y111.792 E45.98484
G1 X102.849 Y111.609 E46.0173
G1 X102.313 Y111.516 E46.04917
G1 X102 Y111.507 E46.06751
G1 X101.733 Y111.518 E46.08316
G1 X101.203 Y111.609 E46.11467
G1 X100.678 Y111.792 E46.14724
G1 X100.191 Y112.066 E46.17997
G1 X99.855 Y112.34 E46.20537
G1 X99.779 Y112.391 E46.21073
G1 X99.47 Y112.744 E46.23821
G1 X99.451 Y112.761 E46.23971
G1 X99.411 Y112.799 E46.24294
G1 X99.103 Y113.303 E46.27754
G1 X98.895 Y113.818 E46.31008
G1 X98.779 Y114.361 E46.3426
G1 X98.755 Y114.914 E46.37503
G1 X98.826 Y115.466 E46.40763
G1 X98.989 Y115.997 E46.44017
G1 X99.184 Y116.379 E46.4653
G1 X99.211 Y116.457 E46.47013
G1 X99.568 Y116.938 E46.50522
G1 X99.97 Y117.322 E46.53779
G1 X100.429 Y117.633 E46.57027
G1 X100.936 Y117.861 E46.60284
G1 X101.472 Y118.001 E46.63529
G1 X101.918 Y118.038 E46.66151
G0 F6000 X101.971 Y117.561
;TYPE:WALL-OUTER
G1 F900 X102.019 Y117.567 E46.66434
G1 X102.497 Y117.526 E46.69244
G1 X102.955 Y117.407 E46.72016
G1 X103.386 Y117.212 E46.74788
G1 X103.778 Y116.947 E46.7756
G1 X104.121 Y116.619 E46.8034
G1 X104.364 Y116.287 E46.8275
G1 X104.398 Y116.248 E46.83053
G1 X104.592 Y115.859 E46.85599
G1 X104.613 Y115.822 E46.85849
G1 X104.737 Y115.411 E46.88364
G1 X104.752 Y115.376 E46.88587
G1 X104.814 Y114.894 E46.91434
G1 X104.793 Y114.422 E46.94201
G1 X104.694 Y113.959 E46.96975
G1 X104.517 Y113.519 E46.99753
G1 X104.27 Y113.116 E47.02522
G1 X103.955 Y112.76 E47.05307
G1 X103.628 Y112.498 E47.07761
G1 X103.596 Y112.468 E47.08018
G1 X103.174 Y112.231 E47.10854
G1 X102.728 Y112.075 E47.13622
G1 X102.265 Y111.995 E47.16374
G1 X102.003 Y111.987 E47.1791
G1 X101.784 Y111.996 E47.19194
G1 X101.323 Y112.075 E47.21934
G1 X100.876 Y112.231 E47.24707
G1 X100.462 Y112.464 E47.2749
G1 X100.136 Y112.729 E47.29951
G1 X100.099 Y112.754 E47.30213
G1 X99.815 Y113.079 E47.32741
G1 X99.786 Y113.106 E47.32973
G1 X99.533 Y113.519 E47.35811
G1 X99.356 Y113.959 E47.38589
G1 X99.257 Y114.422 E47.41362
G1 X99.236 Y114.894 E47.4413
G1 X99.297 Y115.364 E47.46907
G1 X99.436 Y115.816 E47.49677
G1 X99.627 Y116.192 E47.52147
G1 X99.64 Y116.229 E47.52377
G1 X99.929 Y116.619 E47.55221
G1 X100.272 Y116.947 E47.58001
G1 X100.664 Y117.212 E47.60773
G1 X101.096 Y117.407 E47.63549
G1 X101.553 Y117.526 E47.66316
G1 X101.971 Y117.561 E47.68773
G0 F6000 X101.917 Y118.086
G1 F2400 E46.08773
G0 F6000 X100.712 Y118.496
G0 X101.398 Y116.551
G0 X92.21 Y118.497
G0 X94.284 Y118.496
G0 X94.075 Y132.727
;TYPE:WALL-INNER
G1 F2400 E47.68773
G1 F900 X94.075 Y132.488 E47.70173
G1 X94.074 Y36.826 E53.30571
G1 X119.736 Y36.825 E54.80902
G1 X119.975 Y36.825 E54.82302
G1 X119.975 Y37.064 E54.83209
G1 X119.976 Y132.726 E60.43607
G1 X94.314 Y132.727 E61.93938
G1 X94.075 Y132.727 E61.94844
G0 F6000 X93.595 Y133.207
G1 F900 X93.595 Y132.968 E61.96245
G1 X93.594 Y36.346 E67.62267
G1 X120.216 Y36.345 E69.18221
G1 X120.455 Y36.345 E69.19621
