; generated by PrusaSlicer 2.7.1+win64 on 2024-06-10 at 19:43:31 UTC


;
;
; 

; external perimeters extrusion width = 0.40mm
; perimeters extrusion width = 0.40mm
; infill extrusion width = 0.40mm
; solid infill extrusion width = 0.40mm
; top infill extrusion width = 0.40mm
; first layer extrusion width = 0.44mm

;TYPE:Custom
G90 ; use absolute coordinates
M83 ; extruder relative mode
M140 S100 ; set bed temp
M190 S100 ; wait for bed temp
M104 S260 ; set extruder temp
M109 S260 ; wait for extruder temp
G28                                        ; move X/Y/Z to min endstops
G1 Z0.28                                   ; lift nozzle a bit 
G92 E0 
G1 Y3 F2400                                    ; zero the extruded length 
G1 X180  E40 F500                       ; Extrude 25mm of filament in a 5cm line. 
G92 E0                                     ; zero the extruded length again 
G1 E-0.2 F3000                                ; Retract a little 
G1 X181 F4000                              ; Quickly wipe away from the filament line
M117
G21 ; set units to millimeters
G90 ; use absolute coordinates
M82 ; use absolute distances for extrusion
G92 E0
; Filament gcode
M107
;LAYER_CHANGE
;Z:0.2
;HEIGHT:0.2
; BEFORE_LAYER_CHANGE 0 @ 0.2mm
G1 E-2.5 F4800
G92 E0
G1 Z-1.48 F9000
; AFTER_LAYER_CHANGE 0 @ 0.2mm
G1 X43.049 Y49.893
G1 E2.5 F4800
M204 S5000
;TYPE:Skirt/Brim
;WIDTH:0.44
G1 F2400
G1 X48.412 Y46.098 E2.69523
G1 X54.433 Y43.477 E2.89036
G1 X60.861 Y42.136 E3.08548
G1 X67.431 Y42.134 E3.28071
G1 X73.906 Y43.484 E3.47726
G1 X79.992 Y46.148 E3.67468
G1 X85.423 Y50.031 E3.87307
G1 X89.92 Y54.928 E4.07064
G1 X93.334 Y60.656 E4.26879
G1 X95.472 Y66.959 E4.46657
G1 X96.092 Y72.074 E4.61968
G1 X96.011 Y73.338 E4.65732
G1 X96.173 Y75.306 E4.716
G1 X95.468 Y81.137 E4.89053
G1 X93.651 Y86.71 E5.06471
G1 X90.447 Y92.423 E5.25935
G1 X85.355 Y98.11 E5.48618
G1 X80.582 Y101.586 E5.66164
G1 X78.498 Y102.572 E5.73015
G1 X78.5 Y161.51 E7.48153
G1 X78.081 Y164.035 E7.55759
G1 X77.556 Y165.34 E7.59939
G1 X76.78 Y166.575 E7.64273
G1 X75.06 Y168.229 E7.71364
G1 X73.418 Y169.112 E7.76904
G1 X71.599 Y169.598 E7.82499
G1 X67.26 Y169.584 E7.95393
G1 X65.133 Y168.952 E8.01987
G1 X64.159 Y168.385 E8.05336
G1 X63.187 Y168.951 E8.08678
G1 X61.066 Y169.581 E8.15253
G1 X57.254 Y169.649 E8.26582
G1 X55.62 Y169.36 E8.31513
G1 X54.097 Y168.76 E8.36377
G1 X51.826 Y166.905 E8.45091
G1 X50.961 Y165.701 E8.49496
G1 X50.334 Y164.344 E8.53938
G1 X49.84 Y161.735 E8.61829
G1 X49.82 Y102.573 E10.37632
G1 X47.737 Y101.587 E10.4448
G1 X42.963 Y98.111 E10.62028
G1 X37.878 Y92.435 E10.84673
G1 X34.817 Y87.052 E11.03074
G1 X32.85 Y81.14 E11.21589
G1 X32.14 Y75.164 E11.39472
G1 X32.307 Y73.323 E11.44965
G1 X32.227 Y71.977 E11.48972
G1 X32.857 Y66.906 E11.64157
G1 X35.003 Y60.612 E11.83917
G1 X38.407 Y54.916 E12.03635
G1 X43.008 Y49.937 E12.2378
M204 S20000
G1 X43.295 Y50.205 F9000
M204 S5000
G1 F2400
G1 X48.59 Y46.454 E12.43062
G1 X54.573 Y43.85 E12.62452
G1 X60.922 Y42.529 E12.81722
G1 X67.41 Y42.531 E13.01001
G1 X73.804 Y43.869 E13.20413
G1 X79.814 Y46.503 E13.39912
G1 X85.175 Y50.342 E13.59506
G1 X89.614 Y55.181 E13.79019
G1 X92.982 Y60.841 E13.9859
G1 X95.089 Y67.066 E14.18119
G1 X95.696 Y72.103 E14.33195
G1 X95.611 Y73.369 E14.36965
G1 X95.776 Y75.277 E14.42656
G1 X95.084 Y81.033 E14.59883
G1 X93.28 Y86.568 E14.77182
G1 X90.112 Y92.21 E14.9641
G1 X85.104 Y97.801 E15.18714
G1 X80.363 Y101.254 E15.36143
G1 X78.101 Y102.32 E15.43574
G1 X78.103 Y161.494 E17.19413
G1 X77.693 Y163.948 E17.26806
G1 X77.195 Y165.175 E17.30741
G1 X76.487 Y166.307 E17.34709
G1 X74.848 Y167.892 E17.41484
G1 X73.251 Y168.751 E17.46873
G1 X71.523 Y169.208 E17.52184
G1 X67.346 Y169.195 E17.64596
G1 X65.27 Y168.579 E17.71031
G1 X64.16 Y167.923 E17.74862
G1 X63.05 Y168.578 E17.78692
G1 X60.979 Y169.193 E17.85112
G1 X57.304 Y169.254 E17.96034
G1 X55.746 Y168.983 E18.00733
G1 X54.271 Y168.402 E18.05444
G1 X52.134 Y166.652 E18.13652
G1 X51.295 Y165.485 E18.17923
G1 X50.705 Y164.201 E18.22122
G1 X50.234 Y161.68 E18.29743
G1 X50.217 Y102.321 E20.06132
G1 X47.955 Y101.255 E20.13563
G1 X43.214 Y97.802 E20.30992
G1 X38.212 Y92.221 E20.53262
G1 X35.172 Y86.873 E20.71542
G1 X33.233 Y81.034 E20.89825
G1 X32.536 Y75.137 E21.0747
G1 X32.706 Y73.355 E21.12789
G1 X32.623 Y72.008 E21.16799
G1 X33.24 Y67.015 E21.31749
G1 X35.355 Y60.797 E21.51266
G1 X38.712 Y55.17 E21.70737
G1 X43.255 Y50.249 E21.90639
M204 S20000
G1 X43.542 Y50.517 F9000
M204 S5000
G1 F2400
G1 X48.767 Y46.81 E22.09676
G1 X54.674 Y44.234 E22.28825
G1 X60.943 Y42.926 E22.47855
G1 X67.349 Y42.924 E22.66891
G1 X73.703 Y44.253 E22.86181
G1 X79.635 Y46.858 E23.05433
G1 X84.927 Y50.652 E23.24782
G1 X89.307 Y55.434 E23.44052
G1 X92.63 Y61.026 E23.63381
G1 X94.706 Y67.174 E23.82664
G1 X95.299 Y72.131 E23.97499
G1 X95.21 Y73.4 E24.01279
G1 X95.38 Y75.247 E24.06791
G1 X94.693 Y80.966 E24.23908
G1 X92.908 Y86.426 E24.40978
G1 X89.776 Y91.996 E24.59967
G1 X84.854 Y97.492 E24.81891
G1 X80.145 Y100.922 E24.99203
G1 X77.704 Y102.068 E25.07216
G1 X77.706 Y161.477 E26.83753
G1 X77.306 Y163.86 E26.90933
G1 X76.834 Y165.008 E26.94621
G1 X76.192 Y166.039 E26.9823
G1 X74.634 Y167.557 E27.04694
G1 X73.126 Y168.373 E27.09789
G1 X71.446 Y168.817 E27.14953
G1 X67.432 Y168.807 E27.26881
G1 X65.408 Y168.205 E27.33156
G1 X64.16 Y167.46 E27.37475
G1 X62.912 Y168.204 E27.41793
G1 X60.892 Y168.804 E27.48055
G1 X57.317 Y168.857 E27.58679
G1 X55.836 Y168.596 E27.63148
G1 X54.447 Y168.044 E27.67589
G1 X52.407 Y166.363 E27.75444
G1 X51.63 Y165.271 E27.79427
G1 X51.077 Y164.059 E27.83386
G1 X50.628 Y161.626 E27.90738
G1 X50.614 Y102.069 E29.67715
G1 X48.173 Y100.923 E29.75728
G1 X43.464 Y97.493 E29.9304
G1 X38.547 Y92.006 E30.14934
G1 X35.543 Y86.729 E30.32978
G1 X33.616 Y80.928 E30.51142
G1 X32.933 Y75.111 E30.68546
G1 X33.107 Y73.388 E30.73692
G1 X33.02 Y72.037 E30.77715
G1 X33.622 Y67.123 E30.92426
G1 X35.707 Y60.982 E31.11697
G1 X39.018 Y55.424 E31.30921
G1 X43.502 Y50.561 E31.50577
M204 S20000
G1 X43.789 Y50.829 F9000
M204 S5000
G1 F2400
G1 X48.945 Y47.166 E31.69371
G1 X54.775 Y44.619 E31.88276
G1 X61.004 Y43.319 E32.07185
G1 X67.328 Y43.321 E32.25977
G1 X73.601 Y44.638 E32.45024
G1 X79.456 Y47.213 E32.64031
G1 X84.679 Y50.963 E32.83137
G1 X89 Y55.687 E33.02161
G1 X92.278 Y61.21 E33.21246
G1 X94.323 Y67.281 E33.40282
G1 X94.902 Y72.159 E33.54879
G1 X94.81 Y73.433 E33.58675
G1 X94.983 Y75.219 E33.64007
G1 X94.309 Y80.861 E33.80892
G1 X92.537 Y86.284 E33.97845
G1 X89.441 Y91.783 E34.16597
G1 X84.603 Y97.184 E34.38144
G1 X79.927 Y100.59 E34.55334
G1 X77.307 Y101.815 E34.63928
G1 X77.309 Y161.461 E36.4117
G1 X76.93 Y163.731 E36.48009
G1 X76.488 Y164.813 E36.51482
G1 X75.868 Y165.809 E36.54968
G1 X74.378 Y167.252 E36.61132
G1 X72.96 Y168.012 E36.65913
G1 X71.371 Y168.427 E36.70793
G1 X67.518 Y168.418 E36.82242
G1 X65.545 Y167.832 E36.88358
G1 X64.514 Y167.212 E36.91933
G1 X64.16 Y166.906 E36.93323
G1 X63.806 Y167.211 E36.94712
G1 X62.775 Y167.831 E36.98287
G1 X60.805 Y168.416 E37.04394
G1 X57.367 Y168.463 E37.14611
G1 X55.963 Y168.219 E37.18846
G1 X54.623 Y167.687 E37.2313
G1 X52.715 Y166.112 E37.30482
G1 X51.964 Y165.057 E37.3433
G1 X51.449 Y163.918 E37.38045
G1 X51.022 Y161.573 E37.45128
G1 X51.011 Y101.816 E39.22699
G1 X48.392 Y100.591 E39.31291
G1 X43.715 Y97.185 E39.48484
G1 X38.882 Y91.791 E39.70005
G1 X35.897 Y86.549 E39.8793
G1 X33.999 Y80.822 E40.05858
G1 X33.33 Y75.085 E40.23021
G1 X33.507 Y73.422 E40.27991
G1 X33.416 Y72.066 E40.32029
G1 X34.005 Y67.231 E40.46503
G1 X36.059 Y61.167 E40.65528
G1 X39.325 Y55.677 E40.8451
G1 X43.749 Y50.873 E41.03916
M204 S20000
G1 X44.036 Y51.14 F9000
M204 S5000
G1 F2400
G1 X49.123 Y47.521 E41.22467
G1 X54.877 Y45.003 E41.41131
G1 X61.024 Y43.716 E41.59793
G1 X67.308 Y43.718 E41.78466
G1 X73.499 Y45.022 E41.97267
G1 X79.277 Y47.568 E42.1603
G1 X84.43 Y51.273 E42.3489
G1 X88.693 Y55.94 E42.53673
G1 X91.925 Y61.394 E42.72512
G1 X93.94 Y67.388 E42.91303
G1 X94.506 Y72.186 E43.05659
G1 X94.409 Y73.467 E43.09476
G1 X94.587 Y75.191 E43.14626
G1 X93.925 Y80.757 E43.31282
G1 X92.166 Y86.142 E43.48116
G1 X89.106 Y91.569 E43.6663
G1 X84.352 Y96.875 E43.878
G1 X79.708 Y100.258 E44.04873
G1 X76.989 Y101.525 E44.13787
G1 X76.91 Y101.704 E44.14368
G1 X76.912 Y161.445 E45.91892
G1 X76.553 Y163.601 E45.98387
G1 X76.127 Y164.647 E46.01743
G1 X75.545 Y165.577 E46.05003
G1 X74.123 Y166.946 E46.10869
G1 X72.795 Y167.649 E46.15334
G1 X71.297 Y168.036 E46.19932
G1 X67.604 Y168.029 E46.30906
G1 X65.683 Y167.459 E46.3686
G1 X64.736 Y166.882 E46.40155
G1 X64.16 Y166.374 E46.42437
G1 X63.584 Y166.881 E46.44717
G1 X62.637 Y167.458 E46.48012
G1 X60.719 Y168.027 E46.53957
G1 X57.415 Y168.068 E46.63776
G1 X56.09 Y167.842 E46.6777
G1 X54.799 Y167.329 E46.71898
G1 X52.99 Y165.824 E46.78891
G1 X52.3 Y164.844 E46.82453
G1 X51.821 Y163.778 E46.85926
G1 X51.416 Y161.52 E46.92743
G1 X51.408 Y101.705 E48.70487
G1 X51.329 Y101.525 E48.71071
G1 X48.61 Y100.258 E48.79985
G1 X43.966 Y96.876 E48.97057
G1 X39.216 Y91.576 E49.18206
G1 X36.252 Y86.37 E49.36008
G1 X34.383 Y80.717 E49.53701
G1 X33.727 Y75.059 E49.70627
G1 X33.907 Y73.458 E49.75414
G1 X33.813 Y72.095 E49.79474
G1 X34.388 Y67.339 E49.9371
G1 X36.411 Y61.352 E50.12489
G1 X39.631 Y55.931 E50.31225
G1 X43.996 Y51.184 E50.50388
M204 S20000
G1 X44.284 Y51.451 F9000
M204 S5000
G1 F2400
G1 X49.301 Y47.877 E50.68692
G1 X54.978 Y45.387 E50.87113
G1 X61.045 Y44.114 E51.05534
G1 X67.246 Y44.111 E51.23961
G1 X73.358 Y45.394 E51.42519
G1 X79.097 Y47.923 E51.61155
G1 X84.181 Y51.583 E51.7977
G1 X88.386 Y56.192 E51.98309
G1 X91.573 Y61.578 E52.16906
G1 X93.557 Y67.494 E52.35448
G1 X94.109 Y72.212 E52.49563
G1 X94.008 Y73.503 E52.53411
G1 X94.097 Y73.848 E52.5447
G1 X94.19 Y75.163 E52.58387
G1 X93.542 Y80.652 E52.74811
G1 X91.794 Y86 E52.9153
G1 X88.77 Y91.355 E53.09805
G1 X84.102 Y96.566 E53.30594
G1 X79.49 Y99.925 E53.47548
G1 X76.687 Y101.227 E53.56732
G1 X76.513 Y101.619 E53.58006
G1 X76.515 Y161.428 E55.35732
G1 X76.177 Y163.473 E55.41891
G1 X75.781 Y164.451 E55.45026
G1 X75.221 Y165.345 E55.48161
G1 X73.87 Y166.639 E55.5372
G1 X72.633 Y167.287 E55.5787
G1 X71.223 Y167.645 E55.62193
G1 X67.688 Y167.64 E55.72697
G1 X65.867 Y167.106 E55.78336
G1 X64.959 Y166.553 E55.81495
G1 X64.16 Y165.841 E55.84675
G1 X63.362 Y166.552 E55.87851
G1 X62.453 Y167.105 E55.91013
G1 X60.634 Y167.639 E55.96646
G1 X57.43 Y167.671 E56.06167
G1 X56.179 Y167.455 E56.09939
G1 X54.976 Y166.973 E56.1379
G1 X53.266 Y165.537 E56.20425
G1 X52.637 Y164.634 E56.23695
G1 X52.194 Y163.639 E56.26932
G1 X51.81 Y161.468 E56.33483
G1 X51.805 Y101.62 E58.11325
G1 X51.631 Y101.228 E58.12599
G1 X48.828 Y99.926 E58.21783
G1 X44.216 Y96.567 E58.38737
G1 X39.551 Y91.361 E58.59509
G1 X36.623 Y86.227 E58.77072
G1 X34.766 Y80.612 E58.94646
G1 X34.123 Y75.034 E59.11331
G1 X34.308 Y73.496 E59.15934
G1 X34.209 Y72.123 E59.20025
G1 X34.771 Y67.446 E59.34023
G1 X36.763 Y61.536 E59.52556
G1 X39.937 Y56.184 E59.71046
G1 X44.243 Y51.495 E59.89963
M204 S20000
G1 X44.531 Y51.762 F9000
M204 S5000
G1 F2400
G1 X49.515 Y48.212 E60.08146
G1 X55.119 Y45.759 E60.26324
G1 X61.106 Y44.506 E60.445
G1 X67.226 Y44.508 E60.62686
G1 X73.255 Y45.778 E60.80995
G1 X78.918 Y48.278 E60.9939
G1 X83.932 Y51.893 E61.17758
G1 X88.079 Y56.444 E61.36054
G1 X91.22 Y61.762 E61.54407
G1 X93.174 Y67.601 E61.72704
G1 X93.713 Y72.239 E61.86579
G1 X93.595 Y73.498 E61.90337
G1 X93.702 Y73.898 E61.91567
G1 X93.794 Y75.136 E61.95256
G1 X93.158 Y80.548 E62.11449
G1 X91.423 Y85.858 E62.28049
G1 X88.435 Y91.141 E62.46085
G1 X83.851 Y96.258 E62.665
G1 X79.272 Y99.593 E62.83333
G1 X76.385 Y100.93 E62.92787
G1 X76.116 Y101.535 E62.94754
G1 X76.118 Y161.412 E64.72682
G1 X75.8 Y163.345 E64.78503
G1 X75.435 Y164.256 E64.81419
G1 X74.898 Y165.113 E64.84424
G1 X73.617 Y166.332 E64.89679
G1 X72.472 Y166.923 E64.93508
G1 X71.151 Y167.254 E64.97555
G1 X67.771 Y167.251 E65.07599
G1 X66.051 Y166.753 E65.1292
G1 X65.181 Y166.223 E65.15947
G1 X64.16 Y165.306 E65.20025
G1 X63.139 Y166.222 E65.24101
G1 X62.269 Y166.752 E65.27128
G1 X60.55 Y167.249 E65.32445
G1 X57.445 Y167.274 E65.41672
G1 X56.268 Y167.067 E65.45223
G1 X55.155 Y166.617 E65.4879
G1 X53.544 Y165.252 E65.55065
G1 X52.976 Y164.425 E65.58046
G1 X52.567 Y163.501 E65.61049
G1 X52.204 Y161.417 E65.67335
G1 X52.202 Y101.536 E67.45275
G1 X51.933 Y100.93 E67.47245
G1 X49.046 Y99.593 E67.56699
G1 X44.467 Y96.259 E67.7353
G1 X39.885 Y91.146 E67.93932
G1 X36.978 Y86.047 E68.11373
G1 X35.15 Y80.507 E68.28708
G1 X34.52 Y75.01 E68.4515
G1 X34.721 Y73.494 E68.49694
G1 X34.606 Y72.151 E68.53699
G1 X35.153 Y67.553 E68.67459
G1 X37.115 Y61.721 E68.85744
G1 X40.244 Y56.437 E69.03992
G1 X44.491 Y51.807 E69.22662
M204 S20000
G1 X44.779 Y52.074 F9000
M204 S5000
G1 F2400
G1 X49.693 Y48.567 E69.40602
G1 X55.22 Y46.144 E69.58535
G1 X61.127 Y44.903 E69.76471
G1 X67.164 Y44.901 E69.9441
G1 X73.114 Y46.15 E70.12476
G1 X78.703 Y48.613 E70.30625
G1 X83.653 Y52.176 E70.48748
G1 X87.771 Y56.696 E70.66918
G1 X90.868 Y61.946 E70.85031
G1 X92.791 Y67.707 E71.03079
G1 X93.316 Y72.265 E71.16713
G1 X93.183 Y73.502 E71.2041
G1 X93.308 Y73.949 E71.21789
G1 X93.397 Y75.109 E71.25246
G1 X92.775 Y80.443 E71.41204
G1 X91.052 Y85.716 E71.57688
G1 X88.101 Y90.926 E71.75481
G1 X83.6 Y95.949 E71.95523
G1 X79.055 Y99.26 E72.12232
G1 X76.083 Y100.632 E72.21959
G1 X75.719 Y101.451 E72.24622
G1 X75.721 Y161.396 E74.02752
G1 X75.424 Y163.218 E74.08238
G1 X75.073 Y164.091 E74.11034
G1 X74.576 Y164.88 E74.13805
G1 X73.366 Y166.023 E74.18751
G1 X72.313 Y166.558 E74.22261
G1 X71.079 Y166.862 E74.26038
G1 X67.853 Y166.861 E74.35624
G1 X66.233 Y166.399 E74.4063
G1 X65.432 Y165.915 E74.43411
G1 X64.607 Y165.178 E74.46698
G1 X64.16 Y164.528 E74.49042
G1 X63.713 Y165.177 E74.51384
G1 X62.889 Y165.914 E74.54669
G1 X62.087 Y166.398 E74.57453
G1 X60.468 Y166.86 E74.62456
G1 X57.462 Y166.877 E74.71389
G1 X56.359 Y166.68 E74.74718
G1 X55.336 Y166.262 E74.78002
G1 X53.823 Y164.969 E74.83916
G1 X53.315 Y164.218 E74.8661
G1 X52.94 Y163.364 E74.89382
G1 X52.601 Y161.401 E74.95302
G1 X52.6 Y101.452 E76.73444
G1 X52.235 Y100.632 E76.76111
G1 X49.264 Y99.261 E76.85834
G1 X44.718 Y95.95 E77.02546
G1 X40.219 Y90.931 E77.22575
G1 X37.349 Y85.904 E77.39776
G1 X35.533 Y80.402 E77.56993
G1 X34.917 Y74.986 E77.73191
G1 X35.023 Y73.886 E77.76475
G1 X35.133 Y73.501 E77.77665
G1 X35.002 Y72.179 E77.81613
G1 X35.536 Y67.66 E77.95135
G1 X37.468 Y61.905 E78.13174
G1 X40.551 Y56.69 E78.31176
G1 X44.738 Y52.118 E78.49598
M204 S20000
G1 X45.027 Y52.384 F9000
M204 S5000
G1 F2400
G1 X49.872 Y48.923 E78.67291
G1 X55.361 Y46.516 E78.85101
G1 X61.188 Y45.296 E79.02792
G1 X67.143 Y45.298 E79.20488
G1 X73.012 Y46.534 E79.38311
G1 X78.523 Y48.967 E79.56212
G1 X83.404 Y52.486 E79.74093
G1 X87.464 Y56.948 E79.92019
G1 X90.515 Y62.129 E80.09886
G1 X92.408 Y67.812 E80.27686
G1 X92.919 Y72.291 E80.41082
G1 X92.77 Y73.505 E80.44717
G1 X92.914 Y74.002 E80.46255
G1 X93 Y75.083 E80.49477
G1 X92.391 Y80.339 E80.652
G1 X90.681 Y85.573 E80.81562
G1 X87.766 Y90.712 E80.99118
G1 X83.35 Y95.64 E81.18781
G1 X78.837 Y98.927 E81.35372
G1 X75.726 Y100.358 E81.45548
G1 X75.322 Y101.367 E81.48778
G1 X75.323 Y161.381 E83.27113
G1 X75.047 Y163.092 E83.32263
G1 X74.727 Y163.895 E83.34832
G1 X74.254 Y164.646 E83.37469
G1 X73.116 Y165.713 E83.42105
G1 X72.156 Y166.193 E83.45294
G1 X71.01 Y166.471 E83.48798
G1 X67.882 Y166.465 E83.58093
G1 X66.37 Y166.025 E83.62772
G1 X65.683 Y165.607 E83.65162
G1 X64.892 Y164.899 E83.68317
G1 X64.16 Y163.809 E83.72219
G1 X63.429 Y164.898 E83.76116
G1 X62.638 Y165.606 E83.79271
G1 X61.951 Y166.024 E83.81661
G1 X60.438 Y166.463 E83.86342
G1 X57.477 Y166.48 E83.95141
G1 X56.49 Y166.305 E83.9812
G1 X55.516 Y165.907 E84.01247
G1 X54.137 Y164.724 E84.06646
G1 X53.654 Y164.011 E84.09205
G1 X53.314 Y163.228 E84.11742
G1 X52.998 Y161.384 E84.17301
G1 X52.997 Y101.367 E85.95645
G1 X52.592 Y100.359 E85.98873
G1 X49.481 Y98.928 E86.09049
G1 X44.968 Y95.641 E86.2564
G1 X40.554 Y90.716 E86.45293
G1 X37.703 Y85.724 E86.62376
G1 X35.917 Y80.297 E86.79353
G1 X35.314 Y74.963 E86.95304
G1 X35.416 Y73.945 E86.98344
G1 X35.546 Y73.506 E86.99705
