; generated by PrusaSlicer 2.8.1+win64 on 2024-11-14 at 15:51:35 UTC

; 

; external perimeters extrusion width = 0.45mm
; perimeters extrusion width = 0.45mm
; infill extrusion width = 0.45mm
; solid infill extrusion width = 0.45mm
; top infill extrusion width = 0.40mm
; support material extrusion width = 0.45mm
; first layer extrusion width = 0.50mm

M73 P0 R51
;TYPE:Custom
;G28 ; home all axes
;G1 Z5 F5000 ; lift nozzle
M109 S205
G28 ;home
G92 E0 ;Reset Extruder
G1 Z4.0 F3000 ;Move Z Axis up
G92 E0 ;Reset Extruder
G1 X3.1 Y20 Z0.28 F5000.0 ;Move to start position
G1 X3.1 Y80.0 Z0.28 F1500.0 E10 ;Draw the first line
G1 X3.4 Y80.0 Z0.28 F5000.0 ;Move to side a little
G1 X3.4 Y20 Z0.28 F1500.0 E20 ;Draw the second line
G92 E0 ;Reset Extruder
G1 Z2.0 F3000 ;Move Z Axis up
G21 ; set units to millimeters
G90 ; use absolute coordinates
M82 ; use absolute distances for extrusion
G92 E0
; Filament gcode
M107
;LAYER_CHANGE
;Z:0.3
;HEIGHT:0.3
G1 E-2 F2400
G1 Z.3 F15000
G1 X55.945 Y68.569
G1 E0 F2400
;TYPE:Skirt/Brim
;WIDTH:0.5
G1 F3600
G1 X119.314 Y16.867 E4.22141
G1 X121.258 Y15.793 E4.33605
G1 X123.244 Y15.467 E4.43993
G1 X148.244 Y15.467 E5.73034
G1 X150.43 Y15.864 E5.84502
G1 X152.337 Y17.003 E5.95967
G1 X153.721 Y18.741 E6.07435
G1 X154.462 Y21.685 E6.23105
G1 X154.464 Y174.498 E14.11868
G1 X154.067 Y176.683 E14.23331
G1 X152.643 Y178.894 E14.36905
G1 X137.905 Y193.63 E15.4448
G1 X134.728 Y196.556 E15.66774
G1 X132.757 Y198.163 E15.799
G1 X129.031 Y200.824 E16.03533
G1 X96.766 Y221.006 E17.99969
G1 X95.018 Y221.957 E18.1024
G1 X92.427 Y223.011 E18.24678
G1 X90.853 Y223.467 E18.33136
G1 X89.248 Y223.8 E18.41597
G1 X87.143 Y224.045 E18.52536
G1 X83.533 Y224.048 E18.71169
G1 X81.955 Y223.888 E18.79356
G1 X80.393 Y223.61 E18.87545
G1 X46.514 Y213.849 E20.69529
G1 X44.526 Y212.859 E20.80992
G1 X43.011 Y211.234 E20.92459
G1 X42.165 Y209.18 E21.03925
G1 X42.027 Y207.876 E21.10693
G1 X42.027 Y82.876 E27.55896
G1 X42.423 Y80.691 E27.67358
G1 X44.314 Y78.059 E27.84086
G1 X55.898 Y68.607 E28.61257
G1 E26.61257 F2400
G92 E0
G1 X55.898 Y68.607 F15000
G92 E0
G1 X87.818 Y131.062
G1 E2 F2400
;TYPE:Perimeter
G1 F3600
G1 X87.357 Y131.384 E2.02902
G1 X86.848 Y131.622 E2.05802
G1 X86.305 Y131.767 E2.08703
G1 X85.744 Y131.816 E2.1161
G1 X85.184 Y131.767 E2.14512
G1 X84.641 Y131.622 E2.17413
G1 X84.132 Y131.384 E2.20313
G1 X83.671 Y131.062 E2.23215
G1 X83.274 Y130.664 E2.26117
G1 X82.951 Y130.203 E2.29022
G1 X82.728 Y129.725 E2.31745
G1 X82.568 Y129.158 E2.34786
G1 X82.519 Y128.591 E2.37724
G1 X82.568 Y128.031 E2.40626
G1 X82.713 Y127.487 E2.43532
G1 X82.951 Y126.978 E2.46432
G1 X83.274 Y126.517 E2.49337
G1 X83.671 Y126.12 E2.52235
G1 X84.132 Y125.797 E2.5514
G1 X84.641 Y125.56 E2.58038
G1 X85.184 Y125.414 E2.6094
G1 X85.71 Y125.368 E2.63665
G1 X86.298 Y125.412 E2.66709
G1 X86.848 Y125.56 E2.69649
G1 X87.357 Y125.797 E2.72547
G1 X87.818 Y126.12 E2.75452
G1 X88.215 Y126.517 E2.7835
G1 X88.538 Y126.978 E2.81255
G1 X88.775 Y127.487 E2.84153
G1 X88.921 Y128.031 E2.8706
G1 X88.97 Y128.591 E2.89962
G1 X88.921 Y129.151 E2.92864
G1 X88.775 Y129.694 E2.95766
G1 X88.538 Y130.203 E2.98664
G1 X88.215 Y130.664 E3.01569
G1 X87.86 Y131.019 E3.0416
G1 X87.86 Y131.019 F15000
G1 X87.537 Y130.727
G1 F3600
G1 X87.139 Y131.005 E3.06666
G1 X86.698 Y131.211 E3.09178
G1 X86.229 Y131.337 E3.11685
G1 X85.744 Y131.379 E3.14198
G1 X85.26 Y131.337 E3.16706
G1 X84.791 Y131.211 E3.19213
G1 X84.35 Y131.005 E3.21725
G1 X83.952 Y130.727 E3.24231
G1 X83.608 Y130.383 E3.26742
G1 X83.33 Y129.985 E3.29248
G1 X83.138 Y129.573 E3.31594
G1 X82.999 Y129.079 E3.34243
G1 X82.956 Y128.591 E3.36772
G1 X82.999 Y128.106 E3.39285
G1 X83.124 Y127.637 E3.4179
G1 X83.33 Y127.197 E3.44298
G1 X83.609 Y126.798 E3.46811
G1 X83.952 Y126.455 E3.49315
G1 X84.35 Y126.176 E3.51824
G1 X84.791 Y125.971 E3.54334
G1 X85.26 Y125.845 E3.56841
G1 X85.713 Y125.805 E3.59188
G1 X86.225 Y125.844 E3.61838
G1 X86.698 Y125.971 E3.64366
G1 X87.139 Y126.176 E3.66876
G1 X87.537 Y126.455 E3.69385
G1 X87.88 Y126.798 E3.71889
G1 X88.159 Y127.197 E3.74402
G1 X88.365 Y127.637 E3.7691
G1 X88.49 Y128.106 E3.79415
G1 X88.533 Y128.591 E3.81928
G1 X88.49 Y129.075 E3.84436
G1 X88.365 Y129.544 E3.86941
G1 X88.159 Y129.985 E3.89453
G1 X87.88 Y130.383 E3.91962
G1 X87.579 Y130.684 E3.94159
G1 X87.579 Y130.684 F15000
G1 X87.256 Y130.392
;TYPE:External perimeter
G1 F3600
G1 X86.92 Y130.627 E3.96275
G1 X86.548 Y130.8 E3.98393
G1 X86.153 Y130.906 E4.00504
G1 X85.744 Y130.942 E4.02623
G1 X85.336 Y130.906 E4.04737
G1 X84.94 Y130.8 E4.06853
G1 X84.569 Y130.627 E4.08966
G1 X84.233 Y130.392 E4.11082
G1 X83.943 Y130.102 E4.13199
G1 X83.708 Y129.766 E4.15315
G1 X83.547 Y129.421 E4.1728
G1 X83.429 Y129 E4.19537
G1 X83.393 Y128.591 E4.21656
G1 X83.429 Y128.182 E4.23775
G1 X83.535 Y127.787 E4.25886
G1 X83.708 Y127.415 E4.28004
G1 X83.943 Y127.079 E4.3012
G1 X84.233 Y126.79 E4.32233
G1 X84.569 Y126.555 E4.34349
G1 X84.94 Y126.381 E4.36464
G1 X85.336 Y126.275 E4.3858
G1 X85.716 Y126.242 E4.40549
G1 X86.151 Y126.275 E4.42801
G1 X86.548 Y126.381 E4.44922
G1 X86.92 Y126.555 E4.47042
G1 X87.256 Y126.79 E4.49158
G1 X87.545 Y127.079 E4.51268
G1 X87.78 Y127.415 E4.53384
G1 X87.954 Y127.787 E4.55504
G1 X88.06 Y128.182 E4.57615
G1 X88.095 Y128.591 E4.59734
G1 X88.06 Y128.999 E4.61848
G1 X87.954 Y129.395 E4.63964
G1 X87.78 Y129.766 E4.66079
G1 X87.545 Y130.102 E4.68195
G1 X87.298 Y130.349 E4.69998
G1 X86.976 Y130.586 F15000
G1 E2.69998 F2400
G92 E0
G1 X86.305 Y200.414 F15000
G1 E2 F2400
;TYPE:Perimeter
G1 F3600
G1 X86.848 Y200.56 E2.02902
G1 X87.357 Y200.797 E2.058
G1 X87.818 Y201.12 E2.08705
G1 X88.215 Y201.517 E2.11603
G1 X88.538 Y201.978 E2.14508
G1 X88.775 Y202.487 E2.17406
G1 X88.921 Y203.031 E2.20313
G1 X88.97 Y203.591 E2.23215
G1 X88.921 Y204.151 E2.26117
G1 X88.775 Y204.694 E2.29019
G1 X88.538 Y205.203 E2.31917
G1 X88.215 Y205.664 E2.34822
G1 X87.818 Y206.062 E2.37724
G1 X87.357 Y206.384 E2.40626
G1 X86.848 Y206.622 E2.43526
G1 X86.305 Y206.767 E2.46427
G1 X85.744 Y206.816 E2.49334
G1 X85.184 Y206.767 E2.52236
G1 X84.641 Y206.622 E2.55137
G1 X84.132 Y206.384 E2.58037
G1 X83.671 Y206.062 E2.60939
G1 X83.274 Y205.664 E2.63841
G1 X82.951 Y205.203 E2.66746
G1 X82.713 Y204.694 E2.69646
G1 X82.568 Y204.151 E2.72547
G1 X82.519 Y203.591 E2.75449
G1 X82.568 Y203.031 E2.78351
G1 X82.713 Y202.487 E2.81257
G1 X82.951 Y201.978 E2.84157
G1 X83.274 Y201.517 E2.87062
G1 X83.671 Y201.12 E2.8996
G1 X84.132 Y200.797 E2.92865
G1 X84.641 Y200.56 E2.95763
G1 X85.184 Y200.414 E2.98665
G1 X85.71 Y200.368 E3.0139
G1 X86.245 Y200.408 E3.04159
G1 X86.245 Y200.408 F15000
G1 X86.229 Y200.845
G1 F3600
G1 X86.698 Y200.971 E3.06666
G1 X87.139 Y201.176 E3.09176
G1 X87.537 Y201.455 E3.11685
G1 X87.88 Y201.798 E3.14189
G1 X88.159 Y202.197 E3.16702
G1 X88.365 Y202.637 E3.1921
G1 X88.49 Y203.106 E3.21715
G1 X88.533 Y203.591 E3.24228
G1 X88.49 Y204.075 E3.26736
G1 X88.365 Y204.544 E3.29241
G1 X88.159 Y204.985 E3.31753
G1 X87.88 Y205.383 E3.34262
G1 X87.537 Y205.727 E3.36769
G1 X87.139 Y206.005 E3.39275
G1 X86.698 Y206.211 E3.41787
G1 X86.229 Y206.337 E3.44294
G1 X85.744 Y206.379 E3.46807
G1 X85.26 Y206.337 E3.49315
G1 X84.791 Y206.211 E3.51822
G1 X84.35 Y206.005 E3.54334
G1 X83.952 Y205.727 E3.5684
G1 X83.608 Y205.383 E3.59351
G1 X83.33 Y204.985 E3.61857
G1 X83.124 Y204.544 E3.64369
G1 X82.999 Y204.075 E3.66874
G1 X82.956 Y203.591 E3.69382
G1 X82.999 Y203.106 E3.71895
G1 X83.124 Y202.637 E3.744
G1 X83.33 Y202.197 E3.76908
G1 X83.609 Y201.798 E3.79421
G1 X83.952 Y201.455 E3.81925
G1 X84.35 Y201.176 E3.84434
G1 X84.791 Y200.971 E3.86944
G1 X85.26 Y200.845 E3.89451
G1 X85.713 Y200.805 E3.91798
G1 X86.169 Y200.84 E3.94159
G1 X86.169 Y200.84 F15000
G1 X86.153 Y201.275
;TYPE:External perimeter
G1 F3600
G1 X86.548 Y201.381 E3.9627
G1 X86.92 Y201.555 E3.9839
G1 X87.256 Y201.79 E4.00506
G1 X87.545 Y202.079 E4.02616
G1 X87.78 Y202.415 E4.04732
G1 X87.954 Y202.787 E4.06852
G1 X88.06 Y203.182 E4.08963
G1 X88.095 Y203.591 E4.11082
G1 X88.06 Y203.999 E4.13196
G1 X87.954 Y204.395 E4.15312
G1 X87.78 Y204.766 E4.17427
G1 X87.545 Y205.102 E4.19543
G1 X87.256 Y205.392 E4.21656
G1 X86.92 Y205.627 E4.23772
G1 X86.548 Y205.8 E4.2589
G1 X86.153 Y205.906 E4.28001
G1 X85.744 Y205.942 E4.3012
G1 X85.336 Y205.906 E4.32234
G1 X84.94 Y205.8 E4.3435
G1 X84.569 Y205.627 E4.36463
G1 X84.233 Y205.392 E4.38579
G1 X83.943 Y205.102 E4.40696
G1 X83.708 Y204.766 E4.42812
G1 X83.535 Y204.395 E4.44925
G1 X83.429 Y203.999 E4.47041
G1 X83.393 Y203.591 E4.49155
G1 X83.429 Y203.182 E4.51274
G1 X83.535 Y202.787 E4.53385
G1 X83.708 Y202.415 E4.55503
G1 X83.943 Y202.079 E4.57619
G1 X84.233 Y201.79 E4.59732
G1 X84.569 Y201.555 E4.61848
G1 X84.94 Y201.381 E4.63963
G1 X85.336 Y201.275 E4.66079
G1 X85.716 Y201.242 E4.68048
G1 X86.093 Y201.271 E4.7
G1 X86.482 Y201.365 F15000
G1 E2.7 F2400
G92 E0
G1 X49.366 Y83.998 F15000
G1 E2 F2400
;TYPE:Perimeter
G1 F3600
G1 X73.256 Y83.998 E3.23311
G1 X75.357 Y83.954 E3.34158
G1 X77.466 Y83.823 E3.45065
G1 X79.568 Y83.605 E3.55973
G1 X81.659 Y83.301 E3.66879
G1 X83.735 Y82.91 E3.77783
G1 X85.794 Y82.434 E3.88691
G1 X87.831 Y81.873 E3.99597
G1 X89.844 Y81.228 E4.10508
G1 X91.827 Y80.501 E4.2141
G1 X93.78 Y79.692 E4.32321
G1 X95.697 Y78.803 E4.43228
G1 X97.576 Y77.836 E4.54136
G1 X99.413 Y76.792 E4.65042
G1 X101.205 Y75.674 E4.75944
G1 X102.95 Y74.482 E4.86852
G1 X104.644 Y73.218 E4.97762
G1 X106.284 Y71.886 E5.08667
G1 X107.868 Y70.488 E5.19572
G1 X109.393 Y69.025 E5.3048
G1 X110.856 Y67.5 E5.41388
G1 X112.254 Y65.916 E5.52293
G1 X113.586 Y64.276 E5.63198
G1 X114.85 Y62.582 E5.74108
G1 X116.042 Y60.837 E5.85016
G1 X117.161 Y59.045 E5.95921
G1 X118.204 Y57.208 E6.06825
G1 X119.171 Y55.329 E6.17733
G1 X120.06 Y53.412 E6.2864
G1 X120.869 Y51.459 E6.39551
G1 X121.596 Y49.475 E6.50458
G1 X122.241 Y47.463 E6.61364
G1 X122.802 Y45.426 E6.7227
G1 X123.278 Y43.367 E6.83178
G1 X123.669 Y41.291 E6.94082
G1 X123.973 Y39.2 E7.04988
G1 X124.191 Y37.098 E7.15896
G1 X124.322 Y34.989 E7.26803
G1 X124.366 Y32.888 E7.3765
G1 X124.366 Y22.806 E7.89689
G1 X147.123 Y22.806 E9.07152
G1 X147.123 Y153.787 E15.83226
G1 X147.125 Y174.033 E16.87728
G1 X132.817 Y188.341 E17.92171
G1 X131.374 Y189.725 E18.02491
G1 X129.882 Y191.045 E18.12773
G1 X128.339 Y192.302 E18.23046
G1 X126.745 Y193.496 E18.33326
G1 X125.104 Y194.624 E18.43604
G1 X123.419 Y195.684 E18.53879
G1 X121.692 Y196.674 E18.64154
G1 X119.926 Y197.594 E18.74432
G1 X118.124 Y198.44 E18.84707
G1 X116.232 Y199.234 E18.95298
G1 X114.424 Y199.91 E19.05261
G1 X112.532 Y200.531 E19.15539
G1 X110.617 Y201.074 E19.25813
G1 X108.681 Y201.538 E19.36089
G1 X106.691 Y201.931 E19.46559
G1 X105.755 Y202.139 E19.51508
G1 X104.807 Y202.442 E19.56645
G1 X103.889 Y202.828 E19.61785
G1 X103.01 Y203.294 E19.6692
G1 X102.176 Y203.838 E19.7206
G1 X101.394 Y204.453 E19.77195
G1 X100.67 Y205.137 E19.82336
G1 X100.01 Y205.882 E19.87473
G1 X99.419 Y206.683 E19.92611
G1 X98.901 Y207.535 E19.97758
G1 X97.998 Y209.392 E20.08416
G1 X97.457 Y210.32 E20.13961
G1 X96.848 Y211.202 E20.19493
G1 X96.172 Y212.034 E20.25026
G1 X95.434 Y212.812 E20.30561
G1 X94.638 Y213.53 E20.36094
G1 X93.789 Y214.185 E20.41629
G1 X92.891 Y214.772 E20.47167
G1 X91.952 Y215.289 E20.527
G1 X90.976 Y215.73 E20.58228
G1 X89.934 Y216.105 E20.63944
G1 X88.933 Y216.383 E20.69306
G1 X87.881 Y216.589 E20.74839
G1 X86.816 Y216.713 E20.80373
G1 X85.723 Y216.755 E20.86019
G1 X84.908 Y216.755 E20.90226
G1 X83.849 Y216.716 E20.95696
G1 X82.818 Y216.599 E21.01052
G1 X81.798 Y216.406 E21.0641
G1 X80.796 Y216.138 E21.11764
G1 X79.816 Y215.795 E21.17123
G1 X78.865 Y215.38 E21.22479
G1 X77.948 Y214.895 E21.27833
G1 X77.069 Y214.343 E21.33191
G1 X76.234 Y213.727 E21.38547
G1 X75.447 Y213.05 E21.43905
G1 X74.713 Y212.316 E21.49263
G1 X74.036 Y211.529 E21.54621
G1 X73.417 Y210.689 E21.60007
G1 X72.431 Y209.156 E21.69415
G1 X71.895 Y208.545 E21.7361
G1 X71.276 Y208.006 E21.77847
G1 X70.628 Y207.573 E21.8187
G1 X69.909 Y207.219 E21.86007
G1 X69.151 Y206.961 E21.9014
G1 X68.365 Y206.805 E21.94276
G1 X67.603 Y206.755 E21.98218
G1 X49.366 Y206.755 E22.9235
G1 X49.366 Y198.83 E23.33256
G1 X49.748 Y198.819 E23.35229
G1 X51.247 Y198.697 E23.42992
G1 X52.737 Y198.494 E23.50754
G1 X54.204 Y198.213 E23.58464
G1 X55.673 Y197.848 E23.66277
G1 X57.111 Y197.407 E23.74041
G1 X58.523 Y196.888 E23.81806
G1 X59.905 Y196.294 E23.8957
G1 X61.252 Y195.625 E23.97333
G1 X62.561 Y194.885 E24.05094
G1 X63.828 Y194.075 E24.12856
G1 X65.05 Y193.198 E24.2062
G1 X66.222 Y192.255 E24.28384
G1 X67.341 Y191.251 E24.36144
G1 X68.398 Y190.195 E24.43856
G1 X69.409 Y189.068 E24.51671
G1 X70.352 Y187.896 E24.59435
G1 X71.229 Y186.675 E24.67195
G1 X72.039 Y185.407 E24.74961
G1 X72.779 Y184.098 E24.82722
G1 X73.447 Y182.751 E24.90483
G1 X74.042 Y181.369 E24.98249
G1 X74.56 Y179.958 E25.06007
G1 X75.002 Y178.52 E25.13772
G1 X75.365 Y177.06 E25.21537
G1 X75.646 Y175.593 E25.29247
G1 X75.851 Y174.093 E25.37061
G1 X75.973 Y172.594 E25.44824
G1 X76.013 Y171.106 E25.52507
G1 X76.013 Y166.075 E25.78475
G1 X75.973 Y164.587 E25.86158
G1 X75.851 Y163.088 E25.93921
G1 X75.648 Y161.598 E26.01683
G1 X75.365 Y160.121 E26.09445
G1 X75.002 Y158.662 E26.17205
G1 X74.56 Y157.224 E26.2497
G1 X74.042 Y155.812 E26.32733
G1 X73.447 Y154.431 E26.40495
G1 X72.779 Y153.083 E26.4826
G1 X72.039 Y151.774 E26.56021
G1 X71.229 Y150.507 E26.63783
G1 X70.352 Y149.285 E26.71547
G1 X69.409 Y148.113 E26.79311
G1 X68.405 Y146.994 E26.87071
G1 X67.341 Y145.93 E26.94838
G1 X66.222 Y144.926 E27.02598
G1 X65.05 Y143.984 E27.10359
G1 X63.828 Y143.106 E27.18126
G1 X62.561 Y142.296 E27.25888
G1 X61.252 Y141.556 E27.33649
G1 X59.905 Y140.888 E27.4141
G1 X58.523 Y140.293 E27.49176
G1 X57.111 Y139.775 E27.56939
G1 X55.674 Y139.333 E27.64699
G1 X54.214 Y138.97 E27.72464
G1 X52.737 Y138.687 E27.80226
G1 X51.247 Y138.484 E27.87988
G1 X49.748 Y138.362 E27.95751
G1 X49.366 Y138.352 E27.97723
G1 X49.366 Y84.058 E30.77968
G1 X49.366 Y84.058 F15000
G1 X48.93 Y83.562
G1 F3600
G1 X73.251 Y83.562 E32.03504
G1 X75.339 Y83.519 E32.14284
G1 X77.43 Y83.389 E32.25098
G1 X79.514 Y83.173 E32.35912
G1 X81.587 Y82.871 E32.46725
G1 X83.646 Y82.483 E32.5754
G1 X85.687 Y82.011 E32.68353
G1 X87.707 Y81.455 E32.79167
G1 X89.702 Y80.816 E32.8998
G1 X91.669 Y80.095 E33.00793
G1 X93.605 Y79.293 E33.11609
G1 X95.505 Y78.412 E33.22419
G1 X97.368 Y77.453 E33.33234
G1 X99.19 Y76.418 E33.4405
G1 X100.967 Y75.309 E33.54862
G1 X102.697 Y74.127 E33.65677
G1 X104.376 Y72.875 E33.76488
G1 X106.003 Y71.554 E33.87305
G1 X107.573 Y70.167 E33.98118
G1 X109.085 Y68.717 E34.08931
G1 X110.535 Y67.205 E34.19744
G1 X111.922 Y65.635 E34.30557
G1 X113.243 Y64.008 E34.41374
G1 X114.495 Y62.329 E34.52185
G1 X115.677 Y60.599 E34.63
G1 X116.786 Y58.822 E34.73812
G1 X117.821 Y57 E34.84628
G1 X118.78 Y55.137 E34.95443
G1 X119.661 Y53.237 E35.06253
G1 X120.463 Y51.301 E35.17069
G1 X121.184 Y49.334 E35.27882
G1 X121.823 Y47.339 E35.38695
G1 X122.379 Y45.319 E35.49509
G1 X122.851 Y43.278 E35.60322
G1 X123.239 Y41.219 E35.71137
G1 X123.541 Y39.146 E35.8195
G1 X123.757 Y37.062 E35.92764
G1 X123.887 Y34.971 E36.03578
G1 X123.93 Y32.883 E36.14358
G1 X123.93 Y22.37 E36.68622
G1 X147.559 Y22.37 E37.90586
G1 X147.559 Y153.787 E44.68911
M73 P1 R51
G1 X147.56 Y174.214 E45.74347
G1 X133.122 Y188.652 E46.79739
G1 X131.669 Y190.046 E46.90132
G1 X130.164 Y191.377 E47.00502
G1 X128.607 Y192.646 E47.1087
G1 X126.999 Y193.85 E47.21239
G1 X125.344 Y194.988 E47.31606
G1 X123.643 Y196.057 E47.41976
G1 X121.901 Y197.057 E47.52344
G1 X120.119 Y197.984 E47.62712
G1 X118.301 Y198.838 E47.7308
G1 X116.393 Y199.639 E47.83761
G1 X114.568 Y200.321 E47.93817
G1 X112.659 Y200.947 E48.04187
G1 X110.727 Y201.495 E48.14553
G1 X108.774 Y201.964 E48.2492
G1 X106.781 Y202.357 E48.35405
G1 X105.869 Y202.56 E48.40228
G1 X104.958 Y202.851 E48.45164
G1 X104.076 Y203.222 E48.50103
G1 X103.231 Y203.67 E48.5504
G1 X102.43 Y204.192 E48.59975
G1 X101.678 Y204.784 E48.64915
G1 X100.983 Y205.44 E48.69848
G1 X100.349 Y206.156 E48.74784
G1 X99.781 Y206.926 E48.79723
G1 X99.284 Y207.744 E48.84663
G1 X98.383 Y209.597 E48.95298
G1 X97.825 Y210.553 E49.01012
G1 X97.197 Y211.463 E49.06719
