; generated by PrusaSlicer 2.8.1+win64 on 2024-11-14 at 13:57:51 UTC

; 

; external perimeters extrusion width = 0.45mm
; perimeters extrusion width = 0.45mm
; infill extrusion width = 0.45mm
; solid infill extrusion width = 0.45mm
; top infill extrusion width = 0.40mm
; support material extrusion width = 0.45mm
; first layer extrusion width = 0.50mm

M73 P0 R51
;TYPE:Custom
;G28 ; home all axes
;G1 Z5 F5000 ; lift nozzle
M109 S205
G28 ;home
G92 E0 ;Reset Extruder
G1 Z4.0 F3000 ;Move Z Axis up
G92 E0 ;Reset Extruder
G1 X3.1 Y20 Z0.28 F5000.0 ;Move to start position
G1 X3.1 Y80.0 Z0.28 F1500.0 E10 ;Draw the first line
G1 X3.4 Y80.0 Z0.28 F5000.0 ;Move to side a little
G1 X3.4 Y20 Z0.28 F1500.0 E20 ;Draw the second line
G92 E0 ;Reset Extruder
G1 Z2.0 F3000 ;Move Z Axis up
G21 ; set units to millimeters
G90 ; use absolute coordinates
M82 ; use absolute distances for extrusion
G92 E0
; Filament gcode
M107
;LAYER_CHANGE
;Z:0.3
;HEIGHT:0.3
G1 E-2 F2400
G1 Z.3 F15000
G1 X17.367 Y21.793
G1 E0 F2400
;TYPE:Skirt/Brim
;WIDTH:0.5
G1 F3600
G1 X18.164 Y21.158 E.0526
G1 X21.108 Y20.417 E.2093
G1 X46.108 Y20.417 E1.49971
G1 X48.294 Y20.814 E1.61439
G1 X50.039 Y21.817 E1.71828
G1 X125.039 Y83.009 E6.71452
G1 X126.481 Y84.698 E6.82915
G1 X127.326 Y87.826 E6.99639
G1 X127.326 Y212.826 E13.44842
G1 X126.929 Y215.012 E13.5631
G1 X125.789 Y216.919 E13.67778
G1 X124.052 Y218.303 E13.79242
G1 X122.838 Y218.799 E13.86011
G1 X88.96 Y228.56 E15.6799
G1 X87.398 Y228.838 E15.76179
G1 X85.82 Y228.998 E15.84366
G1 X83.608 Y229.044 E15.95786
G1 X81.731 Y228.958 E16.05485
G1 X80.105 Y228.75 E16.13946
G1 X77.383 Y228.107 E16.28383
G1 X75.836 Y227.566 E16.36842
G1 X74.335 Y226.907 E16.45303
G1 X72.587 Y225.956 E16.55574
G1 X40.112 Y205.637 E18.53304
G1 X36.399 Y202.959 E18.76934
G1 X32.916 Y199.988 E19.00564
G1 X16.711 Y183.844 E20.18632
G1 X15.447 Y182.018 E20.30095
G1 X14.89 Y179.448 E20.43668
G1 X14.89 Y26.635 E28.32431
G1 X15.287 Y24.449 E28.43899
G1 X16.427 Y22.542 E28.55367
G1 X17.32 Y21.831 E28.61259
G1 E26.61259 F2400
G92 E0
G1 X17.32 Y21.831 F15000
G92 E0
G1 X85.221 Y130.747
G1 E2 F2400
;TYPE:Perimeter
G1 F3600
G1 X85.681 Y131.07 E2.02901
G1 X86.079 Y131.467 E2.05803
G1 X86.401 Y131.928 E2.08705
G1 X86.639 Y132.437 E2.11605
G1 X86.785 Y132.981 E2.14512
G1 X86.834 Y133.541 E2.17414
G1 X86.785 Y134.101 E2.20316
G1 X86.639 Y134.644 E2.23218
G1 X86.401 Y135.153 E2.26118
G1 X86.079 Y135.614 E2.2902
G1 X85.681 Y136.012 E2.31925
G1 X85.221 Y136.334 E2.34823
G1 X84.711 Y136.572 E2.37728
G1 X84.168 Y136.717 E2.40629
G1 X83.608 Y136.766 E2.43531
G1 X83.048 Y136.717 E2.46433
G1 X82.505 Y136.572 E2.49334
G1 X81.995 Y136.334 E2.52239
G1 X81.535 Y136.012 E2.55137
G1 X81.137 Y135.614 E2.58042
G1 X80.815 Y135.153 E2.60944
G1 X80.577 Y134.644 E2.63844
G1 X80.432 Y134.101 E2.66745
G1 X80.383 Y133.541 E2.69647
G1 X80.432 Y132.981 E2.72549
G1 X80.577 Y132.437 E2.75455
G1 X80.815 Y131.928 E2.78355
G1 X81.137 Y131.467 E2.81257
G1 X81.535 Y131.07 E2.84159
G1 X81.995 Y130.747 E2.8706
G1 X82.505 Y130.51 E2.89963
G1 X83.048 Y130.364 E2.92865
G1 X83.574 Y130.318 E2.9559
G1 X84.162 Y130.362 E2.98634
G1 X84.711 Y130.51 E3.01569
G1 X85.166 Y130.722 E3.0416
G1 X85.166 Y130.722 F15000
G1 X85.002 Y131.126
G1 F3600
G1 X85.4 Y131.405 E3.06669
G1 X85.744 Y131.748 E3.09176
G1 X86.023 Y132.147 E3.11689
G1 X86.228 Y132.587 E3.14195
G1 X86.354 Y133.056 E3.16702
G1 X86.396 Y133.541 E3.19215
G1 X86.354 Y134.025 E3.21723
G1 X86.228 Y134.494 E3.2423
G1 X86.023 Y134.935 E3.2674
G1 X85.744 Y135.333 E3.29249
G1 X85.4 Y135.677 E3.3176
G1 X85.002 Y135.955 E3.34266
G1 X84.562 Y136.161 E3.36774
G1 X84.092 Y136.287 E3.39286
G1 X83.608 Y136.329 E3.41794
G1 X83.124 Y136.287 E3.44302
G1 X82.654 Y136.161 E3.46814
G1 X82.214 Y135.955 E3.49322
G1 X81.816 Y135.677 E3.51828
G1 X81.472 Y135.333 E3.54339
G1 X81.193 Y134.935 E3.56848
G1 X80.988 Y134.494 E3.59358
G1 X80.862 Y134.025 E3.61865
G1 X80.82 Y133.541 E3.64373
G1 X80.862 Y133.056 E3.66886
G1 X80.988 Y132.587 E3.69393
G1 X81.193 Y132.147 E3.71899
G1 X81.472 Y131.748 E3.74412
G1 X81.816 Y131.405 E3.76919
G1 X82.214 Y131.126 E3.79428
G1 X82.654 Y130.921 E3.81934
G1 X83.124 Y130.795 E3.84446
G1 X83.577 Y130.755 E3.86793
G1 X84.088 Y130.794 E3.89438
G1 X84.562 Y130.921 E3.91971
G1 X84.948 Y131.101 E3.94169
G1 X84.948 Y131.101 F15000
G1 X84.784 Y131.505
;TYPE:External perimeter
G1 F3600
G1 X85.119 Y131.74 E3.96281
G1 X85.409 Y132.029 E3.98394
G1 X85.644 Y132.365 E4.0051
G1 X85.817 Y132.737 E4.02628
G1 X85.923 Y133.132 E4.04739
G1 X85.959 Y133.541 E4.06858
G1 X85.923 Y133.949 E4.08972
G1 X85.817 Y134.345 E4.11088
G1 X85.644 Y134.716 E4.13201
G1 X85.409 Y135.052 E4.15317
G1 X85.119 Y135.342 E4.17434
G1 X84.784 Y135.577 E4.19546
G1 X84.412 Y135.75 E4.21664
G1 X84.016 Y135.856 E4.2378
G1 X83.608 Y135.892 E4.25894
G1 X83.2 Y135.856 E4.28008
G1 X82.804 Y135.75 E4.30124
G1 X82.433 Y135.577 E4.32237
G1 X82.097 Y135.342 E4.34353
G1 X81.807 Y135.052 E4.3647
G1 X81.572 Y134.716 E4.38586
G1 X81.399 Y134.345 E4.40699
G1 X81.293 Y133.949 E4.42815
G1 X81.257 Y133.541 E4.44929
G1 X81.293 Y133.132 E4.47048
G1 X81.399 Y132.737 E4.49159
G1 X81.572 Y132.365 E4.51277
G1 X81.807 Y132.029 E4.53393
G1 X82.097 Y131.74 E4.55506
G1 X82.433 Y131.505 E4.57622
G1 X82.804 Y131.331 E4.59737
G1 X83.2 Y131.225 E4.61853
G1 X83.579 Y131.192 E4.63817
G1 X84.015 Y131.225 E4.66074
G1 X84.412 Y131.331 E4.68195
G1 X84.729 Y131.479 E4.70001
G1 X85.062 Y131.701 F15000
G1 E2.70001 F2400
G92 E0
G1 X80.432 Y207.981 F15000
G1 E2 F2400
;TYPE:Perimeter
G1 F3600
G1 X80.577 Y207.437 E2.02906
G1 X80.815 Y206.928 E2.05806
G1 X81.137 Y206.467 E2.08708
G1 X81.535 Y206.07 E2.1161
G1 X81.995 Y205.747 E2.14511
G1 X82.505 Y205.51 E2.17414
G1 X83.048 Y205.364 E2.20316
G1 X83.574 Y205.318 E2.23041
G1 X84.162 Y205.362 E2.26085
G1 X84.711 Y205.51 E2.2902
G1 X85.221 Y205.747 E2.31923
G1 X85.681 Y206.07 E2.34824
G1 X86.079 Y206.467 E2.37726
G1 X86.401 Y206.928 E2.40628
G1 X86.639 Y207.437 E2.43528
G1 X86.785 Y207.981 E2.46435
G1 X86.834 Y208.541 E2.49337
G1 X86.785 Y209.101 E2.52239
G1 X86.639 Y209.644 E2.55141
G1 X86.401 Y210.153 E2.58041
G1 X86.079 Y210.614 E2.60943
G1 X85.681 Y211.012 E2.63848
G1 X85.221 Y211.334 E2.66746
G1 X84.711 Y211.572 E2.69651
G1 X84.168 Y211.717 E2.72552
G1 X83.608 Y211.766 E2.75454
G1 X83.048 Y211.717 E2.78356
G1 X82.505 Y211.572 E2.81257
G1 X81.995 Y211.334 E2.84162
G1 X81.535 Y211.012 E2.8706
G1 X81.137 Y210.614 E2.89965
G1 X80.815 Y210.153 E2.92867
G1 X80.577 Y209.644 E2.95767
G1 X80.432 Y209.101 E2.98668
G1 X80.383 Y208.541 E3.0157
G1 X80.426 Y208.04 E3.04165
G1 X80.426 Y208.04 F15000
G1 X80.862 Y208.056
G1 F3600
G1 X80.988 Y207.587 E3.06672
G1 X81.193 Y207.147 E3.09178
G1 X81.472 Y206.748 E3.11691
G1 X81.816 Y206.405 E3.14198
G1 X82.214 Y206.126 E3.16707
G1 X82.654 Y205.921 E3.19213
G1 X83.124 Y205.795 E3.21725
G1 X83.577 Y205.755 E3.24072
G1 X84.088 Y205.794 E3.26717
G1 X84.562 Y205.921 E3.2925
G1 X85.002 Y206.126 E3.31756
G1 X85.4 Y206.405 E3.34265
G1 X85.744 Y206.748 E3.36772
G1 X86.023 Y207.147 E3.39285
G1 X86.228 Y207.587 E3.41791
G1 X86.354 Y208.056 E3.44298
G1 X86.396 Y208.541 E3.46811
G1 X86.354 Y209.025 E3.49319
G1 X86.228 Y209.494 E3.51826
G1 X86.023 Y209.935 E3.54336
G1 X85.744 Y210.333 E3.56845
G1 X85.4 Y210.677 E3.59356
G1 X85.002 Y210.955 E3.61862
G1 X84.562 Y211.161 E3.6437
G1 X84.092 Y211.287 E3.66882
G1 X83.608 Y211.329 E3.6939
G1 X83.124 Y211.287 E3.71898
G1 X82.654 Y211.161 E3.7441
G1 X82.214 Y210.955 E3.76918
G1 X81.816 Y210.677 E3.79424
G1 X81.472 Y210.333 E3.81935
G1 X81.193 Y209.935 E3.84444
G1 X80.988 Y209.494 E3.86954
G1 X80.862 Y209.025 E3.89461
G1 X80.82 Y208.541 E3.91969
G1 X80.857 Y208.116 E3.94171
G1 X80.857 Y208.116 F15000
G1 X81.293 Y208.132
;TYPE:External perimeter
G1 F3600
G1 X81.399 Y207.737 E3.96282
G1 X81.572 Y207.365 E3.984
G1 X81.807 Y207.029 E4.00516
G1 X82.097 Y206.74 E4.02629
G1 X82.433 Y206.505 E4.04745
G1 X82.804 Y206.331 E4.0686
G1 X83.2 Y206.225 E4.08976
G1 X83.579 Y206.192 E4.1094
G1 X84.015 Y206.225 E4.13197
G1 X84.412 Y206.331 E4.15318
G1 X84.784 Y206.505 E4.17438
G1 X85.119 Y206.74 E4.1955
G1 X85.409 Y207.029 E4.21663
G1 X85.644 Y207.365 E4.23779
G1 X85.817 Y207.737 E4.25897
G1 X85.923 Y208.132 E4.28008
G1 X85.959 Y208.541 E4.30127
G1 X85.923 Y208.949 E4.32241
G1 X85.817 Y209.345 E4.34357
G1 X85.644 Y209.716 E4.3647
G1 X85.409 Y210.052 E4.38586
G1 X85.119 Y210.342 E4.40703
G1 X84.784 Y210.577 E4.42815
G1 X84.412 Y210.75 E4.44933
G1 X84.016 Y210.856 E4.47049
G1 X83.608 Y210.892 E4.49163
G1 X83.2 Y210.856 E4.51277
G1 X82.804 Y210.75 E4.53393
G1 X82.433 Y210.577 E4.55506
G1 X82.097 Y210.342 E4.57622
G1 X81.807 Y210.052 E4.59739
G1 X81.572 Y209.716 E4.61855
G1 X81.399 Y209.345 E4.63968
G1 X81.293 Y208.949 E4.66084
G1 X81.257 Y208.541 E4.68198
G1 X81.288 Y208.192 E4.70006
G1 X81.382 Y207.804 F15000
G1 E2.70006 F2400
G92 E0
G1 X119.987 Y143.302 F15000
G1 E2 F2400
;TYPE:Perimeter
G1 F3600
G1 X119.605 Y143.312 E2.01972
G1 X118.106 Y143.434 E2.09735
G1 X116.616 Y143.637 E2.17497
G1 X115.148 Y143.919 E2.25213
G1 X113.679 Y144.283 E2.33025
G1 X112.241 Y144.725 E2.4079
G1 X110.83 Y145.243 E2.48548
G1 X109.448 Y145.838 E2.56314
G1 X108.101 Y146.506 E2.64075
G1 X106.791 Y147.246 E2.71841
G1 X105.524 Y148.056 E2.79603
G1 X104.303 Y148.934 E2.87366
G1 X103.131 Y149.876 E2.95127
G1 X102.011 Y150.88 E3.02891
G1 X100.955 Y151.936 E3.10599
G1 X99.943 Y153.063 E3.18417
G1 X99.001 Y154.235 E3.26178
G1 X98.124 Y155.457 E3.33942
G1 X97.314 Y156.724 E3.41704
G1 X96.573 Y158.033 E3.49468
G1 X95.905 Y159.381 E3.57233
G1 X95.311 Y160.762 E3.64993
G1 X94.792 Y162.174 E3.72758
G1 X94.351 Y163.612 E3.80522
G1 X93.988 Y165.071 E3.88282
G1 X93.704 Y166.548 E3.96045
G1 X93.501 Y168.038 E4.03807
G1 X93.379 Y169.537 E4.1157
G1 X93.339 Y171.025 E4.19253
G1 X93.339 Y176.056 E4.45221
G1 X93.379 Y177.544 E4.52904
G1 X93.501 Y179.043 E4.60667
G1 X93.704 Y180.533 E4.68429
G1 X93.988 Y182.01 E4.76192
G1 X94.351 Y183.47 E4.83957
G1 X94.792 Y184.908 E4.91721
G1 X95.311 Y186.319 E4.99481
G1 X95.905 Y187.701 E5.07245
G1 X96.573 Y189.048 E5.15006
G1 X97.314 Y190.357 E5.2277
G1 X98.124 Y191.625 E5.30536
G1 X99.001 Y192.846 E5.38296
G1 X99.943 Y194.018 E5.46057
G1 X100.948 Y195.138 E5.53824
G1 X102.011 Y196.201 E5.61584
G1 X103.131 Y197.205 E5.69348
G1 X104.295 Y198.141 E5.77058
G1 X105.524 Y199.025 E5.84872
G1 X106.791 Y199.835 E5.92634
G1 X108.101 Y200.575 E6.004
G1 X109.448 Y201.244 E6.08163
G1 X110.83 Y201.838 E6.15927
G1 X112.241 Y202.356 E6.23685
G1 X113.679 Y202.798 E6.3145
G1 X115.139 Y203.161 E6.39215
G1 X116.616 Y203.444 E6.46977
G1 X118.106 Y203.647 E6.54739
G1 X119.605 Y203.769 E6.62502
G1 X119.987 Y203.78 E6.64475
G1 X119.987 Y211.705 E7.05381
G1 X101.75 Y211.705 E7.99513
G1 X100.987 Y211.755 E8.0346
G1 X100.202 Y211.911 E8.07591
G1 X99.443 Y212.169 E8.11729
G1 X98.725 Y212.523 E8.15861
G1 X98.059 Y212.968 E8.19995
G1 X97.456 Y213.496 E8.24132
G1 X96.922 Y214.106 E8.28317
G1 X95.936 Y215.639 E8.37725
G1 X95.316 Y216.479 E8.43114
G1 X94.639 Y217.266 E8.48472
G1 X93.905 Y218 E8.5383
G1 X93.119 Y218.677 E8.59184
G1 X92.284 Y219.293 E8.6454
G1 X91.405 Y219.845 E8.69898
G1 X90.487 Y220.33 E8.75257
G1 X89.536 Y220.745 E8.80613
G1 X88.557 Y221.088 E8.85967
G1 X87.554 Y221.356 E8.91326
G1 X86.534 Y221.549 E8.96684
G1 X85.503 Y221.666 E9.0204
G1 X84.445 Y221.705 E9.07505
G1 X83.63 Y221.705 E9.11712
G1 X82.537 Y221.663 E9.17358
G1 X81.472 Y221.539 E9.22892
G1 X80.419 Y221.333 E9.2843
G1 X79.386 Y221.046 E9.33964
G1 X78.378 Y220.681 E9.39498
G1 X77.401 Y220.239 E9.45033
G1 X76.461 Y219.722 E9.5057
G1 X75.564 Y219.135 E9.56103
G1 X74.715 Y218.48 E9.61638
G1 X73.919 Y217.762 E9.67171
G1 X73.181 Y216.984 E9.72706
G1 X72.505 Y216.152 E9.78239
G1 X71.895 Y215.27 E9.83774
G1 X71.355 Y214.342 E9.89316
G1 X70.451 Y212.485 E9.99977
G1 X69.934 Y211.633 E10.05121
G1 X69.343 Y210.832 E10.10259
G1 X68.683 Y210.087 E10.15396
G1 X67.959 Y209.403 E10.20537
G1 X67.177 Y208.788 E10.25672
G1 X66.342 Y208.244 E10.30816
G1 X65.463 Y207.778 E10.35951
G1 X64.546 Y207.392 E10.41086
G1 X63.597 Y207.089 E10.46228
G1 X62.661 Y206.881 E10.51177
G1 X60.672 Y206.488 E10.61642
G1 X58.736 Y206.024 E10.71918
G1 X56.821 Y205.481 E10.82192
G1 X54.93 Y204.86 E10.92465
G1 X53.065 Y204.163 E11.02742
G1 X51.23 Y203.391 E11.13018
G1 X49.428 Y202.544 E11.23295
G1 X47.662 Y201.625 E11.33571
G1 X45.936 Y200.635 E11.43841
G1 X44.25 Y199.575 E11.54121
G1 X42.61 Y198.448 E11.64392
G1 X41.016 Y197.254 E11.74672
G1 X39.473 Y195.997 E11.84945
G1 X37.982 Y194.678 E11.9522
G1 X36.537 Y193.291 E12.05558
G1 X22.229 Y178.983 E13.10001
G1 X22.229 Y27.756 E20.90578
G1 X44.987 Y27.756 E22.08046
G1 X44.987 Y37.838 E22.60085
G1 X45.03 Y39.939 E22.70932
G1 X45.161 Y42.048 E22.81839
G1 X45.379 Y44.15 E22.92747
G1 X45.684 Y46.241 E23.03654
G1 X46.063 Y48.256 E23.14237
G1 X46.551 Y50.375 E23.25461
G1 X47.112 Y52.413 E23.36372
G1 X47.757 Y54.425 E23.47278
G1 X48.484 Y56.409 E23.58185
G1 X49.292 Y58.362 E23.69094
G1 X50.155 Y60.222 E23.79678
G1 X51.148 Y62.157 E23.90904
G1 X52.192 Y63.995 E24.01815
G1 X53.311 Y65.787 E24.1272
G1 X54.503 Y67.532 E24.23628
G1 X55.766 Y69.226 E24.34535
G1 X57.059 Y70.817 E24.45117
G1 X58.496 Y72.45 E24.56345
G1 X59.96 Y73.975 E24.67257
G1 X61.484 Y75.438 E24.78161
G1 X63.068 Y76.836 E24.89066
G1 X64.709 Y78.168 E24.99975
G1 X66.352 Y79.394 E25.10556
G1 X68.147 Y80.623 E25.21785
G1 X69.94 Y81.742 E25.32694
G1 X71.777 Y82.786 E25.436
G1 X73.656 Y83.753 E25.54508
G1 X75.573 Y84.642 E25.65415
G1 X77.525 Y85.451 E25.76322
G1 X79.509 Y86.178 E25.87229
G1 X81.521 Y86.823 E25.98135
G1 X83.559 Y87.384 E26.09046
G1 X85.617 Y87.86 E26.19949
G1 X87.694 Y88.251 E26.30858
G1 X89.785 Y88.555 E26.41764
G1 X91.887 Y88.773 E26.52672
G1 X93.996 Y88.904 E26.63579
G1 X96.097 Y88.948 E26.74426
G1 X119.987 Y88.948 E27.97737
G1 X119.987 Y143.242 E30.77982
G1 X119.987 Y143.242 F15000
G1 X120.422 Y143.726
G1 F3600
G1 X119.628 Y143.747 E30.82082
G1 X118.153 Y143.867 E30.89721
G1 X116.686 Y144.067 E30.97363
G1 X115.242 Y144.344 E31.04952
G1 X113.796 Y144.703 E31.12642
G1 X112.38 Y145.138 E31.20288
G1 X110.991 Y145.648 E31.27925
G1 X109.631 Y146.233 E31.35567
G1 X108.305 Y146.891 E31.43208
G1 X107.016 Y147.62 E31.50852
G1 X105.769 Y148.417 E31.58491
G1 X104.566 Y149.281 E31.66136
G1 X103.413 Y150.208 E31.73772
G1 X102.311 Y151.197 E31.81415
G1 X101.271 Y152.236 E31.89003
G1 X100.275 Y153.345 E31.96697
G1 X99.348 Y154.499 E32.04337
G1 X98.484 Y155.701 E32.11978
G1 X97.687 Y156.949 E32.19621
G1 X96.958 Y158.237 E32.2726
G1 X96.301 Y159.564 E32.34903
G1 X95.716 Y160.923 E32.4254
G1 X95.205 Y162.313 E32.50184
G1 X94.771 Y163.728 E32.57824
G1 X94.413 Y165.165 E32.65468
G1 X94.134 Y166.619 E32.7311
G1 X93.935 Y168.085 E32.80746
G1 X93.814 Y169.561 E32.8839
G1 X93.775 Y171.031 E32.9598
G1 X93.775 Y176.05 E33.21886
G1 X93.814 Y177.52 E33.29476
G1 X93.935 Y178.996 E33.3712
G1 X94.134 Y180.463 E33.44761
G1 X94.413 Y181.917 E33.52403
G1 X94.771 Y183.353 E33.60042
G1 X95.205 Y184.768 E33.67682
G1 X95.716 Y186.158 E33.75326
G1 X96.301 Y187.518 E33.82968
G1 X96.958 Y188.844 E33.90606
G1 X97.687 Y190.133 E33.9825
G1 X98.484 Y191.38 E34.05889
G1 X99.348 Y192.582 E34.1353
G1 X100.275 Y193.736 E34.2117
G1 X101.264 Y194.838 E34.28813
G1 X102.311 Y195.885 E34.36456
G1 X103.413 Y196.873 E34.44095
G1 X104.559 Y197.794 E34.51684
G1 X105.769 Y198.664 E34.59376
G1 X107.016 Y199.462 E34.67018
G1 X108.305 Y200.19 E34.74659
G1 X109.631 Y200.848 E34.823
G1 X110.991 Y201.433 E34.89942
G1 X112.38 Y201.944 E34.97581
G1 X113.796 Y202.378 E35.05225
G1 X115.232 Y202.735 E35.12863
G1 X116.686 Y203.014 E35.20505
G1 X118.153 Y203.214 E35.28147
G1 X119.628 Y203.334 E35.35786
G1 X120.422 Y203.356 E35.39886
G1 X120.422 Y212.141 E35.85231
G1 X101.764 Y212.141 E36.81537
G1 X101.044 Y212.188 E36.85261
G1 X100.315 Y212.333 E36.89098
G1 X99.61 Y212.572 E36.9294
G1 X98.943 Y212.901 E36.96779
G1 X98.324 Y213.314 E37.0062
G1 X97.765 Y213.805 E37.0446
G1 X97.271 Y214.369 E37.0833
G1 X96.295 Y215.887 E37.17645
G1 X95.657 Y216.751 E37.23189
G1 X94.959 Y217.562 E37.28712
G1 X94.202 Y218.319 E37.34238
G1 X93.391 Y219.017 E37.39761
G1 X92.529 Y219.653 E37.4529
