;FLAVOR:Marlin
;TIME:2043
;Filament used: 5.04878m
;Layer height: 0.3
;Generated with Cura_SteamEngine 3.6.0
M140 S30
M105
M190 S30
M104 S220
M105
M109 S220
M82 ;absolute extrusion mode
G21 ;metric values
G90 ;absolute positioning
M82 ;set extruder to absolute mode
M107 ;start with the fan off
G28 X0 Y0 ;move X/Y to min endstops
G28 Z0 ;move Z to min endstops
G1 Z15.0 F120 ;move the platform down 15mm
G92 E0 ;zero the extruded length
G1 F200 E3 ;extrude 3mm of feed stock
G92 E0 ;zero the extruded length again
G1 F120
M117 Printing...
G5
G92 E0
G1 F2700 E-6
;LAYER_COUNT:17
;LAYER:0
M106 S255
M204 S3000
M205 X10 Y10
;MESH:Visor_frame_EUROPE_ISO838_v3.stl
G0 F2400 X149.648 Y184.083 Z0.3
M204 S1800
M205 X8 Y8
;TYPE:WALL-INNER
G1 F2700 E0
G1 F1200 X150.031 Y184.52 E0.05723
G1 X149.781 Y184.585 E0.05766
G1 X146.415 Y185.466 E0.40032
G1 X142.776 Y186.335 E0.76878
G1 X137.681 Y187.43 E1.28201
G1 X132.592 Y188.319 E1.79078
G1 X128.613 Y188.92 E2.18709
G1 X124.679 Y189.425 E2.5777
G1 X120.83 Y189.828 E2.95883
G1 X116.88 Y190.147 E3.34911
G1 X112.862 Y190.379 E3.74547
G1 X108.973 Y190.515 E4.12871
G1 X104.984 Y190.562 E4.52159
G1 X100.996 Y190.516 E4.91436
G1 X97.107 Y190.38 E5.2976
G1 X93.089 Y190.148 E5.69396
G1 X89.138 Y189.828 E6.08435
G1 X85.288 Y189.426 E6.46557
G1 X81.354 Y188.92 E6.85619
G1 X77.375 Y188.319 E7.2525
G1 X72.255 Y187.424 E7.76438
G1 X67.178 Y186.33 E8.27586
G1 X63.554 Y185.466 E8.64276
G1 X59.953 Y184.523 E9.00936
G1 X59.82 Y184.488 E9.02291
G1 X60.014 Y184.294 E9.03454
G1 X58.034 Y179.924 E9.50703
G1 X58.458 Y174.441 E10.04862
G1 X58.499 Y173.906 E10.10147
G1 X58.506 Y173.828 E10.10918
G1 X58.654 Y173.918 E10.11644
G1 X59.122 Y174.181 E10.15111
G1 X61.3 Y175.407 E10.39725
G1 X63.994 Y176.806 E10.69621
G1 X66.731 Y178.115 E10.995
G1 X69.513 Y179.333 E11.29409
G1 X72.33 Y180.457 E11.59278
G1 X75.183 Y181.49 E11.89161
G1 X78.071 Y182.426 E12.19059
G1 X80.986 Y183.267 E12.48938
G1 X83.927 Y184.013 E12.78819
G1 X86.895 Y184.66 E13.08735
G1 X89.879 Y185.208 E13.38614
G1 X92.879 Y185.657 E13.68488
G1 X95.894 Y186.007 E13.9838
G1 X98.917 Y186.255 E14.28252
G1 X101.948 Y186.409 E14.58141
G1 X104.984 Y186.457 E14.88044
G1 X108.019 Y186.409 E15.17937
G1 X111.051 Y186.255 E15.47836
G1 X114.073 Y186.007 E15.77697
G1 X117.089 Y185.657 E16.07599
G1 X120.089 Y185.208 E16.37473
G1 X123.073 Y184.66 E16.67352
G1 X126.041 Y184.013 E16.97269
G1 X128.982 Y183.267 E17.2715
G1 X131.897 Y182.426 E17.57028
G1 X134.785 Y181.49 E17.86927
G1 X137.638 Y180.457 E18.16809
G1 X140.454 Y179.333 E18.4667
G1 X143.237 Y178.115 E18.76588
G1 X145.974 Y176.806 E19.06467
G1 X148.666 Y175.407 E19.36345
G1 X150.886 Y174.154 E19.6145
G1 X151.46 Y173.831 E19.67936
G1 X151.51 Y174.488 E19.71686
G1 X151.925 Y179.896 E20.25103
G1 X149.648 Y184.083 E20.72041
M204 S3000
M205 X10 Y10
G0 F2400 X150.666 Y183.97
M204 S1800
M205 X8 Y8
G1 F1200 X151.102 Y184.468 E20.78559
G1 X151.538 Y184.966 E20.85078
G1 X150.902 Y185.147 E20.88839
G1 X150.321 Y185.313 E20.9479
G1 X146.628 Y186.279 E21.32383
G1 X142.971 Y187.152 E21.69411
G1 X137.843 Y188.254 E22.21066
G1 X132.717 Y189.15 E22.72314
G1 X128.738 Y189.751 E23.11945
G1 X124.786 Y190.258 E23.51184
G1 X120.898 Y190.665 E23.89684
G1 X116.928 Y190.986 E24.28909
G1 X112.91 Y191.218 E24.68546
G1 X108.983 Y191.355 E25.07244
G1 X104.984 Y191.402 E25.4663
G1 X100.986 Y191.356 E25.86006
G1 X97.059 Y191.219 E26.24704
G1 X93.041 Y190.987 E26.6434
G1 X89.07 Y190.665 E27.03576
G1 X85.181 Y190.259 E27.42085
G1 X81.229 Y189.751 E27.81326
G1 X77.25 Y189.15 E28.20957
G1 X72.088 Y188.247 E28.72566
G1 X66.988 Y187.148 E29.23945
G1 X63.341 Y186.279 E29.60867
G1 X59.648 Y185.312 E29.98463
G1 X58.903 Y185.099 E30.06094
G1 X58.216 Y184.904 E30.13127
G1 X58.721 Y184.399 E30.17129
G1 X59.009 Y184.111 E30.2114
G1 X57.191 Y180.099 E30.64519
G1 X57.187 Y179.984 E30.65652
G1 X57.722 Y173.082 E31.3383
G1 X57.774 Y172.402 E31.40546
G1 X58.357 Y172.755 E31.44397
G1 X59.078 Y173.193 E31.52705
G1 X61.7 Y174.668 E31.82333
G1 X64.369 Y176.054 E32.11951
G1 X67.081 Y177.351 E32.41557
G1 X69.837 Y178.558 E32.71188
G1 X72.629 Y179.672 E33.00792
G1 X75.456 Y180.695 E33.304
G1 X78.317 Y181.623 E33.60022
G1 X81.206 Y182.456 E33.89633
G1 X84.12 Y183.195 E34.19239
G1 X87.06 Y183.836 E34.48873
G1 X90.017 Y184.379 E34.78482
G1 X92.99 Y184.824 E35.08087
G1 X95.977 Y185.171 E35.37702
G1 X98.973 Y185.417 E35.67307
G1 X101.976 Y185.569 E35.96919
G1 X104.984 Y185.617 E36.26547
G1 X107.991 Y185.569 E36.56164
G1 X110.995 Y185.417 E36.85786
G1 X113.99 Y185.171 E37.15382
G1 X116.978 Y184.824 E37.45006
G1 X119.951 Y184.379 E37.74611
G1 X122.908 Y183.836 E38.0422
G1 X125.848 Y183.195 E38.33854
G1 X128.762 Y182.456 E38.63461
G1 X131.651 Y181.623 E38.93071
G1 X134.512 Y180.695 E39.22693
G1 X137.339 Y179.672 E39.52301
G1 X140.13 Y178.558 E39.81896
G1 X142.887 Y177.351 E40.11536
G1 X145.599 Y176.054 E40.41142
G1 X148.267 Y174.668 E40.70751
G1 X150.888 Y173.195 E41.00361
G1 X151.61 Y172.759 E41.08667
G1 X152.193 Y172.406 E41.15379
G1 X152.245 Y173.086 E41.19233
G1 X152.782 Y180.078 E41.88295
G1 X150.666 Y183.97 E42.31923
M204 S3000
M205 X10 Y10
G0 F2400 X151.684 Y183.857
M204 S1800
M205 X8 Y8
G1 F1200 X152.608 Y184.912 E42.45735
G1 X153.044 Y185.41 E42.52253
G1 X152.408 Y185.591 E42.56015
G1 X150.534 Y186.126 E42.75208
G1 X146.841 Y187.092 E43.12801
G1 X143.16 Y187.97 E43.5007
G1 X138.01 Y189.077 E44.01947
G1 X132.843 Y189.98 E44.53605
G1 X128.864 Y190.582 E44.93237
G1 X124.893 Y191.091 E45.32665
G1 X120.966 Y191.502 E45.7155
G1 X116.976 Y191.825 E46.10974
G1 X112.958 Y192.057 E46.5061
G1 X108.993 Y192.195 E46.89683
G1 X104.984 Y192.242 E47.29167
G1 X100.976 Y192.196 E47.68642
G1 X97.011 Y192.058 E48.07714
G1 X92.993 Y191.826 E48.47351
G1 X89.002 Y191.502 E48.86785
G1 X85.074 Y191.092 E49.25679
G1 X81.104 Y190.582 E49.65098
G1 X77.125 Y189.981 E50.04729
G1 X71.921 Y189.07 E50.56759
G1 X66.798 Y187.966 E51.0837
G1 X63.128 Y187.092 E51.45524
G1 X59.435 Y186.125 E51.83121
G1 X57.298 Y185.515 E52.05007
G1 X56.612 Y185.32 E52.12031
G1 X57.116 Y184.816 E52.16021
G1 X57.117 Y184.815 E52.16035
G1 X58.004 Y183.928 E52.28389
G1 X56.411 Y180.413 E52.66395
G1 X56.377 Y180.318 E52.67388
G1 X56.348 Y180.154 E52.69029
G1 X56.347 Y179.96 E52.70939
G1 X56.982 Y171.759 E53.51947
G1 X57.013 Y171.349 E53.55996
G1 X57.044 Y171.194 E53.57553
G1 X57.081 Y171.132 E53.58264
G1 X57.141 Y171.079 E53.59053
G1 X57.18 Y171.06 E53.5948
G1 X57.532 Y171.273 E53.6249
G1 X59.502 Y172.468 E53.85182
G1 X62.1 Y173.929 E54.14536
G1 X64.744 Y175.302 E54.43877
G1 X67.431 Y176.587 E54.73209
G1 X70.161 Y177.783 E55.02562
G1 X72.928 Y178.887 E55.31902
G1 X75.729 Y179.9 E55.61235
G1 X78.563 Y180.82 E55.90579
G1 X81.426 Y181.645 E56.19922
G1 X84.313 Y182.377 E56.49254
G1 X87.225 Y183.012 E56.78606
G1 X90.155 Y183.55 E57.07944
G1 X93.101 Y183.991 E57.37281
G1 X96.06 Y184.335 E57.66618
G1 X99.029 Y184.579 E57.95957
G1 X102.004 Y184.729 E58.25293
G1 X104.984 Y184.777 E58.54644
G1 X107.963 Y184.729 E58.83986
G1 X110.939 Y184.579 E59.13332
G1 X113.907 Y184.335 E59.42661
G1 X116.867 Y183.991 E59.72008
G1 X119.813 Y183.55 E60.01344
G1 X122.743 Y183.012 E60.30682
G1 X125.655 Y182.377 E60.60035
G1 X128.542 Y181.645 E60.89366
G1 X131.405 Y180.82 E61.18709
G1 X134.239 Y179.9 E61.48053
G1 X137.04 Y178.887 E61.77387
G1 X139.806 Y177.783 E62.06717
G1 X142.537 Y176.587 E62.36079
G1 X145.224 Y175.302 E62.65412
G1 X147.868 Y173.929 E62.94752
G1 X150.465 Y172.469 E63.24093
G1 X152.431 Y171.28 E63.4672
G1 X152.793 Y171.062 E63.50882
G1 X152.853 Y171.098 E63.51571
G1 X152.905 Y171.156 E63.52338
G1 X152.935 Y171.229 E63.53116
G1 X152.953 Y171.337 E63.54194
G1 X152.985 Y171.758 E63.57251
G1 X153.621 Y179.985 E64.38515
G1 X153.623 Y180.151 E64.4015
G1 X153.609 Y180.251 E64.41145
G1 X153.58 Y180.353 E64.42189
G1 X153.506 Y180.513 E64.43925
G1 X151.684 Y183.857 E64.81429
M204 S3000
M205 X10 Y10
G0 F2400 X71.54 Y189.79
G0 X71.603 Y189.867
M204 S1800
M205 X8 Y8
G1 F1200 X71.589 Y190.35 E64.86188
G1 X71.482 Y193.795 E65.20132
G1 X71.479 Y193.87 E65.20871
G1 X70.887 Y193.775 E65.24824
G1 X71.518 Y189.853 E65.63946
G1 X71.52 Y189.843 E65.64047
G1 X66.608 Y188.784 E66.13533
G1 X62.915 Y187.905 E66.50919
G1 X59.222 Y186.938 E66.88515
G1 X55.58 Y185.899 E67.25814
G1 X54.844 Y185.64 E67.33498
G1 X54.154 Y185.314 E67.41013
G1 X53.516 Y184.928 E67.48357
G1 X52.884 Y184.453 E67.56143
G1 X52.329 Y183.937 E67.63606
G1 X52.15 Y183.742 E67.66213
G1 X51.824 Y183.362 E67.71144
G1 X51.676 Y183.166 E67.73563
G1 X51.388 Y182.748 E67.78562
G1 X51.255 Y182.531 E67.81068
G1 X51.007 Y182.077 E67.86163
G1 X50.9 Y181.857 E67.88572
G1 X50.702 Y181.382 E67.93641
G1 X50.614 Y181.145 E67.9613
G1 X50.468 Y180.659 E68.01128
G1 X50.405 Y180.422 E68.03543
G1 X50.269 Y179.67 E68.11069
G1 X50.212 Y178.899 E68.18683
G1 X50.264 Y177.07 E68.36703
G1 X50.199 Y176.01 E68.47162
G1 X50.035 Y174.957 E68.57657
G1 X49.776 Y173.926 E68.68126
G1 X49.422 Y172.921 E68.7862
G1 X48.977 Y171.954 E68.89103
G1 X48.444 Y171.033 E68.99583
G1 X47.829 Y170.163 E69.10075
G1 X47.135 Y169.355 E69.20565
G1 X46.372 Y168.616 E69.31026
G1 X45.541 Y167.948 E69.41526
G1 X44.654 Y167.361 E69.52001
G1 X43.714 Y166.858 E69.62501
G1 X42.733 Y166.444 E69.72987
G1 X41.718 Y166.123 E69.83471
G1 X40.681 Y165.897 E69.93924
G1 X38.858 Y165.67 E70.12016
G1 X38.112 Y165.495 E70.19562
G1 X37.397 Y165.25 E70.27006
G1 X36.686 Y164.92 E70.34725
G1 X36.458 Y164.79 E70.3731
G1 X36.047 Y164.539 E70.42053
G1 X35.813 Y164.374 E70.44873
G1 X35.408 Y164.064 E70.49895
G1 X35.229 Y163.91 E70.52221
G1 X34.864 Y163.565 E70.57167
G1 X34.676 Y163.367 E70.59856
G1 X34.349 Y162.984 E70.64816
G1 X34.186 Y162.777 E70.67411
G1 X33.9 Y162.363 E70.72366
G1 X33.755 Y162.134 E70.75035
G1 X33.521 Y161.704 E70.79857
G1 X33.404 Y161.47 E70.82433
G1 X33.207 Y160.998 E70.8747
G1 X33.112 Y160.752 E70.90067
G1 X32.897 Y160.013 E70.97647
G1 X32.755 Y159.226 E71.05523
G1 X32.362 Y155.907 E71.38438
G1 X32.043 Y152.579 E71.71363
G1 X31.795 Y149.208 E72.04651
G1 X31.62 Y145.859 E72.37679
G1 X31.521 Y142.489 E72.70882
G1 X31.494 Y139.155 E73.03717
G1 X31.558 Y134.571 E73.48866
G1 X31.808 Y129.772 E73.96192
G1 X32.094 Y126.037 E74.33084
G1 X32.473 Y122.289 E74.70183
G1 X32.939 Y118.582 E75.06978
G1 X33.499 Y114.868 E75.43969
G1 X34.142 Y111.2 E75.80643
G1 X34.881 Y107.526 E76.17551
G1 X35.71 Y103.863 E76.54537
G1 X36.624 Y100.242 E76.91317
G1 X37.631 Y96.631 E77.28236
G1 X38.727 Y93.029 E77.65315
G1 X39.904 Y89.483 E78.02111
G1 X41.174 Y85.949 E78.39094
G1 X42.522 Y82.464 E78.75893
G1 X43.954 Y79.014 E79.12681
G1 X45.483 Y75.572 E79.49773
G1 X47.082 Y72.196 E79.86561
G1 X48.763 Y68.859 E80.2336
G1 X50.53 Y65.556 E80.60251
G1 X52.387 Y62.279 E80.97345
G1 X54.303 Y59.084 E81.34035
G1 X56.313 Y55.91 E81.71034
G1 X58.386 Y52.804 E82.0781
G1 X60.554 Y49.724 E82.44904
G1 X62.773 Y46.729 E82.81614
G1 X65.088 Y43.758 E83.18707
G1 X67.462 Y40.861 E83.55593
G1 X69.893 Y38.038 E83.92283
G1 X72.412 Y35.253 E84.29265
G1 X74.999 Y32.53 E84.66255
G1 X77.674 Y29.848 E85.0356
G1 X78.259 Y29.202 E85.12143
G1 X78.786 Y28.45 E85.21187
G1 X79.219 Y27.641 E85.30224
G1 X79.549 Y26.786 E85.39249
G1 X79.773 Y25.895 E85.48297
G1 X79.886 Y24.986 E85.57318
G1 X79.888 Y24.068 E85.66359
G1 X79.778 Y23.157 E85.75396
G1 X79.558 Y22.267 E85.84425
G1 X79.233 Y21.415 E85.93405
G1 X78.97 Y20.907 E85.99039
G1 X78.797 Y20.594 E86.02561
G1 X78.481 Y20.131 E86.08082
G1 X78.273 Y19.844 E86.11572
G1 X77.901 Y19.418 E86.17142
G1 X77.655 Y19.159 E86.2066
G1 X77.24 Y18.786 E86.26155
G1 X76.966 Y18.559 E86.2966
G1 X76.505 Y18.236 E86.35203
G1 X76.203 Y18.045 E86.38722
G1 X75.711 Y17.782 E86.44217
G1 X75.388 Y17.628 E86.47741
G1 X74.862 Y17.425 E86.53293
G1 X74.526 Y17.315 E86.56775
G1 X73.982 Y17.176 E86.62305
G1 X73.631 Y17.107 E86.65828
G1 X73.076 Y17.037 E86.71337
G1 X72.719 Y17.011 E86.74862
G1 X72.158 Y17.009 E86.80387
G1 X71.801 Y17.028 E86.83908
G1 X71.244 Y17.093 E86.8943
G1 X70.893 Y17.156 E86.92942
G1 X70.346 Y17.288 E86.98484
G1 X70.006 Y17.394 E87.01991
G1 X69.483 Y17.591 E87.07495
G1 X69.157 Y17.737 E87.11013
G1 X68.66 Y17.997 E87.16537
G1 X68.356 Y18.181 E87.20037
G1 X67.891 Y18.501 E87.25596
G1 X67.613 Y18.722 E87.29093
G1 X67.191 Y19.094 E87.34634
G1 X66.943 Y19.348 E87.3813
G1 X66.567 Y19.77 E87.43696
G1 X66.353 Y20.054 E87.47198
G1 X66.033 Y20.514 E87.52717
G1 X65.856 Y20.821 E87.56207
G1 X65.593 Y21.317 E87.61736
G1 X65.454 Y21.647 E87.65262
G1 X65.253 Y22.172 E87.70798
G1 X65.156 Y22.516 E87.74318
G1 X65.022 Y23.057 E87.79807
G1 X64.967 Y23.411 E87.83335
G1 X64.898 Y23.97 E87.88882
G1 X64.889 Y24.325 E87.9238
G1 X64.888 Y24.895 E87.97993
G1 X64.989 Y25.8 E88.06961
G1 X65.202 Y26.693 E88.16003
G1 X65.521 Y27.553 E88.25036
G1 X65.944 Y28.368 E88.34079
G1 X66.462 Y29.125 E88.43113
G1 X67.093 Y29.851 E88.52586
G1 X67.117 Y29.878 E88.52941
G1 X67.162 Y29.955 E88.5382
G1 X67.191 Y30.035 E88.54658
G1 X67.206 Y30.119 E88.55498
G1 X67.205 Y30.198 E88.56276
G1 X67.188 Y30.295 E88.57246
G1 X67.172 Y30.339 E88.57707
G1 X67.164 Y30.361 E88.57938
G1 X67.117 Y30.442 E88.5886
G1 X67.069 Y30.499 E88.59594
G1 X67.005 Y30.553 E88.60419
G1 X66.922 Y30.6 E88.61358
G1 X66.846 Y30.628 E88.62156
G1 X66.81 Y30.634 E88.62515
G1 X66.762 Y30.643 E88.62996
G1 X66.68 Y30.642 E88.63804
G1 X66.592 Y30.627 E88.64683
G1 X66.516 Y30.599 E88.6548
G1 X66.442 Y30.556 E88.66323
G1 X66.362 Y30.488 E88.67357
G1 X66.346 Y30.471 E88.67587
G1 X65.816 Y29.885 E88.75369
G1 X65.326 Y29.224 E88.83472
G1 X64.904 Y28.52 E88.91555
G1 X64.544 Y27.758 E88.99855
G1 X64.269 Y26.994 E89.07852
G1 X64.066 Y26.185 E89.16066
G1 X63.942 Y25.36 E89.24282
G1 X63.9 Y24.541 E89.32359
G1 X63.938 Y23.71 E89.40551
G1 X64.058 Y22.889 E89.48723
G1 X64.254 Y22.086 E89.56863
G1 X64.533 Y21.297 E89.65105
G1 X64.647 Y21.042 E89.67856
G1 X64.88 Y20.554 E89.73181
G1 X65.039 Y20.275 E89.76344
G1 X65.3 Y19.842 E89.81323
G1 X65.792 Y19.171 E89.89517
G1 X65.978 Y18.955 E89.92324
G1 X66.36 Y18.536 E89.97908
G1 X66.963 Y17.983 E90.05966
G1 X67.194 Y17.802 E90.08856
G1 X67.613 Y17.493 E90.13983
G1 X67.871 Y17.33 E90.16989
G1 X68.315 Y17.065 E90.22081
G1 X68.584 Y16.928 E90.25054
G1 X69.069 Y16.701 E90.30328
G1 X69.351 Y16.589 E90.33316
G1 X69.844 Y16.415 E90.38465
G1 X70.142 Y16.329 E90.4152
G1 X70.641 Y16.207 E90.46579
G1 X70.956 Y16.148 E90.49735
G1 X71.464 Y16.075 E90.54789
G1 X71.764 Y16.049 E90.57755
G1 X72.296 Y16.025 E90.62999
G1 X72.595 Y16.028 E90.65944
G1 X73.119 Y16.056 E90.71112
G1 X73.424 Y16.089 E90.74133
G1 X73.928 Y16.166 E90.79154
G1 X74.235 Y16.229 E90.82241
G1 X74.746 Y16.36 E90.87436
G1 X75.031 Y16.447 E90.90371
G1 X75.53 Y16.629 E90.95602
G1 X75.809 Y16.744 E90.98574
G1 X76.26 Y16.961 E91.03503
G1 X76.558 Y17.12 E91.06829
G1 X77.011 Y17.395 E91.12048
G1 X77.243 Y17.549 E91.1479
G1 X77.663 Y17.865 E91.19967
G1 X77.91 Y18.065 E91.23097
G1 X78.293 Y18.418 E91.28226
G1 X78.508 Y18.63 E91.312
G1 X78.846 Y19.009 E91.36201
G1 X79.062 Y19.267 E91.39515
G1 X79.372 Y19.692 E91.44696
G1 X79.526 Y19.916 E91.47373
G1 X79.797 Y20.376 E91.52631
G1 X79.946 Y20.651 E91.55711
G1 X80.172 Y21.133 E91.60954
G1 X80.286 Y21.398 E91.63795
G1 X80.456 Y21.886 E91.68884
G1 X80.557 Y22.201 E91.72142
G1 X80.674 Y22.682 E91.77017
G1 X80.741 Y22.991 E91.80131
G1 X80.815 Y23.52 E91.85391
G1 X80.848 Y23.803 E91.88197
G1 X80.871 Y24.327 E91.93363
G1 X80.877 Y24.643 E91.96475
G1 X80.824 Y25.462 E92.04558
G1 X80.687 Y26.298 E92.12901
G1 X80.479 Y27.088 E92.20946
G1 X80.19 Y27.859 E92.29055
G1 X79.824 Y28.609 E92.37274
G1 X79.386 Y29.319 E92.4549
G1 X78.893 Y29.968 E92.53516
G1 X78.302 Y30.605 E92.62074
G1 X75.636 Y33.28 E92.99268
G1 X73.013 Y36.047 E93.36816
G1 X70.46 Y38.877 E93.74352
G1 X67.979 Y41.771 E94.11893
G1 X65.57 Y44.725 E94.49432
G1 X63.237 Y47.739 E94.86969
G1 X60.98 Y50.81 E95.24502
G1 X58.798 Y53.937 E95.62054
G1 X56.697 Y57.119 E95.99606
G1 X54.676 Y60.35 E96.37138
G1 X52.736 Y63.632 E96.74685
G1 X50.88 Y66.961 E97.12221
G1 X49.107 Y70.334 E97.49749
G1 X47.417 Y73.752 E97.87301
G1 X45.815 Y77.21 E98.24833
G1 X44.3 Y80.709 E98.62384
G1 X42.873 Y84.243 E98.99918
G1 X41.533 Y87.811 E99.37454
G1 X40.284 Y91.413 E99.74999
