; generated by PrusaSlicer 2.8.1+win64 on 2024-12-28 at 13:08:39 UTC

; 

; external perimeters extrusion width = 0.44mm
; perimeters extrusion width = 0.44mm
; infill extrusion width = 0.44mm
; solid infill extrusion width = 0.44mm
; top infill extrusion width = 0.40mm
; support material extrusion width = 0.44mm
; first layer extrusion width = 0.44mm

; external perimeters extrusion width = 0.44mm
; perimeters extrusion width = 0.44mm
; infill extrusion width = 0.44mm
; solid infill extrusion width = 0.44mm
; top infill extrusion width = 0.40mm
; support material extrusion width = 0.44mm
; first layer extrusion width = 0.44mm

; external perimeters extrusion width = 0.44mm
; perimeters extrusion width = 0.44mm
; infill extrusion width = 0.44mm
; solid infill extrusion width = 0.44mm
; top infill extrusion width = 0.40mm
; support material extrusion width = 0.44mm
; first layer extrusion width = 0.44mm

; external perimeters extrusion width = 0.44mm
; perimeters extrusion width = 0.44mm
; infill extrusion width = 0.44mm
; solid infill extrusion width = 0.44mm
; top infill extrusion width = 0.40mm
; support material extrusion width = 0.44mm
; first layer extrusion width = 0.44mm

M73 P0 R56
;TYPE:Custom
;G28 ; home all axes
;G1 Z5 F5000 ; lift nozzle
M109 S205
G28 ;home
G92 E0 ;Reset Extruder
G1 Z4.0 F3000 ;Move Z Axis up
G92 E0 ;Reset Extruder
G1 X3.1 Y20 Z0.28 F5000.0 ;Move to start position
G1 X3.1 Y80.0 Z0.28 F1500.0 E10 ;Draw the first line
G1 X3.4 Y80.0 Z0.28 F5000.0 ;Move to side a little
G1 X3.4 Y20 Z0.28 F1500.0 E20 ;Draw the second line
G92 E0 ;Reset Extruder
G1 Z2.0 F3000 ;Move Z Axis up
G21 ; set units to millimeters
G90 ; use absolute coordinates
M82 ; use absolute distances for extrusion
G92 E0
; Filament gcode
M107
;LAYER_CHANGE
;Z:0.3
;HEIGHT:0.3
G1 E-2 F2400
G1 Z.7 F9000
G1 X82.361 Y79.156
G1 Z.3
G1 E0 F2400
;TYPE:Skirt/Brim
;WIDTH:0.44
G1 F1800
G1 X84.097 Y77.779 E.09862
G1 X86.468 Y77.073 E.20872
G1 X123.889 Y73.763 E1.88071
G1 X154.85 Y73.739 E3.25869
G1 X157.03 Y74.136 E3.35731
G1 X158.93 Y75.275 E3.4559
G1 X160.308 Y77.011 E3.55455
G1 X161.038 Y79.927 E3.68834
G1 X161.038 Y115.09 E5.25333
G1 X156.905 Y149.446 E6.79343
G1 X156.248 Y151.562 E6.89204
G1 X154.888 Y153.311 E6.99065
G1 X152.998 Y154.469 E7.0893
G1 X150.787 Y154.887 E7.18945
G1 X113.038 Y155.034 E8.86955
G1 X89.008 Y155.034 E9.93905
G1 X86.827 Y154.638 E10.03771
G1 X84.927 Y153.498 E10.13633
G1 X83.55 Y151.762 E10.23495
G1 X82.833 Y149.251 E10.35117
G1 X80.838 Y118.805 E11.70913
G1 X80.825 Y83.237 E13.29215
G1 X81.222 Y81.057 E13.39077
G1 X82.33 Y79.208 E13.48671
G1 E11.48671 F2400
G92 E0
G1 X82.33 Y79.208 Z.7 F9000
G92 E0
G1 X91.493 Y132.711
G1 Z.3
G1 E2 F2400
;TYPE:External perimeter
;WIDTH:0.44
G1 F1080
G1 X91.625 Y132.656 E2.00636
G1 X110.14 Y132.656 E2.8304
G1 X110.288 Y132.728 E2.83773
G1 X110.328 Y132.843 E2.84315
G1 X110.328 Y146.213 E3.43821
G1 X110.287 Y146.33 E3.44373
G1 X110.14 Y146.401 E3.451
G1 X91.625 Y146.401 E4.27504
G1 X91.494 Y146.347 E4.28135
G1 X91.438 Y146.213 E4.28781
G1 X91.438 Y132.843 E4.88287
G1 X91.47 Y132.766 E4.88658
G1 X91.856 Y132.663 F9000
G1 E2.88658 F2400
G92 E0
G1 Z.7 F9000
G1 X89.378 Y130.596
G1 Z.3
G1 E2 F2400
G1 F1080
G1 X112.644 Y130.596 E3.0355
G1 X112.644 Y131.914 E3.09416
G1 X112.644 Y148.476 E3.83128
G1 X89.378 Y148.476 E4.86678
G1 X89.378 Y130.656 E5.65989
G1 X89.773 Y130.596 F9000
G1 E3.65989 F2400
G92 E0
G1 Z.7 F9000
G1 X90.275 Y148.345
G1 Z.3
G1 E2 F2400
;TYPE:Solid infill
;WIDTH:0.443023
G1 F1800
G1 X89.678 Y147.748 E2.03788
G1 X89.678 Y147.213 E2.06188
G1 X90.641 Y148.176 E2.12298
G1 X91.177 Y148.176 E2.14703
G1 X89.678 Y146.677 E2.24214
G1 X89.678 Y146.142 E2.26614
G1 X91.712 Y148.176 E2.39519
G1 X92.248 Y148.176 E2.41924
G1 X89.678 Y145.607 E2.58227
G1 X89.678 Y145.071 E2.60632
G1 X92.952 Y148.345 E2.81405
G1 E.81405 F2400
G92 E0
G1 Z.7 F9000
G1 X112.513 Y135.241
G1 Z.3
G1 E2 F2400
G1 F1800
G1 X110.629 Y133.357 E2.11954
G1 X110.629 Y133.893 E2.14359
G1 X112.344 Y135.608 E2.2524
G1 X112.344 Y136.143 E2.2764
G1 X110.629 Y134.428 E2.38521
G1 X110.629 Y134.964 E2.40926
G1 X112.344 Y136.679 E2.51807
G1 X112.344 Y137.214 E2.54207
G1 X110.629 Y135.499 E2.65088
G1 X110.629 Y136.035 E2.67493
G1 X112.344 Y137.75 E2.78374
G1 X112.344 Y138.285 E2.80774
G1 X110.629 Y136.57 E2.91655
G1 X110.629 Y137.106 E2.9406
G1 X112.344 Y138.821 E3.04941
G1 X112.344 Y139.356 E3.07341
G1 X110.629 Y137.641 E3.18222
G1 X110.629 Y138.177 E3.20627
G1 X112.344 Y139.892 E3.31508
G1 X112.344 Y140.427 E3.33908
G1 X110.629 Y138.712 E3.44789
G1 X110.629 Y139.248 E3.47194
G1 X112.344 Y140.962 E3.58072
G1 X112.344 Y141.498 E3.60477
G1 X110.629 Y139.783 E3.71358
G1 X110.629 Y140.319 E3.73763
G1 X112.344 Y142.033 E3.84641
G1 X112.344 Y142.569 E3.87046
G1 X110.629 Y140.854 E3.97927
G1 X110.629 Y141.39 E4.00332
G1 X112.344 Y143.104 E4.1121
G1 X112.344 Y143.64 E4.13615
G1 X110.629 Y141.925 E4.24496
G1 X110.629 Y142.461 E4.26901
G1 X112.344 Y144.175 E4.37779
G1 X112.344 Y144.711 E4.40184
G1 X110.629 Y142.996 E4.51065
G1 X110.629 Y143.532 E4.5347
G1 X112.344 Y145.246 E4.64348
G1 X112.344 Y145.782 E4.66753
G1 X110.629 Y144.067 E4.77634
G1 X110.629 Y144.603 E4.80039
G1 X112.344 Y146.317 E4.90917
G1 X112.344 Y146.853 E4.93322
G1 X110.629 Y145.138 E5.04203
G1 X110.629 Y145.674 E5.06608
G1 X112.344 Y147.388 E5.17486
G1 X112.344 Y147.924 E5.19891
G1 X110.629 Y146.209 E5.30772
G1 X110.621 Y146.307 E5.31213
G1 X110.522 Y146.526 E5.32291
G1 X110.452 Y146.568 E5.32657
G1 X112.06 Y148.176 E5.4286
G1 X111.525 Y148.176 E5.4526
G1 X110.05 Y146.701 E5.54619
G1 X109.515 Y146.701 E5.57019
G1 X110.989 Y148.176 E5.66375
G1 X110.454 Y148.176 E5.68775
G1 X108.979 Y146.701 E5.78134
G1 X108.444 Y146.701 E5.80534
G1 X109.918 Y148.176 E5.8989
G1 X109.383 Y148.176 E5.9229
G1 X107.908 Y146.701 E6.01649
G1 X107.373 Y146.701 E6.04049
G1 X108.847 Y148.176 E6.13405
G1 X108.312 Y148.176 E6.15805
G1 X106.837 Y146.701 E6.25164
G1 X106.302 Y146.701 E6.27564
G1 X107.776 Y148.176 E6.3692
G1 X107.241 Y148.176 E6.3932
G1 X105.766 Y146.701 E6.48679
G1 X105.231 Y146.701 E6.51079
G1 X106.705 Y148.176 E6.60435
G1 X106.17 Y148.176 E6.62835
G1 X104.695 Y146.701 E6.72194
G1 X104.16 Y146.701 E6.74594
G1 X105.635 Y148.176 E6.83953
G1 X105.099 Y148.176 E6.86358
G1 X103.624 Y146.701 E6.95717
G1 X103.089 Y146.701 E6.98117
G1 X104.564 Y148.176 E7.07476
G1 X104.028 Y148.176 E7.09881
G1 X102.553 Y146.701 E7.1924
G1 X102.018 Y146.701 E7.2164
G1 X103.493 Y148.176 E7.30999
G1 X102.957 Y148.176 E7.33404
G1 X101.482 Y146.701 E7.42763
G1 X100.947 Y146.701 E7.45163
G1 X102.422 Y148.176 E7.54522
G1 X101.886 Y148.176 E7.56927
G1 X100.411 Y146.701 E7.66286
G1 X99.876 Y146.701 E7.68686
G1 X101.351 Y148.176 E7.78045
G1 X100.815 Y148.176 E7.8045
G1 X99.34 Y146.701 E7.89809
G1 X98.805 Y146.701 E7.92209
G1 X100.28 Y148.176 E8.01568
G1 X99.744 Y148.176 E8.03973
G1 X98.269 Y146.701 E8.13332
G1 X97.734 Y146.701 E8.15732
G1 X99.209 Y148.176 E8.25091
G1 X98.673 Y148.176 E8.27496
G1 X97.198 Y146.701 E8.36855
G1 X96.663 Y146.701 E8.39255
G1 X98.138 Y148.176 E8.48614
G1 X97.602 Y148.176 E8.51019
G1 X96.128 Y146.701 E8.60375
G1 X95.592 Y146.701 E8.6278
G1 X97.067 Y148.176 E8.72139
G1 X96.531 Y148.176 E8.74544
G1 X95.057 Y146.701 E8.839
G1 X94.521 Y146.701 E8.86305
G1 X95.996 Y148.176 E8.95664
G1 X95.46 Y148.176 E8.98069
G1 X93.986 Y146.701 E9.07425
G1 X93.45 Y146.701 E9.0983
G1 X94.925 Y148.176 E9.19189
G1 X94.389 Y148.176 E9.21594
G1 X92.915 Y146.701 E9.3095
G1 X92.379 Y146.701 E9.33355
G1 X93.854 Y148.176 E9.42714
G1 X93.318 Y148.176 E9.45119
G1 X91.844 Y146.701 E9.54475
G1 X91.603 Y146.701 E9.55556
G1 X91.281 Y146.569 E9.57117
G1 X91.145 Y146.31 E9.58429
G1 X91.137 Y145.995 E9.59843
G1 X89.678 Y144.536 E9.691
G1 X89.678 Y144 E9.71505
G1 X91.137 Y145.459 E9.80762
G1 X91.137 Y144.924 E9.83162
G1 X89.678 Y143.465 E9.92419
G1 X89.678 Y142.929 E9.94824
G1 X91.137 Y144.388 E10.04081
G1 X91.137 Y143.853 E10.06481
G1 X89.678 Y142.394 E10.15738
G1 X89.678 Y141.858 E10.18143
G1 X91.137 Y143.317 E10.274
G1 X91.137 Y142.782 E10.298
G1 X89.678 Y141.323 E10.39057
G1 X89.678 Y140.787 E10.41462
G1 X91.137 Y142.246 E10.50719
G1 X91.137 Y141.711 E10.53119
G1 X89.678 Y140.252 E10.62376
G1 X89.678 Y139.716 E10.64781
G1 X91.137 Y141.175 E10.74038
G1 X91.137 Y140.64 E10.76438
M73 P1 R56
G1 X89.678 Y139.181 E10.85695
G1 X89.678 Y138.645 E10.881
G1 X91.137 Y140.104 E10.97357
G1 X91.137 Y139.569 E10.99757
G1 X89.678 Y138.11 E11.09014
G1 X89.678 Y137.574 E11.11419
G1 X91.137 Y139.033 E11.20676
G1 X91.137 Y138.498 E11.23076
G1 X89.678 Y137.039 E11.32333
G1 X89.678 Y136.503 E11.34738
G1 X91.137 Y137.962 E11.43995
G1 X91.137 Y137.427 E11.46395
G1 X89.678 Y135.968 E11.55652
G1 X89.678 Y135.432 E11.58057
G1 X91.137 Y136.891 E11.67314
G1 X91.137 Y136.356 E11.69714
G1 X89.678 Y134.897 E11.78971
G1 X89.678 Y134.361 E11.81376
G1 X91.137 Y135.82 E11.90633
G1 X91.137 Y135.285 E11.93033
G1 X89.678 Y133.826 E12.0229
G1 X89.678 Y133.29 E12.04695
G1 X91.137 Y134.749 E12.13952
G1 X91.137 Y134.214 E12.16352
G1 X89.678 Y132.755 E12.25609
G1 X89.678 Y132.219 E12.28014
G1 X91.137 Y133.679 E12.37274
G1 X91.137 Y133.143 E12.39679
G1 X89.678 Y131.684 E12.48936
G1 X89.678 Y131.149 E12.51336
G1 X91.2 Y132.67 E12.6099
G1 X91.271 Y132.497 E12.61829
G1 X91.462 Y132.397 E12.62796
G1 X89.961 Y130.896 E12.7232
G1 X90.497 Y130.896 E12.74725
G1 X91.956 Y132.355 E12.83982
G1 X92.491 Y132.355 E12.86382
G1 X91.032 Y130.896 E12.95639
G1 X91.568 Y130.896 E12.98044
G1 X93.027 Y132.355 E13.07301
G1 X93.562 Y132.355 E13.09701
G1 X92.103 Y130.896 E13.18958
G1 X92.639 Y130.896 E13.21363
G1 X94.098 Y132.355 E13.3062
G1 X94.633 Y132.355 E13.3302
G1 X93.174 Y130.896 E13.42277
G1 X93.71 Y130.896 E13.44682
G1 X95.169 Y132.355 E13.53939
G1 X95.704 Y132.355 E13.56339
G1 X94.245 Y130.896 E13.65596
G1 X94.78 Y130.896 E13.67996
G1 X96.239 Y132.355 E13.77253
G1 X96.775 Y132.355 E13.79658
G1 X95.316 Y130.896 E13.88915
G1 X95.851 Y130.896 E13.91315
G1 X97.31 Y132.355 E14.00572
G1 X97.846 Y132.355 E14.02977
G1 X96.387 Y130.896 E14.12234
G1 X96.922 Y130.896 E14.14634
G1 X98.381 Y132.355 E14.23891
G1 X98.917 Y132.355 E14.26296
G1 X97.458 Y130.896 E14.35553
G1 X97.993 Y130.896 E14.37953
G1 X99.452 Y132.355 E14.4721
G1 X99.988 Y132.355 E14.49615
G1 X98.529 Y130.896 E14.58872
G1 X99.064 Y130.896 E14.61272
G1 X100.523 Y132.355 E14.70529
G1 X101.059 Y132.355 E14.72934
G1 X99.6 Y130.896 E14.82191
G1 X100.135 Y130.896 E14.84591
G1 X101.594 Y132.355 E14.93848
G1 X102.13 Y132.355 E14.96253
G1 X100.671 Y130.896 E15.0551
G1 X101.206 Y130.896 E15.0791
G1 X102.665 Y132.355 E15.17167
G1 X103.201 Y132.355 E15.19572
G1 X101.742 Y130.896 E15.28829
G1 X102.277 Y130.896 E15.31229
G1 X103.736 Y132.355 E15.40486
G1 X104.272 Y132.355 E15.42891
G1 X102.813 Y130.896 E15.52148
G1 X103.348 Y130.896 E15.54548
G1 X104.807 Y132.355 E15.63805
G1 X105.343 Y132.355 E15.6621
G1 X103.884 Y130.896 E15.75467
G1 X104.419 Y130.896 E15.77867
G1 X105.878 Y132.355 E15.87124
G1 X106.414 Y132.355 E15.89529
G1 X104.955 Y130.896 E15.98786
G1 X105.49 Y130.896 E16.01186
G1 X106.949 Y132.355 E16.10443
G1 X107.485 Y132.355 E16.12848
G1 X106.026 Y130.896 E16.22105
G1 X106.561 Y130.896 E16.24505
G1 X108.02 Y132.355 E16.33762
G1 X108.556 Y132.355 E16.36167
G1 X107.097 Y130.896 E16.45424
G1 X107.632 Y130.896 E16.47824
G1 X109.091 Y132.355 E16.57081
G1 X109.627 Y132.355 E16.59486
G1 X108.167 Y130.896 E16.68746
G1 X108.703 Y130.896 E16.71151
G1 X112.344 Y134.537 E16.94253
G1 X112.344 Y134.001 E16.96658
G1 X109.238 Y130.896 E17.16362
G1 X109.774 Y130.896 E17.18767
G1 X112.344 Y133.466 E17.35073
G1 X112.344 Y132.93 E17.37478
G1 X110.309 Y130.896 E17.50387
G1 X110.845 Y130.896 E17.52792
G1 X112.344 Y132.395 E17.62303
G1 X112.344 Y131.859 E17.64708
G1 X111.38 Y130.896 E17.70821
G1 X111.916 Y130.896 E17.73226
G1 X112.513 Y131.493 E17.77014
G1 E15.77014 F2400
G92 E0
G1 X112.513 Y131.493 Z.7 F9000
G92 E0
G1 X129.241 Y132.563
G1 Z.3
G1 E2 F2400
;TYPE:External perimeter
;WIDTH:0.44
G1 F1080
G1 X129.374 Y132.508 E2.00641
G1 X147.889 Y132.508 E2.83045
G1 X148.037 Y132.58 E2.83778
G1 X148.077 Y132.696 E2.84324
G1 X148.077 Y146.065 E3.43825
G1 X148.036 Y146.182 E3.44377
G1 X147.889 Y146.253 E3.45104
G1 X129.374 Y146.253 E4.27508
G1 X129.242 Y146.199 E4.28143
G1 X129.186 Y146.065 E4.28789
G1 X129.186 Y132.696 E4.8829
G1 X129.218 Y132.619 E4.88661
G1 X129.605 Y132.515 F9000
G1 E2.88661 F2400
G92 E0
G1 Z.7 F9000
G1 X127.126 Y130.448
G1 Z.3
G1 E2 F2400
G1 F1080
G1 X150.393 Y130.448 E3.03554
G1 X150.393 Y131.767 E3.09424
G1 X150.393 Y148.329 E3.83136
G1 X127.126 Y148.329 E4.8669
G1 X127.126 Y130.508 E5.66006
G1 X127.522 Y130.449 F9000
G1 E3.66006 F2400
G92 E0
G1 Z.7 F9000
G1 X128.023 Y148.198
G1 Z.3
G1 E2 F2400
;TYPE:Solid infill
;WIDTH:0.443023
G1 F1800
G1 X127.427 Y147.601 E2.03785
G1 X127.427 Y147.065 E2.0619
G1 X128.39 Y148.028 E2.123
G1 X128.925 Y148.028 E2.147
G1 X127.427 Y146.53 E2.24205
G1 X127.427 Y145.994 E2.2661
G1 X129.461 Y148.028 E2.39515
G1 X129.996 Y148.028 E2.41915
G1 X127.427 Y145.459 E2.58215
G1 X127.427 Y144.924 E2.60615
G1 X130.701 Y148.198 E2.81388
G1 E.81388 F2400
G92 E0
G1 X130.701 Y148.198 Z.7 F9000
G1 X150.261 Y135.094
G1 Z.3
G1 E2 F2400
G1 F1800
G1 X148.378 Y133.21 E2.11951
G1 X148.378 Y133.745 E2.14351
G1 X150.092 Y135.46 E2.25229
G1 X150.092 Y135.996 E2.27634
G1 X148.378 Y134.281 E2.38512
G1 X148.378 Y134.816 E2.40912
G1 X150.092 Y136.531 E2.5179
G1 X150.092 Y137.067 E2.54195
G1 X148.378 Y135.352 E2.65073
G1 X148.378 Y135.887 E2.67473
G1 X150.092 Y137.602 E2.78351
G1 X150.092 Y138.138 E2.80756
G1 X148.378 Y136.423 E2.91634
G1 X148.378 Y136.958 E2.94034
G1 X150.092 Y138.673 E3.04912
G1 X150.092 Y139.209 E3.07317
G1 X148.378 Y137.494 E3.18195
G1 X148.378 Y138.029 E3.20595
G1 X150.092 Y139.744 E3.31473
G1 X150.092 Y140.279 E3.33873
M73 P1 R55
G1 X148.378 Y138.565 E3.44748
G1 X148.378 Y139.1 E3.47148
G1 X150.092 Y140.815 E3.58026
G1 X150.092 Y141.35 E3.60426
G1 X148.378 Y139.636 E3.71301
G1 X148.378 Y140.171 E3.73701
G1 X150.092 Y141.886 E3.84579
G1 X150.092 Y142.421 E3.86979
G1 X148.378 Y140.707 E3.97854
G1 X148.378 Y141.242 E4.00254
G1 X150.092 Y142.957 E4.11132
G1 X150.092 Y143.492 E4.13532
G1 X148.378 Y141.778 E4.24407
G1 X148.378 Y142.313 E4.26807
G1 X150.092 Y144.028 E4.37685
G1 X150.092 Y144.563 E4.40085
G1 X148.378 Y142.849 E4.5096
G1 X148.378 Y143.384 E4.5336
G1 X150.092 Y145.099 E4.64238
G1 X150.092 Y145.634 E4.66638
G1 X148.378 Y143.92 E4.77513
G1 X148.378 Y144.455 E4.79913
G1 X150.092 Y146.17 E4.90791
G1 X150.092 Y146.705 E4.93191
G1 X148.378 Y144.991 E5.04066
G1 X148.378 Y145.526 E5.06466
G1 X150.092 Y147.241 E5.17344
G1 X150.092 Y147.776 E5.19744
G1 X148.378 Y146.061 E5.30622
G1 X148.37 Y146.159 E5.31063
G1 X148.271 Y146.378 E5.32141
G1 X148.201 Y146.42 E5.32507
G1 X149.809 Y148.028 E5.4271
G1 X149.274 Y148.028 E5.4511
G1 X147.799 Y146.554 E5.54466
G1 X147.263 Y146.554 E5.56871
G1 X148.738 Y148.028 E5.66227
G1 X148.203 Y148.028 E5.68627
G1 X146.728 Y146.554 E5.77983
G1 X146.192 Y146.554 E5.80388
G1 X147.667 Y148.028 E5.89744
G1 X147.132 Y148.028 E5.92144
G1 X145.657 Y146.554 E6.015
G1 X145.121 Y146.554 E6.03905
G1 X146.596 Y148.028 E6.13261
G1 X146.061 Y148.028 E6.15661
G1 X144.586 Y146.554 E6.25017
G1 X144.05 Y146.554 E6.27422
G1 X145.525 Y148.028 E6.36778
G1 X144.99 Y148.028 E6.39178
G1 X143.515 Y146.554 E6.48534
G1 X142.98 Y146.554 E6.50934
G1 X144.454 Y148.028 E6.60286
G1 X143.919 Y148.028 E6.62686
G1 X142.444 Y146.554 E6.72042
G1 X141.909 Y146.554 E6.74442
G1 X143.383 Y148.028 E6.83794
G1 X142.848 Y148.028 E6.86194
G1 X141.373 Y146.554 E6.9555
G1 X140.838 Y146.554 E6.9795
G1 X142.312 Y148.028 E7.07302
G1 X141.777 Y148.028 E7.09702
G1 X140.302 Y146.554 E7.19058
G1 X139.767 Y146.554 E7.21458
G1 X141.241 Y148.028 E7.3081
G1 X140.706 Y148.028 E7.3321
G1 X139.231 Y146.554 E7.42566
G1 X138.696 Y146.554 E7.44966
G1 X140.17 Y148.028 E7.54318
G1 X139.635 Y148.028 E7.56718
G1 X138.16 Y146.554 E7.66074
G1 X137.625 Y146.554 E7.68474
G1 X139.1 Y148.028 E7.7783
G1 X138.564 Y148.028 E7.80235
G1 X137.089 Y146.554 E7.89591
G1 X136.554 Y146.554 E7.91991
G1 X138.029 Y148.028 E8.01347
