;FLAVOR:Marlin
;TIME:305
;Filament used: 0.0882346m
;Layer height: 0.2
;Generated with Cura_SteamEngine 3.6.0
M104 S220
M105
M109 S220
M82 ;absolute extrusion mode
G21 ;metric values
G90 ;absolute positioning
M82 ;set extruder to absolute mode
M107 ;start with the fan off
G28 X0 Y0 ;move X/Y to min endstops
G28 Z0 ;move Z to min endstops
G1 Z15.0 F120 ;move the platform down 15mm
G92 E0 ;zero the extruded length
G1 F200 E3 ;extrude 3mm of feed stock
G92 E0 ;zero the extruded length again
G1 F120
M117 Printing...
G5
G92 E0
G1 F2400 E-6
;LAYER_COUNT:41
;LAYER:0
M106 S255
M204 S3000
M205 X10 Y10
;MESH:Echo_Show_8_-_Pin_v1.stl
G0 F7200 X26.066 Y107.605 Z0.2
M204 S1800
M205 X8 Y8
;TYPE:WALL-INNER
G1 F2400 E0
G1 F600 X26.192 Y107.637 E0.00406
G1 X26.297 Y107.704 E0.00796
G1 X26.37 Y107.791 E0.01151
G1 X26.416 Y107.894 E0.01504
G1 X26.428 Y108.004 E0.0185
G1 X26.404 Y108.136 E0.02269
G1 X26.368 Y108.211 E0.02529
G1 X26.322 Y108.27 E0.02763
G1 X26.284 Y108.306 E0.02927
G1 X26.224 Y108.346 E0.03152
G1 X26.156 Y108.377 E0.03386
G1 X26.117 Y108.387 E0.03512
G1 X26.026 Y108.396 E0.03798
G1 X25.957 Y108.388 E0.04015
G1 X25.886 Y108.368 E0.04245
G1 X25.795 Y108.315 E0.04575
G1 X25.735 Y108.26 E0.04829
G1 X25.689 Y108.197 E0.05073
G1 X25.652 Y108.108 E0.05374
G1 X25.64 Y108.045 E0.05575
G1 X25.64 Y107.953 E0.05862
G1 X25.653 Y107.887 E0.06073
G1 X25.689 Y107.803 E0.06358
G1 X25.718 Y107.758 E0.06526
G1 X25.76 Y107.713 E0.06718
G1 X25.86 Y107.643 E0.071
G1 X25.927 Y107.618 E0.07323
G1 X25.979 Y107.608 E0.07489
G1 X26.066 Y107.605 E0.07761
M204 S3000
M205 X10 Y10
G0 F7200 X26.12 Y107.208
M204 S1800
M205 X8 Y8
G1 F600 X26.258 Y107.236 E0.08201
G1 X26.363 Y107.274 E0.08551
G1 X26.488 Y107.345 E0.09
G1 X26.564 Y107.405 E0.09303
G1 X26.621 Y107.462 E0.09555
G1 X26.705 Y107.57 E0.09983
G1 X26.761 Y107.675 E0.10355
G1 X26.801 Y107.783 E0.10715
G1 X26.824 Y107.898 E0.11081
G1 X26.829 Y108.02 E0.11463
G1 X26.811 Y108.164 E0.11917
G1 X26.78 Y108.277 E0.12283
G1 X26.711 Y108.421 E0.12782
G1 X26.618 Y108.54 E0.13255
G1 X26.531 Y108.622 E0.13628
G1 X26.42 Y108.696 E0.14045
G1 X26.293 Y108.754 E0.14482
G1 X26.19 Y108.782 E0.14816
G1 X26.023 Y108.798 E0.1534
G1 X25.876 Y108.781 E0.15803
G1 X25.746 Y108.744 E0.16225
G1 X25.641 Y108.694 E0.16589
G1 X25.546 Y108.63 E0.16947
G1 X25.441 Y108.532 E0.17396
G1 X25.373 Y108.447 E0.17736
G1 X25.334 Y108.384 E0.17968
G1 X25.266 Y108.22 E0.18523
G1 X25.24 Y108.085 E0.18953
G1 X25.24 Y107.912 E0.19494
G1 X25.269 Y107.77 E0.19947
G1 X25.334 Y107.614 E0.20475
G1 X25.401 Y107.512 E0.20857
G1 X25.486 Y107.42 E0.21248
G1 X25.599 Y107.331 E0.21698
G1 X25.694 Y107.278 E0.22038
G1 X25.814 Y107.233 E0.22439
G1 X25.933 Y107.209 E0.22819
G1 X26.057 Y107.203 E0.23207
G1 X26.12 Y107.208 E0.23404
M204 S3000
M205 X10 Y10
G0 F7200 X26.174 Y106.811
M204 S1800
M205 X8 Y8
G1 F600 X26.365 Y106.85 E0.24014
G1 X26.531 Y106.91 E0.24566
G1 X26.713 Y107.013 E0.25219
G1 X26.831 Y107.106 E0.25689
G1 X26.921 Y107.196 E0.26087
G1 X27.043 Y107.354 E0.26711
G1 X27.126 Y107.509 E0.27261
G1 X27.187 Y107.675 E0.27814
G1 X27.223 Y107.855 E0.28388
G1 X27.23 Y108.034 E0.28948
G1 X27.205 Y108.24 E0.29597
G1 X27.155 Y108.42 E0.30181
G1 X27.076 Y108.59 E0.30767
G1 X27.034 Y108.658 E0.31017
G1 X26.917 Y108.807 E0.31609
G1 X26.781 Y108.936 E0.32195
G1 X26.611 Y109.049 E0.32833
G1 X26.432 Y109.131 E0.33449
G1 X26.263 Y109.177 E0.33996
G1 X26.071 Y109.198 E0.346
G1 X26.001 Y109.198 E0.34819
G1 X25.798 Y109.174 E0.35458
G1 X25.605 Y109.12 E0.36085
G1 X25.439 Y109.041 E0.36659
G1 X25.295 Y108.943 E0.37204
G1 X25.149 Y108.808 E0.37826
G1 X25.044 Y108.676 E0.38353
G1 X24.982 Y108.576 E0.38721
G1 X24.908 Y108.413 E0.39281
G1 X24.877 Y108.316 E0.39599
G1 X24.841 Y108.132 E0.40185
G1 X24.835 Y107.96 E0.40723
G1 X24.843 Y107.857 E0.41046
G1 X24.883 Y107.661 E0.41672
G1 X24.944 Y107.499 E0.42213
G1 X24.987 Y107.414 E0.42511
G1 X25.083 Y107.267 E0.4306
G1 X25.216 Y107.123 E0.43672
G1 X25.374 Y106.999 E0.443
G1 X25.524 Y106.915 E0.44838
G1 X25.704 Y106.847 E0.45439
G1 X25.887 Y106.81 E0.46023
G1 X26.064 Y106.802 E0.46577
G1 X26.174 Y106.811 E0.46922
M204 S3000
M205 X10 Y10
G0 F7200 X26.228 Y106.414
M204 S1800
M205 X8 Y8
G1 F600 X26.472 Y106.464 E0.47701
G1 X26.693 Y106.544 E0.48436
G1 X26.819 Y106.608 E0.48877
G1 X26.931 Y106.677 E0.49289
G1 X27.027 Y106.747 E0.4966
G1 X27.107 Y106.816 E0.49991
G1 X27.221 Y106.93 E0.50495
G1 X27.378 Y107.134 E0.51299
G1 X27.487 Y107.337 E0.5202
G1 X27.538 Y107.46 E0.52436
G1 X27.571 Y107.562 E0.52771
G1 X27.602 Y107.691 E0.53186
G1 X27.621 Y107.812 E0.53569
G1 X27.63 Y107.935 E0.53955
G1 X27.63 Y108.06 E0.54345
G1 X27.599 Y108.316 E0.55152
G1 X27.534 Y108.55 E0.55911
G1 X27.489 Y108.66 E0.56282
G1 X27.427 Y108.782 E0.5671
G1 X27.36 Y108.891 E0.5711
G1 X27.217 Y109.073 E0.57834
G1 X27.111 Y109.179 E0.58303
G1 X27.021 Y109.257 E0.58675
G1 X26.815 Y109.394 E0.59448
G1 X26.696 Y109.454 E0.59865
G1 X26.57 Y109.507 E0.60292
G1 X26.48 Y109.536 E0.60588
G1 X26.342 Y109.569 E0.61032
G1 X26.22 Y109.588 E0.61418
G1 X26.088 Y109.598 E0.61832
G1 X25.979 Y109.598 E0.62172
G1 X25.719 Y109.567 E0.62991
G1 X25.467 Y109.496 E0.6381
G1 X25.239 Y109.388 E0.64598
G1 X25.041 Y109.254 E0.65346
G1 X24.856 Y109.083 E0.66133
G1 X24.716 Y108.906 E0.66839
G1 X24.629 Y108.766 E0.67354
G1 X24.534 Y108.558 E0.68069
G1 X24.492 Y108.427 E0.68499
G1 X24.463 Y108.302 E0.68901
G1 X24.443 Y108.172 E0.69312
G1 X24.435 Y108.063 E0.69653
G1 X24.435 Y107.939 E0.70041
G1 X24.446 Y107.805 E0.70461
G1 X24.497 Y107.552 E0.71268
G1 X24.579 Y107.334 E0.71997
G1 X24.638 Y107.216 E0.72409
G1 X24.763 Y107.026 E0.7312
G1 X24.866 Y106.907 E0.73612
G1 X24.945 Y106.828 E0.73961
G1 X25.047 Y106.742 E0.74379
G1 X25.159 Y106.661 E0.74811
G1 X25.352 Y106.553 E0.75502
G1 X25.491 Y106.496 E0.75972
G1 X25.598 Y106.461 E0.76324
G1 X25.723 Y106.431 E0.76726
G1 X25.845 Y106.412 E0.77112
G1 X25.977 Y106.402 E0.77526
G1 X26.086 Y106.402 E0.77866
G1 X26.228 Y106.414 E0.78312
M204 S3000
M205 X10 Y10
G0 F7200 X26.274 Y106.016
M204 S1800
M205 X8 Y8
G1 F600 X26.428 Y106.041 E0.788
G1 X26.58 Y106.078 E0.79289
G1 X26.732 Y106.127 E0.79788
G1 X26.861 Y106.181 E0.80225
G1 X27.016 Y106.26 E0.80769
G1 X27.153 Y106.344 E0.81272
G1 X27.277 Y106.435 E0.81753
G1 X27.384 Y106.527 E0.82194
G1 X27.51 Y106.653 E0.82751
G1 X27.592 Y106.75 E0.83148
G1 X27.71 Y106.91 E0.8377
G1 X27.774 Y107.017 E0.84159
G1 X27.85 Y107.167 E0.84685
G1 X27.912 Y107.318 E0.85195
G1 X27.957 Y107.456 E0.85649
G1 X27.994 Y107.61 E0.86144
G1 X28.019 Y107.771 E0.86654
G1 X28.03 Y107.92 E0.87121
G1 X28.03 Y108.082 E0.87627
G1 X28.017 Y108.236 E0.88111
G1 X27.991 Y108.4 E0.8863
G1 X27.954 Y108.551 E0.89116
G1 X27.91 Y108.686 E0.8956
G1 X27.85 Y108.833 E0.90056
G1 X27.777 Y108.977 E0.90561
G1 X27.689 Y109.119 E0.91083
G1 X27.605 Y109.233 E0.91526
G1 X27.501 Y109.355 E0.92027
G1 X27.386 Y109.471 E0.92538
G1 X27.274 Y109.567 E0.92999
G1 X27.134 Y109.667 E0.93537
G1 X27.007 Y109.745 E0.94003
G1 X26.865 Y109.817 E0.94501
G1 X26.713 Y109.881 E0.95016
G1 X26.584 Y109.922 E0.95439
G1 X26.421 Y109.961 E0.95963
G1 X26.262 Y109.986 E0.96467
G1 X26.106 Y109.998 E0.96956
G1 X25.958 Y109.998 E0.97418
G1 X25.791 Y109.984 E0.97942
G1 X25.636 Y109.959 E0.98433
G1 X25.484 Y109.922 E0.98922
G1 X25.327 Y109.871 E0.99438
G1 X25.204 Y109.819 E0.99856
G1 X25.052 Y109.742 E1.00389
G1 X24.916 Y109.658 E1.00888
G1 X24.789 Y109.566 E1.01379
G1 X24.671 Y109.464 E1.01866
G1 X24.562 Y109.355 E1.02348
G1 X24.451 Y109.224 E1.02885
G1 X24.379 Y109.123 E1.03273
G1 X24.281 Y108.964 E1.03857
G1 X24.211 Y108.824 E1.04346
G1 X24.158 Y108.695 E1.04782
G1 X24.106 Y108.533 E1.05314
G1 X24.071 Y108.382 E1.05799
G1 X24.045 Y108.218 E1.06318
G1 X24.035 Y108.077 E1.0676
G1 X24.035 Y107.918 E1.07257
G1 X24.048 Y107.759 E1.07756
G1 X24.073 Y107.604 E1.08247
G1 X24.113 Y107.442 E1.08768
G1 X24.16 Y107.298 E1.09242
G1 X24.213 Y107.172 E1.09669
G1 X24.288 Y107.023 E1.10191
G1 X24.38 Y106.874 E1.10738
G1 X24.46 Y106.764 E1.11164
G1 X24.569 Y106.638 E1.11684
G1 X24.674 Y106.533 E1.12149
G1 X24.795 Y106.431 E1.12644
G1 X24.939 Y106.327 E1.13199
G1 X25.063 Y106.252 E1.13652
G1 X25.19 Y106.187 E1.14098
G1 X25.352 Y106.12 E1.14646
G1 X25.485 Y106.077 E1.15083
G1 X25.644 Y106.039 E1.15594
G1 X25.803 Y106.014 E1.16097
G1 X25.959 Y106.002 E1.16587
G1 X26.107 Y106.002 E1.17049
G1 X26.274 Y106.016 E1.17573
M204 S3000
M205 X10 Y10
G0 F7200 X26.317 Y105.618
M204 S1800
M205 X8 Y8
G1 F600 X26.51 Y105.649 E1.18184
G1 X26.691 Y105.693 E1.18767
G1 X26.87 Y105.751 E1.19355
G1 X27.03 Y105.818 E1.19897
G1 X27.205 Y105.907 E1.20511
G1 X27.38 Y106.015 E1.21154
G1 X27.524 Y106.12 E1.21711
G1 X27.659 Y106.236 E1.22268
G1 X27.804 Y106.381 E1.22909
G1 X27.906 Y106.501 E1.23401
G1 X28.041 Y106.686 E1.24117
G1 X28.124 Y106.823 E1.24618
G1 X28.215 Y107.003 E1.25249
G1 X28.29 Y107.185 E1.25864
G1 X28.342 Y107.346 E1.26393
G1 X28.386 Y107.531 E1.26988
G1 X28.417 Y107.729 E1.27614
G1 X28.43 Y107.903 E1.2816
G1 X28.43 Y108.103 E1.28785
G1 X28.415 Y108.282 E1.29347
G1 X28.384 Y108.478 E1.29967
G1 X28.339 Y108.661 E1.30556
G1 X28.283 Y108.833 E1.31122
G1 X28.213 Y109.002 E1.31694
G1 X28.125 Y109.175 E1.323
G1 X28.026 Y109.336 E1.32891
G1 X27.917 Y109.484 E1.33466
G1 X27.794 Y109.628 E1.34058
G1 X27.659 Y109.764 E1.34657
G1 X27.52 Y109.883 E1.35229
G1 X27.356 Y110 E1.35859
G1 X27.203 Y110.094 E1.36421
G1 X27.034 Y110.179 E1.37012
G1 X26.852 Y110.256 E1.3763
G1 X26.684 Y110.309 E1.38181
G1 X26.5 Y110.353 E1.38772
G1 X26.304 Y110.384 E1.39392
G1 X26.124 Y110.398 E1.39957
G1 X25.936 Y110.398 E1.40545
G1 X25.748 Y110.382 E1.41135
G1 X25.555 Y110.351 E1.41746
G1 X25.373 Y110.307 E1.42331
G1 X25.194 Y110.249 E1.42919
G1 X25.033 Y110.181 E1.43466
G1 X24.855 Y110.09 E1.44091
G1 X24.692 Y109.99 E1.44689
G1 X24.541 Y109.88 E1.45273
G1 X24.395 Y109.754 E1.45876
G1 X24.268 Y109.627 E1.46437
G1 X24.139 Y109.475 E1.47061
G1 X24.041 Y109.338 E1.47587
G1 X23.932 Y109.161 E1.48237
G1 X23.85 Y108.997 E1.4881
G1 X23.779 Y108.823 E1.49398
G1 X23.72 Y108.641 E1.49996
G1 X23.679 Y108.464 E1.50564
G1 X23.647 Y108.264 E1.51197
G1 X23.635 Y108.091 E1.5174
G1 X23.635 Y107.897 E1.52346
G1 X23.65 Y107.715 E1.52917
G1 X23.681 Y107.524 E1.53522
G1 X23.728 Y107.33 E1.54146
G1 X23.783 Y107.164 E1.54693
G1 X23.852 Y106.999 E1.55252
G1 X23.94 Y106.825 E1.55862
G1 X24.044 Y106.656 E1.56482
G1 X24.146 Y106.516 E1.57024
G1 X24.279 Y106.362 E1.5766
G1 X24.402 Y106.239 E1.58204
G1 X24.546 Y106.117 E1.58794
G1 X24.713 Y105.997 E1.59437
G1 X24.872 Y105.9 E1.60019
G1 X25.029 Y105.82 E1.6057
G1 X25.208 Y105.746 E1.61175
G1 X25.381 Y105.691 E1.61743
G1 X25.565 Y105.647 E1.62334
G1 X25.761 Y105.616 E1.62955
G1 X25.941 Y105.602 E1.63519
G1 X26.129 Y105.602 E1.64107
G1 X26.317 Y105.618 E1.64697
M204 S3000
M205 X10 Y10
G0 F7200 X26.305 Y105.717
G0 X26.293 Y110.285
G0 X26.348 Y110.782
M204 S1800
M205 X8 Y8
;TYPE:WALL-OUTER
G1 F600 X26.142 Y110.798 E1.65343
G1 X25.914 Y110.798 E1.66056
G1 X25.705 Y110.78 E1.66712
G1 X25.474 Y110.743 E1.67443
G1 X25.262 Y110.692 E1.68125
G1 X25.061 Y110.627 E1.68785
G1 X24.856 Y110.54 E1.69481
G1 X24.663 Y110.441 E1.7016
G1 X24.475 Y110.326 E1.70849
G1 X24.288 Y110.19 E1.71571
G1 X24.122 Y110.047 E1.72257
G1 X23.974 Y109.899 E1.72911
G1 X23.828 Y109.727 E1.73616
G1 X23.703 Y109.553 E1.74286
G1 X23.588 Y109.366 E1.74972
G1 X23.485 Y109.161 E1.7569
G1 X23.401 Y108.956 E1.76382
G1 X23.337 Y108.758 E1.77033
G1 X23.286 Y108.541 E1.7773
G1 X23.25 Y108.316 E1.78442
G1 X23.235 Y108.112 E1.79082
G1 X23.235 Y107.876 E1.7982
G1 X23.252 Y107.672 E1.8046
G1 X23.289 Y107.44 E1.81194
G1 X23.339 Y107.235 E1.81854
G1 X23.41 Y107.018 E1.82568
G1 X23.489 Y106.83 E1.83205
G1 X23.589 Y106.633 E1.83896
G1 X23.712 Y106.432 E1.84633
G1 X23.832 Y106.268 E1.85268
G1 X23.985 Y106.09 E1.86002
G1 X24.13 Y105.945 E1.86643
G1 X24.297 Y105.803 E1.87328
G1 X24.488 Y105.666 E1.88063
G1 X24.676 Y105.551 E1.88752
G1 X24.858 Y105.459 E1.8939
G1 X25.077 Y105.368 E1.90131
G1 X25.27 Y105.306 E1.90765
G1 X25.491 Y105.254 E1.91475
G1 X25.717 Y105.218 E1.9219
G1 X25.923 Y105.202 E1.92836
G1 X26.151 Y105.202 E1.93549
G1 X26.36 Y105.22 E1.94205
G1 X26.591 Y105.257 E1.94936
G1 X26.802 Y105.308 E1.95615
G1 X27.003 Y105.373 E1.96276
G1 X27.206 Y105.459 E1.96965
G1 X27.403 Y105.559 E1.97656
G1 X27.59 Y105.674 E1.98342
G1 X27.777 Y105.81 E1.99065
G1 X27.934 Y105.945 E1.99712
G1 X28.093 Y106.104 E2.00415
G1 X28.23 Y106.266 E2.01079
G1 X28.368 Y106.456 E2.01813
G1 X28.476 Y106.633 E2.02461
G1 X28.58 Y106.839 E2.03182
G1 X28.664 Y107.044 E2.03875
G1 X28.727 Y107.238 E2.04513
G1 X28.779 Y107.457 E2.05216
G1 X28.815 Y107.684 E2.05935
G1 X28.83 Y107.888 E2.06575
G1 X28.83 Y108.124 E2.07312
G1 X28.813 Y108.328 E2.07952
G1 X28.776 Y108.558 E2.08681
G1 X28.726 Y108.765 E2.09347
G1 X28.656 Y108.979 E2.10051
G1 X28.576 Y109.17 E2.10698
G1 X28.476 Y109.367 E2.11389
G1 X28.359 Y109.558 E2.12089
G1 X28.229 Y109.735 E2.12776
G1 X28.086 Y109.902 E2.13463
G1 X27.931 Y110.058 E2.1415
G1 X27.768 Y110.197 E2.1482
G1 X27.577 Y110.334 E2.15555
G1 X27.399 Y110.443 E2.16208
G1 X27.201 Y110.543 E2.16901
G1 X26.988 Y110.632 E2.17623
G1 X26.795 Y110.694 E2.18257
G1 X26.574 Y110.746 E2.18966
G1 X26.348 Y110.782 E2.19682
M204 S3000
M205 X10 Y10
G0 F7200 X26.148 Y110.797
G0 X26.121 Y110.299
G0 X26.141 Y108.165
G0 X26.002 Y108.026
M204 S1800
M205 X8 Y8
;TYPE:SKIN
G1 F600 X26.145 Y107.887 E2.20661
M204 S3000
M205 X10 Y10
G0 F7200 X26.228 Y107.97
;MESH:NONMESH
G0 X26.098 Y107.61
;TIME_ELAPSED:15.762915
;LAYER:1
;MESH:Echo_Show_8_-_Pin_v1.stl
G0 X26.098 Y107.61 Z0.4
M204 S1800
M205 X8 Y8
;TYPE:WALL-INNER
G1 F600 X26.172 Y107.631 E2.20902
G1 X26.272 Y107.686 E2.21258
G1 X26.335 Y107.747 E2.21533
G1 X26.382 Y107.816 E2.21794
G1 X26.412 Y107.886 E2.22032
G1 X26.424 Y107.941 E2.22208
G1 X26.414 Y108.107 E2.22728
G1 X26.395 Y108.156 E2.22892
G1 X26.355 Y108.227 E2.23147
G1 X26.274 Y108.315 E2.23521
G1 X26.168 Y108.37 E2.23894
G1 X26.064 Y108.395 E2.24228
G1 X25.981 Y108.391 E2.24488
G1 X25.906 Y108.374 E2.24729
G1 X25.802 Y108.322 E2.25092
G1 X25.77 Y108.296 E2.25221
G1 X25.703 Y108.219 E2.2554
G1 X25.656 Y108.123 E2.25874
G1 X25.641 Y108.048 E2.26113
G1 X25.642 Y107.938 E2.26457
G1 X25.687 Y107.807 E2.2689
G1 X25.724 Y107.752 E2.27098
G1 X25.811 Y107.672 E2.27467
G1 X25.91 Y107.623 E2.27813
G1 X25.985 Y107.607 E2.28052
G1 X26.098 Y107.61 E2.28406
M204 S3000
M205 X10 Y10
G0 F7200 X26.176 Y107.217
M204 S1800
M205 X8 Y8
G1 F600 X26.312 Y107.254 E2.28846
G1 X26.432 Y107.312 E2.29263
G1 X26.526 Y107.375 E2.29617
G1 X26.643 Y107.488 E2.30125
G1 X26.734 Y107.622 E2.30632
G1 X26.796 Y107.764 E2.31116
G1 X26.825 Y107.903 E2.3156
G1 X26.82 Y108.108 E2.32201
G1 X26.8 Y108.215 E2.32542
G1 X26.757 Y108.329 E2.32923
G1 X26.689 Y108.45 E2.33357
G1 X26.617 Y108.541 E2.33719
G1 X26.527 Y108.625 E2.34104
G1 X26.483 Y108.657 E2.34274
G1 X26.314 Y108.745 E2.3487
G1 X26.155 Y108.787 E2.35384
G1 X26.077 Y108.796 E2.3563
G1 X25.922 Y108.788 E2.36115
G1 X25.773 Y108.755 E2.36592
G1 X25.582 Y108.659 E2.3726
G1 X25.49 Y108.585 E2.37629
G1 X25.375 Y108.452 E2.38179
G1 X25.3 Y108.316 E2.38665
G1 X25.27 Y108.232 E2.38944
G1 X25.24 Y108.088 E2.39404
G1 X25.243 Y107.89 E2.40023
G1 X25.269 Y107.776 E2.40388
G1 X25.331 Y107.621 E2.4091
G1 X25.414 Y107.497 E2.41377
G1 X25.498 Y107.408 E2.41759
G1 X25.589 Y107.338 E2.42118
G1 X25.721 Y107.267 E2.42587
G1 X25.798 Y107.238 E2.42844
G1 X25.94 Y107.208 E2.43298
G1 X26.061 Y107.204 E2.43676
G1 X26.176 Y107.217 E2.44038
M204 S3000
M205 X10 Y10
G0 F7200 X26.074 Y106.803
M204 S1800
M205 X8 Y8
G1 F600 X26.255 Y106.824 E2.44608
G1 X26.449 Y106.877 E2.45237
G1 X26.634 Y106.966 E2.45878
G1 X26.774 Y107.06 E2.46406
G1 X26.913 Y107.188 E2.46996
G1 X26.964 Y107.248 E2.47243
G1 X27.083 Y107.425 E2.47909
G1 X27.162 Y107.599 E2.48507
G1 X27.185 Y107.668 E2.48734
G1 X27.222 Y107.846 E2.49303
G1 X27.229 Y107.949 E2.49625
G1 X27.219 Y108.157 E2.50276
G1 X27.187 Y108.32 E2.50796
G1 X27.12 Y108.501 E2.51399
G1 X27.022 Y108.673 E2.52018
G1 X26.912 Y108.813 E2.52575
G1 X26.782 Y108.935 E2.53132
G1 X26.7 Y108.994 E2.53448
G1 X26.525 Y109.091 E2.54074
G1 X26.44 Y109.126 E2.54361
G1 X26.228 Y109.182 E2.55047
