;FLAVOR:Marlin
;TIME:1302
;Filament used: 1.23305m
;Layer height: 0.2
;Generated with Cura_SteamEngine 3.6.0
M140 S30
M105
M190 S30
M104 S220
M105
M109 S220
M82 ;absolute extrusion mode
G21 ;metric values
G90 ;absolute positioning
M82 ;set extruder to absolute mode
M107 ;start with the fan off
G28 X0 Y0 ;move X/Y to min endstops
G28 Z0 ;move Z to min endstops
G1 Z15.0 F120 ;move the platform down 15mm
G92 E0 ;zero the extruded length
G1 F200 E3 ;extrude 3mm of feed stock
G92 E0 ;zero the extruded length again
G1 F120
M117 Printing...
G5
G92 E0
G1 F2400 E-6
;LAYER_COUNT:61
;LAYER:0
M106 S255
M204 S3000
M205 X10 Y10
;MESH:Shock_Tower_Guard.stl
G0 F2400 X73.608 Y129.853 Z0.2
M204 S1800
M205 X8 Y8
;TYPE:WALL-OUTER
G1 F2400 E0
G1 F1200 X74.173 Y130.025 E0.02585
G1 X74.47 Y130.184 E0.0406
G1 X74.776 Y130.437 E0.05798
G1 X74.973 Y130.671 E0.07136
G1 X75.259 Y131.211 E0.09811
G1 X75.358 Y131.604 E0.11585
G1 X75.378 Y131.912 E0.12936
G1 X75.285 Y132.517 E0.15615
G1 X75.075 Y132.978 E0.17832
G1 X74.836 Y133.298 E0.19581
G1 X74.459 Y133.625 E0.21765
G1 X74.006 Y133.85 E0.23979
G1 X73.69 Y133.938 E0.25415
G1 X73.425 Y133.968 E0.26582
G1 X72.993 Y133.946 E0.28475
G1 X72.462 Y133.786 E0.30903
G1 X72.071 Y133.562 E0.32875
G1 X71.762 Y133.279 E0.34709
G1 X71.571 Y133.031 E0.36079
G1 X71.398 Y132.707 E0.37687
G1 X71.297 Y132.397 E0.39114
G1 X71.242 Y131.79 E0.41782
G1 X71.307 Y131.368 E0.43651
G1 X71.383 Y131.13 E0.44744
G1 X71.702 Y130.59 E0.47489
G1 X71.836 Y130.438 E0.48376
G1 X72.166 Y130.169 E0.5024
G1 X72.395 Y130.043 E0.51384
G1 X72.818 Y129.888 E0.53356
G1 X73.223 Y129.832 E0.55145
G1 X73.608 Y129.853 E0.56833
M204 S3000
M205 X10 Y10
G0 F2400 X73.895 Y129.94
G0 X73.866 Y130.035
G0 X72.521 Y130.606
G0 X72.182 Y130.893
G0 X71.906 Y131.332
G0 X71.849 Y131.54
G0 X71.79 Y132.355
G0 X71.885 Y132.326
M204 S1800
M205 X8 Y8
G1 F1200 X72.171 Y132.825 E0.5935
G1 X72.25 Y132.918 E0.59885
G1 X72.533 Y133.156 E0.61503
G1 X72.858 Y133.304 E0.63066
G1 X73.206 Y133.371 E0.64617
G1 X73.573 Y133.351 E0.66226
G1 X73.972 Y133.219 E0.68066
G1 X74.372 Y132.923 E0.70244
G1 X74.627 Y132.549 E0.72225
G1 X74.769 Y132.119 E0.74207
G1 X74.77 Y131.722 E0.75945
G1 X74.695 Y131.399 E0.77396
G1 X74.518 Y131.063 E0.79058
G1 X74.296 Y130.804 E0.80552
G1 X74.018 Y130.617 E0.82018
G1 X73.923 Y130.568 E0.82486
G1 X73.578 Y130.455 E0.84075
G1 X73.233 Y130.427 E0.8559
G1 X72.857 Y130.499 E0.87266
G1 X72.542 Y130.639 E0.88774
G1 X72.212 Y130.919 E0.90669
G1 X71.942 Y131.348 E0.92887
G1 X71.842 Y131.705 E0.9451
G1 X71.885 Y132.326 E0.97235
M204 S3000
M205 X10 Y10
G0 F2400 X72.034 Y132.586
G0 X71.855 Y132.949
M204 S1800
M205 X8 Y8
;TYPE:SKIN
G1 F1200 X72.255 Y133.349 E0.98119
M204 S3000
M205 X10 Y10
G0 F2400 X73.125 Y133.654
M204 S1800
M205 X8 Y8
G1 F1200 X73.415 Y133.661 E0.98227
G1 X73.886 Y133.566 E0.98404
G1 X74.424 Y133.256 E0.98634
G1 X74.914 Y132.614 E0.98934
G1 X75.068 Y131.92 E0.99197
G1 X75.053 Y131.622 E0.99307
M204 S3000
M205 X10 Y10
G0 F2400 X75.021 Y131.59
G0 X74.025 Y130.311
G0 X73.993 Y130.279
M204 S1800
M205 X8 Y8
G1 F1200 X73.583 Y130.152 E0.99481
G1 X72.793 Y130.21 E0.99802
G1 X72.081 Y130.629 E1.00137
G1 X71.637 Y131.317 E1.00468
G1 X71.569 Y132.097 E1.00786
M204 S3000
M205 X10 Y10
G0 F2400 X71.833 Y132.096
G1 F2400 E-4.99214
G0 F2400 X71.769 Y132.098
G0 X72.082 Y133.546
G0 X71.638 Y134.808
G0 X70.271 Y142.591
M204 S1800
M205 X8 Y8
;TYPE:WALL-INNER
G1 F2400 E1.00786
G1 F1200 X70.271 Y141.835 E1.04095
G1 X70.271 Y141.53 E1.0543
G1 X70.272 Y135.713 E1.30891
G1 X70.272 Y135.336 E1.32541
G1 X70.273 Y135.17 E1.33268
G1 X70.439 Y135.336 E1.33604
G1 X70.748 Y135.552 E1.34741
G1 X71.076 Y135.782 E1.36495
G1 X71.782 Y136.11 E1.39902
G1 X72.534 Y136.314 E1.43312
G1 X73.31 Y136.38 E1.46721
G1 X74.086 Y136.314 E1.5013
G1 X74.838 Y136.11 E1.53541
G1 X75.544 Y135.782 E1.56948
G1 X76.181 Y135.336 E1.60352
G1 X76.733 Y134.784 E1.63769
G1 X77.179 Y134.147 E1.67172
G1 X77.507 Y133.441 E1.7058
G1 X77.711 Y132.689 E1.7399
G1 X77.777 Y131.913 E1.77399
G1 X77.711 Y131.137 E1.80808
G1 X77.507 Y130.385 E1.84218
G1 X77.197 Y129.718 E1.87438
G1 X77.179 Y129.679 E1.87626
G1 X76.825 Y129.174 E1.90325
G1 X77.179 Y129.174 E1.9083
G1 X77.222 Y129.174 E1.91011
G1 X83.266 Y129.174 E2.17466
G1 X83.309 Y129.174 E2.17654
G1 X83.663 Y129.174 E2.19203
G1 X83.309 Y129.679 E2.20857
G1 X83.291 Y129.718 E2.21037
G1 X82.981 Y130.385 E2.24257
G1 X82.777 Y131.137 E2.27667
G1 X82.711 Y131.913 E2.31076
G1 X82.777 Y132.689 E2.34485
G1 X82.981 Y133.441 E2.37895
G1 X83.309 Y134.147 E2.41303
G1 X83.755 Y134.784 E2.44706
G1 X84.307 Y135.336 E2.48123
G1 X84.944 Y135.782 E2.51527
G1 X85.65 Y136.11 E2.54934
G1 X86.402 Y136.314 E2.58345
G1 X87.178 Y136.38 E2.61754
G1 X87.954 Y136.314 E2.65162
G1 X88.706 Y136.11 E2.68573
G1 X89.412 Y135.782 E2.7198
G1 X89.74 Y135.552 E2.73734
G1 X90.049 Y135.336 E2.75384
G1 X90.215 Y135.17 E2.76412
G1 X90.215 Y135.335 E2.76444
G1 X90.215 Y135.713 E2.77583
G1 X90.216 Y141.515 E3.02979
G1 X90.216 Y141.742 E3.03973
G1 X90.217 Y142.59 E3.07684
G1 X90.245 Y142.602 E3.07818
G1 X94.819 Y144.638 E3.29732
G1 X95.138 Y144.78 E3.3126
G1 X95.195 Y144.806 E3.31535
G1 X95.105 Y144.852 E3.31676
G1 X94.858 Y145.099 E3.32664
G1 X94.33 Y145.626 E3.35929
G1 X93.836 Y146.598 E3.40701
G1 X93.664 Y147.675 E3.45475
G1 X93.836 Y148.752 E3.50249
G1 X94.33 Y149.724 E3.55022
G1 X95.105 Y150.498 E3.59816
G1 X96.076 Y150.991 E3.64582
G1 X97.152 Y151.163 E3.69352
G1 X98.228 Y150.991 E3.74121
G1 X99.2 Y150.497 E3.78894
G1 X99.973 Y149.724 E3.83679
G1 X100.281 Y149.118 E3.86654
G1 X100.455 Y148.775 E3.88337
G1 X100.727 Y149.047 E3.89339
G1 X101.628 Y149.948 E3.94917
G1 X101.638 Y150.006 E3.95174
G1 X101.726 Y150.088 E3.95701
G1 X101.328 Y150.625 E3.98626
G1 X100.857 Y151.107 E4.01576
G1 X100.344 Y151.573 E4.0461
G1 X99.951 Y151.863 E4.06747
G1 X99.536 Y152.113 E4.08868
G1 X99.075 Y152.331 E4.111
G1 X98.618 Y152.494 E4.13224
G1 X98.14 Y152.614 E4.15381
G1 X97.65 Y152.686 E4.17549
G1 X97.099 Y152.712 E4.19963
G1 X96.623 Y152.687 E4.22049
G1 X96.121 Y152.614 E4.2427
G1 X95.644 Y152.494 E4.26423
G1 X95.187 Y152.331 E4.28546
G1 X94.726 Y152.113 E4.30779
G1 X94.311 Y151.863 E4.32899
G1 X93.918 Y151.573 E4.35037
G1 X93.353 Y151.061 E4.38374
G1 X91.506 Y149.215 E4.49804
G1 X68.983 Y149.215 E5.48388
G1 X67.127 Y151.07 E5.59874
G1 X66.576 Y151.568 E5.63125
G1 X66.177 Y151.863 E5.65297
G1 X65.762 Y152.113 E5.67417
G1 X65.301 Y152.331 E5.69649
G1 X64.844 Y152.494 E5.71773
G1 X64.367 Y152.614 E5.73926
G1 X63.874 Y152.687 E5.76107
G1 X63.331 Y152.712 E5.78487
G1 X62.852 Y152.689 E5.80586
G1 X62.347 Y152.614 E5.8282
G1 X61.871 Y152.494 E5.84969
G1 X61.414 Y152.331 E5.87093
G1 X60.953 Y152.113 E5.89325
G1 X60.538 Y151.863 E5.91445
G1 X60.14 Y151.569 E5.93611
G1 X59.644 Y151.119 E5.96542
G1 X59.158 Y150.622 E5.99585
G1 X58.76 Y150.086 E6.02507
G1 X58.987 Y149.873 E6.0387
G1 X58.987 Y149.824 E6.04084
G1 X59.763 Y149.051 E6.08878
G1 X60.035 Y148.78 E6.10559
G1 X60.209 Y149.122 E6.11559
G1 X60.515 Y149.724 E6.14515
G1 X61.288 Y150.497 E6.193
G1 X62.26 Y150.991 E6.24072
G1 X63.337 Y151.163 E6.28846
G1 X64.419 Y150.991 E6.33641
G1 X65.401 Y150.484 E6.38478
G1 X66.171 Y149.705 E6.43273
G1 X66.654 Y148.739 E6.48
G1 X66.825 Y147.675 E6.52717
G1 X66.653 Y146.598 E6.57491
G1 X66.159 Y145.626 E6.62263
G1 X65.631 Y145.099 E6.65528
G1 X65.384 Y144.852 E6.67057
G1 X65.294 Y144.806 E6.675
G1 X65.351 Y144.781
G1 X65.67 Y144.639 E6.68486
G1 X70.25 Y142.6 E6.9043
G1 X70.271 Y142.591 E6.9053
M204 S3000
M205 X10 Y10
G0 F2400 X70.836 Y143.114
M204 S1800
M205 X8 Y8
G1 F1200 X71.47 Y144.202 E6.96042
G1 X72.137 Y144.773 E6.99885
G1 X72.715 Y145.071 E7.02731
G1 X73.565 Y145.259 E7.06542
G1 X74.195 Y145.241 E7.093
G1 X74.995 Y145.036 E7.12915
G1 X75.776 Y144.565 E7.16907
G1 X76.359 Y143.886 E7.20824
G1 X76.636 Y143.365 E7.23407
G1 X76.818 Y142.759 E7.26177
G1 X76.861 Y142.026 E7.2939
G1 X76.702 Y141.16 E7.33244
G1 X76.228 Y140.312 E7.37497
G1 X75.707 Y139.796 E7.40706
G1 X74.979 Y139.357 E7.44427
G1 X74.159 Y139.156 E7.48123
G1 X73.576 Y139.147 E7.50675
G1 X72.875 Y139.283 E7.538
G1 X72.202 Y139.58 E7.5702
G1 X71.531 Y140.145 E7.6086
G1 X71.022 Y140.888 E7.64802
G1 X70.829 Y141.543 E7.6779
G1 X70.743 Y141.835 E7.69019
G1 X70.795 Y142.552 E7.71811
G1 X70.796 Y142.575 E7.71909
G1 X70.836 Y143.114 E7.74275
M204 S3000
M205 X10 Y10
G0 F2400 X73.086 Y144.046
G0 X73.668 Y144.174
G0 X86.521 Y144.177
G0 X89.336 Y143.765
M204 S1800
M205 X8 Y8
G1 F1200 X89.714 Y142.713 E7.79168
G1 X89.724 Y142.684 E7.79302
G1 X89.724 Y142.591 E7.79709
G1 X89.723 Y141.743 E7.82977
G1 X89.658 Y141.526 E7.8391
G1 X89.493 Y140.981 E7.86403
G1 X89.143 Y140.366 E7.895
G1 X88.569 Y139.78 E7.9309
G1 X87.817 Y139.34 E7.96904
G1 X86.936 Y139.147 E8.00851
G1 X86.308 Y139.158 E8.03601
G1 X85.502 Y139.36 E8.07238
G1 X84.786 Y139.794 E8.10902
G1 X84.289 Y140.27 E8.13915
G1 X83.734 Y141.318 E8.19105
G1 X83.619 Y142.089 E8.22517
G1 X83.694 Y142.896 E8.26065
G1 X84.024 Y143.743 E8.30044
G1 X84.521 Y144.381 E8.33583
G1 X85.076 Y144.807 E8.36646
G1 X85.583 Y145.064 E8.39134
G1 X86.439 Y145.27 E8.42987
G1 X87.378 Y145.189 E8.47113
G1 X88.043 Y144.951 E8.50204
G1 X88.746 Y144.481 E8.53906
G1 X89.336 Y143.765 E8.57967
M204 S3000
M205 X10 Y10
G0 F2400 X89.164 Y142.587
M204 S1800
M205 X8 Y8
G1 F1200 X89.163 Y141.826 E8.61297
G1 X88.975 Y141.203 E8.64146
G1 X88.692 Y140.706 E8.66649
G1 X88.221 Y140.225 E8.69596
G1 X87.611 Y139.868 E8.72689
G1 X86.88 Y139.708 E8.75965
G1 X86.382 Y139.717 E8.78145
G1 X85.72 Y139.883 E8.81132
G1 X85.129 Y140.241 E8.84157
G1 X84.742 Y140.612 E8.86503
G1 X84.274 Y141.495 E8.90877
G1 X84.183 Y142.105 E8.93577
G1 X84.244 Y142.766 E8.96482
G1 X84.516 Y143.463 E8.99757
G1 X84.919 Y143.98 E9.02626
G1 X85.376 Y144.331 E9.05149
G1 X85.778 Y144.535 E9.07122
G1 X86.481 Y144.704 E9.10287
G1 X87.258 Y144.637 E9.137
G1 X87.789 Y144.447 E9.16169
G1 X88.366 Y144.061 E9.19207
G1 X88.842 Y143.484 E9.22481
G1 X89.164 Y142.587 E9.26653
M204 S3000
M205 X10 Y10
G0 F2400 X90.561 Y131.913
G0 X90.51 Y131.328
G0 X90.468 Y131.167
G0 X89.688 Y128.921
M204 S1800
M205 X8 Y8
G1 F1200 X89.25 Y128.614 E9.28994
G1 X89.688 Y128.614 E9.29437
G1 X89.993 Y128.614 E9.30772
G1 X90.774 Y128.614 E9.3419
G1 X90.774 Y129.411 E9.37679
G1 X90.774 Y129.958 E9.40073
G1 X90.775 Y130.419 E9.42091
G1 X90.559 Y129.959 E9.42642
G1 X90.246 Y129.511 E9.4433
G1 X90.17 Y129.403 E9.44908
G1 X89.903 Y129.136 E9.46561
G1 X89.688 Y128.921 E9.47614
M204 S3000
M205 X10 Y10
G0 F2400 X87.764 Y128.581
G0 X87.178 Y128.53
G0 X73.31 Y128.53
G0 X72.724 Y128.581
G0 X70.318 Y129.403
M204 S1800
M205 X8 Y8
G1 F1200 X70.242 Y129.512 E9.48195
G1 X69.928 Y129.96 E9.5059
G1 X69.713 Y130.422 E9.5282
G1 X69.713 Y129.96 E9.53166
G1 X69.713 Y129.413 E9.54857
G1 X69.714 Y128.614 E9.58355
G1 X70.495 Y128.614 E9.61773
G1 X70.8 Y128.614 E9.63108
G1 X71.238 Y128.614 E9.65025
G1 X70.8 Y128.921 E9.6589
G1 X70.585 Y129.136 E9.66943
G1 X70.318 Y129.403 E9.68595
M204 S3000
M205 X10 Y10
G0 F2400 X69.978 Y131.327
G0 X69.711 Y142.227
M204 S1800
M205 X8 Y8
G1 F1200 X69.712 Y134.411 E10.02806
G1 X69.712 Y133.866 E10.05192
G1 X69.713 Y133.403 E10.07218
G1 X69.928 Y133.866 E10.07773
G1 X70.241 Y134.313 E10.09462
G1 X70.318 Y134.423 E10.10049
G1 X70.8 Y134.905 E10.13033
G1 X71.357 Y135.295 E10.16009
G1 X71.975 Y135.582 E10.18992
G1 X72.632 Y135.76 E10.21971
G1 X73.31 Y135.818 E10.24949
G1 X73.988 Y135.76 E10.27928
G1 X74.645 Y135.582 E10.30907
G1 X75.263 Y135.295 E10.3389
G1 X75.82 Y134.905 E10.36866
G1 X76.302 Y134.423 E10.3985
G1 X76.692 Y133.866 E10.42826
G1 X76.979 Y133.248 E10.45808
G1 X77.157 Y132.591 E10.48788
G1 X77.215 Y131.913 E10.51766
G1 X77.157 Y131.235 E10.54745
G1 X76.979 Y130.578 E10.57724
G1 X76.692 Y129.96 E10.60706
G1 X76.302 Y129.403 E10.63683
G1 X76.035 Y129.136 E10.65335
G1 X75.82 Y128.921 E10.66666
G1 X75.382 Y128.614 E10.69007
G1 X75.82 Y128.614 E10.6945
G1 X76.125 Y128.614 E10.70507
G1 X84.363 Y128.614 E11.06565
G1 X84.668 Y128.614 E11.079
G1 X85.106 Y128.614 E11.09818
G1 X84.668 Y128.921 E11.10682
G1 X84.453 Y129.136 E11.11735
G1 X84.186 Y129.403 E11.13388
G1 X83.796 Y129.96 E11.16364
G1 X83.509 Y130.578 E11.19347
G1 X83.331 Y131.235 E11.22326
G1 X83.273 Y131.913 E11.25304
G1 X83.331 Y132.591 E11.28283
G1 X83.509 Y133.248 E11.31262
G1 X83.796 Y133.866 E11.34245
G1 X84.186 Y134.423 E11.37221
G1 X84.668 Y134.905 E11.40205
G1 X85.225 Y135.295 E11.43181
G1 X85.843 Y135.582 E11.46163
G1 X86.5 Y135.76 E11.49143
G1 X87.178 Y135.818 E11.52121
G1 X87.856 Y135.76 E11.551
G1 X88.513 Y135.582 E11.58079
G1 X89.131 Y135.295 E11.61061
G1 X89.688 Y134.905 E11.64038
G1 X90.17 Y134.423 E11.67021
G1 X90.247 Y134.313 E11.67609
G1 X90.559 Y133.867 E11.69991
G1 X90.775 Y133.406 E11.7222
G1 X90.775 Y133.866 E11.72564
G1 X90.775 Y134.411 E11.74252
G1 X90.777 Y142.226 E12.08458
G1 X96.008 Y144.555 E12.33521
G1 X96.339 Y144.702 E12.35106
G1 X96.64 Y144.836 E12.36549
G1 X96.251 Y144.898 E12.37043
G1 X95.928 Y145.062 E12.38186
G1 X95.438 Y145.311 E12.40592
G1 X94.789 Y145.959 E12.44606
G1 X94.375 Y146.773 E12.48603
G1 X94.231 Y147.675 E12.52602
G1 X94.375 Y148.577 E12.566
G1 X94.789 Y149.391 E12.60597
G1 X95.438 Y150.039 E12.64611
G1 X96.251 Y150.452 E12.68602
G1 X97.152 Y150.596 E12.72596
G1 X98.053 Y150.452 E12.7659
G1 X98.867 Y150.038 E12.80587
G1 X99.514 Y149.391 E12.84592
G1 X99.928 Y148.577 E12.88589
G1 X99.994 Y148.166 E12.90411
G1 X100.071 Y147.675 E12.92587
G1 X100.057 Y147.585 E12.92986
G1 X100.108 Y147.636
G1 X100.459 Y147.987 E12.94281
G1 X102.15 Y149.678 E13.04748
G1 X102.158 Y149.725 E13.04957
G1 X102.447 Y149.994 E13.06685
G1 X102.247 Y150.327 E13.08385
G1 X101.757 Y150.987 E13.11983
G1 X101.247 Y151.51 E13.15181
G1 X100.701 Y152.005 E13.18406
G1 X100.263 Y152.329 E13.20791
G1 X99.798 Y152.608 E13.23165
G1 X99.294 Y152.847 E13.25606
G1 X98.776 Y153.032 E13.28014
G1 X98.251 Y153.164 E13.30383
G1 X97.707 Y153.244 E13.3279
G1 X97.097 Y153.272 E13.35463
G1 X96.566 Y153.245 E13.3779
G1 X96.011 Y153.164 E13.40245
G1 X95.486 Y153.032 E13.42614
G1 X94.968 Y152.847 E13.45022
G1 X94.464 Y152.608 E13.47463
G1 X93.999 Y152.329 E13.49837
G1 X93.561 Y152.005 E13.52222
G1 X92.968 Y151.468 E13.55723
G1 X91.274 Y149.775 E13.66206
G1 X69.215 Y149.775 E14.62759
G1 X67.512 Y151.477 E14.73298
G1 X66.933 Y152 E14.76713
G1 X66.489 Y152.329 E14.79132
G1 X66.024 Y152.608 E14.81505
G1 X65.52 Y152.847 E14.83947
G1 X65.002 Y153.032 E14.86354
G1 X64.477 Y153.164 E14.88724
G1 X63.932 Y153.245 E14.91135
G1 X63.329 Y153.272 E14.93777
G1 X62.793 Y153.246 E14.96126
G1 X62.238 Y153.164 E14.98582
G1 X61.713 Y153.032 E15.00951
G1 X61.195 Y152.847 E15.03359
G1 X60.691 Y152.608 E15.058
G1 X60.226 Y152.329 E15.08174
G1 X59.783 Y152.001 E15.10587
G1 X59.254 Y151.522 E15.1371
G1 X58.729 Y150.984 E15.17001
G1 X58.236 Y150.32 E15.2062
G1 X58.041 Y149.995 E15.22279
G1 X58.427 Y149.631 E15.24602
G1 X58.427 Y149.591 E15.24777
G1 X60.028 Y147.996 E15.34668
G1 X60.383 Y147.642 E15.36863
G1 X60.43 Y147.596 E15.37151
G1 X60.417 Y147.675 E15.37212
G1 X60.495 Y148.17 E15.3851
G1 X60.56 Y148.577 E15.40314
G1 X60.974 Y149.391 E15.44311
G1 X61.621 Y150.038 E15.48316
G1 X62.435 Y150.452 E15.52313
G1 X63.337 Y150.596 E15.56311
G1 X64.242 Y150.452 E15.60322
G1 X65.065 Y150.027 E15.64376
G1 X65.71 Y149.375 E15.68391
G1 X66.115 Y148.565 E15.72355
G1 X66.258 Y147.675 E15.763
G1 X66.114 Y146.773 E15.80298
G1 X65.7 Y145.959 E15.84295
G1 X65.051 Y145.311 E15.8831
G1 X64.561 Y145.062 E15.90715
G1 X64.238 Y144.898 E15.92301
G1 X63.849 Y144.836 E15.94025
G1 X64.15 Y144.702 E15.94239
G1 X64.481 Y144.555 E15.95382
G1 X69.711 Y142.227 E16.20439
M204 S3000
M205 X10 Y10
G0 F2400 X71.385 Y142.944
M204 S1800
M205 X8 Y8
G1 F1200 X71.906 Y143.838 E16.24968
G1 X72.452 Y144.305 E16.28113
G1 X72.907 Y144.54 E16.30354
G1 X73.618 Y144.697 E16.33541
G1 X74.117 Y144.683 E16.35726
G1 X74.776 Y144.514 E16.38704
G1 X75.41 Y144.132 E16.41944
G1 X75.894 Y143.568 E16.45197
G1 X76.116 Y143.151 E16.47265
G1 X76.263 Y142.661 E16.49504
G1 X76.298 Y142.061 E16.52135
G1 X76.168 Y141.352 E16.5529
G1 X75.778 Y140.654 E16.58789
G1 X75.361 Y140.241 E16.61358
G1 X74.763 Y139.881 E16.64413
G1 X74.087 Y139.715 E16.6746
