;FLAVOR:Marlin
;TIME:1407
;Filament used: 4.95285m
;Layer height: 0.3
;MINX:-27.878
;MINY:-79.313
;MINZ:0.3
;MAXX:34.058
;MAXY:44.672
;MAXZ:6.9
;Generated with Cura_SteamEngine 4.10.0
M104 S228
M105
M109 S228
M82 ;absolute extrusion mode
G21        ;metric values
G90        ;absolute positioning
M107       ;start with the fan off
G28   ;move to endstops

;Z-Offset Reset und dann Z +0,1 für PLA
;MacroZOffset0
;MacroZOffsetPlus0100

G92 E0                  ;zero the extruded length
G1 F200 E3              ;extrude 3mm of feed stock
G92 E0                  ;zero the extruded length again
G1 F120
;Put printing message on LCD screen
M117 Printing...
G92 E0
G92 E0
G1 F2400 E-6
;LAYER_COUNT:23
;LAYER:0
M107
G0 F3600 X-12.523 Y29.545 Z0.3
;TYPE:SKIRT
G1 F2400 E0
G1 F1200 X-27.179 Y-53.567 E10.61033
G1 X-27.698 Y-56.497 E10.98444
G1 X-27.814 Y-57.233 E11.07811
G1 X-27.867 Y-57.757 E11.14433
G1 X-27.878 Y-58.008 E11.17591
G1 X-27.856 Y-58.705 E11.26359
G1 X-27.843 Y-58.828 E11.27914
G1 X-27.725 Y-59.488 E11.36343
G1 X-27.629 Y-59.866 E11.41246
G1 X-27.459 Y-60.399 E11.4828
G1 X-27.263 Y-60.907 E11.55126
G1 X-26.303 Y-63.505 E11.89947
G1 X-25.443 Y-66.048 E12.23697
G1 X-24.656 Y-68.617 E12.57477
G1 X-23.659 Y-72.315 E13.0563
G1 X-23.307 Y-73.742 E13.24108
G1 X-23.036 Y-74.593 E13.35337
G1 X-22.784 Y-75.189 E13.43472
G1 X-22.668 Y-75.418 E13.46699
G1 X-22.416 Y-75.855 E13.53042
G1 X-22.254 Y-76.104 E13.56776
G1 X-21.923 Y-76.551 E13.63769
G1 X-21.417 Y-77.119 E13.73333
G1 X-21.162 Y-77.367 E13.77805
G1 X-20.721 Y-77.745 E13.85107
G1 X-20.1 Y-78.182 E13.94654
G1 X-19.811 Y-78.356 E13.98895
G1 X-19.289 Y-78.628 E14.06296
G1 X-19.022 Y-78.746 E14.09966
G1 X-18.52 Y-78.934 E14.16705
G1 X-18.205 Y-79.032 E14.20852
G1 X-17.651 Y-79.168 E14.28024
G1 X-17.326 Y-79.227 E14.32177
G1 X-16.799 Y-79.292 E14.38853
G1 X-16.572 Y-79.307 E14.41713
G1 X-16.064 Y-79.313 E14.481
G1 X-15.665 Y-79.296 E14.53121
G1 X-15.045 Y-79.228 E14.60963
G1 X-14.295 Y-79.072 E14.70594
G1 X-14.06 Y-79.006 E14.73663
G1 X-13.328 Y-78.733 E14.83485
G1 X-12.998 Y-78.565 E14.8814
G1 X-12.4 Y-78.232 E14.96746
G1 X-8.692 Y-76.085 E15.50615
G1 X-3.933 Y-73.335 E16.19717
G1 X-2.615 Y-72.579 E16.3882
G1 X-2.137 Y-72.29 E16.45843
G1 X-1.909 Y-72.143 E16.49253
G1 X-1.089 Y-71.58 E16.61759
G1 X1.195 Y-70.06 E16.96251
G1 X3.452 Y-68.649 E17.29716
G1 X5.241 Y-67.59 E17.55853
G1 X5.616 Y-67.372 E17.61307
G1 X6.209 Y-67.017 E17.69996
G1 X6.83 Y-66.586 E17.79499
G1 X7.356 Y-66.132 E17.88235
G1 X7.834 Y-65.598 E17.97245
G1 X8.236 Y-65.041 E18.05882
G1 X8.366 Y-64.83 E18.08997
G1 X8.696 Y-64.19 E18.1805
G1 X8.941 Y-63.541 E18.26772
G1 X9.079 Y-63.074 E18.32894
G1 X9.331 Y-62.131 E18.45166
G1 X10.272 Y-58.552 E18.91692
G1 X32.868 Y26.796 E30.01684
G1 X33.661 Y29.773 E30.40417
G1 X33.849 Y30.524 E30.5015
G1 X33.98 Y31.203 E30.58844
G1 X34.016 Y31.482 E30.62381
G1 X34.053 Y32.006 E30.68985
G1 X34.058 Y32.317 E30.72896
G1 X34.034 Y32.872 E30.7988
G1 X33.997 Y33.231 E30.84417
G1 X33.919 Y33.728 E30.90742
G1 X33.68 Y34.622 E31.02376
G1 X33.435 Y35.237 E31.10699
G1 X33.234 Y35.659 E31.16576
G1 X32.913 Y36.228 E31.24789
G1 X32.757 Y36.464 E31.28346
G1 X32.443 Y36.885 E31.34949
G1 X31.978 Y37.404 E31.4371
G1 X31.694 Y37.681 E31.48698
G1 X31.252 Y38.062 E31.56034
G1 X30.638 Y38.493 E31.65466
G1 X30.349 Y38.667 E31.69707
G1 X29.818 Y38.943 E31.77231
G1 X29.529 Y39.07 E31.81199
G1 X29.049 Y39.25 E31.87644
G1 X28.823 Y39.321 E31.90623
G1 X28.303 Y39.452 E31.97365
G1 X27.586 Y39.581 E32.06524
G1 X26.58 Y39.71 E32.19275
G1 X26.422 Y39.728 E32.21274
G1 X23.737 Y40.104 E32.5536
G1 X21.124 Y40.546 E32.88679
G1 X18.444 Y41.077 E33.23027
G1 X15.833 Y41.672 E33.56695
G1 X13.228 Y42.342 E33.90512
G1 X10.654 Y43.084 E34.24191
G1 X7.729 Y44.039 E34.62876
G1 X6.637 Y44.383 E34.7727
G1 X6.129 Y44.512 E34.83859
G1 X5.452 Y44.626 E34.9249
G1 X4.905 Y44.672 E34.99392
G1 X4.059 Y44.655 E35.1003
G1 X3.449 Y44.589 E35.17744
G1 X2.705 Y44.434 E35.27299
G1 X2.467 Y44.367 E35.30407
G1 X1.788 Y44.118 E35.395
G1 X1.402 Y43.925 E35.44925
G1 X0.803 Y43.591 E35.53548
G1 X-2.922 Y41.434 E36.07665
G1 X-7.673 Y38.69 E36.76643
G1 X-8.901 Y37.987 E36.94432
G1 X-9.465 Y37.647 E37.02712
G1 X-9.966 Y37.297 E37.10396
G1 X-10.418 Y36.884 E37.18093
G1 X-10.812 Y36.416 E37.25785
G1 X-11.141 Y35.901 E37.33468
G1 X-11.401 Y35.347 E37.41162
G1 X-11.624 Y34.595 E37.51023
G1 X-11.714 Y34.151 E37.56719
G1 X-11.896 Y33.131 E37.69745
G1 X-12.523 Y29.545 E38.15513
G0 F3600 X-11.42 Y29.352
G1 F1200 X-26.076 Y-53.762 E48.76572
G1 X-26.592 Y-56.672 E49.13728
G1 X-26.708 Y-57.408 E49.23095
G1 X-26.759 Y-58.057 E49.3128
G1 X-26.742 Y-58.587 E49.37947
G1 X-26.729 Y-58.71 E49.39502
G1 X-26.639 Y-59.212 E49.45914
G1 X-26.414 Y-59.996 E49.56168
G1 X-26.209 Y-60.528 E49.63336
G1 X-25.249 Y-63.123 E49.98122
G1 X-24.377 Y-65.705 E50.32385
G1 X-23.574 Y-68.324 E50.66825
G1 X-22.575 Y-72.033 E51.15118
G1 X-22.219 Y-73.476 E51.33803
G1 X-21.976 Y-74.229 E51.43751
G1 X-21.669 Y-74.912 E51.53166
G1 X-21.315 Y-75.493 E51.61719
G1 X-20.887 Y-76.046 E51.70511
G1 X-20.381 Y-76.564 E51.79615
G1 X-19.833 Y-77.013 E51.88522
G1 X-19.233 Y-77.397 E51.97478
G1 X-18.569 Y-77.721 E52.06766
G1 X-17.873 Y-77.962 E52.16027
G1 X-17.126 Y-78.125 E52.25639
G1 X-16.498 Y-78.189 E52.33575
G1 X-16.111 Y-78.194 E52.38441
G1 X-15.241 Y-78.125 E52.49414
G1 X-14.597 Y-77.993 E52.57678
G1 X-14.362 Y-77.927 E52.60747
G1 X-13.806 Y-77.72 E52.68206
G1 X-13.542 Y-77.586 E52.71928
G1 X-12.961 Y-77.263 E52.80286
G1 X-9.25 Y-75.113 E53.34206
G1 X-4.507 Y-72.373 E54.03072
G1 X-3.194 Y-71.62 E54.22102
G1 X-2.716 Y-71.331 E54.29124
G1 X-2.543 Y-71.22 E54.31708
G1 X-1.69 Y-70.634 E54.44719
G1 X0.569 Y-69.131 E54.78832
G1 X2.9 Y-67.674 E55.13392
G1 X4.67 Y-66.626 E55.39253
G1 X5.041 Y-66.411 E55.44644
G1 X5.634 Y-66.056 E55.53333
G1 X6.164 Y-65.685 E55.61467
G1 X6.564 Y-65.34 E55.68108
G1 X6.977 Y-64.877 E55.75908
G1 X7.283 Y-64.453 E55.82482
G1 X7.413 Y-64.242 E55.85598
G1 X7.663 Y-63.756 E55.92469
G1 X7.868 Y-63.218 E55.99708
G1 X7.997 Y-62.784 E56.054
G1 X8.248 Y-61.846 E56.17608
G1 X9.189 Y-58.265 E56.64158
G1 X31.786 Y27.084 E67.74165
G1 X32.574 Y30.044 E68.12676
G1 X32.762 Y30.795 E68.22409
G1 X32.869 Y31.346 E68.29466
G1 X32.934 Y32.024 E68.38029
G1 X32.92 Y32.757 E68.47246
G1 X32.824 Y33.494 E68.5659
G1 X32.625 Y34.247 E68.66382
G1 X32.424 Y34.756 E68.73262
G1 X31.979 Y35.61 E68.85369
G1 X31.584 Y36.167 E68.93954
G1 X31.196 Y36.603 E69.01292
G1 X30.575 Y37.169 E69.11856
G1 X30.06 Y37.534 E69.19792
G1 X29.367 Y37.917 E69.29746
G1 X28.713 Y38.181 E69.38613
G1 X28.092 Y38.352 E69.46711
G1 X27.443 Y38.47 E69.55004
G1 X26.455 Y38.597 E69.67528
G1 X26.284 Y38.616 E69.69691
G1 X23.572 Y38.996 E70.0412
G1 X20.897 Y39.449 E70.3823
G1 X18.224 Y39.979 E70.7249
G1 X15.594 Y40.578 E71.06402
G1 X12.909 Y41.269 E71.41259
G1 X10.315 Y42.016 E71.75197
G1 X7.393 Y42.971 E72.13846
G1 X6.301 Y43.315 E72.2824
G1 X5.648 Y43.465 E72.36663
G1 X5.115 Y43.535 E72.43422
G1 X4.531 Y43.554 E72.50768
G1 X3.643 Y43.485 E72.61966
G1 X3.008 Y43.356 E72.70112
G1 X2.77 Y43.289 E72.73221
G1 X2.254 Y43.099 E72.80134
G1 X1.946 Y42.946 E72.84458
G1 X1.364 Y42.622 E72.92832
G1 X-2.366 Y40.461 E73.47029
G1 X-7.112 Y37.72 E74.15933
G1 X-8.419 Y36.971 E74.34872
G1 X-8.885 Y36.689 E74.4172
G1 X-9.319 Y36.379 E74.48426
G1 X-9.703 Y36.008 E74.55139
G1 X-10.026 Y35.584 E74.6184
G1 X-10.283 Y35.117 E74.68541
G1 X-10.528 Y34.367 E74.78461
G1 X-10.612 Y33.954 E74.8376
G1 X-10.793 Y32.938 E74.96734
G1 X-11.42 Y29.352 E75.42503
G1 F2400 E69.42503
;MESH:TripodLeg40.stl(2)
G0 F3600 X-16.896 Y-41.761
G0 X-15.837 Y-43.422
G0 X-17.415 Y-45.249
;TYPE:WALL-INNER
G1 F2400 E75.42503
G1 F1200 X-18.089 Y-45.097 E75.51189
G1 X-18.094 Y-45.129
G1 X-19.203 Y-51.416 E76.31452
G1 X-19.522 Y-53.222 E76.54509
G1 X-19.054 Y-51.443 E76.56115
G1 X-17.422 Y-45.274 E76.8616
G1 X-17.415 Y-45.249
G0 F3600 X-18.631 Y-43.545
G1 F1200 X-18.895 Y-43.215 E76.91473
G1 X-18.943 Y-43.49 E76.91514
G1 X-18.997 Y-43.796 E76.92564
G1 X-19 Y-43.815 E76.92806
G1 X-20.886 Y-54.505 E78.2928
G1 X-21.24 Y-56.496 E78.54704
G1 X-21.316 Y-56.923 E78.60157
G1 X-21.475 Y-57.842 E78.71882
G1 X-20.958 Y-57.544 E78.73424
G1 X-20.583 Y-57.327 E78.77979
G1 X-19.286 Y-56.578 E78.96809
G1 X-19.241 Y-56.543 E78.97526
G1 X-18.935 Y-55.39 E79.12524
G1 X-17.971 Y-51.729 E79.6012
G1 X-16.048 Y-44.465 E80.54591
G1 X-16.045 Y-44.451 E80.54771
G1 X-15.966 Y-44.155 E80.58623
G1 X-15.892 Y-43.875 E80.62264
G1 X-16.287 Y-44.069 E80.6423
G1 X-17.1 Y-44.171 E80.72293
G1 X-17.114 Y-44.168 E80.72473
G1 X-17.913 Y-43.988 E80.8277
G1 X-17.932 Y-43.984 E80.83014
G1 X-18.631 Y-43.545 E80.9106
G0 F3600 X-16.386 Y-43.748
G0 X-15.747 Y-42.257
G0 X4.327 Y33.195
G0 X4.25 Y33.292
;TYPE:WALL-OUTER
G1 F1200 X-15.702 Y-42.07 E90.71179
G1 X-15.884 Y-42.458 E90.76567
G1 X-16.2 Y-42.779 E90.8223
G1 X-16.612 Y-42.981 E90.87999
G1 X-17.045 Y-43.035 E90.93485
G1 X-17.499 Y-42.933 E90.99335
G1 X-17.875 Y-42.697 E91.04916
G1 X-18.157 Y-42.345 E91.10587
G1 X-18.307 Y-41.904 E91.16443
G1 X-18.307 Y-41.49 E91.21648
G1 X-5.276 Y32.407 E100.6504
G1 X0.788 Y35.909 E101.53079
G1 X1.282 Y35.1 E101.64996
G1 X1.753 Y34.528 E101.74312
G1 X2.334 Y34.044 E101.83819
G1 X2.979 Y33.685 E101.93099
G1 X3.338 Y33.547 E101.97935
G1 X4.25 Y33.292 E102.09841
G0 F3600 X4.148 Y32.906
G0 X4.245 Y32.883
G0 X1.64 Y35.67
G0 X1.976 Y37.454
G0 X2.155 Y38.224
G1 F1200 X2.207 Y38.349 E102.11543
G1 X2.114 Y38.296
G1 X1.786 Y38.106 E102.16063
G1 X1.531 Y37.958 E102.1977
G1 X1.428 Y37.898 E102.21269
G1 X-.212 Y36.948 E102.45097
G1 X-5.356 Y33.977 E103.19781
G1 X-6.287 Y33.447 E103.33249
G1 X-6.544 Y33.297 E103.3699
G1 X-6.71 Y32.37 E103.4883
G1 X-7.334 Y28.796 E103.94444
G1 X-21.989 Y-54.31 E114.55401
G1 X-22.419 Y-56.727 E114.86265
G1 X-22.647 Y-58.043 E115.03057
G1 X-22.634 Y-58.333 E115.06706
G1 X-22.542 Y-58.595 E115.10198
G1 X-22.377 Y-58.82 E115.13705
G1 X-22.156 Y-58.988 E115.17196
G1 X-21.885 Y-59.088 E115.20827
G1 X-21.469 Y-59.083 E115.26058
G1 X-21.191 Y-58.971 E115.29826
G1 X-18.658 Y-57.509 E115.66595
G1 X-18.408 Y-57.315 E115.70574
G1 X-18.248 Y-57.087 E115.74076
G1 X-18.177 Y-56.903 E115.76555
G1 X-17.852 Y-55.677 E115.92501
G1 X-16.888 Y-52.015 E116.4011
G1 X5.671 Y33.193 E127.48281
G1 X5.998 Y34.422 E127.6427
G1 X6.045 Y34.599 E127.66573
G1 X6.128 Y34.909 E127.70608
G1 X6.248 Y35.359 E127.76463
G1 X5.728 Y35.016 E127.79065
G1 X5.201 Y34.824 E127.84
G1 X5.019 Y34.8 E127.86097
G1 X4.648 Y34.75 E127.90804
G1 X4.089 Y34.798 E127.97857
G1 X3.571 Y34.958 E128.04673
G1 X3.07 Y35.24 E128.11901
G1 X2.654 Y35.616 E128.18951
G1 X2.337 Y36.06 E128.2581
G1 X2.111 Y36.584 E128.32985
G1 X2.028 Y37.018 E128.3854
G1 X2.006 Y37.136 E128.39955
G1 X2.023 Y37.694 E128.45242
G1 X2.155 Y38.224 E128.49273
G0 F3600 X2.207 Y38.349
G0 X2.114 Y38.296
G0 X1.978 Y38.217
G0 X2.029 Y38.131
G0 X1.225 Y36.863
;TYPE:SKIN
G1 F1200 X1.376 Y36.448 E128.50955
G1 X2.235 Y35.045 E128.57217
G1 X3.645 Y34.192 E128.63491
G1 X5.115 Y33.965 E128.69154
G1 X3.331 Y27.09 E128.96195
G1 X-2.167 Y6.317 E129.78003
G1 X-7.667 Y-14.456 E130.59812
G1 X-13.166 Y-35.228 E131.41618
G1 X-15.025 Y-42.178 E131.69007
G1 X-15.265 Y-43.549 E131.74306
G0 F3600 X-15.535 Y-43.758
G0 X-17.082 Y-43.805
G0 X-18.78 Y-42.859
G0 X-18.806 Y-42.565
G1 F1200 X-19.102 Y-42.296 E131.75815
G1 X-18.444 Y-38.243 E131.91306
G1 X-14.932 Y-18.326 E132.67606
G1 X-11.42 Y1.589 E133.43899
G1 X-7.908 Y21.506 E134.202
G1 X-5.974 Y32.491 E134.6228
G1 X-5.218 Y33.247 E134.66314
G1 X0.138 Y36.341 E134.8965
G0 F3600 X0.252 Y36.586
G0 X-5.931 Y32.865
G0 X-19.103 Y-41.421
G0 X-19.296 Y-53.803
G1 F1200 X-20.417 Y-54.924 E134.96768
G0 F3600 X-20.296 Y-54.237
G1 F1200 X-19.76 Y-53.701 E135.00172
G0 F3600 X-19.866 Y-54.938
G1 F1200 X-20.027 Y-55.665 E135.14437
G1 X-19.996 Y-56.199 E135.24684
G0 F3600 X-20.488 Y-56.441
G1 F2400 E129.24684
;MESH:TripodLeg40.stl
G0 F3600 X-15.938 Y-43.469
G0 X-16.896 Y-41.761
G0 X5.3 Y7.122
G0 X4.343 Y8.83
G0 X7.606 Y16.777
;TYPE:WALL-INNER
G1 F2400 E135.24684
G1 F1200 X7.925 Y18.583 E135.47741
G1 X7.458 Y16.804 E135.49337
G1 X5.825 Y10.634 E136.29579
G1 X5.818 Y10.609 E136.29905
G1 X6.492 Y10.457 E136.35578
G1 X6.497 Y10.489
G1 X7.606 Y16.777 E136.65628
G0 F3600 X7.033 Y8.907
G1 F1200 X7.298 Y8.576 E136.70959
G1 X7.346 Y8.851 E136.70997
G1 X7.4 Y9.155 E136.7202
G1 X7.403 Y9.173 E136.72249
G1 X9.289 Y19.866 E138.0876
G1 X9.644 Y21.856 E138.34174
G1 X9.719 Y22.278 E138.39563
G1 X9.879 Y23.202 E138.51353
G1 X9.36 Y22.903 E138.5291
G1 X8.989 Y22.689 E138.57423
G1 X7.688 Y21.938 E138.76309
G1 X7.642 Y21.899 E138.77067
G1 X7.336 Y20.748 E138.92041
G1 X6.375 Y17.09 E139.39591
G1 X4.452 Y9.824 E140.34087
G1 X4.449 Y9.811 E140.34254
G1 X4.37 Y9.514 E140.38118
G1 X4.296 Y9.236 E140.41735
G1 X4.69 Y9.429 E140.43693
G1 X5.505 Y9.531 E140.51776
G1 X5.518 Y9.528 E140.51944
G1 X6.316 Y9.348 E140.62229
G1 X6.334 Y9.344 E140.62458
G1 X7.033 Y8.907 E140.70503
G0 F3600 X4.784 Y9.107
G0 X4.15 Y7.615
G0 X-15.923 Y-67.836
G0 X-15.846 Y-67.932
;TYPE:WALL-OUTER
G1 F1200 X4.105 Y7.428 E150.50595
G1 X4.289 Y7.818 E150.56016
G1 X4.604 Y8.14 E150.61679
G1 X5.014 Y8.341 E150.6742
G1 X5.449 Y8.395 E150.72931
G1 X5.902 Y8.293 E150.78769
G1 X6.278 Y8.058 E150.84343
G1 X6.561 Y7.705 E150.90032
G1 X6.711 Y7.264 E150.95888
G1 X6.71 Y6.848 E151.01118
G1 X-6.32 Y-67.047 E160.44483
G1 X-12.385 Y-70.549 E161.32533
G1 X-12.878 Y-69.742 E161.44422
G1 X-13.353 Y-69.163 E161.53837
G1 X-13.926 Y-68.687 E161.63203
G1 X-14.575 Y-68.325 E161.72546
G1 X-14.935 Y-68.187 E161.77393
G1 X-15.846 Y-67.932 E161.89286
G0 F3600 X-15.744 Y-67.546
G0 X-15.841 Y-67.521
G0 X-13.239 Y-70.304
G0 X-13.564 Y-71.772
G0 X-13.756 Y-72.876
G1 F1200 X-13.805 Y-72.99 E161.90847
G1 X-13.719 Y-72.941
G1 X-13.383 Y-72.746 E161.9551
G1 X-13.128 Y-72.598 E161.99217
G1 X-13.025 Y-72.538 E162.00715
G1 X-11.384 Y-71.588 E162.24554
G1 X-6.241 Y-68.617 E162.99227
G1 X-5.31 Y-68.087 E163.12696
G1 X-5.053 Y-67.937 E163.16437
G1 X-4.888 Y-67.013 E163.28238
G1 X-4.263 Y-63.436 E163.7389
G1 X10.392 Y19.67 E174.34847
G1 X10.823 Y22.087 E174.65714
G1 X11.051 Y23.403 E174.82505
G1 X11.037 Y23.694 E174.86168
G1 X10.944 Y23.957 E174.89675
G1 X10.781 Y24.18 E174.93148
G1 X10.558 Y24.35 E174.96674
G1 X10.289 Y24.448 E175.00273
G1 X10.007 Y24.464 E175.03824
G1 X9.74 Y24.401 E175.07273
G1 X9.595 Y24.331 E175.09297
G1 X7.057 Y22.867 E175.46134
G1 X6.812 Y22.675 E175.50047
G1 X6.652 Y22.447 E175.53549
G1 X6.576 Y22.247 E175.56239
G1 X6.254 Y21.036 E175.71993
G1 X5.292 Y17.376 E176.19571
G1 X-17.268 Y-67.833 E187.27758
G1 X-17.595 Y-69.062 E187.43747
G1 X-17.642 Y-69.239 E187.46049
G1 X-17.725 Y-69.549 E187.50084
G1 X-17.845 Y-69.998 E187.55927
G1 X-17.324 Y-69.656 E187.58547
G1 X-16.798 Y-69.464 E187.63475
G1 X-16.616 Y-69.44 E187.65572
G1 X-16.244 Y-69.39 E187.70291
G1 X-15.686 Y-69.438 E187.77332
G1 X-15.117 Y-69.619 E187.84839
G1 X-14.666 Y-69.88 E187.9139
G1 X-14.251 Y-70.255 E187.98422
G1 X-13.933 Y-70.7 E188.05299
G1 X-13.707 Y-71.226 E188.12496
G1 X-13.625 Y-71.658 E188.18024
G1 X-13.603 Y-71.776 E188.1944
G1 X-13.62 Y-72.335 E188.24735
G1 X-13.756 Y-72.876 E188.28871
G0 F3600 X-13.805 Y-72.99
G0 X-13.719 Y-72.941
G0 X-13.565 Y-72.852
G0 X-13.616 Y-72.765
G0 X-12.666 Y-71.497
;TYPE:SKIN
G1 F1200 X-11.377 Y-70.774 E188.34476
G1 X-5.96 Y-67.62 E188.5825
G1 X-5.412 Y-65.941 E188.64949
G1 X-1.903 Y-46.026 E189.41644
G1 X1.608 Y-26.109 E190.18349
G1 X5.12 Y-6.192 E190.95054
G1 X7.421 Y6.856 E191.45305
G1 X7.33 Y7.895 E191.49261
G0 F3600 X7.188 Y8.221
G0 X5.488 Y9.165
G0 X3.737 Y8.263
G1 F1200 X3.351 Y7.311 E191.53188
G1 X-2.148 Y-13.461 E192.35338
G1 X-7.648 Y-34.235 E193.17496
G1 X-13.148 Y-55.009 E193.99655
G1 X-16.611 Y-68.089 E194.51384
G1 X-16.602 Y-68.645 E194.5351
G1 X-15.132 Y-68.872 E194.59197
G1 X-13.759 Y-69.761 E194.6545
G1 X-12.932 Y-71.197 E194.71786
G0 F3600 X-12.191 Y-70.668
G0 X-15.88 Y-67.951
G0 X3.949 Y9.132
G0 X3.527 Y8.618
G1 F1200 X3.842 Y8.933 E194.73786
G0 F3600 X3.982 Y9.105
G0 X7.824 Y19.137
G1 F1200 X8.787 Y20.101 E194.79904
G0 F3600 X8.666 Y19.414
G1 F1200 X8.287 Y19.036 E194.82308
G0 F3600 X8.225 Y20.104
G1 F1200 X8.387 Y20.832 E194.96404
