;FLAVOR:Marlin
;TIME:2924
;Filament used: 2.12202m
;Layer height: 0.2
;MINX:129.81
;MINY:129.81
;MINZ:0.3
;MAXX:169.724
;MAXY:170.195
;MAXZ:26.9
;Generated with Cura_SteamEngine 4.10.0
M140 S90
M105
M190 S90
M104 S230
M105
M109 S230
M82 ;absolute extrusion mode
G28 ; home all axes
 M117 Purge extruder
 G92 E0 ; reset extruder
 G1 Z1.0 F3000 ; move z up little to prevent scratching of surface
 G1 X2 Y20 Z0.3 F5000.0 ; move to start-line position
 G1 X2 Y200.0 Z0.3 F1500.0 E15 ; draw 1st line
 G1 X2 Y200.0 Z0.4 F5000.0 ; move to side a little
 G1 X2 Y20 Z0.4 F1500.0 E30 ; draw 2nd line
 G92 E0 ; reset extruder
 G1 Z1.0 F3000 ; move z up little to prevent scratching of surface
G92 E0
G92 E0
G1 F2100 E-2
;LAYER_COUNT:135
;LAYER:0
M107
G0 F6000 X134.684 Y136.902 Z0.3
;TYPE:SKIRT
G1 F2100 E0
G1 F1200 X135.271 Y136.38 E0.05734
G1 X135.907 Y135.922 E0.11454
G1 X136.587 Y135.53 E0.17183
G1 X136.697 Y135.481 E0.18062
G1 X137.276 Y134.928 E0.23906
G1 X137.656 Y134.615 E0.27499
G1 X137.912 Y134.412 E0.29884
G1 X138.279 Y134.135 E0.3324
G1 X138.488 Y133.983 E0.35126
G1 X138.852 Y133.727 E0.38374
G1 X139.114 Y133.551 E0.40678
G1 X139.493 Y133.307 E0.43968
G1 X139.719 Y133.167 E0.45908
G1 X140.12 Y132.928 E0.49316
G1 X140.387 Y132.776 E0.51558
G1 X140.781 Y132.562 E0.54831
G1 X141.033 Y132.431 E0.56904
G1 X141.43 Y132.234 E0.60139
G1 X141.692 Y132.11 E0.62254
G1 X142.114 Y131.92 E0.65632
G1 X142.38 Y131.806 E0.67745
G1 X142.794 Y131.638 E0.71006
G1 X143.049 Y131.54 E0.73
G1 X143.471 Y131.386 E0.76278
G1 X143.783 Y131.279 E0.78686
G1 X144.218 Y131.141 E0.82017
G1 X144.484 Y131.062 E0.84042
G1 X144.923 Y130.94 E0.87368
G1 X145.191 Y130.871 E0.89388
G1 X145.625 Y130.767 E0.92645
G1 X145.902 Y130.706 E0.94715
G1 X146.172 Y130.627 E0.96769
G1 X146.891 Y130.313 E1.02495
G1 X147.638 Y130.073 E1.08222
G1 X148.406 Y129.911 E1.13951
G1 X149.535 Y129.816 E1.22221
G1 X150.135 Y129.81 E1.266
G1 X150.522 Y129.816 E1.29425
G1 X151.292 Y129.847 E1.3505
G1 X151.826 Y129.887 E1.38959
G1 X152.479 Y129.959 E1.43754
G1 X152.926 Y130.019 E1.47046
G1 X153.132 Y130.05 E1.48566
G1 X153.745 Y130.153 E1.53103
G1 X154.09 Y130.22 E1.55668
G1 X154.691 Y130.351 E1.60158
G1 X155.077 Y130.444 E1.63056
G1 X155.53 Y130.568 E1.66484
G1 X156.104 Y130.744 E1.70866
G1 X156.294 Y130.805 E1.72323
G1 X156.673 Y130.932 E1.7524
G1 X156.933 Y131.024 E1.77253
G1 X157.194 Y131.122 E1.79288
G1 X157.486 Y131.239 E1.81584
G1 X158.096 Y131.497 E1.86418
G1 X158.294 Y131.584 E1.87997
G1 X158.592 Y131.72 E1.90388
G1 X158.899 Y131.869 E1.92878
G1 X159.306 Y132.077 E1.96215
G1 X159.552 Y132.208 E1.98249
G1 X160.151 Y132.542 E2.03255
G1 X160.391 Y132.681 E2.05279
G1 X160.599 Y132.807 E2.07054
G1 X160.867 Y132.977 E2.0937
G1 X161.301 Y133.265 E2.13172
G1 X161.296 Y133.272 E2.13235
G1 X161.645 Y133.491 E2.16242
G1 X161.896 Y133.673 E2.18505
G1 X162.137 Y133.855 E2.20709
G1 X162.915 Y134.467 E2.27934
G1 X163.381 Y134.865 E2.32407
G1 X163.801 Y135.254 E2.36586
G1 X164.151 Y135.588 E2.40117
G1 X164.353 Y135.788 E2.42192
G1 X164.719 Y136.164 E2.46022
G1 X164.935 Y136.396 E2.48335
G1 X165.212 Y136.708 E2.51381
G1 X165.635 Y137.205 E2.56144
G1 X166.112 Y137.828 E2.61871
G1 X166.166 Y137.915 E2.62619
G1 X166.393 Y138.192 E2.65233
G1 X166.536 Y138.394 E2.67039
G1 X166.702 Y138.639 E2.69199
G1 X167.08 Y139.219 E2.74252
G1 X167.214 Y139.432 E2.76089
G1 X167.414 Y139.762 E2.78905
G1 X167.628 Y140.138 E2.82063
G1 X167.964 Y140.772 E2.873
G1 X168.058 Y140.952 E2.88783
G1 X168.252 Y141.351 E2.92021
G1 X168.509 Y141.921 E2.96585
G1 X168.624 Y142.189 E2.98713
G1 X168.678 Y142.322 E2.99761
G1 X168.936 Y143.063 E3.05488
G1 X169.117 Y143.827 E3.11219
G1 X169.219 Y144.605 E3.16946
G1 X169.242 Y145.389 E3.22671
G1 X169.218 Y145.722 E3.25107
G1 X169.367 Y146.273 E3.29274
G1 X169.408 Y146.479 E3.30807
G1 X169.469 Y146.83 E3.33407
G1 X169.535 Y147.266 E3.36626
G1 X169.574 Y147.56 E3.3879
G1 X169.625 Y148.015 E3.42132
G1 X169.651 Y148.285 E3.44112
G1 X169.685 Y148.729 E3.47362
G1 X169.701 Y149.025 E3.49526
G1 X169.718 Y149.473 E3.52798
G1 X169.724 Y149.765 E3.5493
G1 X169.724 Y150.222 E3.58265
G1 X169.718 Y150.519 E3.60434
G1 X169.7 Y150.985 E3.63837
G1 X169.684 Y151.264 E3.65877
G1 X169.651 Y151.704 E3.69098
G1 X169.624 Y151.993 E3.71216
G1 X169.572 Y152.453 E3.74595
G1 X169.529 Y152.772 E3.76945
G1 X169.454 Y153.254 E3.80505
G1 X169.409 Y153.518 E3.8246
G1 X169.324 Y153.962 E3.85759
G1 X169.252 Y154.297 E3.8826
G1 X169.158 Y154.692 E3.91224
G1 X169.109 Y154.886 E3.92684
G1 X168.99 Y155.334 E3.96068
G1 X168.907 Y155.624 E3.98269
G1 X168.777 Y156.046 E4.01492
G1 X168.701 Y156.375 E4.03957
G1 X168.613 Y157.155 E4.09686
G1 X168.447 Y157.922 E4.15414
G1 X168.203 Y158.668 E4.21143
G1 X167.745 Y159.648 E4.29039
G1 X167.521 Y160.051 E4.32404
G1 X167.357 Y160.314 E4.34666
G1 X167.362 Y160.317 E4.34709
G1 X167.122 Y160.714 E4.38095
G1 X166.977 Y160.945 E4.40085
G1 X166.75 Y161.292 E4.43112
G1 X166.464 Y161.699 E4.46743
G1 X165.82 Y162.557 E4.54573
G1 X165.424 Y163.042 E4.59143
G1 X164.847 Y163.693 E4.65493
G1 X164.589 Y163.97 E4.68255
G1 X164.238 Y164.327 E4.7191
G1 X163.828 Y164.727 E4.76091
G1 X163.528 Y165.004 E4.79071
G1 X163.227 Y165.268 E4.81993
G1 X163.037 Y165.429 E4.83811
G1 X162.673 Y165.728 E4.87249
G1 X162.438 Y165.914 E4.89437
G1 X161.983 Y166.259 E4.93604
G1 X161.717 Y166.452 E4.96003
G1 X161.137 Y166.852 E5.01146
G1 X160.871 Y167.028 E5.03474
G1 X160.554 Y167.226 E5.06202
G1 X160.192 Y167.441 E5.09275
G1 X159.971 Y167.568 E5.11135
G1 X159.511 Y167.821 E5.14967
G1 X159.208 Y167.979 E5.17461
G1 X158.819 Y168.171 E5.20628
G1 X158.599 Y168.275 E5.22404
G1 X158.056 Y168.522 E5.26758
G1 X157.602 Y168.716 E5.30361
G1 X157.302 Y168.833 E5.32712
G1 X156.561 Y169.106 E5.38476
G1 X155.896 Y169.318 E5.4357
G1 X154.682 Y169.644 E5.52745
G1 X154.252 Y169.746 E5.5597
G1 X153.843 Y169.831 E5.5902
G1 X153.605 Y169.876 E5.60787
G1 X153.137 Y169.958 E5.64255
G1 X152.716 Y170.02 E5.67361
G1 X152.295 Y170.07 E5.70456
G1 X152.001 Y170.1 E5.72613
G1 X151.388 Y170.149 E5.77101
G1 X150.952 Y170.171 E5.80288
G1 X149.999 Y170.193 E5.87246
G1 X149.806 Y170.195 E5.88654
G1 X149.107 Y170.192 E5.93756
G1 X148.987 Y170.189 E5.94632
G1 X148.242 Y170.134 E6.00085
G1 X147.467 Y170.039 E6.05784
G1 X146.936 Y169.955 E6.09708
G1 X146.173 Y169.77 E6.15438
G1 X145.433 Y169.508 E6.21168
G1 X144.724 Y169.173 E6.26892
G1 X144.066 Y168.775 E6.32505
G1 X143.378 Y168.58 E6.37724
G1 X143.043 Y168.458 E6.40326
G1 X142.782 Y168.358 E6.42366
G1 X142.373 Y168.192 E6.45588
G1 X142.098 Y168.074 E6.47772
G1 X141.682 Y167.886 E6.51104
G1 X141.416 Y167.759 E6.53256
G1 X141.005 Y167.554 E6.56608
G1 X140.768 Y167.431 E6.58557
G1 X140.383 Y167.222 E6.61754
G1 X140.103 Y167.062 E6.64108
G1 X139.702 Y166.822 E6.67519
G1 X139.502 Y166.699 E6.69233
G1 X139.118 Y166.453 E6.72562
G1 X138.836 Y166.263 E6.75044
G1 X138.477 Y166.01 E6.78249
G1 X138.261 Y165.852 E6.80203
G1 X137.893 Y165.573 E6.83573
G1 X137.636 Y165.369 E6.85968
G1 X137.288 Y165.081 E6.89265
G1 X137.112 Y164.931 E6.90953
G1 X136.772 Y164.632 E6.94258
G1 X136.542 Y164.421 E6.96536
G1 X136.216 Y164.11 E6.99825
G1 X136 Y163.896 E7.02044
G1 X135.692 Y163.578 E7.05275
G1 X135.503 Y163.376 E7.07294
G1 X135.214 Y163.056 E7.10442
G1 X135.137 Y163.01 E7.11096
G1 X134.505 Y162.544 E7.16827
G1 X133.924 Y162.017 E7.22553
G1 X133.399 Y161.433 E7.28285
G1 X132.904 Y160.749 E7.34447
G1 X132.753 Y160.509 E7.36517
G1 X132.539 Y160.158 E7.39517
G1 X132.288 Y159.714 E7.4324
G1 X132.053 Y159.264 E7.46946
G1 X131.957 Y159.074 E7.48499
G1 X131.703 Y158.553 E7.5273
G1 X131.604 Y158.344 E7.54418
G1 X131.494 Y158.1 E7.56371
G1 X131.379 Y157.831 E7.58507
G1 X131.172 Y157.321 E7.62524
G1 X131.026 Y156.932 E7.65557
G1 X130.832 Y156.365 E7.69931
G1 X130.722 Y156.029 E7.72511
G1 X130.582 Y155.55 E7.76154
G1 X130.3 Y154.453 E7.84421
G1 X130.196 Y153.989 E7.87892
G1 X130.115 Y153.557 E7.911
G1 X130.03 Y153.051 E7.94845
G1 X129.97 Y152.614 E7.98064
G1 X129.904 Y151.994 E8.02615
G1 X129.856 Y151.441 E8.06667
G1 X129.832 Y151.054 E8.09497
G1 X129.821 Y150.751 E8.1171
G1 X129.816 Y150.54 E8.13251
G1 X129.81 Y149.767 E8.18893
G1 X129.811 Y149.404 E8.21542
G1 X129.819 Y149.072 E8.23966
G1 X129.838 Y148.658 E8.26991
G1 X129.896 Y148.001 E8.31805
G1 X130.019 Y147.071 E8.38652
G1 X130.065 Y146.77 E8.40875
G1 X130.164 Y146.197 E8.45119
G1 X130.254 Y145.728 E8.48605
G1 X130.372 Y145.216 E8.5244
G1 X130.544 Y144.571 E8.57312
G1 X130.674 Y144.126 E8.60696
G1 X130.794 Y143.76 E8.63507
G1 X131.14 Y142.788 E8.71038
G1 X131.258 Y142.477 E8.73466
G1 X131.436 Y142.038 E8.76923
G1 X131.604 Y141.654 E8.79983
G1 X131.778 Y141.284 E8.82967
G1 X131.916 Y141.006 E8.85232
G1 X132.257 Y140.354 E8.90603
G1 X132.463 Y139.977 E8.93739
G1 X132.636 Y139.676 E8.96273
G1 X132.859 Y139.316 E8.99363
G1 X133.257 Y138.704 E9.04692
G1 X133.472 Y138.39 E9.0747
G1 X133.822 Y137.906 E9.11829
G1 X134.154 Y137.48 E9.15771
G1 X134.684 Y136.902 E9.21495
G0 F6000 X135.138 Y137.319
G1 F1200 X135.704 Y136.823 E9.26988
G1 X136.319 Y136.389 E9.32482
G1 X136.977 Y136.024 E9.37974
G1 X137.084 Y135.941 E9.38963
G1 X137.667 Y135.403 E9.44753
G1 X138.047 Y135.09 E9.48346
G1 X138.283 Y134.904 E9.5054
G1 X138.65 Y134.627 E9.53896
G1 X138.843 Y134.487 E9.55636
G1 X139.207 Y134.231 E9.58884
G1 X139.447 Y134.069 E9.60997
G1 X139.826 Y133.825 E9.64287
G1 X140.034 Y133.696 E9.66074
G1 X140.435 Y133.457 E9.69481
G1 X140.681 Y133.317 E9.71547
G1 X141.075 Y133.103 E9.7482
G1 X141.307 Y132.982 E9.7673
G1 X141.704 Y132.785 E9.79964
G1 X141.945 Y132.672 E9.81907
G1 X142.367 Y132.482 E9.85285
G1 X142.611 Y132.377 E9.87224
G1 X143.025 Y132.209 E9.90485
G1 X143.26 Y132.118 E9.92324
G1 X143.682 Y131.964 E9.95603
G1 X143.969 Y131.867 E9.97814
G1 X144.404 Y131.729 E10.01145
G1 X144.649 Y131.656 E10.03011
G1 X145.088 Y131.534 E10.06337
G1 X145.334 Y131.47 E10.08192
G1 X145.768 Y131.366 E10.1145
G1 X146.024 Y131.31 E10.13362
G1 X146.315 Y131.252 E10.15528
G1 X146.894 Y130.974 E10.20216
G1 X147.604 Y130.723 E10.25713
G1 X148.336 Y130.548 E10.31206
G1 X149.082 Y130.452 E10.36696
G1 X149.541 Y130.432 E10.40049
G1 X150.141 Y130.426 E10.44429
G1 X150.497 Y130.432 E10.47028
G1 X151.267 Y130.463 E10.52653
G1 X151.758 Y130.5 E10.56246
G1 X152.411 Y130.572 E10.61042
G1 X152.84 Y130.629 E10.642
G1 X153.03 Y130.658 E10.65603
G1 X153.643 Y130.761 E10.7014
G1 X153.96 Y130.822 E10.72496
G1 X154.546 Y130.95 E10.76874
G1 X154.932 Y131.043 E10.79772
G1 X155.35 Y131.157 E10.82935
G1 X155.924 Y131.333 E10.87317
G1 X156.098 Y131.389 E10.88651
G1 X156.477 Y131.516 E10.91569
G1 X156.716 Y131.601 E10.9342
G1 X156.977 Y131.699 E10.95455
G1 X157.247 Y131.807 E10.97577
G1 X157.857 Y132.065 E11.02412
G1 X158.038 Y132.144 E11.03853
G1 X158.336 Y132.28 E11.06244
G1 X158.619 Y132.417 E11.08539
G1 X159.026 Y132.625 E11.11875
G1 X159.252 Y132.746 E11.13746
G1 X159.851 Y133.08 E11.18752
G1 X160.071 Y133.208 E11.2061
G1 X160.279 Y133.334 E11.22385
G1 X160.526 Y133.49 E11.24517
G1 X160.96 Y133.778 E11.28319
G1 X160.956 Y133.785 E11.28378
G1 X161.283 Y133.99 E11.31195
G1 X161.534 Y134.172 E11.33458
G1 X161.756 Y134.339 E11.35485
G1 X162.534 Y134.951 E11.4271
G1 X162.963 Y135.317 E11.46826
G1 X163.376 Y135.7 E11.50937
G1 X163.726 Y136.034 E11.54468
G1 X163.911 Y136.218 E11.56373
G1 X164.277 Y136.594 E11.60203
G1 X164.476 Y136.807 E11.6233
G1 X164.743 Y137.108 E11.65267
G1 X165.166 Y137.605 E11.70031
G1 X165.622 Y138.203 E11.7552
G1 X165.661 Y138.267 E11.76067
G1 X165.89 Y138.548 E11.78713
G1 X166.033 Y138.75 E11.80519
G1 X166.186 Y138.975 E11.82505
G1 X166.564 Y139.555 E11.87558
G1 X166.687 Y139.751 E11.89247
G1 X166.887 Y140.081 E11.92064
G1 X167.084 Y140.427 E11.9497
G1 X167.418 Y141.057 E12.00174
G1 X167.512 Y141.237 E12.01656
G1 X167.691 Y141.604 E12.04637
G1 X167.948 Y142.174 E12.092
G1 X168.054 Y142.421 E12.11162
G1 X168.108 Y142.554 E12.1221
G1 X168.353 Y143.265 E12.17699
G1 X168.522 Y143.999 E12.23197
G1 X168.612 Y144.746 E12.28688
G1 X168.622 Y145.498 E12.34178
G1 X168.599 Y145.743 E12.35974
G1 X168.763 Y146.393 E12.40867
G1 X168.804 Y146.599 E12.424
G1 X168.86 Y146.922 E12.44793
G1 X168.926 Y147.358 E12.48011
G1 X168.962 Y147.629 E12.50007
G1 X169.013 Y148.084 E12.53348
G1 X169.036 Y148.332 E12.55166
G1 X169.07 Y148.776 E12.58416
G1 X169.086 Y149.048 E12.60405
G1 X169.103 Y149.496 E12.63677
G1 X169.108 Y149.765 E12.65641
G1 X169.108 Y150.222 E12.68977
G1 X169.103 Y150.495 E12.7097
G1 X169.085 Y150.961 E12.74374
G1 X169.07 Y151.218 E12.76253
G1 X169.037 Y151.658 E12.79473
G1 X169.012 Y151.924 E12.81423
G1 X168.96 Y152.384 E12.84802
G1 X168.921 Y152.677 E12.8696
G1 X168.846 Y153.159 E12.9052
G1 X168.804 Y153.402 E12.9232
G1 X168.719 Y153.846 E12.9562
G1 X168.653 Y154.154 E12.97919
G1 X168.559 Y154.549 E13.00882
G1 X168.514 Y154.728 E13.02229
G1 X168.395 Y155.176 E13.05613
G1 X168.318 Y155.443 E13.07641
G1 X168.188 Y155.865 E13.10864
G1 X168.091 Y156.158 E13.13117
G1 X168.039 Y156.828 E13.18022
G1 X167.902 Y157.567 E13.23508
G1 X167.687 Y158.289 E13.29006
G1 X167.396 Y158.983 E13.34499
G1 X167.207 Y159.349 E13.37505
G1 X166.983 Y159.752 E13.40871
G1 X166.824 Y159.991 E13.42966
G1 X166.835 Y159.998 E13.43061
G1 X166.595 Y160.395 E13.46447
G1 X166.461 Y160.608 E13.48284
G1 X166.234 Y160.955 E13.5131
G1 X165.972 Y161.33 E13.54649
G1 X165.328 Y162.188 E13.6248
G1 X164.963 Y162.634 E13.66686
G1 X164.386 Y163.285 E13.73035
G1 X164.149 Y163.54 E13.75576
G1 X163.808 Y163.886 E13.79122
G1 X163.398 Y164.286 E13.83303
G1 X163.122 Y164.541 E13.86046
G1 X162.821 Y164.805 E13.88968
G1 X162.646 Y164.953 E13.90641
G1 X162.282 Y165.252 E13.94079
G1 X162.066 Y165.423 E13.9609
G1 X161.611 Y165.768 E14.00258
G1 X161.366 Y165.946 E14.02468
G1 X160.923 Y166.253 E14.06402
G1 X160.531 Y166.514 E14.09839
G1 X160.239 Y166.697 E14.12355
G1 X159.877 Y166.912 E14.15428
G1 X159.674 Y167.028 E14.17134
G1 X159.214 Y167.281 E14.20966
G1 X158.935 Y167.426 E14.23261
G1 X158.546 Y167.618 E14.26427
G1 X158.344 Y167.714 E14.2806
G1 X157.801 Y167.961 E14.32414
G1 X157.365 Y168.147 E14.35874
G1 X157.089 Y168.255 E14.38037
G1 X156.348 Y168.528 E14.43801
G1 X155.736 Y168.723 E14.48489
G1 X154.522 Y169.049 E14.57664
G1 X154.126 Y169.143 E14.60635
G1 X153.717 Y169.228 E14.63684
G1 X153.499 Y169.27 E14.65304
G1 X153.031 Y169.352 E14.68772
G1 X152.643 Y169.409 E14.71634
G1 X152.222 Y169.459 E14.74729
G1 X151.951 Y169.485 E14.76716
G1 X151.338 Y169.534 E14.81205
G1 X150.937 Y169.555 E14.84135
G1 X149.984 Y169.577 E14.91093
G1 X149.807 Y169.579 E14.92385
G1 X149.122 Y169.576 E14.97385
G1 X149.002 Y169.573 E14.98261
G1 X148.317 Y169.522 E15.03275
G1 X147.542 Y169.427 E15.08974
G1 X147.05 Y169.35 E15.12609
G1 X146.319 Y169.171 E15.18102
G1 X145.611 Y168.915 E15.23597
G1 X144.935 Y168.586 E15.29084
G1 X144.373 Y168.235 E15.3392
G1 X144.343 Y168.229 E15.34144
G1 X143.589 Y168.001 E15.39893
G1 X143.254 Y167.879 E15.42496
G1 X143.014 Y167.787 E15.44372
G1 X142.605 Y167.621 E15.47593
G1 X142.352 Y167.512 E15.49604
G1 X141.936 Y167.324 E15.52936
G1 X141.691 Y167.208 E15.54915
G1 X141.28 Y167.003 E15.58267
G1 X141.062 Y166.89 E15.60059
G1 X140.677 Y166.681 E15.63257
G1 X140.419 Y166.533 E15.65428
G1 X140.018 Y166.293 E15.68839
G1 X139.835 Y166.18 E15.70408
G1 X139.451 Y165.934 E15.73737
G1 X139.191 Y165.76 E15.76021
G1 X138.832 Y165.507 E15.79226
G1 X138.633 Y165.361 E15.81028
G1 X138.265 Y165.082 E15.84398
G1 X138.028 Y164.894 E15.86606
G1 X137.68 Y164.606 E15.89903
G1 X137.519 Y164.469 E15.91446
G1 X137.179 Y164.17 E15.94751
G1 X136.967 Y163.976 E15.96849
G1 X136.641 Y163.665 E16.00137
G1 X136.442 Y163.467 E16.02186
G1 X136.134 Y163.149 E16.05417
G1 X135.961 Y162.963 E16.07272
G1 X135.619 Y162.583 E16.11003
G1 X135.075 Y162.21 E16.15817
G1 X134.503 Y161.722 E16.21305
G1 X133.985 Y161.175 E16.26804
G1 X133.422 Y160.416 E16.33702
G1 X133.279 Y160.189 E16.3566
G1 X133.065 Y159.838 E16.3866
G1 X132.834 Y159.429 E16.42089
G1 X132.599 Y158.979 E16.45794
G1 X132.51 Y158.804 E16.47227
G1 X132.256 Y158.283 E16.51458
G1 X132.166 Y158.09 E16.53012
G1 X132.056 Y157.846 E16.54966
G1 X131.95 Y157.599 E16.56928
G1 X131.743 Y157.089 E16.60945
G1 X131.609 Y156.731 E16.63735
