;FLAVOR:Marlin
;TIME:3530
;Filament used: 2.1355m
;Layer height: 0.15
;MINX:132.486
;MINY:130.329
;MINZ:0.3
;MAXX:169.724
;MAXY:169.127
;MAXZ:27.2
;Generated with Cura_SteamEngine 4.10.0
M140 S90
M105
M190 S90
M104 S230
M105
M109 S230
M82 ;absolute extrusion mode
G28 ; home all axes
 M117 Purge extruder
 G92 E0 ; reset extruder
 G1 Z1.0 F3000 ; move z up little to prevent scratching of surface
 G1 X2 Y20 Z0.3 F5000.0 ; move to start-line position
 G1 X2 Y200.0 Z0.3 F1500.0 E15 ; draw 1st line
 G1 X2 Y200.0 Z0.4 F5000.0 ; move to side a little
 G1 X2 Y20 Z0.4 F1500.0 E30 ; draw 2nd line
 G92 E0 ; reset extruder
 G1 Z1.0 F3000 ; move z up little to prevent scratching of surface
G92 E0
G92 E0
G1 F2100 E-2
;LAYER_COUNT:179
;LAYER:0
M107
G1 F300 Z0.5
G0 F6000 X136.528 Y135.6 Z0.5
;TYPE:SKIRT
G1 F300 Z0.3
G1 F2100 E0
G1 F1200 X136.874 Y135.277 E0.03455
G1 X137.116 Y135.064 E0.05808
G1 X137.304 Y134.904 E0.0761
G1 X137.652 Y134.617 E0.10902
G1 X137.915 Y134.409 E0.1335
G1 X138.277 Y134.136 E0.16659
G1 X138.497 Y133.976 E0.18644
G1 X138.867 Y133.717 E0.21941
G1 X139.099 Y133.561 E0.23982
G1 X139.479 Y133.315 E0.27286
G1 X139.731 Y133.158 E0.29453
G1 X140.12 Y132.927 E0.32755
G1 X140.372 Y132.784 E0.3487
G1 X140.769 Y132.568 E0.38169
G1 X141.012 Y132.442 E0.40166
G1 X141.419 Y132.239 E0.43486
G1 X141.695 Y132.108 E0.45716
G1 X142.106 Y131.923 E0.49006
G1 X142.401 Y131.797 E0.51347
G1 X142.775 Y131.647 E0.54288
G1 X143.08 Y131.528 E0.56678
G1 X143.461 Y131.391 E0.59633
G1 X143.768 Y131.284 E0.62006
G1 X144.2 Y131.146 E0.65316
G1 X144.48 Y131.063 E0.67448
G1 X144.915 Y130.942 E0.70743
G1 X145.203 Y130.867 E0.72916
G1 X145.642 Y130.763 E0.76209
G1 X145.891 Y130.709 E0.78068
G1 X146.336 Y130.619 E0.81382
G1 X146.638 Y130.564 E0.83623
G1 X147.085 Y130.492 E0.86927
G1 X147.364 Y130.452 E0.88984
G1 X147.914 Y130.384 E0.93029
G1 X148.394 Y130.34 E0.96548
G1 X149.179 Y130.329 E1.02278
G1 X149.96 Y130.399 E1.08001
G1 X150.731 Y130.547 E1.13731
G1 X151.482 Y130.773 E1.19456
G1 X152.206 Y131.075 E1.25181
G1 X152.896 Y131.448 E1.30906
G1 X153.545 Y131.89 E1.36638
G1 X154.145 Y132.396 E1.42366
G1 X154.69 Y132.96 E1.48091
G1 X155.176 Y133.576 E1.53818
G1 X155.56 Y134.177 E1.59024
G1 X159.09 Y140.297 E2.10591
G1 X159.341 Y140.2 E2.12555
G1 X160.097 Y139.991 E2.1828
G1 X160.871 Y139.861 E2.24009
G1 X161.654 Y139.81 E2.29736
G1 X162.438 Y139.839 E2.35462
G1 X163.215 Y139.947 E2.41188
G1 X163.977 Y140.134 E2.46915
G1 X164.716 Y140.398 E2.52643
G1 X165.424 Y140.735 E2.58366
G1 X166.094 Y141.143 E2.64091
G1 X166.72 Y141.617 E2.69823
G1 X167.294 Y142.152 E2.7555
G1 X167.81 Y142.742 E2.81271
G1 X168.264 Y143.382 E2.86998
G1 X168.65 Y144.065 E2.92724
G1 X168.965 Y144.784 E2.98454
G1 X169.205 Y145.531 E3.04181
G1 X169.319 Y146.027 E3.07895
G1 X169.41 Y146.491 E3.11347
G1 X169.466 Y146.812 E3.13725
G1 X169.534 Y147.258 E3.17018
G1 X169.576 Y147.581 E3.19395
G1 X169.62 Y147.983 E3.22347
G1 X169.651 Y148.291 E3.24606
G1 X169.685 Y148.743 E3.27915
G1 X169.702 Y149.032 E3.30028
G1 X169.719 Y149.485 E3.33337
G1 X169.724 Y149.774 E3.35446
G1 X169.724 Y150.225 E3.38738
G1 X169.719 Y150.513 E3.40841
G1 X169.702 Y150.967 E3.44157
G1 X169.685 Y151.257 E3.46277
G1 X169.651 Y151.709 E3.49585
G1 X169.624 Y152 E3.51718
G1 X169.573 Y152.449 E3.55017
G1 X169.529 Y152.771 E3.57389
G1 X169.452 Y153.263 E3.61024
G1 X169.404 Y153.536 E3.63047
G1 X169.318 Y153.98 E3.66348
G1 X169.263 Y154.24 E3.68287
G1 X169.172 Y154.636 E3.71253
G1 X169.102 Y154.919 E3.73381
G1 X168.984 Y155.356 E3.76685
G1 X168.909 Y155.615 E3.78653
G1 X168.776 Y156.047 E3.81952
G1 X168.676 Y156.348 E3.84267
G1 X168.525 Y156.775 E3.87573
G1 X168.419 Y157.058 E3.89779
G1 X168.27 Y157.432 E3.92717
G1 X168.155 Y157.713 E3.94933
G1 X167.981 Y158.111 E3.98104
G1 X167.631 Y158.813 E4.03829
G1 X167.211 Y159.476 E4.09558
G1 X166.725 Y160.092 E4.15285
G1 X166.18 Y160.656 E4.21009
G1 X165.579 Y161.162 E4.26744
G1 X164.931 Y161.603 E4.32465
G1 X164.241 Y161.977 E4.38193
G1 X163.517 Y162.278 E4.43916
G1 X162.765 Y162.504 E4.49647
G1 X161.995 Y162.652 E4.5537
G1 X160.921 Y162.727 E4.63229
G1 X156.064 Y162.724 E4.9868
G1 X153.857 Y162.725 E5.14788
G1 X153.816 Y162.992 E5.1676
G1 X153.618 Y163.751 E5.22485
G1 X153.344 Y164.486 E5.28211
G1 X152.997 Y165.19 E5.33939
G1 X152.58 Y165.854 E5.39662
G1 X152.097 Y166.473 E5.45393
G1 X151.554 Y167.039 E5.51118
G1 X150.956 Y167.548 E5.5685
G1 X150.31 Y167.992 E5.62571
G1 X149.622 Y168.369 E5.68297
G1 X148.898 Y168.673 E5.74029
G1 X148.148 Y168.903 E5.79755
G1 X147.378 Y169.055 E5.85483
G1 X146.597 Y169.127 E5.91208
G1 X145.813 Y169.12 E5.9693
G1 X145.033 Y169.033 E6.02659
G1 X143.907 Y168.761 E6.11114
G1 X143.743 Y168.708 E6.12372
G1 X143.467 Y168.613 E6.14502
G1 X143.043 Y168.458 E6.17797
G1 X142.798 Y168.363 E6.19715
G1 X142.378 Y168.193 E6.23023
G1 X142.085 Y168.068 E6.25348
G1 X141.673 Y167.881 E6.2865
G1 X141.439 Y167.77 E6.3054
G1 X141.033 Y167.569 E6.33847
G1 X140.755 Y167.424 E6.36136
G1 X140.402 Y167.231 E6.39072
G1 X140.099 Y167.062 E6.41604
G1 X139.711 Y166.83 E6.44904
G1 X139.467 Y166.677 E6.47006
G1 X139.13 Y166.458 E6.4994
G1 X138.846 Y166.269 E6.5243
G1 X138.476 Y166.008 E6.55734
G1 X138.278 Y165.864 E6.57521
G1 X137.916 Y165.591 E6.60831
G1 X137.661 Y165.39 E6.63201
G1 X137.312 Y165.103 E6.66499
G1 X137.1 Y164.922 E6.68533
G1 X136.761 Y164.622 E6.71837
G1 X136.535 Y164.414 E6.74079
G1 X136.244 Y164.135 E6.77022
G1 X136.007 Y163.903 E6.79443
G1 X135.692 Y163.578 E6.82746
G1 X135.503 Y163.376 E6.84765
G1 X135.2 Y163.04 E6.88068
G1 X134.998 Y162.807 E6.90318
G1 X134.741 Y162.498 E6.93252
G1 X134.52 Y162.226 E6.9581
G1 X134.226 Y161.843 E6.99334
G1 X133.97 Y161.496 E7.02481
G1 X133.539 Y160.84 E7.0821
G1 X133.178 Y160.144 E7.13933
G1 X132.889 Y159.414 E7.19664
G1 X132.676 Y158.659 E7.2539
G1 X132.541 Y157.886 E7.31117
G1 X132.486 Y157.103 E7.36846
G1 X132.51 Y156.319 E7.42571
G1 X132.614 Y155.541 E7.483
G1 X132.796 Y154.778 E7.54026
G1 X133.056 Y154.038 E7.59751
G1 X133.517 Y153.096 E7.67405
G1 X137.052 Y146.978 E8.18978
G1 X136.841 Y146.808 E8.20956
G1 X136.283 Y146.258 E8.26675
G1 X135.783 Y145.653 E8.32404
G1 X135.347 Y145 E8.38135
G1 X134.98 Y144.307 E8.43858
G1 X134.686 Y143.579 E8.49589
G1 X134.467 Y142.826 E8.55313
G1 X134.326 Y142.054 E8.61041
G1 X134.264 Y141.272 E8.66766
G1 X134.282 Y140.487 E8.72498
G1 X134.38 Y139.709 E8.78221
G1 X134.556 Y138.945 E8.83943
G1 X134.81 Y138.202 E8.89675
G1 X135.138 Y137.489 E8.95403
G1 X135.536 Y136.813 E9.01129
G1 X136.001 Y136.181 E9.06856
G1 X136.528 Y135.6 E9.12581
G0 F6000 X136.824 Y136.179
G1 F1200 X137.281 Y135.739 E9.17211
G1 X137.523 Y135.526 E9.19565
G1 X137.696 Y135.379 E9.21222
G1 X138.044 Y135.092 E9.24514
G1 X138.286 Y134.901 E9.26764
G1 X138.648 Y134.628 E9.30074
G1 X138.851 Y134.481 E9.31903
G1 X139.221 Y134.222 E9.35199
G1 X139.433 Y134.078 E9.3707
G1 X139.813 Y133.832 E9.40374
G1 X140.046 Y133.688 E9.42373
G1 X140.435 Y133.457 E9.45675
G1 X140.666 Y133.325 E9.47617
G1 X141.063 Y133.109 E9.50916
G1 X141.287 Y132.993 E9.52757
G1 X141.694 Y132.79 E9.56077
G1 X141.948 Y132.669 E9.58131
G1 X142.359 Y132.484 E9.6142
G1 X142.63 Y132.369 E9.63569
G1 X143.004 Y132.219 E9.6651
G1 X143.288 Y132.108 E9.68736
G1 X143.669 Y131.971 E9.71691
G1 X143.955 Y131.871 E9.73902
G1 X144.387 Y131.733 E9.77213
G1 X144.645 Y131.656 E9.79178
G1 X145.08 Y131.535 E9.82473
G1 X145.345 Y131.467 E9.8447
G1 X145.784 Y131.363 E9.87763
G1 X146.013 Y131.313 E9.89474
G1 X146.458 Y131.223 E9.92788
G1 X146.735 Y131.172 E9.94844
G1 X147.182 Y131.1 E9.98148
G1 X147.44 Y131.064 E10.0005
G1 X147.99 Y130.996 E10.04095
G1 X148.434 Y130.955 E10.07349
G1 X149.186 Y130.946 E10.12838
G1 X149.936 Y131.018 E10.18338
G1 X150.673 Y131.168 E10.23827
G1 X151.39 Y131.396 E10.29319
G1 X152.079 Y131.698 E10.3481
G1 X152.732 Y132.072 E10.40302
G1 X153.342 Y132.514 E10.45801
G1 X153.901 Y133.017 E10.51289
G1 X154.404 Y133.577 E10.56783
G1 X155.026 Y134.484 E10.64811
G1 X158.824 Y141.068 E11.20289
G1 X158.89 Y141.034 E11.20831
G1 X159.593 Y140.766 E11.26323
G1 X160.32 Y140.573 E11.31813
G1 X161.064 Y140.46 E11.37305
G1 X161.816 Y140.425 E11.428
G1 X162.567 Y140.471 E11.48292
G1 X163.309 Y140.596 E11.53784
G1 X164.034 Y140.799 E11.59279
G1 X164.733 Y141.078 E11.64773
G1 X165.398 Y141.429 E11.70261
G1 X166.023 Y141.849 E11.75757
G1 X166.599 Y142.333 E11.81249
G1 X167.121 Y142.875 E11.86741
G1 X167.582 Y143.47 E11.92235
G1 X167.978 Y144.11 E11.97728
G1 X168.304 Y144.788 E12.03219
G1 X168.555 Y145.497 E12.08709
G1 X168.715 Y146.146 E12.13588
G1 X168.806 Y146.61 E12.17039
G1 X168.857 Y146.905 E12.19224
G1 X168.925 Y147.351 E12.22517
G1 X168.964 Y147.648 E12.24703
G1 X169.008 Y148.05 E12.27655
G1 X169.037 Y148.338 E12.29768
G1 X169.071 Y148.79 E12.33076
G1 X169.086 Y149.055 E12.35013
G1 X169.103 Y149.508 E12.38322
G1 X169.108 Y149.774 E12.40264
G1 X169.108 Y150.225 E12.43556
G1 X169.103 Y150.49 E12.4549
G1 X169.086 Y150.944 E12.48807
G1 X169.071 Y151.21 E12.50751
G1 X169.037 Y151.662 E12.5406
G1 X169.012 Y151.931 E12.56031
G1 X168.961 Y152.38 E12.5933
G1 X168.921 Y152.675 E12.61503
G1 X168.844 Y153.167 E12.65137
G1 X168.8 Y153.419 E12.67005
G1 X168.714 Y153.863 E12.70306
G1 X168.663 Y154.103 E12.72096
G1 X168.572 Y154.499 E12.75062
G1 X168.507 Y154.759 E12.77018
G1 X168.389 Y155.196 E12.80322
G1 X168.32 Y155.433 E12.82124
G1 X168.187 Y155.865 E12.85423
G1 X168.096 Y156.143 E12.87558
G1 X167.945 Y156.57 E12.90864
G1 X167.847 Y156.83 E12.92892
G1 X167.698 Y157.204 E12.9583
G1 X167.591 Y157.467 E12.97903
G1 X167.417 Y157.865 E13.01073
G1 X167.079 Y158.537 E13.06564
G1 X166.672 Y159.17 E13.12056
G1 X166.2 Y159.756 E13.17548
G1 X165.669 Y160.289 E13.2304
G1 X165.084 Y160.763 E13.28536
G1 X164.452 Y161.171 E13.34026
G1 X163.78 Y161.511 E13.39523
G1 X163.076 Y161.777 E13.45016
G1 X162.348 Y161.967 E13.50508
G1 X161.604 Y162.078 E13.55998
G1 X160.922 Y162.111 E13.60982
G1 X156.065 Y162.108 E13.96433
G1 X153.323 Y162.109 E14.16447
G1 X153.319 Y162.184 E14.16995
G1 X153.2 Y162.927 E14.22487
G1 X153.002 Y163.654 E14.27987
G1 X152.729 Y164.355 E14.33477
G1 X152.383 Y165.023 E14.38968
G1 X151.967 Y165.65 E14.44461
G1 X151.488 Y166.231 E14.49957
G1 X150.95 Y166.757 E14.55448
G1 X150.359 Y167.222 E14.60937
G1 X149.722 Y167.623 E14.66431
G1 X149.046 Y167.954 E14.71925
G1 X148.339 Y168.211 E14.77416
G1 X147.608 Y168.391 E14.82911
G1 X146.862 Y168.494 E14.88407
G1 X146.11 Y168.516 E14.93898
G1 X145.36 Y168.459 E14.99388
G1 X144.62 Y168.322 E15.04881
G1 X144.097 Y168.175 E15.08847
G1 X143.933 Y168.122 E15.10105
G1 X143.679 Y168.034 E15.12067
G1 X143.255 Y167.879 E15.15362
G1 X143.029 Y167.792 E15.17129
G1 X142.609 Y167.622 E15.20436
G1 X142.339 Y167.507 E15.22578
G1 X141.927 Y167.32 E15.25881
G1 X141.712 Y167.218 E15.27618
G1 X141.306 Y167.017 E15.30924
G1 X141.051 Y166.884 E15.33024
G1 X140.698 Y166.691 E15.3596
G1 X140.416 Y166.533 E15.38319
G1 X140.028 Y166.301 E15.41619
G1 X139.803 Y166.161 E15.43553
G1 X139.466 Y165.942 E15.46487
G1 X139.201 Y165.766 E15.48809
G1 X138.831 Y165.505 E15.52114
G1 X138.649 Y165.372 E15.53759
G1 X138.287 Y165.099 E15.57068
G1 X138.052 Y164.915 E15.59247
G1 X137.703 Y164.628 E15.62545
G1 X137.508 Y164.461 E15.64419
G1 X137.169 Y164.161 E15.67723
G1 X136.961 Y163.969 E15.69789
G1 X136.67 Y163.69 E15.72731
G1 X136.449 Y163.474 E15.74987
G1 X136.134 Y163.149 E15.7829
G1 X135.96 Y162.963 E15.8015
G1 X135.657 Y162.627 E15.83452
G1 X135.472 Y162.413 E15.85517
G1 X135.215 Y162.104 E15.8845
G1 X135.009 Y161.851 E15.90831
G1 X134.715 Y161.468 E15.94356
G1 X134.467 Y161.132 E15.97404
G1 X134.055 Y160.502 E16.02898
G1 X133.713 Y159.832 E16.08389
G1 X133.444 Y159.129 E16.13883
G1 X133.251 Y158.402 E16.19373
G1 X133.136 Y157.658 E16.24868
G1 X133.1 Y156.907 E16.30355
G1 X133.145 Y156.155 E16.35854
G1 X133.269 Y155.413 E16.41345
G1 X133.47 Y154.688 E16.46836
G1 X133.748 Y153.989 E16.52327
G1 X134.05 Y153.405 E16.57126
G1 X137.854 Y146.824 E17.12607
G1 X137.789 Y146.782 E17.13172
G1 X137.205 Y146.307 E17.18667
G1 X136.675 Y145.773 E17.24158
G1 X136.205 Y145.186 E17.29647
G1 X135.799 Y144.552 E17.35142
G1 X135.463 Y143.878 E17.40639
G1 X135.2 Y143.173 E17.46131
G1 X135.014 Y142.444 E17.51622
G1 X134.906 Y141.699 E17.57117
G1 X134.878 Y140.947 E17.62609
G1 X134.929 Y140.196 E17.68103
G1 X135.06 Y139.455 E17.73596
G1 X135.269 Y138.732 E17.79089
G1 X135.554 Y138.036 E17.84578
G1 X135.91 Y137.373 E17.90071
G1 X136.335 Y136.752 E17.95564
G1 X136.824 Y136.179 E18.01062
G0 F6000 X137.151 Y136.732
G1 F1200 X137.688 Y136.202 E18.06569
G1 X137.93 Y135.989 E18.08922
G1 X138.088 Y135.854 E18.10439
G1 X138.436 Y135.567 E18.13731
G1 X138.657 Y135.393 E18.15784
G1 X139.019 Y135.12 E18.19094
G1 X139.204 Y134.985 E18.20765
G1 X139.574 Y134.726 E18.24062
G1 X139.768 Y134.595 E18.2577
G1 X140.148 Y134.349 E18.29074
G1 X140.361 Y134.218 E18.309
G1 X140.75 Y133.987 E18.34202
G1 X140.961 Y133.866 E18.35977
G1 X141.358 Y133.65 E18.39276
G1 X141.562 Y133.544 E18.40954
G1 X141.969 Y133.341 E18.44274
G1 X142.201 Y133.231 E18.46148
G1 X142.612 Y133.046 E18.49437
G1 X142.859 Y132.941 E18.51396
G1 X143.233 Y132.791 E18.54338
G1 X143.496 Y132.688 E18.56399
G1 X143.877 Y132.551 E18.59354
G1 X144.143 Y132.458 E18.61411
G1 X144.575 Y132.32 E18.64721
G1 X144.81 Y132.25 E18.66511
G1 X145.245 Y132.129 E18.69806
G1 X145.487 Y132.066 E18.71632
G1 X145.926 Y131.962 E18.74925
G1 X146.135 Y131.916 E18.76487
G1 X146.58 Y131.826 E18.798
G1 X146.833 Y131.78 E18.81677
G1 X147.28 Y131.708 E18.84982
G1 X147.515 Y131.675 E18.86714
G1 X148.065 Y131.607 E18.90759
G1 X148.474 Y131.569 E18.93757
G1 X149.193 Y131.563 E18.99005
G1 X149.908 Y131.637 E19.04252
G1 X150.611 Y131.789 E19.09502
G1 X151.292 Y132.019 E19.14748
G1 X151.944 Y132.322 E19.19996
G1 X152.558 Y132.697 E19.25247
G1 X153.126 Y133.137 E19.30491
G1 X153.643 Y133.637 E19.35741
G1 X154.1 Y134.192 E19.40988
G1 X154.493 Y134.792 E19.46223
G1 X158.581 Y141.881 E20.05953
G1 X159.169 Y141.584 E20.10761
G1 X159.843 Y141.333 E20.1601
G1 X160.54 Y141.158 E20.21256
G1 X161.253 Y141.061 E20.26508
G1 X161.971 Y141.044 E20.3175
G1 X162.688 Y141.107 E20.37003
G1 X163.393 Y141.25 E20.42254
G1 X164.077 Y141.469 E20.47496
G1 X164.733 Y141.763 E20.52743
G1 X165.353 Y142.129 E20.57998
G1 X165.928 Y142.56 E20.63243
G1 X166.451 Y143.053 E20.68489
G1 X166.917 Y143.601 E20.73739
G1 X167.319 Y144.197 E20.78987
G1 X167.652 Y144.835 E20.84239
G1 X167.913 Y145.505 E20.89488
G1 X168.11 Y146.264 E20.95211
G1 X168.201 Y146.728 E20.98662
G1 X168.248 Y146.998 E21.00663
G1 X168.316 Y147.444 E21.03956
G1 X168.352 Y147.715 E21.05951
G1 X168.396 Y148.117 E21.08903
G1 X168.423 Y148.384 E21.10861
G1 X168.457 Y148.836 E21.1417
G1 X168.47 Y149.078 E21.15939
G1 X168.487 Y149.531 E21.19248
G1 X168.492 Y149.774 E21.21022
G1 X168.492 Y150.225 E21.24313
G1 X168.487 Y150.467 E21.2608
G1 X168.47 Y150.921 E21.29396
G1 X168.457 Y151.164 E21.31172
G1 X168.423 Y151.616 E21.34481
G1 X168.4 Y151.861 E21.36277
G1 X168.349 Y152.31 E21.39575
G1 X168.312 Y152.58 E21.41564
G1 X168.235 Y153.072 E21.45199
G1 X168.195 Y153.302 E21.46903
G1 X168.109 Y153.746 E21.50204
G1 X168.063 Y153.965 E21.51837
G1 X167.972 Y154.361 E21.54803
G1 X167.912 Y154.598 E21.56587
G1 X167.794 Y155.035 E21.59891
G1 X167.732 Y155.252 E21.61539
G1 X167.599 Y155.684 E21.64838
G1 X167.515 Y155.937 E21.66784
G1 X167.364 Y156.364 E21.70089
G1 X167.275 Y156.602 E21.71944
G1 X167.126 Y156.976 E21.74882
G1 X167.026 Y157.22 E21.76807
G1 X166.852 Y157.618 E21.79978
G1 X166.528 Y158.26 E21.85226
G1 X166.135 Y158.862 E21.90474
G1 X165.677 Y159.416 E21.9572
G1 X165.16 Y159.916 E22.0097
G1 X164.591 Y160.356 E22.0622
G1 X163.977 Y160.73 E22.11467
G1 X163.325 Y161.033 E22.16715
G1 X162.644 Y161.263 E22.21961
G1 X161.941 Y161.415 E22.27211
G1 X160.922 Y161.495 E22.34672
G1 X156.065 Y161.492 E22.70123
G1 X152.74 Y161.493 E22.94392
G1 X152.703 Y162.151 E22.99202
G1 X152.584 Y162.86 E23.04449
G1 X152.387 Y163.551 E23.09694
G1 X152.114 Y164.217 E23.14947
G1 X151.769 Y164.848 E23.20196
G1 X151.356 Y165.436 E23.25441
G1 X150.88 Y165.976 E23.30695
G1 X150.348 Y166.459 E23.3594
G1 X149.765 Y166.88 E23.41189
G1 X149.139 Y167.233 E23.46434
