;FLAVOR:Marlin
;TIME:5597
;Filament used: 5.15661m
;Layer height: 0.3
;MINX:45.956
;MINY:110.256
;MINZ:0.3
;MAXX:199.938
;MAXY:189.744
;MAXZ:15
;Generated with Cura_SteamEngine 4.10.0
M140 S30
M105
M190 S30
M104 S235
M105
M109 S235
M82 ;absolute extrusion mode
G28 ; home all axes
 M117 Purge extruder
 G92 E0 ; reset extruder
 G1 Z1.0 F3000 ; move z up little to prevent scratching of surface
 G1 X2 Y20 Z0.3 F5000.0 ; move to start-line position
 G1 X2 Y200.0 Z0.3 F1500.0 E15 ; draw 1st line
 G1 X2 Y200.0 Z0.4 F5000.0 ; move to side a little
 G1 X2 Y20 Z0.4 F1500.0 E30 ; draw 2nd line
 G92 E0 ; reset extruder
 G1 Z1.0 F3000 ; move z up little to prevent scratching of surface
G92 E0
G92 E0
G1 F3000 E-1.5
;LAYER_COUNT:50
;LAYER:0
M106 S191.3
G0 F6000 X73.09 Y115.905 Z0.3
;TYPE:SKIRT
G1 F3000 E0
G1 F300 X73.718 Y115.522 E0.05369
G1 X74.663 Y114.985 E0.13302
G1 X75.44 Y114.56 E0.19766
G1 X76.011 Y114.257 E0.24485
G1 X76.671 Y113.932 E0.29854
G1 X77.523 Y113.544 E0.36687
G1 X78.32 Y113.195 E0.43038
G1 X79.079 Y112.876 E0.49047
G1 X79.753 Y112.616 E0.5432
G1 X80.651 Y112.301 E0.61266
G1 X81.53 Y112.008 E0.68029
G1 X82.292 Y111.767 E0.73862
G1 X82.958 Y111.578 E0.78915
G1 X83.796 Y111.366 E0.85225
G1 X84.018 Y111.312 E0.86892
G1 X84.889 Y111.11 E0.93418
G1 X85.517 Y110.972 E0.98111
G1 X86.246 Y110.835 E1.03525
G1 X87.185 Y110.688 E1.10463
G1 X88.059 Y110.564 E1.16906
G1 X88.881 Y110.46 E1.22953
G1 X89.606 Y110.391 E1.28269
G1 X90.474 Y110.335 E1.34618
G1 X91.404 Y110.288 E1.41414
G1 X92.222 Y110.259 E1.47389
G1 X92.94 Y110.256 E1.52629
G1 X93.882 Y110.28 E1.59507
G1 X94.75 Y110.315 E1.65848
G1 X95.601 Y110.362 E1.72069
G1 X96.308 Y110.423 E1.77248
G1 X97.203 Y110.527 E1.83825
G1 X97.419 Y110.554 E1.85413
G1 X98.308 Y110.675 E1.91962
G1 X98.934 Y110.768 E1.96581
G1 X99.633 Y110.893 E2.01764
G1 X100.495 Y111.073 E2.08192
G1 X101.473 Y111.294 E2.1551
G1 X101.658 Y111.337 E2.16896
G1 X102.219 Y111.474 E2.21111
G1 X102.879 Y111.655 E2.26106
G1 X103.801 Y111.936 E2.33142
G1 X104.021 Y112.005 E2.34825
G1 X104.626 Y112.202 E2.39469
G1 X105.434 Y112.477 E2.45698
G1 X106.112 Y112.731 E2.50983
G1 X107.16 Y113.161 E2.59251
G1 X107.945 Y113.498 E2.65486
G1 X108.525 Y113.757 E2.70123
G1 X109.162 Y114.065 E2.75287
G1 X110.061 Y114.531 E2.82678
G1 X110.252 Y114.632 E2.84255
G1 X110.954 Y115.013 E2.90085
G1 X112.086 Y115.647 E2.99555
G1 X113.57 Y116.507 E3.12074
G1 X115.755 Y117.692 E3.30216
G1 X117.978 Y118.818 E3.48405
G1 X120.216 Y119.873 E3.66464
G1 X122.5 Y120.872 E3.84659
G1 X124.836 Y121.816 E4.03049
G1 X127.143 Y122.671 E4.21007
G1 X129.493 Y123.468 E4.39119
G1 X131.849 Y124.195 E4.57116
G1 X134.253 Y124.862 E4.75325
G1 X136.664 Y125.459 E4.93454
G1 X139.134 Y125.997 E5.11905
G1 X141.529 Y126.446 E5.29691
G1 X143.973 Y126.834 E5.47753
G1 X146.45 Y127.156 E5.65985
G1 X148.938 Y127.408 E5.84237
G1 X151.399 Y127.587 E6.02247
G1 X153.87 Y127.698 E6.20301
G1 X156.667 Y127.74 E6.40719
G1 X174.259 Y127.741 E7.69122
G1 X174.957 Y127.751 E7.74217
G1 X175.974 Y127.809 E7.81652
G1 X176.238 Y127.835 E7.83588
G1 X176.845 Y127.91 E7.88052
G1 X177.333 Y127.983 E7.91654
G1 X178.302 Y128.168 E7.98854
G1 X179.252 Y128.431 E8.06049
G1 X179.967 Y128.686 E8.1159
G1 X180.442 Y128.872 E8.15313
G1 X180.813 Y129.024 E8.18239
G1 X181.085 Y129.141 E8.204
G1 X181.399 Y129.282 E8.22913
G1 X182.937 Y129.997 E8.35292
G1 X185.272 Y131.032 E8.53935
G1 X187.076 Y131.778 E8.68183
G1 X188.312 Y132.275 E8.77907
G1 X189.211 Y132.68 E8.85104
G1 X190.074 Y133.157 E8.92301
G1 X190.896 Y133.701 E8.99495
G1 X191.671 Y134.311 E9.06694
G1 X192.047 Y134.645 E9.10365
G1 X192.201 Y134.788 E9.11899
G1 X192.43 Y135.007 E9.14212
G1 X192.708 Y135.28 E9.17055
G1 X196.025 Y138.598 E9.513
G1 X196.483 Y139.07 E9.561
G1 X197.14 Y139.805 E9.63296
G1 X197.736 Y140.59 E9.70489
G1 X198.266 Y141.422 E9.7769
G1 X198.727 Y142.293 E9.84883
G1 X199.116 Y143.199 E9.92079
G1 X199.43 Y144.134 E9.99278
G1 X199.667 Y145.091 E10.06474
G1 X199.842 Y146.201 E10.14676
G1 X199.86 Y146.364 E10.15873
G1 X199.932 Y147.549 E10.24538
G1 X199.938 Y148.107 E10.28611
G1 X199.937 Y153.027 E10.64522
G1 X199.926 Y153.734 E10.69683
G1 X199.87 Y154.718 E10.76877
G1 X199.735 Y155.695 E10.84076
G1 X199.522 Y156.658 E10.91275
G1 X199.204 Y157.674 E10.99045
G1 X199.049 Y158.097 E11.02333
G1 X198.241 Y160.194 E11.18736
G1 X197.414 Y162.531 E11.3683
G1 X196.66 Y164.875 E11.54802
G1 X195.962 Y167.277 E11.73059
G1 X195.338 Y169.67 E11.9111
G1 X194.771 Y172.125 E12.095
G1 X194.396 Y173.987 E12.23364
G1 X194.162 Y174.945 E12.30562
G1 X193.852 Y175.881 E12.37759
G1 X193.653 Y176.373 E12.41632
G1 X193.584 Y176.534 E12.42911
G1 X193.159 Y177.424 E12.5011
G1 X192.664 Y178.277 E12.57308
G1 X192.101 Y179.086 E12.64502
G1 X191.474 Y179.847 E12.71699
G1 X190.788 Y180.555 E12.78894
G1 X190.046 Y181.205 E12.86094
G1 X189.255 Y181.793 E12.93288
G1 X188.418 Y182.314 E13.00484
G1 X187.542 Y182.766 E13.07679
G1 X186.632 Y183.146 E13.14877
G1 X185.694 Y183.45 E13.22074
G1 X184.767 Y183.671 E13.2903
G1 X183.687 Y183.884 E13.37064
G1 X182.914 Y184.025 E13.428
G1 X180.504 Y184.538 E13.60784
G1 X178.045 Y185.133 E13.7925
G1 X176.82 Y185.458 E13.88501
G1 X176.1 Y185.655 E13.93949
G1 X175.714 Y185.754 E13.96858
G1 X175.031 Y185.917 E14.01983
G1 X174.612 Y186.009 E14.05114
G1 X174.369 Y186.058 E14.06923
G1 X173.395 Y186.214 E14.14123
G1 X172.412 Y186.29 E14.21319
G1 X171.663 Y186.294 E14.26786
G1 X171.141 Y186.281 E14.30598
G1 X170.705 Y186.262 E14.33783
G1 X170.426 Y186.245 E14.35823
G1 X169.419 Y186.142 E14.43211
G1 X168.912 Y186.066 E14.46953
G1 X168.607 Y186.014 E14.49212
G1 X151.782 Y183.048 E15.7391
G1 X149.283 Y182.644 E15.92387
G1 X146.802 Y182.314 E16.10655
G1 X144.304 Y182.054 E16.28986
G1 X141.866 Y181.869 E16.46832
G1 X139.358 Y181.751 E16.65158
G1 X136.859 Y181.703 E16.83401
G1 X134.398 Y181.726 E17.01365
G1 X131.942 Y181.818 E17.19304
G1 X129.418 Y181.985 E17.37766
G1 X126.958 Y182.217 E17.55802
G1 X124.501 Y182.519 E17.7387
G1 X122.027 Y182.895 E17.92135
G1 X119.613 Y183.332 E18.10041
G1 X117.175 Y183.845 E18.28225
G1 X114.768 Y184.422 E18.46292
G1 X112.317 Y185.084 E18.64822
G1 X109.979 Y185.787 E18.82642
G1 X107.627 Y186.568 E19.00731
G1 X105.813 Y187.228 E19.1482
G1 X104.328 Y187.743 E19.26292
G1 X104.122 Y187.813 E19.27881
G1 X103.253 Y188.095 E19.34549
G1 X102.666 Y188.277 E19.39035
G1 X101.966 Y188.471 E19.44336
G1 X100.844 Y188.745 E19.52766
G1 X99.967 Y188.944 E19.5933
G1 X99.39 Y189.067 E19.63636
G1 X98.675 Y189.197 E19.68941
G1 X97.462 Y189.379 E19.77894
G1 X96.656 Y189.485 E19.83827
G1 X96.042 Y189.559 E19.88341
G1 X95.298 Y189.625 E19.93793
G1 X94.325 Y189.682 E20.00907
G1 X93.457 Y189.72 E20.07248
G1 X93.269 Y189.727 E20.08622
G1 X92.627 Y189.744 E20.13309
G1 X91.915 Y189.742 E20.18506
G1 X90.95 Y189.711 E20.25553
G1 X90.729 Y189.702 E20.27167
G1 X89.888 Y189.658 E20.33314
G1 X89.247 Y189.617 E20.38002
G1 X88.525 Y189.549 E20.43296
G1 X87.583 Y189.432 E20.50224
G1 X87.357 Y189.402 E20.51888
G1 X86.49 Y189.277 E20.58282
G1 X85.885 Y189.182 E20.62752
G1 X85.181 Y189.05 E20.6798
G1 X84.241 Y188.845 E20.75002
G1 X84.034 Y188.798 E20.76551
G1 X83.174 Y188.593 E20.83004
G1 X82.556 Y188.436 E20.87658
G1 X81.889 Y188.246 E20.9272
G1 X80.942 Y187.947 E20.99969
G1 X80.742 Y187.882 E21.01504
G1 X80.091 Y187.664 E21.06515
G1 X79.338 Y187.4 E21.12339
G1 X78.659 Y187.139 E21.17648
G1 X77.829 Y186.79 E21.2422
G1 X76.954 Y186.406 E21.31195
G1 X76.253 Y186.087 E21.36816
G1 X75.58 Y185.755 E21.42293
G1 X74.697 Y185.284 E21.49598
G1 X73.744 Y184.755 E21.57554
G1 X73.232 Y184.461 E21.61863
G1 X72.623 Y184.087 E21.67079
G1 X71.686 Y183.471 E21.75264
G1 X70.886 Y182.925 E21.82333
G1 X70.408 Y182.589 E21.86598
G1 X69.837 Y182.162 E21.91802
G1 X69.112 Y181.586 E21.98561
G1 X68.356 Y180.965 E22.05702
G1 X67.771 Y180.47 E22.11295
G1 X67.233 Y179.986 E22.16577
G1 X66.536 Y179.319 E22.23619
G1 X65.887 Y178.678 E22.30277
G1 X65.349 Y178.132 E22.35871
G1 X64.864 Y177.607 E22.41088
G1 X64.191 Y176.835 E22.48563
G1 X64.037 Y176.655 E22.50292
G1 X63.483 Y175.993 E22.56593
G1 X63.094 Y175.516 E22.61086
G1 X62.649 Y174.934 E22.66433
G1 X62.005 Y174.037 E22.74493
G1 X61.512 Y173.325 E22.80814
G1 X61.089 Y172.698 E22.86334
G1 X60.895 Y172.402 E22.88918
G1 X60.691 Y172.08 E22.917
G1 X59.277 Y169.918 E23.10555
G1 X57.854 Y167.869 E23.28764
G1 X56.401 Y165.9 E23.46625
G1 X54.864 Y163.937 E23.64822
G1 X53.255 Y161.994 E23.83235
G1 X51.629 Y160.144 E24.01213
G1 X50.266 Y158.668 E24.15877
G1 X50.172 Y158.563 E24.16905
G1 X49.292 Y157.457 E24.27221
G1 X48.903 Y156.905 E24.3215
G1 X48.678 Y156.574 E24.35072
G1 X48.506 Y156.312 E24.37359
G1 X47.999 Y155.467 E24.44552
G1 X47.501 Y154.445 E24.5285
G1 X47.233 Y153.822 E24.578
G1 X47.09 Y153.472 E24.6056
G1 X46.988 Y153.213 E24.62591
G1 X46.664 Y152.282 E24.69786
G1 X46.387 Y151.187 E24.7803
G1 X46.25 Y150.515 E24.83036
G1 X46.174 Y150.105 E24.8608
G1 X46.125 Y149.814 E24.88234
G1 X46.001 Y148.836 E24.95429
G1 X45.956 Y147.718 E25.03596
G1 X45.96 Y147.091 E25.08173
G1 X45.969 Y146.693 E25.11078
G1 X45.982 Y146.361 E25.13503
G1 X46.061 Y145.379 E25.20694
G1 X46.241 Y144.299 E25.28686
G1 X46.374 Y143.676 E25.33335
G1 X46.473 Y143.248 E25.36542
G1 X46.553 Y142.93 E25.38935
G1 X46.832 Y141.985 E25.46127
G1 X47.231 Y140.966 E25.54114
G1 X47.507 Y140.344 E25.59081
G1 X47.676 Y139.978 E25.62024
G1 X47.797 Y139.728 E25.64051
G1 X48.262 Y138.859 E25.71245
G1 X48.878 Y137.916 E25.79466
G1 X49.286 Y137.35 E25.84559
G1 X49.532 Y137.02 E25.87563
G1 X49.696 Y136.808 E25.89519
G1 X50.331 Y136.053 E25.9672
G1 X51.115 Y135.268 E26.04818
G1 X51.62 Y134.807 E26.09809
G1 X51.93 Y134.534 E26.12823
G1 X52.174 Y134.326 E26.15164
G1 X52.697 Y133.905 E26.20064
G1 X53.146 Y133.563 E26.24184
G1 X55.221 Y131.938 E26.43421
G1 X57.135 Y130.349 E26.61578
G1 X58.983 Y128.725 E26.79534
G1 X60.807 Y127.029 E26.97714
G1 X62.578 Y125.285 E27.15856
G1 X64.295 Y123.497 E27.33949
G1 X64.868 Y122.865 E27.40176
G1 X65.539 Y122.144 E27.47365
G1 X65.8 Y121.872 E27.50116
G1 X66.504 Y121.161 E27.57419
G1 X67.131 Y120.548 E27.63819
G1 X67.726 Y119.981 E27.69818
G1 X68.268 Y119.495 E27.75132
G1 X68.98 Y118.895 E27.81928
G1 X69.149 Y118.755 E27.8353
G1 X69.809 Y118.22 E27.89731
G1 X70.304 Y117.828 E27.94339
G1 X70.905 Y117.382 E27.99802
G1 X71.669 Y116.85 E28.06597
G1 X72.396 Y116.36 E28.12996
G1 X73.09 Y115.905 E28.19053
G0 F6000 X73.427 Y116.421
G1 F300 X74.023 Y116.057 E28.24151
G1 X74.959 Y115.525 E28.32009
G1 X75.729 Y115.104 E28.38414
G1 X76.3 Y114.801 E28.43132
G1 X76.926 Y114.493 E28.48225
G1 X77.778 Y114.105 E28.55058
G1 X78.566 Y113.76 E28.61336
G1 X79.317 Y113.444 E28.67283
G1 X79.957 Y113.198 E28.72288
G1 X81.045 Y112.818 E28.807
G1 X81.892 Y112.539 E28.87209
G1 X82.477 Y112.355 E28.91685
G1 X83.109 Y112.175 E28.96481
G1 X83.947 Y111.963 E29.0279
G1 X84.879 Y111.744 E29.09778
G1 X85.649 Y111.574 E29.15534
G1 X86.341 Y111.444 E29.20673
G1 X87.461 Y111.27 E29.28946
G1 X88.318 Y111.151 E29.35261
G1 X88.958 Y111.071 E29.39969
G1 X89.646 Y111.006 E29.45013
G1 X90.687 Y110.94 E29.52626
G1 X91.435 Y110.903 E29.58092
G1 X92.242 Y110.875 E29.63986
G1 X92.924 Y110.872 E29.68964
G1 X94.054 Y110.902 E29.77215
G1 X94.902 Y110.939 E29.8341
G1 X95.565 Y110.977 E29.88257
G1 X96.237 Y111.035 E29.9318
G1 X97.132 Y111.139 E29.99757
G1 X98.059 Y111.262 E30.06582
G1 X98.844 Y111.377 E30.12373
G1 X99.507 Y111.496 E30.1729
G1 X100.573 Y111.72 E30.2524
G1 X101.512 Y111.935 E30.32271
G1 X102.073 Y112.072 E30.36486
G1 X102.699 Y112.244 E30.41225
G1 X103.621 Y112.525 E30.4826
G1 X103.83 Y112.591 E30.4986
G1 X104.587 Y112.839 E30.55674
G1 X105.235 Y113.06 E30.60671
G1 X105.878 Y113.301 E30.65683
G1 X106.918 Y113.727 E30.73886
G1 X107.528 Y113.988 E30.78729
G1 X108.273 Y114.32 E30.84682
G1 X108.879 Y114.612 E30.89592
G1 X109.778 Y115.078 E30.96983
G1 X110.506 Y115.47 E31.03018
G1 X111.785 Y116.185 E31.13713
G1 X111.937 Y116.271 E31.14988
G1 X113.269 Y117.044 E31.26229
G1 X115.473 Y118.239 E31.44528
G1 X117.713 Y119.374 E31.62857
G1 X119.984 Y120.444 E31.8118
G1 X122.252 Y121.436 E31.99248
G1 X124.625 Y122.396 E32.17932
G1 X126.916 Y123.244 E32.35763
G1 X129.287 Y124.049 E32.54039
G1 X131.677 Y124.786 E32.72294
G1 X134.124 Y125.465 E32.90829
G1 X136.526 Y126.059 E33.0889
G1 X138.991 Y126.597 E33.27305
G1 X141.433 Y127.054 E33.45438
G1 X143.899 Y127.446 E33.63664
G1 X146.384 Y127.768 E33.81953
G1 X148.862 Y128.02 E34.00133
G1 X151.365 Y128.202 E34.18451
G1 X153.866 Y128.314 E34.36724
G1 X156.658 Y128.356 E34.57104
G1 X174.25 Y128.357 E35.85507
G1 X174.948 Y128.367 E35.90603
G1 X175.914 Y128.422 E35.97665
G1 X176.178 Y128.448 E35.99601
G1 X176.754 Y128.519 E36.03837
G1 X177.242 Y128.592 E36.07438
G1 X178.186 Y128.774 E36.14456
G1 X179.111 Y129.033 E36.21467
G1 X179.743 Y129.259 E36.26366
G1 X180.218 Y129.445 E36.30089
G1 X180.57 Y129.59 E36.32868
G1 X180.842 Y129.707 E36.35029
G1 X181.14 Y129.84 E36.37411
G1 X182.702 Y130.566 E36.49983
G1 X185.062 Y131.613 E36.68828
G1 X186.787 Y132.326 E36.82451
G1 X188.082 Y132.847 E36.9264
G1 X188.958 Y133.242 E36.99654
G1 X189.797 Y133.709 E37.06662
G1 X190.595 Y134.244 E37.13675
G1 X191.627 Y135.097 E37.23447
G1 X191.999 Y135.447 E37.27175
G1 X192.273 Y135.716 E37.29978
G1 X195.583 Y139.027 E37.6415
G1 X196.041 Y139.499 E37.6895
G1 X196.681 Y140.215 E37.75959
G1 X197.258 Y140.983 E37.82971
G1 X197.771 Y141.796 E37.89987
G1 X198.213 Y142.648 E37.96993
G1 X198.583 Y143.535 E38.04008
G1 X198.879 Y144.449 E38.1102
G1 X199.097 Y145.384 E38.18028
G1 X199.229 Y146.268 E38.24552
G1 X199.247 Y146.431 E38.25749
G1 X199.316 Y147.557 E38.33983
G1 X199.322 Y148.107 E38.37997
G1 X199.321 Y153.018 E38.73842
G1 X199.31 Y153.725 E38.79003
G1 X199.255 Y154.684 E38.86015
G1 X199.12 Y155.635 E38.93025
G1 X198.907 Y156.571 E39.00032
G1 X198.625 Y157.464 E39.06867
G1 X198.474 Y157.875 E39.10063
G1 X197.662 Y159.982 E39.26544
G1 X196.842 Y162.301 E39.44498
G1 X196.071 Y164.699 E39.62883
G1 X195.365 Y167.124 E39.81318
G1 X194.742 Y169.518 E39.99373
G1 X194.171 Y171.987 E40.1787
G1 X193.792 Y173.865 E40.31854
G1 X193.564 Y174.798 E40.38864
G1 X193.087 Y176.131 E40.49198
G1 X193.018 Y176.292 E40.50476
G1 X192.603 Y177.158 E40.57485
G1 X192.118 Y177.987 E40.64496
G1 X191.565 Y178.773 E40.7151
G1 X190.949 Y179.51 E40.78521
G1 X190.273 Y180.193 E40.85535
G1 X189.544 Y180.818 E40.92544
G1 X188.764 Y181.38 E40.99561
G1 X187.941 Y181.875 E41.06571
G1 X187.08 Y182.299 E41.13576
G1 X186.186 Y182.651 E41.20589
G1 X185.266 Y182.927 E41.27599
G1 X184.648 Y183.067 E41.32224
G1 X183.576 Y183.278 E41.40199
G1 X182.816 Y183.417 E41.45838
G1 X180.372 Y183.937 E41.64076
G1 X177.881 Y184.54 E41.82783
G1 X176.641 Y184.869 E41.92147
G1 X175.938 Y185.061 E41.97466
G1 X175.571 Y185.155 E42.00231
G1 X174.888 Y185.318 E42.05356
G1 X174.49 Y185.405 E42.0833
G1 X174.247 Y185.454 E42.10139
G1 X173.298 Y185.605 E42.17153
G1 X172.34 Y185.676 E42.24165
G1 X171.679 Y185.678 E42.28989
G1 X171.157 Y185.665 E42.328
G1 X170.742 Y185.648 E42.35832
G1 X170.463 Y185.631 E42.37872
G1 X169.508 Y185.532 E42.4488
G1 X169.013 Y185.458 E42.48533
G1 X168.714 Y185.408 E42.50746
G1 X151.852 Y182.435 E43.75719
G1 X149.355 Y182.032 E43.9418
G1 X146.875 Y181.702 E44.12441
G1 X144.381 Y181.442 E44.30743
G1 X141.872 Y181.252 E44.49109
G1 X139.397 Y181.135 E44.67194
G1 X136.865 Y181.087 E44.85678
G1 X134.404 Y181.11 E45.03641
G1 X131.877 Y181.205 E45.22099
G1 X129.391 Y181.369 E45.40283
G1 X126.897 Y181.604 E45.58568
G1 X124.405 Y181.911 E45.76894
G1 X121.926 Y182.288 E45.95196
G1 X119.484 Y182.73 E46.1331
G1 X117.045 Y183.243 E46.31501
G1 X114.604 Y183.827 E46.49821
G1 X112.196 Y184.479 E46.6803
G1 X109.782 Y185.204 E46.86427
G1 X107.408 Y185.992 E47.04684
G1 X105.603 Y186.649 E47.18704
G1 X104.127 Y187.161 E47.30107
G1 X103.931 Y187.227 E47.31617
G1 X103.232 Y187.455 E47.36983
G1 X102.483 Y187.688 E47.42709
G1 X101.819 Y187.873 E47.4774
G1 X100.891 Y188.101 E47.54714
G1 X100.002 Y188.305 E47.61372
G1 X99.262 Y188.464 E47.66896
G1 X98.583 Y188.588 E47.71934
G1 X97.592 Y188.738 E47.7925
G1 X97.381 Y188.768 E47.80806
G1 X96.582 Y188.873 E47.86688
G1 X95.968 Y188.947 E47.91201
G1 X95.262 Y189.01 E47.96375
