; HEADER_BLOCK_START
; generated by OrcaSlicer 1.8.0-beta1 on 2023-11-02 at 12:13:55
; total layer number: 7
; HEADER_BLOCK_END


;
;
; external perimeters extrusion width = 0.40mm
; perimeters extrusion width = 0.45mm
; infill extrusion width = 0.45mm
; solid infill extrusion width = 0.40mm
; top infill extrusion width = 0.40mm
; first layer extrusion width = 0.50mm

; external perimeters extrusion width = 0.40mm
; perimeters extrusion width = 0.45mm
; infill extrusion width = 0.45mm
; solid infill extrusion width = 0.40mm
; top infill extrusion width = 0.40mm
; first layer extrusion width = 0.50mm

; external perimeters extrusion width = 0.40mm
; perimeters extrusion width = 0.45mm
; infill extrusion width = 0.45mm
; solid infill extrusion width = 0.40mm
; top infill extrusion width = 0.40mm
; first layer extrusion width = 0.50mm

; external perimeters extrusion width = 0.40mm
; perimeters extrusion width = 0.45mm
; infill extrusion width = 0.45mm
; solid infill extrusion width = 0.48mm
; top infill extrusion width = 0.48mm
; first layer extrusion width = 0.50mm

; external perimeters extrusion width = 0.40mm
; perimeters extrusion width = 0.45mm
; infill extrusion width = 0.45mm
; solid infill extrusion width = 0.48mm
; top infill extrusion width = 0.48mm
; first layer extrusion width = 0.50mm

; external perimeters extrusion width = 0.40mm
; perimeters extrusion width = 0.45mm
; infill extrusion width = 0.45mm
; solid infill extrusion width = 0.48mm
; top infill extrusion width = 0.48mm
; first layer extrusion width = 0.50mm

; external perimeters extrusion width = 0.40mm
; perimeters extrusion width = 0.45mm
; infill extrusion width = 0.45mm
; solid infill extrusion width = 0.48mm
; top infill extrusion width = 0.48mm
; first layer extrusion width = 0.50mm

; external perimeters extrusion width = 0.40mm
; perimeters extrusion width = 0.45mm
; infill extrusion width = 0.45mm
; solid infill extrusion width = 0.48mm
; top infill extrusion width = 0.48mm
; first layer extrusion width = 0.50mm

; external perimeters extrusion width = 0.40mm
; perimeters extrusion width = 0.45mm
; infill extrusion width = 0.45mm
; solid infill extrusion width = 0.48mm
; top infill extrusion width = 0.48mm
; first layer extrusion width = 0.50mm

; EXECUTABLE_BLOCK_START
M73 P0 R29
M201 X20000 Y20000 Z5000 E20000
M203 X500 Y500 Z16 E100
M204 P20000 R20000 T20000
M205 X20.00 Y20.00 Z8.00 E20.00 ; sets the jerk limits, mm/sec
;TYPE:Custom
G90 ; use absolute coordinates
M83 ; extruder relative mode
M140 S100 ; set bed temp
M190 S100 ; wait for bed temp
M104 S260 ; set extruder temp
M109 S260 ; wait for extruder temp
G28                                        ; move X/Y/Z to min endstops
G1 Z0.28                                   ; lift nozzle a bit 
G92 E0 
G1 Y3 F2400                                    ; zero the extruded length 
G1 X180  E40 F500                       ; Extrude 25mm of filament in a 5cm line. 
G92 E0                                     ; zero the extruded length again 
G1 E-0.2 F3000                                ; Retract a little 
M73 P1 R28
G1 X181 F4000                              ; Quickly wipe away from the filament line
M117
G90
G21
M83 ; use relative distances for extrusion
; Filament gcode
M106 S0
;LAYER_CHANGE
;Z:0.2
;HEIGHT:0.2
;BEFORE_LAYER_CHANGE
;0.2
G92 E0

G1 E-2.5 F4800
;AFTER_LAYER_CHANGE
;0.2
;_SET_FAN_SPEED_CHANGING_LAYER
M204 S5000
; printing object flowrate_m20 id:0 copy 0
G1 X64.141 Y87.835 F18000
G1 Z-1.43
G1 E2.5 F4800
;TYPE:Inner wall
;WIDTH:0.499999
G1 F9845.125
G1 X64.116 Y87.65 E.00568
G1 X63.969 Y87.339 E.01046
G1 X63.707 Y87.064 E.01153
G1 X63.392 Y86.898 E.01084
G1 X63.021 Y86.836 E.01142
G1 X54.164 Y86.836 E.26931
G1 X54.164 Y69.164 E.53731
G1 X91.836 Y69.164 E1.14541
G1 X91.836 Y78 E.26865
G1 X91.836 Y86.836 E.26865
G1 X83 Y86.836 E.26865
G1 X82.789 Y86.852 E.00642
G1 X82.441 Y86.97 E.0112
G1 X82.113 Y87.233 E.01277
G1 X81.909 Y87.577 E.01218
G1 X81.836 Y87.979 E.0124
G1 X81.836 Y96.836 E.26931
G1 X64.164 Y96.836 E.53731
G1 X64.164 Y88 E.26865
G1 X64.147 Y87.875 E.00384
G1 X63.695 Y87.909 F18000
G1 F9845.125
G1 X63.678 Y87.782 E.0039
G1 X63.541 Y87.531 E.00869
G1 X63.295 Y87.35 E.00928
G1 X63.021 Y87.293 E.0085
G1 X53.707 Y87.293 E.2832
G1 X53.707 Y68.707 E.5651
G1 X92.293 Y68.707 E1.1732
G1 X92.293 Y78 E.28255
G1 X92.293 Y87.293 E.28255
G1 X83 Y87.293 E.28255
G1 X82.81 Y87.314 E.00582
G1 X82.528 Y87.462 E.00968
G1 X82.353 Y87.697 E.0089
G1 X82.293 Y87.979 E.00875
G1 X82.293 Y97.293 E.2832
G1 X63.707 Y97.293 E.5651
G1 X63.707 Y88 E.28255
G1 X63.7 Y87.948 E.00159
G1 X63.25 Y87.979 F18000
;TYPE:Outer wall
G1 F9845.125
G1 X63.184 Y87.818 E.00529
G1 X63.021 Y87.75 E.00535
G1 X53.25 Y87.75 E.2971
G1 X53.25 Y68.25 E.5929
G1 X92.75 Y68.25 E1.201
G1 X92.75 Y78 E.29645
G1 X92.75 Y87.75 E.29645
G1 X82.979 Y87.75 E.2971
G1 X82.816 Y87.818 E.00535
G1 X82.75 Y87.979 E.00529
G1 X82.75 Y97.75 E.2971
G1 X63.25 Y97.75 E.5929
G1 X63.25 Y88.019 E.29589
G1 E-2.5 F4800
G1 X91.699 Y70.236 F18000
G1 E2.5 F4800
;TYPE:Bottom surface
;WIDTH:0.504948
G1 F6000
G1 X90.97 Y69.507 E.03168
G1 X90.317 Y69.507 E.02008
G1 X91.493 Y70.683 E.05114
G1 X91.493 Y71.337 E.02008
G1 X89.663 Y69.507 E.07954
G1 X89.01 Y69.507 E.02008
G1 X91.493 Y71.99 E.10794
G1 X91.493 Y72.644 E.02008
G1 X88.356 Y69.507 E.13634
G1 X87.703 Y69.507 E.02008
G1 X91.493 Y73.297 E.16474
G1 X91.493 Y73.951 E.02008
G1 X87.049 Y69.507 E.19314
G1 X86.396 Y69.507 E.02008
G1 X91.493 Y74.604 E.22154
G1 X91.493 Y75.257 E.02008
G1 X85.743 Y69.507 E.24994
G1 X85.089 Y69.507 E.02008
G1 X91.493 Y75.911 E.27834
G1 X91.493 Y76.564 E.02008
G1 X84.436 Y69.507 E.30674
G1 X83.782 Y69.507 E.02008
G1 X91.493 Y77.218 E.33514
G1 X91.493 Y77.871 E.02008
G1 X83.129 Y69.507 E.36354
G1 X82.476 Y69.507 E.02008
G1 X91.493 Y78.524 E.39194
G1 X91.493 Y79.178 E.02008
G1 X81.822 Y69.507 E.42034
G1 X81.169 Y69.507 E.02008
G1 X91.493 Y79.831 E.44874
G1 X91.493 Y80.485 E.02008
G1 X80.515 Y69.507 E.47714
G1 X79.862 Y69.507 E.02008
G1 X91.493 Y81.138 E.50554
G1 X91.493 Y81.791 E.02008
G1 X79.209 Y69.507 E.53394
G1 X78.555 Y69.507 E.02008
G1 X91.493 Y82.445 E.56234
G1 X91.493 Y83.098 E.02008
G1 X77.902 Y69.507 E.59074
G1 X77.248 Y69.507 E.02008
G1 X91.493 Y83.752 E.61914
G1 X91.493 Y84.405 E.02008
G1 X76.595 Y69.507 E.64754
G1 X75.942 Y69.507 E.02008
G1 X91.493 Y85.058 E.67594
G1 X91.493 Y85.712 E.02008
G1 X75.288 Y69.507 E.70434
G1 X74.635 Y69.507 E.02008
G1 X91.493 Y86.365 E.73274
G1 X91.493 Y86.493 E.00393
G1 X90.968 Y86.493 E.01614
G1 X73.981 Y69.507 E.73831
G1 X73.328 Y69.507 E.02008
G1 X90.315 Y86.494 E.73833
G1 X89.662 Y86.494 E.02007
G1 X72.675 Y69.507 E.73834
G1 X72.021 Y69.507 E.02008
G1 X89.009 Y86.494 E.73836
G1 X88.356 Y86.495 E.02007
G1 X71.368 Y69.507 E.73837
G1 X70.714 Y69.507 E.02008
G1 X87.703 Y86.495 E.73839
G1 X87.049 Y86.496 E.02007
G1 X70.061 Y69.507 E.7384
G1 X69.408 Y69.507 E.02008
G1 X86.396 Y86.496 E.73842
G1 X85.743 Y86.496 E.02007
G1 X68.754 Y69.507 E.73843
G1 X68.101 Y69.507 E.02008
G1 X85.09 Y86.497 E.73845
G1 X84.437 Y86.497 E.02007
G1 X67.447 Y69.507 E.73846
G1 X66.794 Y69.507 E.02008
G1 X83.784 Y86.497 E.73848
G1 X83.131 Y86.498 E.02007
G1 X66.14 Y69.507 E.7385
G1 X65.487 Y69.507 E.02008
G1 X82.543 Y86.562 E.74131
G1 X82.385 Y86.616 E.00511
G1 X82.178 Y86.727 E.00722
G1 X82.109 Y86.782 E.00273
G1 X64.834 Y69.507 E.75087
G1 X64.18 Y69.507 E.02008
G1 X81.78 Y87.107 E.76497
G1 X81.623 Y87.37 E.00941
G1 X81.565 Y87.545 E.00568
G1 X63.527 Y69.507 E.78401
G1 X62.873 Y69.507 E.02008
G1 X81.497 Y88.13 E.80946
G1 X81.496 Y88.783 E.02007
G1 X62.22 Y69.507 E.83784
G1 X61.567 Y69.507 E.02008
G1 X81.496 Y89.437 E.86623
G1 X81.496 Y90.09 E.02007
M73 P2 R28
G1 X60.913 Y69.507 E.89462
G1 X60.26 Y69.507 E.02008
G1 X81.496 Y90.743 E.92301
G1 X81.495 Y91.396 E.02007
G1 X59.606 Y69.507 E.9514
G1 X58.953 Y69.507 E.02008
G1 X81.495 Y92.049 E.97978
G1 X81.495 Y92.702 E.02007
G1 X58.3 Y69.507 E1.00817
G1 X57.646 Y69.507 E.02008
G1 X81.494 Y93.355 E1.03656
G1 X81.494 Y94.008 E.02007
G1 X56.993 Y69.507 E1.06495
G1 X56.339 Y69.507 E.02008
G1 X81.494 Y94.661 E1.09333
G1 X81.494 Y95.315 E.02007
G1 X55.686 Y69.507 E1.12172
G1 X55.033 Y69.507 E.02008
G1 X81.493 Y95.968 E1.15011
G1 X81.493 Y96.493 E.01615
G1 X81.365 Y96.493 E.00393
G1 X54.507 Y69.635 E1.16739
G1 X54.507 Y70.288 E.02008
G1 X80.712 Y96.493 E1.13899
G1 X80.058 Y96.493 E.02008
G1 X54.507 Y70.942 E1.11059
G1 X54.507 Y71.595 E.02008
G1 X79.405 Y96.493 E1.08219
G1 X78.752 Y96.493 E.02008
G1 X54.507 Y72.248 E1.05379
G1 X54.507 Y72.902 E.02008
G1 X78.098 Y96.493 E1.02539
G1 X77.445 Y96.493 E.02008
G1 X54.507 Y73.555 E.99699
G1 X54.507 Y74.209 E.02008
G1 X76.791 Y96.493 E.96859
G1 X76.138 Y96.493 E.02008
G1 X54.507 Y74.862 E.94019
G1 X54.507 Y75.515 E.02008
G1 X75.485 Y96.493 E.91179
G1 X74.831 Y96.493 E.02008
G1 X54.507 Y76.169 E.88339
G1 X54.507 Y76.822 E.02008
G1 X74.178 Y96.493 E.85499
G1 X73.524 Y96.493 E.02008
G1 X54.507 Y77.476 E.82659
G1 X54.507 Y78.129 E.02008
G1 X62.876 Y86.498 E.36374
G1 X62.222 Y86.497 E.02009
G1 X54.507 Y78.782 E.33532
G1 X54.507 Y79.436 E.02008
G1 X61.568 Y86.497 E.30691
G1 X60.914 Y86.497 E.02009
G1 X54.507 Y80.089 E.27849
G1 X54.507 Y80.743 E.02008
G1 X60.261 Y86.496 E.25008
G1 X59.607 Y86.496 E.02009
G1 X54.507 Y81.396 E.22166
G1 X54.507 Y82.049 E.02008
G1 X58.953 Y86.496 E.19325
G1 X58.299 Y86.495 E.02009
G1 X54.507 Y82.703 E.16483
G1 X54.507 Y83.356 E.02008
G1 X57.645 Y86.495 E.13642
G1 X56.992 Y86.494 E.02009
G1 X54.507 Y84.01 E.108
G1 X54.507 Y84.663 E.02008
G1 X56.338 Y86.494 E.07958
G1 X55.684 Y86.494 E.02009
G1 X54.507 Y85.316 E.05117
G1 X54.507 Y85.97 E.02008
G1 X55.236 Y86.699 E.0317
G1 E-2.5 F4800
G1 X64.297 Y87.92 F18000
G1 E2.5 F4800
G1 F6000
G1 X72.871 Y96.493 E.37265
G1 X72.218 Y96.493 E.02008
G1 X64.504 Y88.779 E.33529
G1 X64.504 Y89.433 E.02009
G1 X71.564 Y96.493 E.30688
G1 X70.911 Y96.493 E.02008
G1 X64.504 Y90.086 E.27846
G1 X64.504 Y90.74 E.02009
G1 X70.257 Y96.493 E.25005
G1 X69.604 Y96.493 E.02008
G1 X64.505 Y91.394 E.22164
G1 X64.505 Y92.047 E.02009
G1 X68.951 Y96.493 E.19323
G1 X68.297 Y96.493 E.02008
G1 X64.505 Y92.701 E.16481
G1 X64.506 Y93.355 E.02009
G1 X67.644 Y96.493 E.1364
G1 X66.99 Y96.493 E.02008
G1 X64.506 Y94.009 E.10799
G1 X64.506 Y94.662 E.02009
G1 X66.337 Y96.493 E.07958
G1 X65.684 Y96.493 E.02008
G1 X64.506 Y95.316 E.05116
G1 X64.507 Y95.97 E.02009
G1 X65.236 Y96.699 E.03169
; stop printing object flowrate_m20 id:0 copy 0
; printing object flowrate_5 id:1898529641472 copy 0
G1 E-1.75 F4800
;WIPE_START
G1 F6000
G1 X64.529 Y95.992 E-.75
;WIPE_END
G1 X64.141 Y119.835 F18000
G1 E2.5 F4800
;TYPE:Inner wall
;WIDTH:0.499999
G1 F7501.048
G1 X64.116 Y119.65 E.00746
G1 X63.969 Y119.339 E.01373
G1 X63.707 Y119.064 E.01514
G1 X63.392 Y118.898 E.01422
G1 X63.021 Y118.836 E.01499
G1 X54.164 Y118.836 E.35346
G1 X54.164 Y101.164 E.70522
G1 X78.821 Y101.164 E.98396
G1 X91.836 Y101.164 E.51939
G1 X91.836 Y118.836 E.70522
G1 X83 Y118.836 E.35261
G1 X82.789 Y118.852 E.00843
G1 X82.441 Y118.97 E.0147
G1 X82.113 Y119.233 E.01676
G1 X81.909 Y119.577 E.01599
G1 X81.836 Y119.979 E.01627
G1 X81.836 Y128.836 E.35346
G1 X64.164 Y128.836 E.70522
G1 X64.164 Y120 E.35261
G1 X64.147 Y119.875 E.00504
G1 X63.695 Y119.909 F18000
G1 F7501.048
G1 X63.678 Y119.782 E.00511
G1 X63.541 Y119.531 E.0114
G1 X63.295 Y119.35 E.01217
G1 X63.021 Y119.293 E.01116
G1 X53.707 Y119.293 E.37171
G1 X53.707 Y100.707 E.7417
G1 X78.821 Y100.707 E1.0022
G1 X92.293 Y100.707 E.53763
G1 X92.293 Y119.293 E.7417
G1 X83 Y119.293 E.37085
G1 X82.81 Y119.314 E.00764
G1 X82.528 Y119.462 E.01271
G1 X82.353 Y119.697 E.01169
G1 X82.293 Y119.979 E.01148
G1 X82.293 Y129.293 E.37171
G1 X63.707 Y129.293 E.7417
G1 X63.707 Y120 E.37085
G1 X63.7 Y119.948 E.00209
G1 X63.25 Y119.979 F18000
;TYPE:Outer wall
G1 F7501.048
G1 X63.184 Y119.818 E.00695
G1 X63.021 Y119.75 E.00702
G1 X53.25 Y119.75 E.38995
G1 X53.25 Y100.25 E.77818
G1 X78.821 Y100.25 E1.02044
G1 X92.75 Y100.25 E.55587
G1 X92.75 Y119.75 E.77818
G1 X82.979 Y119.75 E.38995
G1 X82.816 Y119.818 E.00702
G1 X82.75 Y119.979 E.00695
G1 X82.75 Y129.75 E.38995
G1 X63.25 Y129.75 E.77818
G1 X63.25 Y120.019 E.38835
G1 E-2.5 F4800
G1 X91.699 Y102.236 F18000
G1 E2.5 F4800
;TYPE:Bottom surface
;WIDTH:0.504948
G1 F6000
G1 X90.97 Y101.507 E.04158
G1 X90.317 Y101.507 E.02636
G1 X91.493 Y102.683 E.06712
G1 X91.493 Y103.337 E.02636
G1 X89.663 Y101.507 E.10439
G1 X89.01 Y101.507 E.02636
G1 X91.493 Y103.99 E.14167
G1 X91.493 Y104.644 E.02636
G1 X88.356 Y101.507 E.17894
G1 X87.703 Y101.507 E.02636
G1 X91.493 Y105.297 E.21622
G1 X91.493 Y105.951 E.02636
G1 X87.049 Y101.507 E.25349
G1 X86.396 Y101.507 E.02636
G1 X91.493 Y106.604 E.29077
G1 X91.493 Y107.257 E.02636
G1 X85.743 Y101.507 E.32804
G1 X85.089 Y101.507 E.02636
G1 X91.493 Y107.911 E.36532
G1 X91.493 Y108.564 E.02636
G1 X84.436 Y101.507 E.40259
G1 X83.782 Y101.507 E.02636
G1 X91.493 Y109.218 E.43987
G1 X91.493 Y109.871 E.02636
G1 X83.129 Y101.507 E.47714
G1 X82.476 Y101.507 E.02636
G1 X91.493 Y110.524 E.51442
G1 X91.493 Y111.178 E.02636
G1 X81.822 Y101.507 E.55169
G1 X81.169 Y101.507 E.02636
G1 X91.493 Y111.831 E.58897
G1 X91.493 Y112.485 E.02636
G1 X80.515 Y101.507 E.62624
G1 X79.862 Y101.507 E.02636
G1 X91.493 Y113.138 E.66352
G1 X91.493 Y113.791 E.02636
G1 X79.209 Y101.507 E.7008
G1 X78.555 Y101.507 E.02636
G1 X91.493 Y114.445 E.73807
G1 X91.493 Y115.098 E.02636
G1 X77.902 Y101.507 E.77535
G1 X77.248 Y101.507 E.02636
G1 X91.493 Y115.752 E.81262
G1 X91.493 Y116.405 E.02636
M73 P3 R28
G1 X76.595 Y101.507 E.8499
G1 X75.942 Y101.507 E.02636
G1 X91.493 Y117.058 E.88717
G1 X91.493 Y117.712 E.02636
G1 X75.288 Y101.507 E.92445
G1 X74.635 Y101.507 E.02636
G1 X91.493 Y118.365 E.96172
G1 X91.493 Y118.493 E.00516
G1 X90.968 Y118.493 E.02119
G1 X73.981 Y101.507 E.96903
G1 X73.328 Y101.507 E.02636
G1 X90.315 Y118.494 E.96905
G1 X89.662 Y118.494 E.02634
G1 X72.675 Y101.507 E.96907
G1 X72.021 Y101.507 E.02636
G1 X89.009 Y118.494 E.96909
G1 X88.356 Y118.495 E.02634
G1 X71.368 Y101.507 E.96911
G1 X70.714 Y101.507 E.02636
G1 X87.703 Y118.495 E.96913
G1 X87.049 Y118.496 E.02634
G1 X70.061 Y101.507 E.96915
G1 X69.408 Y101.507 E.02636
G1 X86.396 Y118.496 E.96917
G1 X85.743 Y118.496 E.02634
G1 X68.754 Y101.507 E.96919
G1 X68.101 Y101.507 E.02636
G1 X85.09 Y118.497 E.96921
G1 X84.437 Y118.497 E.02634
G1 X67.447 Y101.507 E.96924
G1 X66.794 Y101.507 E.02636
G1 X83.784 Y118.497 E.96926
G1 X83.131 Y118.498 E.02634
G1 X66.14 Y101.507 E.96928
G1 X65.487 Y101.507 E.02636
G1 X82.543 Y118.562 E.97297
G1 X82.385 Y118.616 E.0067
G1 X82.178 Y118.727 E.00947
G1 X82.109 Y118.782 E.00358
G1 X64.834 Y101.507 E.98551
G1 X64.18 Y101.507 E.02636
G1 X81.78 Y119.107 E1.00402
G1 X81.623 Y119.37 E.01235
G1 X81.565 Y119.545 E.00745
G1 X63.527 Y101.507 E1.02901
G1 X62.873 Y101.507 E.02636
G1 X81.497 Y120.13 E1.06241
G1 X81.496 Y120.783 E.02635
G1 X62.22 Y101.507 E1.09967
G1 X61.567 Y101.507 E.02636
G1 X81.496 Y121.437 E1.13693
G1 X81.496 Y122.09 E.02635
G1 X60.913 Y101.507 E1.17419
G1 X60.26 Y101.507 E.02636
G1 X81.496 Y122.743 E1.21145
G1 X81.495 Y123.396 E.02635
G1 X59.606 Y101.507 E1.24871
G1 X58.953 Y101.507 E.02636
G1 X81.495 Y124.049 E1.28597
G1 X81.495 Y124.702 E.02635
G1 X58.3 Y101.507 E1.32322
G1 X57.646 Y101.507 E.02636
G1 X81.494 Y125.355 E1.36048
G1 X81.494 Y126.008 E.02635
G1 X56.993 Y101.507 E1.39774
G1 X56.339 Y101.507 E.02636
G1 X81.494 Y126.661 E1.435
G1 X81.494 Y127.315 E.02635
G1 X55.686 Y101.507 E1.47226
G1 X55.033 Y101.507 E.02636
G1 X81.493 Y127.968 E1.50952
G1 X81.493 Y128.493 E.02119
G1 X81.365 Y128.493 E.00516
G1 X54.507 Y101.635 E1.5322
G1 X54.507 Y102.288 E.02636
G1 X80.712 Y128.493 E1.49492
G1 X80.058 Y128.493 E.02636
G1 X54.507 Y102.942 E1.45765
G1 X54.507 Y103.595 E.02636
G1 X79.405 Y128.493 E1.42037
G1 X78.752 Y128.493 E.02636
G1 X54.507 Y104.248 E1.3831
G1 X54.507 Y104.902 E.02636
G1 X78.098 Y128.493 E1.34582
G1 X77.445 Y128.493 E.02636
G1 X54.507 Y105.555 E1.30855
G1 X54.507 Y106.209 E.02636
G1 X76.791 Y128.493 E1.27127
G1 X76.138 Y128.493 E.02636
G1 X54.507 Y106.862 E1.234
G1 X54.507 Y107.515 E.02636
G1 X75.485 Y128.493 E1.19672
