;FLAVOR:Marlin
;TIME:821
;Filament used: 1.26683m
;Layer height: 0.3
;Generated with Cura_SteamEngine 3.6.0
M104 S205
M105
M109 S205
M82 ;absolute extrusion mode
G21 ;metric values
G90 ;absolute positioning
M82 ;set extruder to absolute mode
M107 ;start with the fan off
G28 X0 Y0 ;move X/Y to min endstops
G28 Z0 ;move Z to min endstops
G1 Z15.0 F120 ;move the platform down 15mm
G92 E0 ;zero the extruded length
G1 F200 E3 ;extrude 3mm of feed stock
G92 E0 ;zero the extruded length again
G1 F120
M117 Printing...
G5
G92 E0
G1 F2400 E-6
;LAYER_COUNT:7
;LAYER:0
M106 S127.5
M204 S3000
M205 X10 Y10
;MESH:Surgical_Mask_Strap_Remix.stl
G0 F1800 X122.926 Y104.852 Z0.3
M204 S1000
M205 X8 Y8
;TYPE:WALL-INNER
G1 F2400 E0
G1 F1200 X123.154 Y104.79 E0.0165
G1 X123.373 Y104.702 E0.03299
G1 X123.578 Y104.586 E0.04944
G1 X123.767 Y104.445 E0.06591
G1 X123.936 Y104.281 E0.08236
G1 X124.084 Y104.095 E0.09896
G1 X124.206 Y103.893 E0.11544
G1 X124.3 Y103.68 E0.1317
G1 X124.368 Y103.453 E0.14826
G1 X124.406 Y103.218 E0.16488
G1 X124.414 Y102.984 E0.18124
G1 X124.391 Y102.75 E0.19766
G1 X124.341 Y102.523 E0.21389
G1 X121.402 Y94.29 E0.82448
G1 X121.29 Y94.077 E0.84129
G1 X121.157 Y93.887 E0.85749
G1 X120.998 Y93.71 E0.87411
G1 X120.817 Y93.557 E0.89066
G1 X120.621 Y93.43 E0.90697
G1 X120.408 Y93.326 E0.92353
G1 X120.185 Y93.252 E0.93994
G1 X119.953 Y93.206 E0.95646
G1 X119.742 Y93.193 E0.97122
G1 X90.742 Y93.196 E2.99677
G1 X90.617 Y93.188 E3.00552
G1 X90.382 Y93.203 E3.02196
G1 X90.15 Y93.249 E3.03848
G1 X89.928 Y93.323 E3.05483
G1 X89.714 Y93.427 E3.07145
G1 X89.517 Y93.554 E3.08782
G1 X89.336 Y93.707 E3.10437
G1 X89.177 Y93.883 E3.12094
G1 X89.042 Y94.077 E3.13745
G1 X88.932 Y94.29 E3.15419
G1 X85.988 Y102.524 E3.76496
G1 X85.939 Y102.73 E3.77975
G1 X85.916 Y102.964 E3.79617
G1 X85.923 Y103.24 E3.81546
G1 X85.958 Y103.458 E3.83088
G1 X86.025 Y103.684 E3.84734
G1 X86.12 Y103.9 E3.86382
G1 X86.242 Y104.1 E3.88019
G1 X86.389 Y104.286 E3.89674
G1 X86.559 Y104.451 E3.91329
G1 X86.749 Y104.593 E3.92986
G1 X86.955 Y104.708 E3.94634
G1 X87.175 Y104.798 E3.96294
G1 X87.402 Y104.856 E3.9793
G1 X87.635 Y104.887 E3.99572
G1 X87.873 Y104.887 E4.01235
G1 X87.972 Y104.874 E4.01932
G1 X122.402 Y104.874 E6.42413
G1 X122.455 Y104.881 E6.42786
G1 X122.688 Y104.881 E6.44414
G1 X122.926 Y104.852 E6.46088
M204 S3000
M205 X10 Y10
G0 F1800 X122.945 Y104.95
G0 X129.284 Y105.605
G0 X129.349 Y105.68
M204 S1000
M205 X8 Y8
G1 F1200 X129.345 Y105.992 E6.48268
G1 X129.344 Y105.993 E6.48277
G1 X129.33 Y106.786 E6.53817
G1 X129.304 Y106.987 E6.55233
G1 X129.282 Y107.074 E6.5586
G1 X129.225 Y107.218 E6.56941
G1 X129.16 Y107.315 E6.57757
G1 X129.085 Y107.394 E6.58518
G1 X128.95 Y107.486 E6.59659
G1 X128.761 Y107.568 E6.61098
G1 X128.518 Y107.631 E6.62851
G1 X128.377 Y107.656 E6.63851
G1 X128.222 Y107.674 E6.64941
G1 X127.83 Y107.69 E6.67681
G1 X81.951 Y107.685 E9.88129
G1 X81.623 Y107.655 E9.9043
G1 X81.485 Y107.632 E9.91407
G1 X81.231 Y107.564 E9.93243
G1 X81.05 Y107.486 E9.9462
G1 X80.915 Y107.394 E9.95761
G1 X80.84 Y107.315 E9.96522
G1 X80.771 Y107.211 E9.97394
G1 X80.719 Y107.08 E9.98378
G1 X80.696 Y106.987 E9.99047
G1 X80.67 Y106.786 E10.00463
G1 X80.656 Y105.993 E10.06003
G1 X80.655 Y105.992 E10.06012
G1 X80.651 Y105.68 E10.08192
G1 X80.341 Y105.72 E10.0956
G1 X63.669 Y107.91 E11.27008
G1 X63.392 Y107.946 E11.28959
G1 X63.428 Y108.223 E11.30219
G1 X63.79 Y110.965 E11.49537
G1 X65.201 Y110.965 E11.59393
G1 X65.741 Y111.109 E11.63296
G1 X66.226 Y111.39 E11.67211
G1 X66.626 Y111.79 E11.71162
G1 X66.907 Y112.276 E11.75083
G1 X67.052 Y112.817 E11.78995
G1 X67.052 Y113.381 E11.82935
G1 X66.907 Y113.923 E11.86854
G1 X66.626 Y114.408 E11.90769
G1 X66.226 Y114.808 E11.9472
G1 X65.741 Y115.089 E11.98635
G1 X65.201 Y115.233 E12.02538
G1 X64.634 Y115.233 E12.06499
G1 X64.093 Y115.089 E12.10409
G1 X63.608 Y114.808 E12.14324
G1 X63.208 Y114.408 E12.18275
G1 X62.927 Y113.922 E12.22196
G1 X62.769 Y113.332 E12.26462
G1 X62.082 Y108.118 E12.63195
G1 X51.771 Y109.472 E13.35832
G1 X51.494 Y109.508 E13.37783
G1 X51.53 Y109.785 E13.39043
G1 X51.892 Y112.531 E13.58389
G1 X53.302 Y112.531 E13.68237
G1 X53.84 Y112.675 E13.72127
G1 X54.331 Y112.958 E13.76085
G1 X54.727 Y113.354 E13.79997
G1 X55.01 Y113.845 E13.83955
G1 X55.154 Y114.383 E13.87845
G1 X55.154 Y114.947 E13.91785
G1 X55.009 Y115.487 E13.9569
G1 X54.727 Y115.977 E13.99639
G1 X54.329 Y116.374 E14.03565
G1 X53.843 Y116.655 E14.07486
G1 X53.302 Y116.8 E14.11398
G1 X52.737 Y116.8 E14.15345
G1 X52.196 Y116.655 E14.19257
G1 X51.71 Y116.374 E14.23178
G1 X51.312 Y115.977 E14.27104
G1 X51.03 Y115.487 E14.31053
G1 X50.871 Y114.896 E14.35328
G1 X50.184 Y109.68 E14.72074
G1 X39.596 Y111.07 E15.46662
G1 X39.993 Y114.097 E15.67986
G1 X41.404 Y114.097 E15.77841
G1 X41.945 Y114.242 E15.81753
G1 X42.431 Y114.523 E15.85674
G1 X42.831 Y114.923 E15.89625
G1 X43.112 Y115.408 E15.9354
G1 X43.256 Y115.948 E15.97444
G1 X43.256 Y116.514 E16.01397
G1 X43.112 Y117.056 E16.05314
G1 X42.831 Y117.541 E16.09229
G1 X42.433 Y117.939 E16.1316
G1 X41.942 Y118.222 E16.17119
G1 X41.404 Y118.366 E16.21009
G1 X40.84 Y118.366 E16.24948
G1 X40.297 Y118.221 E16.28874
G1 X39.813 Y117.941 E16.32779
G1 X39.413 Y117.541 E16.3673
G1 X39.132 Y117.055 E16.40651
G1 X38.973 Y116.464 E16.44926
G1 X38.286 Y111.242 E16.81714
G1 X27.973 Y112.596 E17.54365
G1 X27.696 Y112.632 E17.56316
G1 X27.732 Y112.909 E17.57576
G1 X28.097 Y115.664 E17.76987
G1 X29.508 Y115.664 E17.86842
G1 X30.048 Y115.808 E17.90746
G1 X30.533 Y116.089 E17.94661
G1 X30.933 Y116.489 E17.98612
G1 X31.214 Y116.974 E18.02527
G1 X31.359 Y117.516 E18.06446
G1 X31.359 Y118.08 E18.10385
G1 X31.214 Y118.622 E18.14304
G1 X30.933 Y119.107 E18.18219
G1 X30.533 Y119.507 E18.2217
G1 X30.048 Y119.788 E18.26085
G1 X29.508 Y119.932 E18.29988
G1 X28.941 Y119.932 E18.33949
G1 X28.4 Y119.788 E18.37859
G1 X27.915 Y119.507 E18.41774
G1 X27.515 Y119.107 E18.45725
G1 X27.234 Y118.621 E18.49646
G1 X27.076 Y118.031 E18.53912
G1 X24.345 Y97.284 E20.00073
G1 X24.345 Y96.668 E20.04375
G1 X24.49 Y96.125 E20.08301
G1 X24.77 Y95.641 E20.12206
G1 X25.17 Y95.241 E20.16157
G1 X25.655 Y94.96 E20.20072
G1 X26.196 Y94.816 E20.23982
G1 X26.763 Y94.816 E20.27943
G1 X27.303 Y94.96 E20.31846
G1 X27.789 Y95.241 E20.35767
G1 X28.189 Y95.641 E20.39718
G1 X28.469 Y96.125 E20.43624
G1 X28.614 Y96.668 E20.4755
G1 X28.614 Y97.232 E20.51489
G1 X28.47 Y97.77 E20.55379
G1 X28.187 Y98.261 E20.59337
G1 X27.791 Y98.657 E20.63249
G1 X27.301 Y98.939 E20.67198
G1 X25.942 Y99.303 E20.77024
G1 X26.296 Y101.993 E20.95975
G1 X36.608 Y100.638 E21.6862
G1 X36.885 Y100.602 E21.70571
G1 X36.849 Y100.325 E21.71831
G1 X36.243 Y95.718 E22.04286
G1 X36.243 Y95.1 E22.08603
G1 X36.387 Y94.559 E22.12513
G1 X36.668 Y94.074 E22.16428
G1 X37.068 Y93.674 E22.20379
G1 X37.552 Y93.394 E22.24285
G1 X38.095 Y93.249 E22.2821
G1 X38.659 Y93.249 E22.3215
G1 X39.202 Y93.394 E22.36075
G1 X39.686 Y93.674 E22.39981
G1 X40.086 Y94.074 E22.43932
G1 X40.367 Y94.559 E22.47847
G1 X40.511 Y95.1 E22.51757
G1 X40.511 Y95.666 E22.5571
G1 X40.367 Y96.208 E22.59627
G1 X40.086 Y96.693 E22.63542
G1 X39.686 Y97.093 E22.67494
G1 X39.202 Y97.373 E22.71399
G1 X37.84 Y97.737 E22.81246
G1 X38.195 Y100.431 E23.00225
G1 X48.506 Y99.076 E23.72863
G1 X48.783 Y99.04 E23.74814
G1 X48.747 Y98.763 E23.76074
G1 X48.14 Y94.152 E24.08558
G1 X48.14 Y93.535 E24.12868
G1 X48.285 Y92.994 E24.1678
G1 X48.566 Y92.508 E24.20701
G1 X48.963 Y92.11 E24.24627
G1 X49.453 Y91.828 E24.28576
G1 X49.993 Y91.683 E24.32482
G1 X50.557 Y91.683 E24.36421
G1 X51.095 Y91.827 E24.40311
G1 X51.586 Y92.11 E24.44269
G1 X51.982 Y92.506 E24.48181
G1 X52.265 Y92.997 E24.52139
G1 X52.409 Y93.535 E24.56029
G1 X52.409 Y94.099 E24.59968
G1 X52.264 Y94.639 E24.63874
G1 X51.982 Y95.129 E24.67823
G1 X51.584 Y95.526 E24.71749
G1 X51.099 Y95.807 E24.75664
G1 X49.737 Y96.171 E24.85511
G1 X50.093 Y98.869 E25.04519
G1 X60.681 Y97.478 E25.79108
G1 X60.038 Y92.582 E26.13598
G1 X60.038 Y91.969 E26.17879
G1 X60.183 Y91.426 E26.21805
G1 X60.463 Y90.942 E26.25711
G1 X60.863 Y90.542 E26.29662
G1 X61.348 Y90.261 E26.33577
G1 X61.889 Y90.117 E26.37487
G1 X62.456 Y90.117 E26.41447
G1 X62.996 Y90.261 E26.45351
G1 X63.482 Y90.542 E26.49272
G1 X63.882 Y90.942 E26.53223
G1 X64.162 Y91.426 E26.57128
G1 X64.307 Y91.969 E26.61054
G1 X64.307 Y92.533 E26.64993
G1 X64.163 Y93.071 E26.68883
G1 X63.88 Y93.562 E26.72842
G1 X63.482 Y93.96 E26.76773
G1 X62.996 Y94.241 E26.80694
G1 X61.635 Y94.604 E26.90532
G1 X61.991 Y97.307 E27.09575
G1 X82.886 Y94.563 E28.56772
G1 X84.3 Y91.151 E28.82569
G1 X84.641 Y90.705 E28.8649
G1 X85.085 Y90.366 E28.90392
G1 X85.608 Y90.148 E28.94349
G1 X86.219 Y90.068 E28.98653
G1 X123.781 Y90.068 E31.6101
G1 X124.392 Y90.148 E31.65314
G1 X124.915 Y90.366 E31.69272
G1 X125.359 Y90.705 E31.73173
G1 X125.7 Y91.151 E31.77095
G1 X127.114 Y94.563 E32.02892
G1 X148.009 Y97.307 E33.50089
G1 X148.365 Y94.604 E33.69131
G1 X147.004 Y94.241 E33.7897
G1 X146.518 Y93.96 E33.82891
G1 X146.12 Y93.562 E33.86822
G1 X145.837 Y93.071 E33.9078
G1 X145.693 Y92.533 E33.9467
G1 X145.693 Y91.969 E33.9861
G1 X145.838 Y91.426 E34.02535
G1 X146.118 Y90.942 E34.06441
G1 X146.518 Y90.542 E34.10392
G1 X147.004 Y90.261 E34.14313
G1 X147.544 Y90.117 E34.18216
G1 X148.111 Y90.117 E34.22177
G1 X148.652 Y90.261 E34.26087
G1 X149.137 Y90.542 E34.30002
G1 X149.537 Y90.942 E34.33953
G1 X149.817 Y91.426 E34.37859
G1 X149.962 Y91.969 E34.41784
G1 X149.962 Y92.582 E34.46066
G1 X149.319 Y97.478 E34.80556
G1 X159.907 Y98.869 E35.55145
G1 X160.263 Y96.171 E35.74153
G1 X158.901 Y95.807 E35.84
G1 X158.416 Y95.526 E35.87915
G1 X158.018 Y95.129 E35.91841
G1 X157.736 Y94.639 E35.9579
G1 X157.591 Y94.099 E35.99695
G1 X157.591 Y93.535 E36.03634
G1 X157.735 Y92.997 E36.07525
G1 X158.018 Y92.506 E36.11483
G1 X158.414 Y92.11 E36.15394
G1 X158.905 Y91.827 E36.19353
G1 X159.443 Y91.683 E36.23243
G1 X160.007 Y91.683 E36.27182
G1 X160.547 Y91.828 E36.31087
G1 X161.037 Y92.11 E36.35036
G1 X161.434 Y92.508 E36.38963
G1 X161.715 Y92.994 E36.42884
G1 X161.86 Y93.535 E36.46796
G1 X161.86 Y94.152 E36.51105
G1 X161.253 Y98.763 E36.83589
G1 X161.217 Y99.04 E36.8554
G1 X161.494 Y99.076 E36.86801
G1 X171.805 Y100.431 E37.59438
G1 X172.16 Y97.737 E37.78418
G1 X170.798 Y97.373 E37.88265
G1 X170.314 Y97.093 E37.9217
G1 X169.914 Y96.693 E37.96121
G1 X169.633 Y96.208 E38.00036
G1 X169.489 Y95.666 E38.03953
G1 X169.489 Y95.1 E38.07907
G1 X169.633 Y94.559 E38.11817
G1 X169.914 Y94.074 E38.15732
G1 X170.314 Y93.674 E38.19683
G1 X170.798 Y93.394 E38.23588
G1 X171.341 Y93.249 E38.27514
G1 X171.905 Y93.249 E38.31453
G1 X172.448 Y93.394 E38.35379
G1 X172.932 Y93.674 E38.39284
G1 X173.332 Y94.074 E38.43235
G1 X173.613 Y94.559 E38.4715
G1 X173.757 Y95.1 E38.51061
G1 X173.757 Y95.718 E38.55377
G1 X173.151 Y100.325 E38.87833
G1 X173.115 Y100.602 E38.89784
G1 X173.392 Y100.638 E38.91044
G1 X183.704 Y101.993 E39.63689
G1 X184.058 Y99.303 E39.82639
G1 X182.699 Y98.939 E39.92466
G1 X182.209 Y98.657 E39.96415
G1 X181.813 Y98.261 E40.00326
G1 X181.53 Y97.77 E40.04285
G1 X181.386 Y97.232 E40.08175
G1 X181.386 Y96.668 E40.12114
G1 X181.531 Y96.125 E40.1604
G1 X181.811 Y95.641 E40.19945
G1 X182.211 Y95.241 E40.23896
G1 X182.697 Y94.96 E40.27817
G1 X183.237 Y94.816 E40.31721
G1 X183.804 Y94.816 E40.35681
G1 X184.345 Y94.96 E40.39591
G1 X184.83 Y95.241 E40.43506
G1 X185.23 Y95.641 E40.47458
G1 X185.51 Y96.125 E40.51363
G1 X185.655 Y96.668 E40.55289
G1 X185.655 Y97.284 E40.59591
G1 X182.924 Y118.031 E42.05751
G1 X182.766 Y118.621 E42.10017
G1 X182.485 Y119.107 E42.13938
G1 X182.085 Y119.507 E42.1789
G1 X181.6 Y119.788 E42.21805
G1 X181.059 Y119.932 E42.25715
G1 X180.492 Y119.932 E42.29675
G1 X179.952 Y119.788 E42.33579
G1 X179.467 Y119.507 E42.37494
G1 X179.067 Y119.107 E42.41445
G1 X178.786 Y118.622 E42.4536
G1 X178.641 Y118.08 E42.49279
G1 X178.641 Y117.516 E42.53218
G1 X178.786 Y116.974 E42.57137
G1 X179.067 Y116.489 E42.61052
G1 X179.467 Y116.089 E42.65003
G1 X179.952 Y115.808 E42.68918
G1 X180.492 Y115.664 E42.72821
G1 X181.903 Y115.664 E42.82677
G1 X182.268 Y112.909 E43.02088
G1 X182.304 Y112.632 E43.04039
G1 X182.027 Y112.596 E43.05299
G1 X171.714 Y111.242 E43.7795
G1 X171.027 Y116.464 E44.14738
G1 X170.868 Y117.055 E44.19012
G1 X170.587 Y117.541 E44.22933
G1 X170.187 Y117.941 E44.26885
G1 X169.703 Y118.221 E44.3079
G1 X169.16 Y118.366 E44.34716
G1 X168.596 Y118.366 E44.38655
G1 X168.058 Y118.222 E44.42545
G1 X167.567 Y117.939 E44.46503
G1 X167.169 Y117.541 E44.50435
G1 X166.888 Y117.056 E44.5435
G1 X166.744 Y116.514 E44.58267
G1 X166.744 Y115.948 E44.6222
G1 X166.888 Y115.408 E44.66123
G1 X167.169 Y114.923 E44.70039
G1 X167.569 Y114.523 E44.7399
G1 X168.055 Y114.242 E44.77911
G1 X168.596 Y114.097 E44.81823
G1 X170.006 Y114.097 E44.91671
G1 X170.369 Y111.347 E45.11045
G1 X170.405 Y111.07 E45.12996
G1 X170.128 Y111.034 E45.14257
G1 X159.816 Y109.68 E45.86901
G1 X159.129 Y114.896 E46.23647
G1 X158.97 Y115.487 E46.27922
G1 X158.688 Y115.977 E46.31871
G1 X158.29 Y116.374 E46.35797
G1 X157.804 Y116.655 E46.39718
G1 X157.263 Y116.8 E46.4363
G1 X156.698 Y116.8 E46.47576
G1 X156.157 Y116.655 E46.51489
G1 X155.671 Y116.374 E46.5541
G1 X155.273 Y115.977 E46.59336
G1 X154.991 Y115.487 E46.63285
G1 X154.846 Y114.947 E46.6719
G1 X154.846 Y114.383 E46.71129
G1 X154.99 Y113.845 E46.75019
G1 X155.273 Y113.354 E46.78978
G1 X155.669 Y112.958 E46.82889
G1 X156.16 Y112.675 E46.86848
G1 X156.698 Y112.531 E46.90738
G1 X158.108 Y112.531 E47.00586
G1 X158.47 Y109.785 E47.19932
G1 X158.506 Y109.508 E47.21883
G1 X158.229 Y109.472 E47.23143
G1 X147.918 Y108.118 E47.9578
G1 X147.231 Y113.332 E48.32513
G1 X147.073 Y113.922 E48.36779
G1 X146.792 Y114.408 E48.407
G1 X146.392 Y114.808 E48.44651
G1 X145.907 Y115.089 E48.48566
G1 X145.366 Y115.233 E48.52476
G1 X144.799 Y115.233 E48.56437
G1 X144.259 Y115.089 E48.6034
G1 X143.774 Y114.808 E48.64255
G1 X143.374 Y114.408 E48.68206
G1 X143.093 Y113.923 E48.72121
G1 X142.948 Y113.381 E48.7604
G1 X142.948 Y112.817 E48.79979
G1 X143.093 Y112.276 E48.83891
G1 X143.374 Y111.79 E48.87812
G1 X143.774 Y111.39 E48.91764
G1 X144.259 Y111.109 E48.95679
G1 X144.799 Y110.965 E48.99582
G1 X146.21 Y110.965 E49.09437
G1 X146.572 Y108.223 E49.28755
G1 X146.608 Y107.946 E49.30706
G1 X146.331 Y107.91 E49.31967
G1 X129.659 Y105.72 E50.49415
G1 X129.349 Y105.68 E50.50783
M204 S3000
M205 X10 Y10
G0 F1800 X129.8 Y106.203
M204 S1000
M205 X8 Y8
;TYPE:WALL-OUTER
G1 F1200 X129.796 Y106.515 E50.52962
G1 X129.795 Y106.516 E50.52972
G1 X129.79 Y106.805 E50.54991
G1 X129.778 Y106.943 E50.55959
G1 X129.755 Y107.08 E50.56929
G1 X129.723 Y107.21 E50.57864
G1 X129.638 Y107.423 E50.59466
G1 X129.581 Y107.521 E50.60258
G1 X129.518 Y107.606 E50.60997
G1 X129.44 Y107.693 E50.61813
G1 X129.368 Y107.758 E50.6249
G1 X129.27 Y107.829 E50.63336
G1 X129.166 Y107.892 E50.64185
G1 X129.046 Y107.95 E50.65116
G1 X128.915 Y108.002 E50.661
G1 X128.782 Y108.042 E50.6707
G1 X128.621 Y108.08 E50.68226
G1 X128.435 Y108.112 E50.69544
G1 X128.264 Y108.132 E50.70746
G1 X128.069 Y108.145 E50.72111
G1 X127.84 Y108.15 E50.73711
G1 X81.932 Y108.145 E53.94362
G1 X81.565 Y108.112 E53.96935
G1 X81.379 Y108.08 E53.98254
G1 X81.085 Y108.002 E54.00378
G1 X80.954 Y107.95 E54.01363
G1 X80.834 Y107.892 E54.02293
G1 X80.73 Y107.829 E54.03143
G1 X80.632 Y107.758 E54.03988
G1 X80.56 Y107.693 E54.04666
G1 X80.482 Y107.606 E54.05482
G1 X80.419 Y107.521 E54.06221
G1 X80.362 Y107.423 E54.07012
G1 X80.314 Y107.317 E54.07825
G1 X80.277 Y107.21 E54.08616
G1 X80.245 Y107.08 E54.09551
G1 X80.222 Y106.943 E54.10521
G1 X80.21 Y106.805 E54.11489
G1 X80.205 Y106.516 E54.13508
G1 X80.204 Y106.515 E54.13518
G1 X80.2 Y106.203 E54.15697
G1 X79.89 Y106.243 E54.17065
G1 X64.185 Y108.306 E55.27701
G1 X63.908 Y108.342 E55.29652
G1 X63.944 Y108.619 E55.30912
G1 X64.193 Y110.505 E55.442
G1 X65.26 Y110.505 E55.51652
G1 X65.918 Y110.681 E55.5641
G1 X66.511 Y111.023 E55.61191
G1 X66.993 Y111.506 E55.65957
G1 X67.335 Y112.098 E55.70732
G1 X67.512 Y112.758 E55.75505
G1 X67.512 Y113.44 E55.80269
G1 X67.335 Y114.101 E55.85048
G1 X66.993 Y114.692 E55.89817
G1 X66.511 Y115.175 E55.94584
G1 X65.918 Y115.517 E55.99365
