;FLAVOR:Marlin
;TIME:3265
;Filament used: 5.06404m
;Layer height: 0.3
;Generated with Cura_SteamEngine 3.6.0
M104 S205
M105
M109 S205
M82 ;absolute extrusion mode
G21 ;metric values
G90 ;absolute positioning
M82 ;set extruder to absolute mode
M107 ;start with the fan off
G28 X0 Y0 ;move X/Y to min endstops
G28 Z0 ;move Z to min endstops
G1 Z15.0 F120 ;move the platform down 15mm
G92 E0 ;zero the extruded length
G1 F200 E3 ;extrude 3mm of feed stock
G92 E0 ;zero the extruded length again
G1 F120
M117 Printing...
G5
G92 E0
G1 F2400 E-6
;LAYER_COUNT:7
;LAYER:0
M106 S127.5
M204 S3000
M205 X10 Y10
;MESH:Object 1(2)
G0 F1800 X118.588 Y86.637 Z0.3
M204 S1000
M205 X8 Y8
;TYPE:WALL-INNER
G1 F2400 E0
G1 F1200 X118.816 Y86.575 E0.0165
G1 X119.035 Y86.487 E0.03299
G1 X119.24 Y86.371 E0.04944
G1 X119.429 Y86.23 E0.06591
G1 X119.598 Y86.066 E0.08236
G1 X119.746 Y85.88 E0.09896
G1 X119.868 Y85.678 E0.11544
G1 X119.962 Y85.465 E0.1317
G1 X120.03 Y85.238 E0.14826
G1 X120.068 Y85.003 E0.16488
G1 X120.076 Y84.769 E0.18124
G1 X120.053 Y84.535 E0.19766
G1 X120.003 Y84.308 E0.21389
G1 X117.064 Y76.075 E0.82448
G1 X116.952 Y75.862 E0.84129
G1 X116.819 Y75.672 E0.85749
G1 X116.66 Y75.495 E0.87411
G1 X116.479 Y75.342 E0.89066
G1 X116.283 Y75.215 E0.90697
G1 X116.07 Y75.111 E0.92353
G1 X115.847 Y75.037 E0.93994
G1 X115.615 Y74.991 E0.95646
G1 X115.404 Y74.978 E0.97122
G1 X86.404 Y74.981 E2.99677
G1 X86.279 Y74.973 E3.00552
G1 X86.044 Y74.988 E3.02196
G1 X85.812 Y75.034 E3.03848
G1 X85.59 Y75.108 E3.05483
G1 X85.376 Y75.212 E3.07145
G1 X85.179 Y75.339 E3.08782
G1 X84.998 Y75.492 E3.10437
G1 X84.839 Y75.668 E3.12094
G1 X84.704 Y75.862 E3.13745
G1 X84.594 Y76.075 E3.15419
G1 X81.65 Y84.309 E3.76496
G1 X81.601 Y84.515 E3.77975
G1 X81.578 Y84.749 E3.79617
G1 X81.585 Y85.025 E3.81546
G1 X81.62 Y85.243 E3.83088
G1 X81.687 Y85.469 E3.84734
G1 X81.782 Y85.685 E3.86382
G1 X81.904 Y85.885 E3.88019
G1 X82.051 Y86.071 E3.89674
G1 X82.221 Y86.236 E3.91329
G1 X82.411 Y86.378 E3.92986
G1 X82.617 Y86.493 E3.94634
G1 X82.837 Y86.583 E3.96294
G1 X83.064 Y86.641 E3.9793
G1 X83.297 Y86.672 E3.99572
G1 X83.535 Y86.672 E4.01235
G1 X83.634 Y86.659 E4.01932
G1 X118.064 Y86.659 E6.42413
G1 X118.117 Y86.666 E6.42786
G1 X118.35 Y86.666 E6.44414
G1 X118.588 Y86.637 E6.46088
M204 S3000
M205 X10 Y10
G0 F1800 X118.607 Y86.735
G0 X124.946 Y87.39
G0 X125.011 Y87.465
M204 S1000
M205 X8 Y8
G1 F1200 X125.007 Y87.777 E6.48268
G1 X125.006 Y87.778 E6.48277
G1 X124.992 Y88.571 E6.53817
G1 X124.966 Y88.772 E6.55233
G1 X124.944 Y88.859 E6.5586
G1 X124.887 Y89.003 E6.56941
G1 X124.822 Y89.1 E6.57757
G1 X124.747 Y89.179 E6.58518
G1 X124.612 Y89.271 E6.59659
G1 X124.423 Y89.353 E6.61098
G1 X124.18 Y89.416 E6.62851
G1 X124.039 Y89.441 E6.63851
G1 X123.884 Y89.459 E6.64941
G1 X123.492 Y89.475 E6.67681
G1 X77.613 Y89.47 E9.88129
G1 X77.285 Y89.44 E9.9043
G1 X77.147 Y89.417 E9.91407
G1 X76.893 Y89.349 E9.93243
G1 X76.712 Y89.271 E9.9462
G1 X76.577 Y89.179 E9.95761
G1 X76.502 Y89.1 E9.96522
G1 X76.433 Y88.996 E9.97394
G1 X76.381 Y88.865 E9.98378
G1 X76.358 Y88.772 E9.99047
G1 X76.332 Y88.571 E10.00463
G1 X76.318 Y87.778 E10.06003
G1 X76.317 Y87.777 E10.06012
G1 X76.313 Y87.465 E10.08192
G1 X76.003 Y87.505 E10.0956
G1 X59.331 Y89.695 E11.27008
G1 X59.054 Y89.731 E11.28959
G1 X59.09 Y90.008 E11.30219
G1 X59.452 Y92.75 E11.49537
G1 X60.863 Y92.75 E11.59393
G1 X61.403 Y92.894 E11.63296
G1 X61.888 Y93.175 E11.67211
G1 X62.288 Y93.575 E11.71162
G1 X62.569 Y94.061 E11.75083
G1 X62.714 Y94.602 E11.78995
G1 X62.714 Y95.166 E11.82935
G1 X62.569 Y95.708 E11.86854
G1 X62.288 Y96.193 E11.90769
G1 X61.888 Y96.593 E11.9472
G1 X61.403 Y96.874 E11.98635
G1 X60.863 Y97.018 E12.02538
G1 X60.296 Y97.018 E12.06499
G1 X59.755 Y96.874 E12.10409
G1 X59.27 Y96.593 E12.14324
G1 X58.87 Y96.193 E12.18275
G1 X58.589 Y95.707 E12.22196
G1 X58.431 Y95.117 E12.26462
G1 X57.744 Y89.903 E12.63195
G1 X47.433 Y91.257 E13.35832
G1 X47.156 Y91.293 E13.37783
G1 X47.192 Y91.57 E13.39043
G1 X47.554 Y94.316 E13.58389
G1 X48.964 Y94.316 E13.68237
G1 X49.502 Y94.46 E13.72127
G1 X49.993 Y94.743 E13.76085
G1 X50.389 Y95.139 E13.79997
G1 X50.672 Y95.63 E13.83955
G1 X50.816 Y96.168 E13.87845
G1 X50.816 Y96.732 E13.91785
G1 X50.671 Y97.272 E13.9569
G1 X50.389 Y97.762 E13.99639
G1 X49.991 Y98.159 E14.03565
G1 X49.505 Y98.44 E14.07486
G1 X48.964 Y98.585 E14.11398
G1 X48.399 Y98.585 E14.15345
G1 X47.858 Y98.44 E14.19257
G1 X47.372 Y98.159 E14.23178
G1 X46.974 Y97.762 E14.27104
G1 X46.692 Y97.272 E14.31053
G1 X46.533 Y96.681 E14.35328
G1 X45.846 Y91.465 E14.72074
G1 X35.258 Y92.855 E15.46662
G1 X35.655 Y95.882 E15.67986
G1 X37.066 Y95.882 E15.77841
G1 X37.607 Y96.027 E15.81753
G1 X38.093 Y96.308 E15.85674
G1 X38.493 Y96.708 E15.89625
G1 X38.774 Y97.193 E15.9354
G1 X38.918 Y97.733 E15.97444
G1 X38.918 Y98.299 E16.01397
G1 X38.774 Y98.841 E16.05314
G1 X38.493 Y99.326 E16.09229
G1 X38.095 Y99.724 E16.1316
G1 X37.604 Y100.007 E16.17119
G1 X37.066 Y100.151 E16.21009
G1 X36.502 Y100.151 E16.24948
G1 X35.959 Y100.006 E16.28874
G1 X35.475 Y99.726 E16.32779
G1 X35.075 Y99.326 E16.3673
G1 X34.794 Y98.84 E16.40651
G1 X34.635 Y98.249 E16.44926
G1 X33.948 Y93.027 E16.81714
G1 X23.635 Y94.381 E17.54365
G1 X23.358 Y94.417 E17.56316
G1 X23.394 Y94.694 E17.57576
G1 X23.759 Y97.449 E17.76987
G1 X25.17 Y97.449 E17.86842
G1 X25.71 Y97.593 E17.90746
G1 X26.195 Y97.874 E17.94661
G1 X26.595 Y98.274 E17.98612
G1 X26.876 Y98.759 E18.02527
G1 X27.021 Y99.301 E18.06446
G1 X27.021 Y99.865 E18.10385
G1 X26.876 Y100.407 E18.14304
G1 X26.595 Y100.892 E18.18219
G1 X26.195 Y101.292 E18.2217
G1 X25.71 Y101.573 E18.26085
G1 X25.17 Y101.717 E18.29988
G1 X24.603 Y101.717 E18.33949
G1 X24.062 Y101.573 E18.37859
G1 X23.577 Y101.292 E18.41774
G1 X23.177 Y100.892 E18.45725
G1 X22.896 Y100.406 E18.49646
G1 X22.738 Y99.816 E18.53912
G1 X20.007 Y79.069 E20.00073
G1 X20.007 Y78.453 E20.04375
G1 X20.152 Y77.91 E20.08301
G1 X20.432 Y77.426 E20.12206
G1 X20.832 Y77.026 E20.16157
G1 X21.317 Y76.745 E20.20072
G1 X21.858 Y76.601 E20.23982
G1 X22.425 Y76.601 E20.27943
G1 X22.965 Y76.745 E20.31846
G1 X23.451 Y77.026 E20.35767
G1 X23.851 Y77.426 E20.39718
G1 X24.131 Y77.91 E20.43624
G1 X24.276 Y78.453 E20.4755
G1 X24.276 Y79.017 E20.51489
G1 X24.132 Y79.555 E20.55379
G1 X23.849 Y80.046 E20.59337
G1 X23.453 Y80.442 E20.63249
G1 X22.963 Y80.724 E20.67198
G1 X21.604 Y81.088 E20.77024
G1 X21.958 Y83.778 E20.95975
G1 X32.27 Y82.423 E21.6862
G1 X32.547 Y82.387 E21.70571
G1 X32.511 Y82.11 E21.71831
G1 X31.905 Y77.503 E22.04286
G1 X31.905 Y76.885 E22.08603
G1 X32.049 Y76.344 E22.12513
G1 X32.33 Y75.859 E22.16428
G1 X32.73 Y75.459 E22.20379
G1 X33.214 Y75.179 E22.24285
G1 X33.757 Y75.034 E22.2821
G1 X34.321 Y75.034 E22.3215
G1 X34.864 Y75.179 E22.36075
G1 X35.348 Y75.459 E22.39981
G1 X35.748 Y75.859 E22.43932
G1 X36.029 Y76.344 E22.47847
G1 X36.173 Y76.885 E22.51757
G1 X36.173 Y77.451 E22.5571
G1 X36.029 Y77.993 E22.59627
G1 X35.748 Y78.478 E22.63542
G1 X35.348 Y78.878 E22.67494
G1 X34.864 Y79.158 E22.71399
G1 X33.502 Y79.522 E22.81246
G1 X33.857 Y82.216 E23.00225
G1 X44.168 Y80.861 E23.72863
G1 X44.445 Y80.825 E23.74814
G1 X44.409 Y80.548 E23.76074
G1 X43.802 Y75.937 E24.08558
G1 X43.802 Y75.32 E24.12868
G1 X43.947 Y74.779 E24.1678
G1 X44.228 Y74.293 E24.20701
G1 X44.625 Y73.895 E24.24627
G1 X45.115 Y73.613 E24.28576
G1 X45.655 Y73.468 E24.32482
G1 X46.219 Y73.468 E24.36421
G1 X46.757 Y73.612 E24.40311
G1 X47.248 Y73.895 E24.44269
G1 X47.644 Y74.291 E24.48181
G1 X47.927 Y74.782 E24.52139
G1 X48.071 Y75.32 E24.56029
G1 X48.071 Y75.884 E24.59968
G1 X47.926 Y76.424 E24.63874
G1 X47.644 Y76.914 E24.67823
G1 X47.246 Y77.311 E24.71749
G1 X46.761 Y77.592 E24.75664
G1 X45.399 Y77.956 E24.85511
G1 X45.755 Y80.654 E25.04519
G1 X56.343 Y79.263 E25.79108
G1 X55.7 Y74.367 E26.13598
G1 X55.7 Y73.754 E26.17879
G1 X55.845 Y73.211 E26.21805
G1 X56.125 Y72.727 E26.25711
G1 X56.525 Y72.327 E26.29662
G1 X57.01 Y72.046 E26.33577
G1 X57.551 Y71.902 E26.37487
G1 X58.118 Y71.902 E26.41447
G1 X58.658 Y72.046 E26.45351
G1 X59.144 Y72.327 E26.49272
G1 X59.544 Y72.727 E26.53223
G1 X59.824 Y73.211 E26.57128
G1 X59.969 Y73.754 E26.61054
G1 X59.969 Y74.318 E26.64993
G1 X59.825 Y74.856 E26.68883
G1 X59.542 Y75.347 E26.72842
G1 X59.144 Y75.745 E26.76773
G1 X58.658 Y76.026 E26.80694
G1 X57.297 Y76.389 E26.90532
G1 X57.653 Y79.092 E27.09575
G1 X78.548 Y76.348 E28.56772
G1 X79.962 Y72.936 E28.82569
G1 X80.303 Y72.49 E28.8649
G1 X80.747 Y72.151 E28.90392
G1 X81.27 Y71.933 E28.94349
G1 X81.881 Y71.853 E28.98653
G1 X119.443 Y71.853 E31.6101
G1 X120.054 Y71.933 E31.65314
G1 X120.577 Y72.151 E31.69272
G1 X121.021 Y72.49 E31.73173
G1 X121.362 Y72.936 E31.77095
G1 X122.776 Y76.348 E32.02892
G1 X143.671 Y79.092 E33.50089
G1 X144.027 Y76.389 E33.69131
G1 X142.666 Y76.026 E33.7897
G1 X142.18 Y75.745 E33.82891
G1 X141.782 Y75.347 E33.86822
G1 X141.499 Y74.856 E33.9078
G1 X141.355 Y74.318 E33.9467
G1 X141.355 Y73.754 E33.9861
G1 X141.5 Y73.211 E34.02535
G1 X141.78 Y72.727 E34.06441
G1 X142.18 Y72.327 E34.10392
G1 X142.666 Y72.046 E34.14313
G1 X143.206 Y71.902 E34.18216
G1 X143.773 Y71.902 E34.22177
G1 X144.314 Y72.046 E34.26087
G1 X144.799 Y72.327 E34.30002
G1 X145.199 Y72.727 E34.33953
G1 X145.479 Y73.211 E34.37859
G1 X145.624 Y73.754 E34.41784
G1 X145.624 Y74.367 E34.46066
G1 X144.981 Y79.263 E34.80556
G1 X155.569 Y80.654 E35.55145
G1 X155.925 Y77.956 E35.74153
G1 X154.563 Y77.592 E35.84
G1 X154.078 Y77.311 E35.87915
G1 X153.68 Y76.914 E35.91841
G1 X153.398 Y76.424 E35.9579
G1 X153.253 Y75.884 E35.99695
G1 X153.253 Y75.32 E36.03634
G1 X153.397 Y74.782 E36.07525
G1 X153.68 Y74.291 E36.11483
G1 X154.076 Y73.895 E36.15394
G1 X154.567 Y73.612 E36.19353
G1 X155.105 Y73.468 E36.23243
G1 X155.669 Y73.468 E36.27182
G1 X156.209 Y73.613 E36.31087
G1 X156.699 Y73.895 E36.35036
G1 X157.096 Y74.293 E36.38963
G1 X157.377 Y74.779 E36.42884
G1 X157.522 Y75.32 E36.46796
G1 X157.522 Y75.937 E36.51105
G1 X156.915 Y80.548 E36.83589
G1 X156.879 Y80.825 E36.8554
G1 X157.156 Y80.861 E36.86801
G1 X167.467 Y82.216 E37.59438
G1 X167.822 Y79.522 E37.78418
G1 X166.46 Y79.158 E37.88265
G1 X165.976 Y78.878 E37.9217
G1 X165.576 Y78.478 E37.96121
G1 X165.295 Y77.993 E38.00036
G1 X165.151 Y77.451 E38.03953
G1 X165.151 Y76.885 E38.07907
G1 X165.295 Y76.344 E38.11817
G1 X165.576 Y75.859 E38.15732
G1 X165.976 Y75.459 E38.19683
G1 X166.46 Y75.179 E38.23588
G1 X167.003 Y75.034 E38.27514
G1 X167.567 Y75.034 E38.31453
G1 X168.11 Y75.179 E38.35379
G1 X168.594 Y75.459 E38.39284
G1 X168.994 Y75.859 E38.43235
G1 X169.275 Y76.344 E38.4715
G1 X169.419 Y76.885 E38.51061
G1 X169.419 Y77.503 E38.55377
G1 X168.813 Y82.11 E38.87833
G1 X168.777 Y82.387 E38.89784
G1 X169.054 Y82.423 E38.91044
G1 X179.366 Y83.778 E39.63689
G1 X179.72 Y81.088 E39.82639
G1 X178.361 Y80.724 E39.92466
G1 X177.871 Y80.442 E39.96415
G1 X177.475 Y80.046 E40.00326
G1 X177.192 Y79.555 E40.04285
G1 X177.048 Y79.017 E40.08175
G1 X177.048 Y78.453 E40.12114
G1 X177.193 Y77.91 E40.1604
G1 X177.473 Y77.426 E40.19945
G1 X177.873 Y77.026 E40.23896
G1 X178.359 Y76.745 E40.27817
G1 X178.899 Y76.601 E40.31721
G1 X179.466 Y76.601 E40.35681
G1 X180.007 Y76.745 E40.39591
G1 X180.492 Y77.026 E40.43506
G1 X180.892 Y77.426 E40.47458
G1 X181.172 Y77.91 E40.51363
G1 X181.317 Y78.453 E40.55289
G1 X181.317 Y79.069 E40.59591
G1 X178.586 Y99.816 E42.05751
G1 X178.428 Y100.406 E42.10017
G1 X178.147 Y100.892 E42.13938
G1 X177.747 Y101.292 E42.1789
G1 X177.262 Y101.573 E42.21805
G1 X176.721 Y101.717 E42.25715
G1 X176.154 Y101.717 E42.29675
G1 X175.614 Y101.573 E42.33579
G1 X175.129 Y101.292 E42.37494
G1 X174.729 Y100.892 E42.41445
G1 X174.448 Y100.407 E42.4536
G1 X174.303 Y99.865 E42.49279
G1 X174.303 Y99.301 E42.53218
G1 X174.448 Y98.759 E42.57137
G1 X174.729 Y98.274 E42.61052
G1 X175.129 Y97.874 E42.65003
G1 X175.614 Y97.593 E42.68918
G1 X176.154 Y97.449 E42.72821
G1 X177.565 Y97.449 E42.82677
G1 X177.93 Y94.694 E43.02088
G1 X177.966 Y94.417 E43.04039
G1 X177.689 Y94.381 E43.05299
G1 X167.376 Y93.027 E43.7795
G1 X166.689 Y98.249 E44.14738
G1 X166.53 Y98.84 E44.19012
G1 X166.249 Y99.326 E44.22933
G1 X165.849 Y99.726 E44.26885
G1 X165.365 Y100.006 E44.3079
G1 X164.822 Y100.151 E44.34716
G1 X164.258 Y100.151 E44.38655
G1 X163.72 Y100.007 E44.42545
G1 X163.229 Y99.724 E44.46503
G1 X162.831 Y99.326 E44.50435
G1 X162.55 Y98.841 E44.5435
G1 X162.406 Y98.299 E44.58267
G1 X162.406 Y97.733 E44.6222
G1 X162.55 Y97.193 E44.66123
G1 X162.831 Y96.708 E44.70039
G1 X163.231 Y96.308 E44.7399
G1 X163.717 Y96.027 E44.77911
G1 X164.258 Y95.882 E44.81823
G1 X165.668 Y95.882 E44.91671
G1 X166.031 Y93.132 E45.11045
G1 X166.067 Y92.855 E45.12996
G1 X165.79 Y92.819 E45.14257
G1 X155.478 Y91.465 E45.86901
G1 X154.791 Y96.681 E46.23647
G1 X154.632 Y97.272 E46.27922
G1 X154.35 Y97.762 E46.31871
G1 X153.952 Y98.159 E46.35797
G1 X153.466 Y98.44 E46.39718
G1 X152.925 Y98.585 E46.4363
G1 X152.36 Y98.585 E46.47576
G1 X151.819 Y98.44 E46.51489
G1 X151.333 Y98.159 E46.5541
G1 X150.935 Y97.762 E46.59336
G1 X150.653 Y97.272 E46.63285
G1 X150.508 Y96.732 E46.6719
G1 X150.508 Y96.168 E46.71129
G1 X150.652 Y95.63 E46.75019
G1 X150.935 Y95.139 E46.78978
G1 X151.331 Y94.743 E46.82889
G1 X151.822 Y94.46 E46.86848
G1 X152.36 Y94.316 E46.90738
G1 X153.77 Y94.316 E47.00586
G1 X154.132 Y91.57 E47.19932
G1 X154.168 Y91.293 E47.21883
G1 X153.891 Y91.257 E47.23143
G1 X143.58 Y89.903 E47.9578
G1 X142.893 Y95.117 E48.32513
G1 X142.735 Y95.707 E48.36779
G1 X142.454 Y96.193 E48.407
G1 X142.054 Y96.593 E48.44651
G1 X141.569 Y96.874 E48.48566
G1 X141.028 Y97.018 E48.52476
G1 X140.461 Y97.018 E48.56437
G1 X139.921 Y96.874 E48.6034
G1 X139.436 Y96.593 E48.64255
G1 X139.036 Y96.193 E48.68206
G1 X138.755 Y95.708 E48.72121
G1 X138.61 Y95.166 E48.7604
G1 X138.61 Y94.602 E48.79979
G1 X138.755 Y94.061 E48.83891
G1 X139.036 Y93.575 E48.87812
G1 X139.436 Y93.175 E48.91764
G1 X139.921 Y92.894 E48.95679
G1 X140.461 Y92.75 E48.99582
G1 X141.872 Y92.75 E49.09437
G1 X142.234 Y90.008 E49.28755
G1 X142.27 Y89.731 E49.30706
G1 X141.993 Y89.695 E49.31967
G1 X125.321 Y87.505 E50.49415
G1 X125.011 Y87.465 E50.50783
M204 S3000
M205 X10 Y10
G0 F1800 X125.462 Y87.988
M204 S1000
M205 X8 Y8
;TYPE:WALL-OUTER
G1 F1200 X125.458 Y88.3 E50.52962
G1 X125.457 Y88.301 E50.52972
G1 X125.452 Y88.59 E50.54991
G1 X125.44 Y88.728 E50.55959
G1 X125.417 Y88.865 E50.56929
G1 X125.385 Y88.995 E50.57864
G1 X125.3 Y89.208 E50.59466
G1 X125.243 Y89.306 E50.60258
G1 X125.18 Y89.391 E50.60997
G1 X125.102 Y89.478 E50.61813
G1 X125.03 Y89.543 E50.6249
G1 X124.932 Y89.614 E50.63336
G1 X124.828 Y89.677 E50.64185
G1 X124.708 Y89.735 E50.65116
G1 X124.577 Y89.787 E50.661
G1 X124.444 Y89.827 E50.6707
G1 X124.283 Y89.865 E50.68226
G1 X124.097 Y89.897 E50.69544
G1 X123.926 Y89.917 E50.70746
G1 X123.731 Y89.93 E50.72111
G1 X123.502 Y89.935 E50.73711
G1 X77.594 Y89.93 E53.94362
G1 X77.227 Y89.897 E53.96935
G1 X77.041 Y89.865 E53.98254
G1 X76.747 Y89.787 E54.00378
G1 X76.616 Y89.735 E54.01363
G1 X76.496 Y89.677 E54.02293
G1 X76.392 Y89.614 E54.03143
G1 X76.294 Y89.543 E54.03988
G1 X76.222 Y89.478 E54.04666
G1 X76.144 Y89.391 E54.05482
G1 X76.081 Y89.306 E54.06221
G1 X76.024 Y89.208 E54.07012
G1 X75.976 Y89.102 E54.07825
G1 X75.939 Y88.995 E54.08616
G1 X75.907 Y88.865 E54.09551
G1 X75.884 Y88.728 E54.10521
G1 X75.872 Y88.59 E54.11489
G1 X75.867 Y88.301 E54.13508
G1 X75.866 Y88.3 E54.13518
G1 X75.862 Y87.988 E54.15697
G1 X75.552 Y88.028 E54.17065
G1 X59.847 Y90.091 E55.27701
G1 X59.57 Y90.127 E55.29652
G1 X59.606 Y90.404 E55.30912
G1 X59.855 Y92.29 E55.442
G1 X60.922 Y92.29 E55.51652
G1 X61.58 Y92.466 E55.5641
G1 X62.173 Y92.808 E55.61191
G1 X62.655 Y93.291 E55.65957
G1 X62.997 Y93.883 E55.70732
G1 X63.174 Y94.543 E55.75505
G1 X63.174 Y95.225 E55.80269
G1 X62.997 Y95.886 E55.85048
G1 X62.655 Y96.477 E55.89817
G1 X62.173 Y96.96 E55.94584
G1 X61.58 Y97.302 E55.99365
G1 X60.922 Y97.478 E56.04122
G1 X60.237 Y97.478 E56.08907
G1 X59.578 Y97.302 E56.13671
G1 X58.988 Y96.961 E56.18431
G1 X58.502 Y96.475 E56.23231
G1 X58.161 Y95.885 E56.27991
G1 X57.979 Y95.205 E56.32908
G1 X57.348 Y90.419 E56.66625
G1 X47.949 Y91.653 E57.32837
