;FLAVOR:Marlin
;TIME:1912
;Filament used: 5.29001m
;Layer height: 0.3
;Generated with Cura_SteamEngine 3.6.0
M140 S30
M105
M190 S30
M104 S220
M105
M109 S220
M82 ;absolute extrusion mode
G21 ;metric values
G90 ;absolute positioning
M82 ;set extruder to absolute mode
M107 ;start with the fan off
G28 X0 Y0 ;move X/Y to min endstops
G28 Z0 ;move Z to min endstops
G1 Z15.0 F120 ;move the platform down 15mm
G92 E0 ;zero the extruded length
G1 F200 E3 ;extrude 3mm of feed stock
G92 E0 ;zero the extruded length again
G1 F120
M117 Printing...
G5
G92 E0
G1 F2400 E-6
;LAYER_COUNT:213
;LAYER:0
M106 S255
M204 S3000
M205 X10 Y10
;MESH:Object 1
G0 F3600 X27.752 Y129.053 Z0.4
M204 S2500
M205 X8 Y8
;TYPE:WALL-INNER
G1 F2400 E0
G1 F1800 X27.375 Y128.846 E0.04706
G1 X26.547 Y128.512 E0.14476
G1 X26.055 Y128.292 E0.20374
G1 X25.547 Y128.036 E0.26598
G1 X25.068 Y127.766 E0.32615
G1 X24.61 Y127.477 E0.38541
G1 X24.147 Y127.157 E0.447
G1 X23.659 Y126.782 E0.51435
G1 X23.37 Y126.576 E0.55318
G1 X23.005 Y126.382 E0.59841
G1 X22.668 Y126.246 E0.63818
G1 X22.276 Y126.132 E0.68285
G1 X21.852 Y126.066 E0.72981
G1 X21.442 Y126.052 E0.7747
G1 X21.297 Y126.062 E0.7906
G1 X21.211 Y126.069 E0.80004
G1 X21.225 Y126.004
G1 X21.242 Y125.93
G1 X21.276 Y125.779 E0.80745
G1 X21.316 Y125.358 E0.85372
G1 X21.306 Y124.956 E0.89773
G1 X21.261 Y124.595 E0.93754
G1 X21.162 Y124.185 E0.98369
G1 X21.008 Y123.783 E1.0308
G1 X20.655 Y123.122 E1.11279
G1 X20.393 Y122.595 E1.1772
G1 X20.17 Y122.091 E1.2375
G1 X19.978 Y121.594 E1.2958
G1 X19.802 Y121.067 E1.3566
G1 X19.648 Y120.523 E1.41847
G1 X19.418 Y119.546 E1.5283
G1 X19.271 Y119.147 E1.57483
G1 X19.078 Y118.774 E1.62079
G1 X18.844 Y118.425 E1.66677
G1 X18.56 Y118.1 E1.714
G1 X18.256 Y117.829 E1.75856
G1 X18.136 Y117.741 E1.77484
G1 X18.069 Y117.692 E1.78393
G1 X18.121 Y117.653
G1 X18.184 Y117.605
G1 X18.299 Y117.518 E1.79026
G1 X18.607 Y117.215 E1.83754
G1 X18.861 Y116.895 E1.88225
G1 X19.057 Y116.589 E1.92201
G1 X19.242 Y116.217 E1.96747
G1 X19.382 Y115.81 E2.01457
G1 X19.534 Y115.093 E2.09477
G1 X19.682 Y114.478 E2.16399
G1 X19.811 Y114.029 E2.21511
G1 X20.048 Y113.338 E2.29505
G1 X20.236 Y112.876 E2.34963
G1 X20.479 Y112.347 E2.41333
G1 X20.772 Y111.784 E2.48278
G1 X20.918 Y111.472 E2.52047
G1 X21.049 Y111.083 E2.56539
G1 X21.127 Y110.717 E2.60634
G1 X21.167 Y110.316 E2.65044
G1 X21.162 Y109.89 E2.69705
G1 X21.104 Y109.481 E2.74226
G1 X21.068 Y109.338 E2.75839
G1 X21.047 Y109.254 E2.76787
G1 X21.114 Y109.257
G1 X21.194 Y109.261
G1 X21.339 Y109.269 E2.77437
G1 X21.768 Y109.235 E2.82146
G1 X22.168 Y109.153 E2.86614
G1 X22.511 Y109.044 E2.90553
G1 X22.891 Y108.879 E2.95086
G1 X23.262 Y108.657 E2.99817
G1 X23.87 Y108.181 E3.08266
G1 X24.327 Y107.844 E3.1448
G1 X24.758 Y107.555 E3.20158
G1 X25.256 Y107.254 E3.26526
G1 X25.726 Y106.998 E3.32382
G1 X26.23 Y106.755 E3.38505
G1 X27.16 Y106.354 E3.49587
G1 X27.524 Y106.143 E3.54191
G1 X27.86 Y105.888 E3.58807
G1 X28.161 Y105.597 E3.63388
G1 X28.431 Y105.265 E3.68071
G1 X28.648 Y104.916 E3.72568
G1 X28.682 Y104.846 E3.73419
G1 X28.713 Y104.782 E3.74197
G1 X28.751 Y104.705 E3.75137
G1 X28.801 Y104.752 E3.75248
G1 X28.859 Y104.806
G1 X28.964 Y104.904 E3.75881
G1 X29.312 Y105.151 E3.79817
G1 X29.669 Y105.347 E3.84274
G1 X30.009 Y105.488 E3.88301
G1 X30.404 Y105.604 E3.92806
G1 X30.83 Y105.673 E3.97528
G1 X31.612 Y105.7 E4.06091
G1 X32.152 Y105.732 E4.1201
G1 X32.721 Y105.794 E4.18273
G1 X33.221 Y105.872 E4.23811
G1 X33.802 Y105.992 E4.30302
G1 X34.326 Y106.123 E4.36213
G1 X35.302 Y106.415 E4.47361
G1 X35.718 Y106.485 E4.51977
G1 X36.132 Y106.506 E4.56513
G1 X36.558 Y106.477 E4.61185
G1 X36.976 Y106.394 E4.65848
G1 X37.361 Y106.268 E4.70281
G1 X37.5 Y106.207 E4.71942
G1 X37.576 Y106.173 E4.72853
G1 X37.584 Y106.238
G1 X37.594 Y106.313
G1 X37.614 Y106.462 E4.73765
G1 X37.72 Y106.876 E4.78441
G1 X37.869 Y107.254 E4.82888
G1 X38.036 Y107.577 E4.86866
G1 X38.268 Y107.927 E4.91461
G1 X38.55 Y108.252 E4.9617
G1 X39.095 Y108.74 E5.04175
G1 X39.535 Y109.159 E5.10823
G1 X39.901 Y109.539 E5.16597
G1 X40.255 Y109.944 E5.22483
G1 X40.626 Y110.41 E5.29001
G1 X40.934 Y110.837 E5.34762
G1 X41.492 Y111.686 E5.45879
G1 X41.766 Y112.014 E5.50556
G1 X42.077 Y112.299 E5.55172
G1 X42.413 Y112.546 E5.59735
G1 X42.79 Y112.754 E5.64447
G1 X43.168 Y112.906 E5.68905
G1 X43.244 Y112.927 E5.69768
G1 X43.313 Y112.947 E5.70554
G1 X43.394 Y112.971 E5.71478
G1 X43.359 Y113.027
G1 X43.319 Y113.089
G1 X43.236 Y113.219 E5.72229
G1 X43.055 Y113.598 E5.76106
G1 X42.922 Y113.985 E5.80584
G1 X42.843 Y114.346 E5.84628
G1 X42.798 Y114.752 E5.89098
G1 X42.803 Y115.185 E5.93836
G1 X42.912 Y115.948 E6.0227
G1 X42.972 Y116.469 E6.08009
G1 X43.017 Y117.181 E6.15816
G1 X43.023 Y117.683 E6.21309
G1 X43.001 Y118.273 E6.2777
G1 X42.958 Y118.811 E6.33676
G1 X42.875 Y119.444 E6.40662
G1 X42.843 Y119.795 E6.44518
G1 X42.856 Y120.207 E6.49029
G1 X42.907 Y120.565 E6.52986
G1 X43.005 Y120.962 E6.57461
G1 X43.159 Y121.363 E6.62161
G1 X43.351 Y121.722 E6.66616
G1 X43.395 Y121.787 E6.67475
G1 X43.435 Y121.846 E6.68255
G1 X43.483 Y121.916 E6.69184
G1 X43.418 Y121.936 E6.69299
G1 X43.348 Y121.958
G1 X43.202 Y122.005 E6.70231
G1 X42.818 Y122.179 E6.74121
G1 X42.466 Y122.393 E6.78628
G1 X42.177 Y122.615 E6.82616
G1 X41.876 Y122.9 E6.87152
G1 X41.604 Y123.236 E6.91882
G1 X41.205 Y123.876 E7.00135
G1 X40.904 Y124.332 E7.06114
G1 X40.552 Y124.812 E7.12627
G1 X40.227 Y125.216 E7.18301
G1 X39.847 Y125.646 E7.24581
G1 X39.453 Y126.052 E7.30771
G1 X38.727 Y126.734 E7.41671
G1 X38.457 Y127.06 E7.46303
G1 X38.23 Y127.411 E7.50877
G1 X38.045 Y127.791 E7.55502
G1 X37.908 Y128.189 E7.60108
G1 X37.821 Y128.593 E7.6463
G1 X37.807 Y128.74 E7.66246
G1 X37.798 Y128.826 E7.67192
G1 X37.736 Y128.8
G1 X37.666 Y128.771
G1 X37.527 Y128.713 E7.67899
G1 X37.118 Y128.599 E7.72545
G1 X36.719 Y128.539 E7.7696
G1 X36.352 Y128.521 E7.80981
G1 X35.934 Y128.548 E7.85564
G1 X35.511 Y128.629 E7.90277
G1 X34.791 Y128.866 E7.98572
G1 X34.256 Y129.023 E8.04673
G1 X33.575 Y129.189 E8.12343
G1 X33.057 Y129.284 E8.18106
G1 X32.492 Y129.363 E8.24348
G1 X31.962 Y129.412 E8.30173
G1 X31.329 Y129.439 E8.37106
G1 X30.979 Y129.47 E8.40951
G1 X30.582 Y129.553 E8.45389
G1 X30.241 Y129.662 E8.49306
G1 X29.86 Y129.829 E8.53858
G1 X29.491 Y130.052 E8.58576
G1 X29.171 Y130.304 E8.63033
G1 X29.065 Y130.407 E8.6465
G1 X29.003 Y130.467 E8.65595
G1 X28.972 Y130.406
G1 X28.937 Y130.337
G1 X28.869 Y130.206 E8.66479
G1 X28.626 Y129.853 E8.71168
G1 X28.359 Y129.551 E8.75579
G1 X28.09 Y129.303 E8.79583
G1 X27.752 Y129.053 E8.84183
M204 S3000
M205 X10 Y10
G0 F3600 X44.257 Y121.924
G0 X44.328 Y121.855
M204 S2500
M205 X8 Y8
G1 F1800 X44.526 Y122.034 E8.87104
G1 X44.568 Y122.072 E8.87724
G1 X44.677 Y122.157 E8.89236
G1 X44.834 Y122.281 E8.91426
G1 X44.853 Y122.312 E8.91824
G1 X44.858 Y122.339 E8.92124
G1 X44.853 Y122.401 E8.92805
G1 X44.811 Y122.46 E8.93597
G1 X44.755 Y122.483
G1 X44.562 Y122.481 E8.9449
G1 X44.426 Y122.478 E8.9516
G1 X44.366 Y122.481 E8.95334
G1 X44.108 Y122.497 E8.97688
G1 X43.776 Y122.558 E9.01382
G1 X43.452 Y122.66 E9.05099
G1 X43.145 Y122.799 E9.08787
G1 X42.862 Y122.971 E9.12411
G1 X42.632 Y123.148 E9.15586
G1 X42.391 Y123.376 E9.19217
G1 X42.175 Y123.643 E9.22975
G1 X41.798 Y124.247 E9.30766
G1 X41.469 Y124.746 E9.37306
G1 X41.116 Y125.228 E9.43844
G1 X40.76 Y125.67 E9.50054
G1 X40.359 Y126.124 E9.56682
G1 X39.945 Y126.55 E9.63183
G1 X39.238 Y127.214 E9.73796
G1 X39.023 Y127.474 E9.77488
G1 X38.841 Y127.756 E9.8116
G1 X38.693 Y128.059 E9.8485
G1 X38.584 Y128.377 E9.88529
G1 X38.514 Y128.702 E9.92167
G1 X38.485 Y128.993 E9.95367
G1 X38.486 Y129.325 E9.99
G1 X38.513 Y129.52 E10.01154
G1 X38.517 Y129.552 E10.01507
G1 X38.53 Y129.647 E10.02556
G1 X38.55 Y129.738 E10.03576
G1 X38.601 Y129.969 E10.06164
G1 X38.583 Y130.034 E10.06902
G1 X38.54 Y130.078 E10.07576
G1 X38.513 Y130.089 E10.07895
G1 X38.473 Y130.095 E10.08337
G1 X38.426 Y130.084
G1 X38.414 Y130.081
G1 X38.265 Y129.951 E10.09163
G1 X38.128 Y129.831 E10.10172
G1 X37.857 Y129.642 E10.13322
G1 X37.828 Y129.627 E10.13672
G1 X37.603 Y129.503 E10.16483
G1 X37.298 Y129.376 E10.20098
G1 X36.971 Y129.285 E10.23812
G1 X36.649 Y129.236 E10.27377
G1 X36.358 Y129.222 E10.30564
G1 X36.023 Y129.244 E10.34238
G1 X35.687 Y129.308 E10.37981
G1 X34.995 Y129.536 E10.45954
G1 X34.444 Y129.698 E10.52238
G1 X33.713 Y129.876 E10.60471
G1 X33.184 Y129.973 E10.66356
G1 X32.569 Y130.059 E10.73151
G1 X32.014 Y130.11 E10.7925
G1 X31.375 Y130.138 E10.86249
G1 X31.082 Y130.164 E10.89468
G1 X30.761 Y130.231 E10.93056
G1 X30.489 Y130.318 E10.96181
G1 X30.183 Y130.452 E10.99836
G1 X29.89 Y130.629 E11.03582
G1 X29.632 Y130.832 E11.07175
G1 X29.424 Y131.033 E11.1034
G1 X29.211 Y131.288 E11.13975
G1 X29.067 Y131.516 E11.16926
G1 X29.036 Y131.564 E11.17551
G1 X28.973 Y131.684 E11.19035
G1 X28.881 Y131.859 E11.21198
G1 X28.835 Y131.893 E11.21824
G1 X28.77 Y131.902 E11.22542
G1 X28.691 Y131.862 E11.23511
G1 X28.667 Y131.824 E11.23604
G1 X28.636 Y131.629 E11.2453
G1 X28.615 Y131.497 E11.25175
G1 X28.6 Y131.434 E11.25387
G1 X28.54 Y131.182 E11.27749
G1 X28.422 Y130.868 E11.3142
G1 X28.267 Y130.566 E11.35134
G1 X28.073 Y130.285 E11.38871
G1 X27.858 Y130.041 E11.4243
G1 X27.644 Y129.844 E11.45612
G1 X27.373 Y129.644 E11.49298
G1 X27.074 Y129.479 E11.53035
G1 X26.268 Y129.154 E11.62545
G1 X25.758 Y128.926 E11.68658
G1 X25.21 Y128.65 E11.75372
G1 X24.724 Y128.376 E11.81477
G1 X24.216 Y128.056 E11.88047
G1 X23.732 Y127.721 E11.94488
G1 X23.243 Y127.345 E12.01238
G1 X23.001 Y127.173 E12.04486
G1 X22.708 Y127.017 E12.08119
G1 X22.439 Y126.908 E12.11295
G1 X22.124 Y126.817 E12.14883
G1 X21.786 Y126.764 E12.18626
G1 X21.456 Y126.753 E12.22239
G1 X21.171 Y126.774 E12.25367
G1 X20.843 Y126.832 E12.29011
G1 X20.651 Y126.893 E12.31216
G1 X20.617 Y126.903 E12.31604
G1 X20.532 Y126.93 E12.3258
G1 X20.446 Y126.966 E12.336
G1 X20.23 Y127.056 E12.3616
G1 X20.155 Y127.049 E12.36985
G1 X20.103 Y127.011 E12.37689
G1 X20.079 Y126.959 E12.38316
G1 X20.082 Y126.904
G1 X20.083 Y126.891
G1 X20.185 Y126.722 E12.39155
G1 X20.278 Y126.567 E12.40157
G1 X20.417 Y126.27 E12.43275
G1 X20.428 Y126.236 E12.43657
G1 X20.511 Y125.994 E12.46457
G1 X20.583 Y125.67 E12.50089
G1 X20.615 Y125.333 E12.53793
G1 X20.607 Y125.008 E12.5735
G1 X20.571 Y124.721 E12.60515
G1 X20.492 Y124.393 E12.64207
G1 X20.37 Y124.074 E12.67945
G1 X20.028 Y123.434 E12.75885
G1 X19.766 Y122.907 E12.82325
G1 X19.522 Y122.356 E12.88919
G1 X19.318 Y121.827 E12.95123
G1 X19.13 Y121.265 E13.01608
G1 X18.974 Y120.714 E13.07874
G1 X18.746 Y119.748 E13.18735
G1 X18.629 Y119.43 E13.22443
G1 X18.474 Y119.131 E13.26128
G1 X18.287 Y118.851 E13.29813
G1 X18.062 Y118.593 E13.33559
G1 X17.816 Y118.374 E13.37163
G1 X17.587 Y118.207 E13.40264
G1 X17.296 Y118.039 E13.43941
G1 X17.049 Y117.938 E13.46861
G1 X16.996 Y117.916 E13.47489
G1 X16.86 Y117.872 E13.49053
G1 X16.669 Y117.809 E13.51254
G1 X16.641 Y117.784 E13.51665
G1 X16.629 Y117.763 E13.51929
G1 X16.614 Y117.702 E13.52617
G1 X16.637 Y117.632 E13.53423
G1 X16.681 Y117.593
G1 X16.863 Y117.531 E13.54297
G1 X16.983 Y117.49 E13.54876
G1 X17.047 Y117.463 E13.55126
G1 X17.285 Y117.36 E13.57483
G1 X17.574 Y117.188 E13.61163
G1 X17.841 Y116.987 E13.6482
G1 X18.086 Y116.746 E13.68581
G1 X18.291 Y116.488 E13.72187
G1 X18.447 Y116.244 E13.75356
G1 X18.595 Y115.946 E13.78997
G1 X18.706 Y115.623 E13.82734
G1 X18.853 Y114.929 E13.90497
G1 X19.001 Y114.314 E13.97419
G1 X19.149 Y113.802 E14.0325
G1 X19.392 Y113.094 E14.11441
G1 X19.6 Y112.583 E14.17479
G1 X19.848 Y112.044 E14.23971
G1 X20.144 Y111.474 E14.30999
G1 X20.267 Y111.211 E14.34176
G1 X20.373 Y110.898 E14.37792
G1 X20.434 Y110.609 E14.41024
G1 X20.467 Y110.285 E14.44588
G1 X20.463 Y109.944 E14.4832
G1 X20.416 Y109.616 E14.51946
G1 X20.346 Y109.336 E14.55104
G1 X20.229 Y109.024 E14.5875
G1 X20.136 Y108.844 E14.60967
G1 X20.12 Y108.813 E14.61349
G1 X20.08 Y108.736 E14.62298
G1 X20.028 Y108.654 E14.63361
G1 X19.901 Y108.454 E14.65953
G1 X19.894 Y108.396 E14.66593
G1 X19.916 Y108.339 E14.67261
G1 X19.935 Y108.32 E14.67555
G1 X20.004 Y108.285 E14.68402
G1 X20.029 Y108.284
G1 X20.104 Y108.306
G1 X20.233 Y108.358 E14.68816
G1 X20.39 Y108.422 E14.69722
G1 X20.71 Y108.507 E14.72866
G1 X20.744 Y108.512 E14.73233
G1 X20.995 Y108.551 E14.76013
G1 X21.329 Y108.568 E14.79672
G1 X21.67 Y108.541 E14.83415
G1 X21.991 Y108.475 E14.87001
G1 X22.265 Y108.388 E14.90147
G1 X22.57 Y108.255 E14.93788
G1 X22.865 Y108.079 E14.97547
G1 X23.438 Y107.63 E15.05513
G1 X23.919 Y107.275 E15.12055
G1 X24.384 Y106.963 E15.18182
G1 X24.914 Y106.643 E15.24957
G1 X25.408 Y106.374 E15.31112
G1 X25.933 Y106.121 E15.37489
G1 X26.844 Y105.728 E15.48346
G1 X27.135 Y105.559 E15.52028
G1 X27.404 Y105.355 E15.55722
G1 X27.645 Y105.123 E15.59383
G1 X27.86 Y104.858 E15.63117
G1 X28.035 Y104.577 E15.66739
G1 X28.161 Y104.318 E15.69891
G1 X28.273 Y104.006 E15.73519
G1 X28.333 Y103.738 E15.76524
G1 X28.343 Y103.696 E15.76996
G1 X28.363 Y103.55 E15.78609
G1 X28.392 Y103.349 E15.80831
G1 X28.413 Y103.315 E15.81268
G1 X28.483 Y103.277 E15.8214
G1 X28.554 Y103.284 E15.82921
G1 X28.591 Y103.304 E15.82984
G1 X28.61 Y103.325
G1 X28.704 Y103.499 E15.83901
G1 X28.763 Y103.606 E15.8445
G1 X28.795 Y103.655 E15.84593
G1 X28.944 Y103.876 E15.87008
G1 X29.158 Y104.128 E15.90626
G1 X29.407 Y104.36 E15.9435
G1 X29.684 Y104.557 E15.9807
G1 X29.972 Y104.715 E16.01664
G1 X30.242 Y104.827 E16.04863
G1 X30.559 Y104.92 E16.08478
G1 X30.898 Y104.975 E16.12236
G1 X31.636 Y105 E16.20316
G1 X32.212 Y105.034 E16.2663
G1 X32.812 Y105.1 E16.33235
G1 X33.348 Y105.183 E16.3917
G1 X33.955 Y105.308 E16.45952
G1 X34.511 Y105.448 E16.52226
G1 X35.461 Y105.732 E16.63076
G1 X35.794 Y105.788 E16.66771
G1 X36.126 Y105.805 E16.70409
G1 X36.466 Y105.782 E16.74138
G1 X36.798 Y105.716 E16.77842
G1 X37.11 Y105.614 E16.81434
G1 X37.372 Y105.498 E16.84569
G1 X37.662 Y105.33 E16.88236
G1 X37.876 Y105.165 E16.91193
G1 X37.922 Y105.129 E16.91832
G1 X38.014 Y105.044 E16.93203
G1 X38.161 Y104.909 E16.95387
G1 X38.215 Y104.89 E16.96013
G1 X38.294 Y104.908 E16.969
G1 X38.34 Y104.956 E16.97628
G1 X38.356 Y105.013 E16.97887
G1 X38.319 Y105.205 E16.988
G1 X38.292 Y105.345 E16.99523
G1 X38.286 Y105.399 E16.99642
G1 X38.257 Y105.659 E17.02028
G1 X38.259 Y105.995 E17.05705
G1 X38.303 Y106.33 E17.09402
G1 X38.387 Y106.66 E17.13128
G1 X38.507 Y106.964 E17.16704
G1 X38.64 Y107.222 E17.19881
G1 X38.826 Y107.502 E17.23559
G1 X39.05 Y107.76 E17.27298
G1 X39.578 Y108.233 E17.35055
G1 X40.027 Y108.661 E17.41842
G1 X40.419 Y109.067 E17.48018
G1 X40.793 Y109.496 E17.54246
G1 X41.187 Y109.991 E17.61169
G1 X41.508 Y110.436 E17.67173
G1 X42.055 Y111.268 E17.78069
G1 X42.273 Y111.529 E17.8179
G1 X42.522 Y111.757 E17.85484
G1 X42.791 Y111.955 E17.89139
G1 X43.091 Y112.12 E17.92886
G1 X43.396 Y112.243 E17.96484
G1 X43.675 Y112.323 E17.9966
G1 X44.003 Y112.377 E18.03298
G1 X44.278 Y112.39 E18.0631
G1 X44.327 Y112.393 E18.06848
G1 X44.46 Y112.388 E18.08304
G1 X44.661 Y112.378 E18.10506
G1 X44.693 Y112.395 E18.10903
G1 X44.724 Y112.412 E18.1129
G1 X44.754 Y112.454 E18.11854
G1 X44.761 Y112.484 E18.12191
G1 X44.756 Y112.549 E18.12905
G1 X44.743 Y112.576
G1 X44.586 Y112.706 E18.13863
G1 X44.479 Y112.794 E18.14546
G1 X44.435 Y112.835 E18.14803
G1 X44.247 Y113.012 E18.1715
G1 X44.031 Y113.274 E18.20866
G1 X43.849 Y113.559 E18.24566
G1 X43.704 Y113.863 E18.28251
G1 X43.597 Y114.174 E18.3185
G1 X43.535 Y114.46 E18.35053
G1 X43.498 Y114.787 E18.38654
G1 X43.502 Y115.131 E18.42418
G1 X43.605 Y115.848 E18.50345
G1 X43.671 Y116.425 E18.567
G1 X43.717 Y117.148 E18.64627
G1 X43.723 Y117.709 E18.70766
G1 X43.701 Y118.311 E18.77358
G1 X43.655 Y118.874 E18.83539
G1 X43.571 Y119.521 E18.90679
G1 X43.544 Y119.816 E18.9392
G1 X43.554 Y120.146 E18.97533
G1 X43.595 Y120.431 E19.00684
G1 X43.674 Y120.752 E19.04301
G1 X43.797 Y121.071 E19.08042
G1 X43.951 Y121.36 E19.11625
G1 X44.113 Y121.599 E19.14785
G1 X44.328 Y121.855 E19.18443
M204 S3000
M205 X10 Y10
G0 F3600 X44.797 Y121.403
M204 S2500
M205 X8 Y8
;TYPE:WALL-OUTER
G1 F1800 X44.987 Y121.575 E19.21248
G1 X45.282 Y121.806 E19.25348
G1 X45.357 Y121.892 E19.26596
G1 X45.424 Y121.997 E19.27959
