;FLAVOR:Marlin
;TIME:4809
;Filament used: 20.793m
;Layer height: 0.4
;Generated with Cura_SteamEngine 3.6.0
M140 S30
M105
M190 S30
M104 S220
M105
M109 S220
M82 ;absolute extrusion mode
G21 ;metric values
G90 ;absolute positioning
M82 ;set extruder to absolute mode
M107 ;start with the fan off
G28 X0 Y0 ;move X/Y to min endstops
G28 Z0 ;move Z to min endstops
G1 Z15.0 F120 ;move the platform down 15mm
G92 E0 ;zero the extruded length
G1 F200 E3 ;extrude 3mm of feed stock
G92 E0 ;zero the extruded length again
G1 F120
M117 Printing...
G5
G92 E0
G1 F2400 E-6
;LAYER_COUNT:101
;LAYER:0
M106 S255
M204 S3000
M205 X10 Y10
;MESH:clamp_v01.stl
G0 F3600 X24.73 Y118.606 Z0.4
M204 S2500
M205 X8 Y8
;TYPE:WALL-INNER
G1 F2400 E0
G1 F1800 X24.632 Y118.033 E0.07633
G1 X24.587 Y117.71 E0.11916
G1 X24.566 Y117.55 E0.14035
G1 X24.497 Y117.377 E0.1648
G1 X24.422 Y117.189 E0.19138
G1 X24.561 Y117.188 E0.1932
G1 X24.984 Y117.182 E0.22768
G1 X25.146 Y117.182 E0.24895
G1 X27.085 Y117.185 E0.50356
G1 X33.303 Y117.157 E1.32007
G1 X48.375 Y117.127 E3.29919
G1 X52.137 Y117.103 E3.79319
G1 X53.796 Y117.105 E4.01104
G1 X58.241 Y117.164 E4.59476
G1 X59.315 Y117.172 E4.7358
G1 X62.054 Y117.148 E5.09547
G1 X62.835 Y117.147 E5.19803
G1 X64.767 Y117.191 E5.45178
G1 X65.281 Y117.186 E5.51928
G1 X65.767 Y117.142 E5.58336
G1 X66.092 Y117.093 E5.62652
G1 X66.407 Y117.012 E5.66923
G1 X66.757 Y116.892 E5.71781
G1 X67.151 Y116.686 E5.77619
G1 X67.459 Y116.459 E5.82643
G1 X67.719 Y116.219 E5.8729
G1 X67.964 Y115.926 E5.92305
G1 X68.191 Y115.566 E5.97893
G1 X68.357 Y115.194 E6.03242
G1 X68.452 Y114.891 E6.07412
G1 X68.519 Y114.629 E6.10963
G1 X68.576 Y114.319 E6.15102
G1 X68.62 Y113.826 E6.21601
G1 X68.63 Y113.146 E6.30532
G1 X68.541 Y110.023 E6.71557
G1 X68.527 Y108.463 E6.92042
G1 X68.544 Y105.366 E7.3271
G1 X68.537 Y103.08 E7.62727
G1 X68.516 Y100.959 E7.9058
G1 X68.518 Y100.085 E8.02056
G1 X68.565 Y97.692 E8.33485
G1 X68.584 Y96.367 E8.50886
G1 X68.573 Y94.68 E8.73038
G1 X68.534 Y92.718 E8.98807
G1 X68.519 Y91.235 E9.18281
G1 X68.553 Y87.351 E9.69284
G1 X68.555 Y85.509 E9.93472
G1 X68.502 Y81.131 E10.50964
G1 X68.503 Y79.215 E10.76123
G1 X68.529 Y78.066 E10.91215
G1 X68.61 Y76.503 E11.11766
G1 X68.615 Y76.196 E11.15798
G1 X68.598 Y75.738 E11.21816
G1 X68.549 Y75.303 E11.27564
G1 X68.48 Y74.987 E11.31811
G1 X68.381 Y74.669 E11.36185
G1 X68.218 Y74.295 E11.41542
G1 X67.903 Y73.812 E11.49114
G1 X67.527 Y73.43 E11.56152
G1 X67.164 Y73.164 E11.62062
G1 X66.836 Y72.977 E11.67019
G1 X66.453 Y72.809 E11.72511
G1 X66.124 Y72.706 E11.77038
G1 X65.612 Y72.593 E11.83923
G1 X65.247 Y72.541 E11.88764
G1 X64.618 Y72.489 E11.97052
G1 X63.661 Y72.468 E12.09621
G1 X62.512 Y72.474 E12.24709
G1 X59.574 Y72.53 E12.63295
G1 X58.069 Y72.549 E12.83059
G1 X56.742 Y72.539 E13.00485
G1 X55.106 Y72.501 E13.21973
G1 X54.031 Y72.498 E13.36089
G1 X51.566 Y72.562 E13.68468
G1 X47.162 Y72.617 E14.26302
G1 X45.506 Y72.611 E14.48047
G1 X43.173 Y72.639 E14.78684
G1 X41.803 Y72.649 E14.96674
G1 X40.996 Y72.639 E15.07272
G1 X38.261 Y72.567 E15.43198
G1 X34.486 Y72.589 E15.92769
G1 X33.944 Y72.585 E15.99886
G1 X33.927 Y72.584 E16.0011
G1 X33.93 Y72.545
G1 X33.946 Y72.344 E16.00334
G1 X33.862 Y71.316 E16.13877
G1 X33.697 Y70.146 E16.29393
G1 X33.656 Y69.688 E16.35431
G1 X33.638 Y69.019 E16.44219
G1 X33.676 Y67.867 E16.59354
G1 X33.775 Y66.37 E16.79054
G1 X33.804 Y65.792 E16.86654
G1 X33.828 Y64.962 E16.97557
G1 X33.819 Y64 E17.1019
G1 X33.785 Y63.229 E17.20324
G1 X33.783 Y63.161 E17.21217
G1 X33.783 Y63.009 E17.23213
G1 X33.783 Y62.921 E17.24368
G1 X33.752 Y62.508 E17.29807
G1 X33.749 Y62.474 E17.30255
G1 X33.766 Y62.474
G1 X33.937 Y62.467 E17.31488
G1 X34.005 Y62.467 E17.3238
G1 X34.275 Y62.468 E17.35926
G1 X34.362 Y62.47 E17.37069
G1 X36.307 Y62.532 E17.62622
G1 X36.997 Y62.537 E17.71682
G1 X39.158 Y62.494 E18.00064
G1 X39.786 Y62.492 E18.08311
G1 X42.382 Y62.533 E18.42403
G1 X44.638 Y62.521 E18.72027
G1 X55.393 Y62.514 E20.13252
G1 X60.896 Y62.491 E20.85513
G1 X64.737 Y62.506 E21.3595
G1 X65.874 Y62.501 E21.50881
G1 X69.168 Y62.457 E21.94138
G1 X70.476 Y62.484 E22.11317
G1 X70.84 Y62.502 E22.16103
G1 X71.801 Y62.579 E22.28762
G1 X72.279 Y62.645 E22.35099
G1 X72.786 Y62.737 E22.41865
G1 X73.375 Y62.877 E22.49815
G1 X73.71 Y62.972 E22.54387
G1 X73.992 Y63.066 E22.5829
G1 X74.26 Y63.171 E22.6207
G1 X74.617 Y63.337 E22.6724
G1 X74.798 Y63.433 E22.6993
G1 X75.222 Y63.687 E22.7642
G1 X75.411 Y63.815 E22.79417
G1 X75.687 Y64.025 E22.83971
G1 X76.041 Y64.329 E22.90099
G1 X76.353 Y64.636 E22.95846
G1 X76.654 Y64.962 E23.01673
G1 X76.873 Y65.227 E23.06187
G1 X77.151 Y65.595 E23.12243
G1 X77.346 Y65.881 E23.16788
G1 X77.563 Y66.23 E23.22185
G1 X77.761 Y66.579 E23.27454
G1 X77.883 Y66.814 E23.30931
G1 X78.071 Y67.232 E23.36949
G1 X78.148 Y67.436 E23.39812
G1 X78.226 Y67.683 E23.43213
G1 X78.288 Y67.922 E23.46456
G1 X78.348 Y68.213 E23.50357
G1 X78.401 Y68.547 E23.54798
G1 X78.449 Y69.035 E23.61237
G1 X78.503 Y69.907 E23.72709
G1 X78.517 Y70.416 E23.79395
G1 X78.533 Y73.691 E24.224
G1 X78.532 Y77.551 E24.73086
G1 X78.553 Y82.616 E25.39596
G1 X78.539 Y86.35 E25.88628
G1 X78.544 Y88.767 E26.20366
G1 X78.56 Y91.014 E26.49872
G1 X78.551 Y93.527 E26.82871
G1 X78.563 Y94.187 E26.91539
G1 X78.595 Y94.934 E27.01356
G1 X78.662 Y95.622 E27.10433
G1 X78.761 Y96.268 E27.19015
G1 X78.853 Y96.714 E27.24995
G1 X78.967 Y97.137 E27.30748
G1 X79.097 Y97.544 E27.36358
G1 X79.256 Y97.958 E27.42181
G1 X79.297 Y98.045 E27.43444
G1 X78.948 Y109.307 E28.91398
G1 X78.93 Y109.575 E28.94925
G1 X78.921 Y110.031 E29.00914
G1 X78.625 Y110.604 E29.09382
G1 X78.489 Y110.917 E29.13864
G1 X78.236 Y111.564 E29.22986
G1 X78.121 Y111.894 E29.27575
G1 X78.021 Y112.219 E29.3204
G1 X77.861 Y112.804 E29.40004
G1 X77.769 Y113.24 E29.45855
G1 X77.672 Y113.851 E29.53978
G1 X77.604 Y114.505 E29.62612
G1 X77.586 Y115.091 E29.70311
G1 X77.583 Y115.647 E29.77612
G1 X77.597 Y116.596 E29.90075
G1 X77.689 Y118.708 E30.17834
G1 X77.703 Y119.359 E30.26384
G1 X77.683 Y119.83 E30.32575
G1 X77.672 Y119.935 E30.33961
G1 X77.594 Y120.299 E30.38849
G1 X77.524 Y120.471 E30.41288
G1 X77.445 Y120.627 E30.43584
G1 X77.344 Y120.765 E30.45829
G1 X77.186 Y120.935 E30.48877
G1 X77.101 Y121.011 E30.50374
G1 X76.958 Y121.105 E30.52621
G1 X76.876 Y121.14 E30.53792
G1 X76.755 Y121.179 E30.55461
G1 X76.599 Y121.212 E30.57555
G1 X76.414 Y121.24 E30.60012
G1 X76.059 Y121.276 E30.64697
G1 X75.526 Y121.305 E30.71707
G1 X74.861 Y121.314 E30.8044
G1 X72.25 Y121.298 E31.14726
G1 X71.772 Y121.289 E31.21003
G1 X67.778 Y121.29 E31.73449
G1 X64.333 Y121.279 E32.18686
G1 X59.857 Y121.28 E32.77461
G1 X55.449 Y121.309 E33.35344
G1 X53.811 Y121.314 E33.56853
G1 X48.773 Y121.295 E34.23008
G1 X45.378 Y121.298 E34.67588
G1 X41.996 Y121.28 E35.11998
G1 X38.589 Y121.226 E35.56741
G1 X36.871 Y121.217 E35.793
G1 X33.492 Y121.25 E36.23673
G1 X31.87 Y121.249 E36.44971
G1 X29.164 Y121.195 E36.80511
G1 X27.79 Y121.185 E36.98554
G1 X26.426 Y121.22 E37.1647
G1 X25.204 Y121.294 E37.32546
G1 X24.619 Y121.313 E37.40232
G1 X24.377 Y121.309 E37.4341
G1 X24.376 Y121.309 E37.43423
G1 X24.222 Y121.306 E37.45446
G1 X24.13 Y121.304 E37.46654
G1 X24.157 Y121.197 E37.47008
G1 X24.229 Y120.913 E37.4935
G1 X24.39 Y120.471 E37.54579
G1 X24.613 Y119.646 E37.65801
G1 X24.73 Y118.606 E37.79544
M204 S3000
M205 X10 Y10
G0 F3600 X23.882 Y118.63
M204 S2500
M205 X8 Y8
G1 F1800 X23.804 Y118.175 E37.85605
G1 X23.748 Y117.765 E37.91039
G1 X23.534 Y117.228 E37.9863
G1 X23.487 Y117.146 E37.99871
G1 X23.398 Y116.936 E38.02866
G1 X23.221 Y116.603 E38.07818
G1 X23.175 Y116.517 E38.09098
G1 X23.156 Y116.473 E38.09728
G1 X23.133 Y116.42 E38.10486
G1 X23.161 Y116.417
G1 X23.335 Y116.395 E38.11065
G1 X23.366 Y116.394
G1 X23.437 Y116.389 E38.1136
G1 X23.652 Y116.374 E38.12689
G1 X24.225 Y116.351 E38.2022
G1 X24.975 Y116.342 E38.30069
G1 X27.084 Y116.345 E38.57762
G1 X33.299 Y116.317 E39.39373
G1 X48.371 Y116.287 E41.37285
G1 X52.133 Y116.263 E41.86685
G1 X53.807 Y116.265 E42.08667
G1 X58.25 Y116.324 E42.67013
G1 X59.314 Y116.332 E42.80985
G1 X62.047 Y116.308 E43.16874
G1 X62.853 Y116.307 E43.27458
G1 X64.772 Y116.351 E43.52663
G1 X65.239 Y116.346 E43.58796
G1 X65.667 Y116.308 E43.64438
G1 X65.924 Y116.269 E43.67851
G1 X66.165 Y116.207 E43.71119
G1 X66.424 Y116.118 E43.74715
G1 X66.704 Y115.972 E43.78861
G1 X66.923 Y115.81 E43.82438
G1 X67.11 Y115.638 E43.85775
G1 X67.283 Y115.431 E43.89317
G1 X67.448 Y115.169 E43.93383
G1 X67.57 Y114.896 E43.97309
G1 X67.644 Y114.661 E44.00544
G1 X67.698 Y114.449 E44.03417
G1 X67.743 Y114.205 E44.06675
G1 X67.781 Y113.782 E44.12252
G1 X67.79 Y113.152 E44.20525
G1 X67.701 Y110.047 E44.61314
G1 X67.687 Y108.458 E44.8218
G1 X67.704 Y105.365 E45.22795
G1 X67.697 Y103.085 E45.52734
G1 X67.676 Y100.957 E45.80679
G1 X67.678 Y100.068 E45.92352
G1 X67.725 Y97.678 E46.23742
G1 X67.744 Y96.364 E46.40998
G1 X67.733 Y94.691 E46.62967
G1 X67.694 Y92.735 E46.88656
G1 X67.679 Y91.228 E47.08446
G1 X67.713 Y87.347 E47.5941
G1 X67.715 Y85.514 E47.83479
G1 X67.662 Y81.131 E48.41037
G1 X67.663 Y79.196 E48.66445
G1 X67.69 Y78.023 E48.81852
G1 X67.77 Y76.474 E49.02219
G1 X67.775 Y76.204 E49.05765
G1 X67.76 Y75.801 E49.11061
G1 X67.719 Y75.44 E49.15832
G1 X67.667 Y75.201 E49.19043
G1 X67.593 Y74.963 E49.22316
G1 X67.476 Y74.695 E49.26156
G1 X67.245 Y74.341 E49.31707
G1 X66.976 Y74.067 E49.36749
G1 X66.707 Y73.87 E49.41127
G1 X66.459 Y73.729 E49.44873
G1 X66.157 Y73.597 E49.49201
G1 X65.907 Y73.518 E49.52644
G1 X65.462 Y73.42 E49.58627
G1 X65.153 Y73.376 E49.62725
G1 X64.574 Y73.328 E49.70354
G1 X63.654 Y73.308 E49.82438
G1 X62.522 Y73.314 E49.97302
G1 X59.59 Y73.37 E50.3581
G1 X58.074 Y73.389 E50.55718
G1 X56.722 Y73.379 E50.73472
G1 X55.095 Y73.341 E50.94842
G1 X54.041 Y73.338 E51.08682
G1 X51.588 Y73.402 E51.40904
G1 X49.457 Y73.424 E51.68888
G1 X47.171 Y73.457 E51.98909
G1 X45.51 Y73.451 E52.20719
G1 X43.183 Y73.479 E52.51278
G1 X41.799 Y73.489 E52.69452
G1 X40.974 Y73.479 E52.80286
G1 X38.252 Y73.407 E53.16041
G1 X34.483 Y73.429 E53.65533
G1 X33.612 Y73.42 E53.76971
G1 X33.544 Y73.42 E53.77864
G1 X33.039 Y73.4 E53.845
G1 X32.943 Y73.396 E53.85762
G1 X32.968 Y73.286
G1 X33.059 Y72.898 E53.8871
G1 X33.064 Y72.831 E53.89592
G1 X33.103 Y72.345 E53.95995
G1 X33.027 Y71.409 E54.08326
G1 X32.862 Y70.239 E54.23841
G1 X32.817 Y69.738 E54.30446
G1 X32.797 Y69.019 E54.39891
G1 X32.836 Y67.839 E54.55395
G1 X32.936 Y66.321 E54.75371
G1 X32.965 Y65.758 E54.82773
G1 X32.988 Y64.954 E54.93335
G1 X32.979 Y64.022 E55.05574
G1 X32.943 Y63.161 E55.1689
G1 X32.943 Y62.953 E55.19621
G1 X32.873 Y62.045 E55.31579
G1 X32.86 Y61.873 E55.33844
G1 X32.865 Y61.716 E55.35907
G1 X32.949 Y61.697 E55.37038
G1 X33.315 Y61.649 E55.41885
G1 X33.488 Y61.643 E55.44158
G1 X33.935 Y61.627 E55.50031
G1 X34.302 Y61.628 E55.5485
G1 X36.323 Y61.692 E55.81402
G1 X36.992 Y61.697 E55.90187
G1 X39.141 Y61.654 E56.18411
G1 X39.796 Y61.652 E56.27012
G1 X42.386 Y61.693 E56.61026
G1 X44.634 Y61.681 E56.90545
G1 X55.391 Y61.674 E58.31796
G1 X60.895 Y61.651 E59.0407
G1 X64.737 Y61.666 E59.5452
G1 X65.867 Y61.661 E59.69359
G1 X69.174 Y61.617 E60.12787
G1 X70.499 Y61.644 E60.30189
G1 X70.884 Y61.663 E60.35251
G1 X71.893 Y61.744 E60.48543
G1 X72.41 Y61.815 E60.55396
G1 X72.959 Y61.915 E60.62723
G1 X73.595 Y62.066 E60.71307
G1 X73.961 Y62.17 E60.76303
G1 X74.269 Y62.273 E60.80567
G1 X74.591 Y62.399 E60.85108
G1 X74.988 Y62.583 E60.90854
G1 X75.211 Y62.701 E60.94166
G1 X75.678 Y62.981 E61.01316
G1 X75.904 Y63.135 E61.04908
G1 X76.22 Y63.375 E61.10118
G1 X76.607 Y63.707 E61.16814
G1 X76.957 Y64.052 E61.23267
G1 X77.286 Y64.409 E61.29642
G1 X77.537 Y64.711 E61.34798
G1 X77.822 Y65.089 E61.41014
G1 X78.06 Y65.438 E61.46561
G1 X78.294 Y65.815 E61.52388
G1 X78.492 Y66.164 E61.57657
G1 X78.634 Y66.436 E61.61686
G1 X78.847 Y66.91 E61.6851
G1 X78.942 Y67.163 E61.72058
G1 X79.035 Y67.455 E61.76082
G1 X79.108 Y67.736 E61.79895
G1 X79.176 Y68.068 E61.84345
G1 X79.234 Y68.433 E61.89198
G1 X79.287 Y68.976 E61.96362
G1 X79.319 Y69.429 E62.02325
G1 X79.343 Y69.884 E62.08308
G1 X79.357 Y70.393 E62.14994
G1 X79.373 Y73.691 E62.58301
G1 X79.372 Y77.549 E63.08961
G1 X79.393 Y82.619 E63.75536
G1 X79.379 Y86.351 E64.24542
G1 X79.384 Y88.763 E64.56214
G1 X79.4 Y91.017 E64.85812
G1 X79.391 Y93.521 E65.18693
G1 X79.403 Y94.161 E65.27098
G1 X79.433 Y94.875 E65.36482
G1 X79.496 Y95.517 E65.44953
G1 X79.588 Y96.119 E65.52949
G1 X79.671 Y96.52 E65.58327
G1 X79.773 Y96.9 E65.63493
G1 X79.89 Y97.265 E65.68526
G1 X80.029 Y97.628 E65.7363
G1 X80.143 Y97.87 E65.77143
G1 X79.788 Y109.335 E67.27763
G1 X79.769 Y109.612 E67.31409
G1 X79.756 Y110.275 E67.40116
G1 X79.639 Y110.466 E67.43058
G1 X79.385 Y110.963 E67.50387
G1 X79.266 Y111.237 E67.54309
G1 X79.024 Y111.856 E67.63037
G1 X78.919 Y112.156 E67.6721
G1 X78.828 Y112.453 E67.71289
G1 X78.678 Y113.002 E67.78762
G1 X78.595 Y113.393 E67.84011
G1 X78.505 Y113.96 E67.9155
G1 X78.443 Y114.561 E67.99483
G1 X78.426 Y115.106 E68.06643
G1 X78.423 Y115.643 E68.13695
G1 X78.437 Y116.571 E68.25882
G1 X78.529 Y118.69 E68.53733
G1 X78.543 Y119.359 E68.62519
G1 X78.521 Y119.896 E68.69577
G1 X78.503 Y120.062 E68.71769
G1 X78.433 Y120.417 E68.7652
G1 X78.386 Y120.581 E68.78761
G1 X78.289 Y120.821 E68.8216
G1 X78.166 Y121.063 E68.85724
G1 X77.998 Y121.293 E68.89464
G1 X77.872 Y121.437 E68.91977
G1 X77.751 Y121.557 E68.94215
G1 X77.626 Y121.668 E68.9641
G1 X77.478 Y121.773 E68.98793
G1 X77.339 Y121.856 E69.00919
G1 X77.17 Y121.928 E69.03331
G1 X76.973 Y121.992 E69.06051
G1 X76.746 Y122.04 E69.09097
G1 X76.52 Y122.074 E69.12098
G1 X76.125 Y122.114 E69.17312
G1 X75.559 Y122.145 E69.24755
G1 X74.867 Y122.154 E69.33842
G1 X72.234 Y122.138 E69.68417
G1 X71.764 Y122.129 E69.7459
G1 X67.775 Y122.13 E70.2697
G1 X64.332 Y122.119 E70.72181
G1 X59.86 Y122.12 E71.30903
G1 X55.455 Y122.149 E71.88747
G1 X53.811 Y122.154 E72.10334
G1 X48.772 Y122.135 E72.76502
G1 X45.375 Y122.138 E73.21109
G1 X41.983 Y122.12 E73.6565
G1 X38.58 Y122.066 E74.10341
G1 X36.873 Y122.057 E74.32756
G1 X33.499 Y122.09 E74.77062
G1 X31.853 Y122.089 E74.98676
G1 X29.153 Y122.035 E75.34137
G1 X27.798 Y122.025 E75.5193
G1 X26.462 Y122.059 E75.69479
G1 X25.231 Y122.134 E75.85674
G1 X24.638 Y122.153 E75.93464
G1 X24.134 Y122.148 E76.00083
G1 X23.776 Y122.115 E76.04804
G1 X23.705 Y122.109 E76.05739
G1 X23.424 Y122.043 E76.09529
G1 X23.325 Y122.02 E76.10864
G1 X23.205 Y121.953 E76.12669
G1 X23.191 Y121.881 E76.13632
G1 X23.189 Y121.805 E76.1463
G1 X23.202 Y121.613 E76.17157
G1 X23.214 Y121.542 E76.18103
G1 X23.242 Y121.387 E76.20171
G1 X23.267 Y121.289 E76.21499
G1 X23.426 Y120.662 E76.29993
G1 X23.589 Y120.217 E76.36216
G1 X23.785 Y119.489 E76.46116
G1 X23.882 Y118.63 E76.57467
M204 S3000
M205 X10 Y10
G0 F3600 X23.034 Y118.654
M204 S2500
M205 X8 Y8
;TYPE:WALL-OUTER
G1 F1800 X22.976 Y118.317 E76.61957
G1 X22.93 Y117.981 E76.6641
G1 X22.776 Y117.595 E76.71868
G1 X22.734 Y117.522 E76.72973
G1 X22.639 Y117.298 E76.76168
G1 X22.419 Y116.884 E76.82325
G1 X22.252 Y116.497 E76.87859
G1 X22.246 Y116.483 E76.88059
G1 X22.17 Y116.282 E76.90881
G1 X22.132 Y116.113 E76.93156
G1 X22.13 Y116.103 E76.93289
G1 X22.121 Y115.973 E76.95001
G1 X22.134 Y115.893 E76.96065
G1 X22.197 Y115.811 E76.97423
G1 X22.268 Y115.761 E76.98563
G1 X22.437 Y115.693 E77.00955
G1 X22.452 Y115.69 E77.01156
G1 X22.79 Y115.615 E77.05702
G1 X22.8 Y115.614 E77.05834
G1 X23.251 Y115.559 E77.118
G1 X23.606 Y115.536 E77.16471
G1 X24.215 Y115.511 E77.24475
G1 X24.966 Y115.502 E77.34337
G1 X27.083 Y115.505 E77.62136
G1 X33.295 Y115.477 E78.43707
G1 X48.367 Y115.447 E80.41619
G1 X52.129 Y115.423 E80.9102
G1 X53.818 Y115.425 E81.13198
G1 X58.259 Y115.484 E81.71518
G1 X59.313 Y115.492 E81.85359
G1 X62.04 Y115.468 E82.21169
G1 X62.871 Y115.467 E82.32081
G1 X64.777 Y115.511 E82.57115
G1 X65.198 Y115.506 E82.62644
G1 X65.567 Y115.474 E82.67507
G1 X65.755 Y115.445 E82.70005
G1 X65.923 Y115.402 E82.72282
G1 X66.091 Y115.344 E82.74616
G1 X66.258 Y115.257 E82.77089
G1 X66.388 Y115.161 E82.79211
G1 X66.501 Y115.057 E82.81228
G1 X66.602 Y114.936 E82.83297
G1 X66.706 Y114.771 E82.85858
G1 X66.784 Y114.597 E82.88362
G1 X66.836 Y114.432 E82.90634
