;FLAVOR:Marlin
;TIME:3566
;Filament used: 2.65208m
;Layer height: 0.2
;MINX:216.225
;MINY:195.554
;MINZ:0.3
;MAXX:272.027
;MAXY:247.873
;MAXZ:6.9
;Generated with Cura_SteamEngine 4.10.0
M104 S225
M105
M109 S225
M82 ;absolute extrusion mode
G28 ; home all axes
 M117 Purge extruder
 G92 E0 ; reset extruder
 G1 Z1.0 F3000 ; move z up little to prevent scratching of surface
 G1 X2 Y20 Z0.3 F5000.0 ; move to start-line position
 G1 X2 Y200.0 Z0.3 F1500.0 E15 ; draw 1st line
 G1 X2 Y200.0 Z0.4 F5000.0 ; move to side a little
 G1 X2 Y20 Z0.4 F1500.0 E30 ; draw 2nd line
 G92 E0 ; reset extruder
 G1 Z1.0 F3000 ; move z up little to prevent scratching of surface
G92 E0
G92 E0
G1 F2400 E-2
;LAYER_COUNT:35
;LAYER:0
M107
;MESH:feet_weldedTable_v03.stl(1)
G0 F6000 X218.008 Y201.831 Z0.3
;TYPE:WALL-INNER
G1 F2400 E0
G1 F1200 X218.099 Y201.451 E0.01316
G1 X218.206 Y201.143 E0.02414
G1 X218.362 Y200.807 E0.03661
G1 X218.53 Y200.513 E0.04802
G1 X218.747 Y200.21 E0.06057
G1 X218.976 Y199.945 E0.07236
G1 X219.227 Y199.705 E0.08406
G1 X219.511 Y199.481 E0.09624
G1 X219.82 Y199.284 E0.10858
G1 X220.137 Y199.121 E0.12058
G1 X220.481 Y198.984 E0.13305
G1 X220.791 Y198.894 E0.14392
G1 X221.168 Y198.823 E0.15684
G1 X221.535 Y198.789 E0.16925
G1 X221.713 Y198.783 E0.17525
G1 X237.158 Y198.783 E0.69538
G1 X237.567 Y198.803 E0.70917
G1 X237.9 Y198.852 E0.7205
G1 X238.245 Y198.936 E0.73246
G1 X238.588 Y199.054 E0.74467
G1 X238.9 Y199.198 E0.75624
G1 X239.224 Y199.384 E0.76883
G1 X239.51 Y199.589 E0.78068
G1 X239.776 Y199.821 E0.79256
G1 X240.025 Y200.084 E0.80476
G1 X240.245 Y200.359 E0.81662
G1 X240.441 Y200.667 E0.82891
G1 X240.598 Y200.972 E0.84046
G1 X240.739 Y201.325 E0.85327
G1 X240.835 Y201.658 E0.86494
G1 X240.899 Y201.985 E0.87616
G1 X240.935 Y202.383 E0.88961
G1 X240.939 Y202.526 E0.89443
G1 X240.939 Y215.502 E1.33141
G1 X240.919 Y215.907 E1.34507
G1 X240.87 Y216.239 E1.35637
G1 X240.787 Y216.585 E1.36835
G1 X240.665 Y216.94 E1.38099
G1 X240.517 Y217.258 E1.3928
G1 X240.342 Y217.563 E1.40464
G1 X240.133 Y217.854 E1.41671
G1 X239.905 Y218.119 E1.42848
G1 X239.636 Y218.374 E1.44096
G1 X239.376 Y218.579 E1.45211
G1 X239.056 Y218.783 E1.46489
G1 X238.746 Y218.942 E1.47663
G1 X238.413 Y219.075 E1.4887
G1 X238.076 Y219.175 E1.50054
G1 X237.719 Y219.242 E1.51277
G1 X237.341 Y219.278 E1.52556
G1 X237.169 Y219.283 E1.53135
G1 X221.72 Y219.283 E2.05161
G1 X221.316 Y219.263 E2.06524
G1 X220.983 Y219.213 E2.07657
G1 X220.627 Y219.127 E2.08891
G1 X220.282 Y219.008 E2.1012
G1 X219.971 Y218.864 E2.11274
G1 X219.651 Y218.678 E2.1252
G1 X219.364 Y218.471 E2.13712
G1 X219.095 Y218.242 E2.14902
G1 X218.862 Y217.995 E2.16045
G1 X218.637 Y217.71 E2.17268
G1 X218.436 Y217.395 E2.18526
G1 X218.28 Y217.091 E2.19677
G1 X218.146 Y216.753 E2.20902
G1 X218.049 Y216.423 E2.2206
G1 X217.978 Y216.052 E2.23332
G1 X217.942 Y215.673 E2.24614
G1 X217.939 Y215.54 E2.25062
G1 X217.939 Y202.564 E2.6876
G1 X217.959 Y202.156 E2.70135
G1 X218.008 Y201.831 E2.71242
G0 F6000 X217.713 Y201.773
G1 F1200 X217.809 Y201.374 E2.72624
G1 X217.929 Y201.028 E2.73858
G1 X218.095 Y200.67 E2.75186
G1 X218.278 Y200.351 E2.76425
G1 X218.512 Y200.023 E2.77782
G1 X218.758 Y199.738 E2.7905
G1 X219.03 Y199.478 E2.80317
G1 X219.342 Y199.233 E2.81653
G1 X219.667 Y199.025 E2.82952
G1 X220.014 Y198.847 E2.84265
G1 X220.378 Y198.702 E2.85585
G1 X220.727 Y198.601 E2.86808
G1 X221.126 Y198.525 E2.88176
G1 X221.514 Y198.489 E2.89488
G1 X221.703 Y198.483 E2.90125
G1 X237.173 Y198.483 E3.42222
G1 X237.593 Y198.504 E3.43638
G1 X237.952 Y198.556 E3.4486
G1 X238.336 Y198.65 E3.46191
G1 X238.697 Y198.774 E3.47476
G1 X239.037 Y198.931 E3.48737
G1 X239.391 Y199.134 E3.50112
G1 X239.693 Y199.35 E3.51362
G1 X239.985 Y199.605 E3.52668
G1 X240.255 Y199.89 E3.5399
G1 X240.487 Y200.181 E3.55243
G1 X240.703 Y200.52 E3.56597
G1 X240.872 Y200.849 E3.57842
G1 X241.021 Y201.222 E3.59195
G1 X241.126 Y201.585 E3.60467
G1 X241.192 Y201.927 E3.6164
G1 X241.197 Y201.95 E3.6172
G1 X241.235 Y202.364 E3.6312
G1 X241.239 Y202.526 E3.63665
G1 X241.239 Y215.517 E4.07414
G1 X241.218 Y215.935 E4.08823
G1 X241.165 Y216.296 E4.10052
G1 X241.075 Y216.671 E4.11351
G1 X240.946 Y217.046 E4.12686
G1 X240.784 Y217.395 E4.13982
G1 X240.591 Y217.731 E4.15287
G1 X240.371 Y218.037 E4.16556
G1 X240.122 Y218.326 E4.1784
G1 X239.834 Y218.599 E4.19177
G1 X239.822 Y218.608 E4.19227
G1 X239.562 Y218.813 E4.20342
G1 X239.544 Y218.828 E4.20421
G1 X239.209 Y219.042 E4.2176
G1 X238.869 Y219.216 E4.23046
G1 X238.511 Y219.359 E4.24344
G1 X238.147 Y219.467 E4.25623
G1 X237.761 Y219.54 E4.26946
G1 X237.362 Y219.578 E4.28296
G1 X237.177 Y219.583 E4.28919
G1 X221.705 Y219.583 E4.81022
G1 X221.288 Y219.562 E4.82428
G1 X220.923 Y219.508 E4.83671
G1 X220.543 Y219.416 E4.84987
G1 X220.176 Y219.289 E4.86295
G1 X219.832 Y219.13 E4.87571
G1 X219.491 Y218.932 E4.88899
G1 X219.173 Y218.703 E4.90219
G1 X218.889 Y218.46 E4.91478
G1 X218.635 Y218.192 E4.92721
G1 X218.389 Y217.879 E4.94062
G1 X218.18 Y217.553 E4.95366
G1 X218.006 Y217.213 E4.96652
G1 X217.862 Y216.851 E4.97964
G1 X217.756 Y216.492 E4.99225
G1 X217.68 Y216.096 E5.00583
G1 X217.643 Y215.701 E5.01919
G1 X217.639 Y215.54 E5.02461
G1 X217.639 Y202.549 E5.46209
G1 X217.66 Y202.128 E5.47629
G1 X217.713 Y201.773 E5.48838
G0 F6000 X217.418 Y201.715
G1 F1200 X217.519 Y201.297 E5.50286
G1 X217.652 Y200.913 E5.51654
G1 X217.83 Y200.528 E5.53083
G1 X218.023 Y200.193 E5.54385
G1 X218.277 Y199.836 E5.5586
G1 X218.54 Y199.531 E5.57216
G1 X218.838 Y199.247 E5.58603
G1 X219.167 Y198.988 E5.60013
G1 X219.514 Y198.766 E5.614
G1 X219.891 Y198.573 E5.62826
G1 X220.275 Y198.42 E5.64218
G1 X220.665 Y198.307 E5.65586
G1 X221.082 Y198.227 E5.67015
G1 X221.493 Y198.189 E5.68405
G1 X221.694 Y198.183 E5.69083
G1 X237.188 Y198.183 E6.2126
G1 X237.619 Y198.205 E6.22713
G1 X238.013 Y198.262 E6.24054
G1 X238.416 Y198.36 E6.25451
G1 X238.806 Y198.494 E6.26839
G1 X239.179 Y198.666 E6.28223
G1 X239.549 Y198.879 E6.2966
G1 X239.88 Y199.115 E6.31029
G1 X240.194 Y199.389 E6.32433
G1 X240.485 Y199.696 E6.33857
G1 X240.729 Y200.003 E6.35178
G1 X240.965 Y200.373 E6.36656
G1 X241.146 Y200.726 E6.37992
G1 X241.303 Y201.119 E6.39417
G1 X241.413 Y201.502 E6.40759
G1 X241.417 Y201.514 E6.40801
G1 X241.419 Y201.527 E6.40846
G1 X241.49 Y201.892 E6.42098
G1 X241.495 Y201.913 E6.42171
G1 X241.534 Y202.337 E6.43604
G1 X241.539 Y202.526 E6.44241
G1 X241.539 Y215.532 E6.8804
G1 X241.517 Y215.961 E6.89487
G1 X241.46 Y216.355 E6.90827
G1 X241.363 Y216.757 E6.9222
G1 X241.227 Y217.152 E6.93627
G1 X241.049 Y217.537 E6.95055
G1 X240.847 Y217.888 E6.96419
G1 X240.614 Y218.211 E6.9776
G1 X240.603 Y218.227 E6.97825
G1 X240.339 Y218.534 E6.99189
G1 X240.032 Y218.824 E7.00611
G1 X240.02 Y218.833 E7.00662
G1 X239.73 Y219.062 E7.01906
G1 X239.712 Y219.077 E7.01985
G1 X239.365 Y219.299 E7.03372
G1 X238.987 Y219.492 E7.04801
G1 X238.609 Y219.643 E7.06172
G1 X238.218 Y219.759 E7.07546
G1 X237.802 Y219.838 E7.08972
G1 X237.384 Y219.878 E7.10386
G1 X237.185 Y219.883 E7.11056
G1 X221.69 Y219.883 E7.63237
G1 X221.261 Y219.861 E7.64683
G1 X220.872 Y219.804 E7.66007
G1 X220.449 Y219.701 E7.67474
G1 X220.07 Y219.57 E7.68824
G1 X219.69 Y219.394 E7.70234
G1 X219.327 Y219.184 E7.71647
G1 X218.99 Y218.942 E7.73044
G1 X218.682 Y218.677 E7.74412
G1 X218.404 Y218.384 E7.75772
G1 X218.144 Y218.054 E7.77187
G1 X217.923 Y217.709 E7.78567
G1 X217.73 Y217.331 E7.79996
G1 X217.578 Y216.949 E7.8138
G1 X217.463 Y216.562 E7.8274
G1 X217.382 Y216.14 E7.84187
G1 X217.344 Y215.729 E7.85577
G1 X217.339 Y215.54 E7.86214
G1 X217.339 Y202.534 E8.30013
G1 X217.361 Y202.1 E8.31476
G1 X217.418 Y201.715 E8.32787
G0 F6000 X217.173 Y201.663
;TYPE:WALL-OUTER
G1 F1200 X217.278 Y201.229 E8.3429
G1 X217.421 Y200.817 E8.35759
G1 X217.605 Y200.418 E8.37239
G1 X217.819 Y200.048 E8.38678
G1 X218.076 Y199.687 E8.4017
G1 X218.36 Y199.358 E8.41634
G1 X218.676 Y199.057 E8.43104
G1 X219.02 Y198.786 E8.44578
G1 X219.396 Y198.545 E8.46082
G1 X219.783 Y198.347 E8.47546
G1 X220.194 Y198.183 E8.49037
G1 X220.611 Y198.062 E8.50499
G1 X221.043 Y197.979 E8.5198
G1 X221.479 Y197.939 E8.53455
G1 X221.687 Y197.933 E8.54155
G1 X237.201 Y197.933 E9.064
G1 X237.635 Y197.955 E9.07864
G1 X238.065 Y198.017 E9.09327
G1 X238.481 Y198.118 E9.10768
G1 X238.905 Y198.264 E9.12278
G1 X239.297 Y198.445 E9.13732
G1 X239.674 Y198.662 E9.15197
G1 X240.041 Y198.924 E9.16716
G1 X240.369 Y199.209 E9.18179
G1 X240.67 Y199.527 E9.19654
G1 X240.936 Y199.863 E9.21097
G1 X241.176 Y200.238 E9.22596
G1 X241.375 Y200.626 E9.24065
G1 X241.539 Y201.036 E9.25552
G1 X241.66 Y201.455 E9.2702
G1 X241.743 Y201.881 E9.28482
G1 X241.784 Y202.323 E9.29977
G1 X241.789 Y202.526 E9.30661
G1 X241.789 Y215.545 E9.74503
G1 X241.767 Y215.977 E9.7596
G1 X241.705 Y216.407 E9.77423
G1 X241.604 Y216.825 E9.78871
G1 X241.458 Y217.248 E9.80378
G1 X241.274 Y217.647 E9.81858
G1 X241.054 Y218.028 E9.83339
G1 X240.803 Y218.378 E9.8479
G1 X240.519 Y218.707 E9.86253
G1 X240.194 Y219.015 E9.87761
G1 X239.859 Y219.279 E9.89198
G1 X239.483 Y219.52 E9.90702
G1 X239.096 Y219.718 E9.92165
G1 X238.688 Y219.881 E9.93645
G1 X238.275 Y220.003 E9.95095
G1 X237.841 Y220.086 E9.96583
G1 X237.4 Y220.128 E9.98075
G1 X237.191 Y220.133 E9.98779
G1 X221.677 Y220.133 E10.51024
G1 X221.244 Y220.111 E10.52484
G1 X220.82 Y220.049 E10.53927
G1 X220.381 Y219.942 E10.55449
G1 X219.974 Y219.801 E10.56899
G1 X219.572 Y219.615 E10.58391
G1 X219.194 Y219.397 E10.5986
G1 X218.839 Y219.142 E10.61332
G1 X218.509 Y218.857 E10.62801
G1 X218.212 Y218.545 E10.64251
G1 X217.943 Y218.202 E10.65719
G1 X217.702 Y217.827 E10.6722
G1 X217.504 Y217.439 E10.68687
G1 X217.34 Y217.028 E10.70177
G1 X217.219 Y216.619 E10.71614
G1 X217.135 Y216.179 E10.73122
G1 X217.094 Y215.744 E10.74594
G1 X217.089 Y215.54 E10.75281
G1 X217.089 Y202.521 E11.19124
G1 X217.111 Y202.087 E11.20587
G1 X217.173 Y201.663 E11.2203
G0 F6000 X217.496 Y201.725
G0 X218.29 Y201.899
;TYPE:SKIN
G1 F1200 X218.378 Y201.532 E11.23372
G1 X218.474 Y201.255 E11.24414
G1 X218.625 Y200.929 E11.25691
G1 X218.769 Y200.678 E11.26719
G1 X218.981 Y200.382 E11.28014
G1 X219.177 Y200.154 E11.29082
G1 X219.413 Y199.928 E11.30244
G1 X219.683 Y199.716 E11.31464
G1 X219.963 Y199.536 E11.32647
G1 X220.264 Y199.382 E11.33849
G1 X220.573 Y199.259 E11.35031
G1 X220.855 Y199.177 E11.36075
G1 X221.215 Y199.109 E11.37378
G1 X221.545 Y199.079 E11.38556
G1 X221.723 Y199.073 E11.39189
G1 X237.144 Y199.073 E11.94005
G1 X237.542 Y199.093 E11.95422
G1 X237.844 Y199.137 E11.96507
G1 X238.164 Y199.215 E11.97678
G1 X238.485 Y199.325 E11.98884
G1 X238.763 Y199.453 E11.99972
G1 X239.069 Y199.629 E12.01226
G1 X239.329 Y199.815 E12.02363
G1 X239.572 Y200.027 E12.03509
G1 X239.805 Y200.274 E12.04716
G1 X240.005 Y200.524 E12.05854
G1 X240.189 Y200.812 E12.07069
G1 X240.336 Y201.098 E12.08212
G1 X240.462 Y201.411 E12.09412
G1 X240.556 Y201.739 E12.10624
G1 X240.613 Y202.028 E12.11671
G1 X240.645 Y202.391 E12.12967
G1 X240.649 Y202.526 E12.13447
G1 X240.649 Y215.488 E12.59523
G1 X240.63 Y215.878 E12.60911
G1 X240.585 Y216.183 E12.62007
G1 X240.508 Y216.504 E12.6318
G1 X240.395 Y216.832 E12.64413
G1 X240.261 Y217.121 E12.65545
G1 X240.103 Y217.397 E12.66676
G1 X239.9 Y217.68 E12.67914
G1 X239.695 Y217.919 E12.69033
G1 X239.45 Y218.151 E12.70233
G1 X239.2 Y218.347 E12.71362
G1 X238.914 Y218.53 E12.72569
G1 X238.628 Y218.677 E12.73712
G1 X238.322 Y218.799 E12.74883
G1 X238.009 Y218.892 E12.76044
G1 X237.672 Y218.956 E12.77263
G1 X237.333 Y218.988 E12.78473
G1 X237.161 Y218.993 E12.79085
G1 X221.734 Y218.993 E13.33923
G1 X221.334 Y218.973 E13.35347
G1 X221.048 Y218.93 E13.36375
G1 X220.708 Y218.848 E13.37618
G1 X220.39 Y218.738 E13.38814
G1 X220.104 Y218.607 E13.39932
G1 X219.818 Y218.44 E13.4111
G1 X219.539 Y218.239 E13.42332
G1 X219.294 Y218.031 E13.43474
G1 X219.086 Y217.809 E13.44556
G1 X218.865 Y217.53 E13.45821
G1 X218.687 Y217.25 E13.47
G1 X218.542 Y216.966 E13.48134
G1 X218.42 Y216.657 E13.49315
G1 X218.331 Y216.354 E13.50437
G1 X218.264 Y216.005 E13.517
G1 X218.232 Y215.666 E13.52911
G1 X218.229 Y215.54 E13.53359
G1 X218.229 Y202.578 E13.99435
G1 X218.249 Y202.17 E14.00887
G1 X218.29 Y201.899 E14.01861
G1 F2400 E12.01861
G0 F6000 X216.252 Y201.996
G0 X216.25 Y216.047
G0 X216.521 Y217.306
G0 X216.979 Y218.254
G0 X217.397 Y218.912
G0 X219.289 Y217.63
G1 F2400 E14.01861
G1 F1200 X219.479 Y217.834 E14.02852
G1 X219.703 Y218.025 E14.03898
G1 X219.769 Y218.072 E14.04186
G1 X219.142 Y217.445 E14.07338
G1 X219.083 Y217.37 E14.07677
G1 X218.918 Y217.112 E14.08766
G1 X218.791 Y216.859 E14.09772
G1 X218.671 Y216.558 E14.10924
G1 X218.667 Y216.546 E14.10969
G1 X220.671 Y218.55 E14.21043
G1 X220.777 Y218.587 E14.21443
G1 X221.103 Y218.666 E14.22635
G1 X221.23 Y218.684 E14.23091
G1 X218.534 Y215.988 E14.36644
G1 X218.529 Y215.961 E14.36741
G1 X218.501 Y215.659 E14.3782
G1 X218.498 Y215.539 E14.38246
G1 X218.498 Y215.528 E14.38285
G1 X221.689 Y218.719 E14.54327
G1 X221.746 Y218.722 E14.5453
G1 X222.117 Y218.722 E14.55848
G1 X218.498 Y215.104 E14.74039
G1 X218.498 Y214.679 E14.7555
G1 X222.541 Y218.722 E14.95874
G1 X222.965 Y218.722 E14.97381
G1 X218.498 Y214.255 E15.19837
G1 X218.498 Y213.831 E15.21344
G1 X223.389 Y218.722 E15.45932
G1 X223.814 Y218.722 E15.47443
G1 X218.498 Y213.406 E15.74166
G1 X218.498 Y212.982 E15.75674
G1 X224.238 Y218.722 E16.04529
G1 X224.662 Y218.722 E16.06036
G1 X218.498 Y212.558 E16.37023
G1 X218.498 Y212.134 E16.3853
G1 X225.086 Y218.722 E16.71649
G1 X225.511 Y218.722 E16.73159
G1 X218.498 Y211.709 E17.08414
G1 X218.498 Y211.285 E17.09921
G1 X225.935 Y218.722 E17.47308
G1 X226.359 Y218.722 E17.48815
G1 X218.498 Y210.861 E17.88333
G1 X218.498 Y210.437 E17.8984
G1 X226.783 Y218.722 E18.31489
G1 X227.208 Y218.722 E18.33
G1 X218.498 Y210.012 E18.76786
G1 X218.498 Y209.588 E18.78293
G1 X227.632 Y218.722 E19.2421
G1 X228.056 Y218.722 E19.25717
G1 X218.498 Y209.164 E19.73766
G1 X218.498 Y208.74 E19.75273
G1 X228.481 Y218.722 E20.25456
G1 X228.905 Y218.722 E20.26963
G1 X218.498 Y208.315 E20.7928
G1 X218.498 Y207.891 E20.80787
G1 X229.329 Y218.722 E21.35235
G1 X229.753 Y218.722 E21.36743
G1 X218.498 Y207.467 E21.93322
G1 X218.498 Y207.042 E21.94833
G1 X230.178 Y218.722 E22.53549
G1 X230.602 Y218.722 E22.55056
G1 X218.498 Y206.618 E23.15904
G1 X218.498 Y206.194 E23.17411
G1 X231.026 Y218.722 E23.8039
G1 X231.45 Y218.722 E23.81898
G1 X218.498 Y205.77 E24.47008
G1 X218.498 Y205.345 E24.48519
G1 X231.875 Y218.722 E25.15766
G1 X232.299 Y218.722 E25.17273
G1 X218.498 Y204.921 E25.86652
G1 X218.498 Y204.497 E25.88159
G1 X232.723 Y218.722 E26.59669
G1 X233.147 Y218.722 E26.61176
G1 X218.498 Y204.073 E27.34818
G1 X218.498 Y203.648 E27.36329
G1 X233.572 Y218.722 E28.12107
G1 X233.996 Y218.722 E28.13614
G1 X218.498 Y203.224 E28.91524
G1 X218.498 Y202.8 E28.93031
G1 X234.42 Y218.722 E29.73072
G1 X234.845 Y218.722 E29.74583
G1 X218.508 Y202.385 E30.5671
G1 X218.517 Y202.195 E30.57386
G1 X218.546 Y201.999 E30.5809
G1 X235.269 Y218.722 E31.42158
G1 X235.693 Y218.722 E31.43665
G1 X218.625 Y201.654 E32.29467
G1 X218.638 Y201.602 E32.29658
G1 X218.724 Y201.353 E32.30594
G1 X218.731 Y201.336 E32.3066
G1 X236.117 Y218.722 E33.1806
G1 X236.542 Y218.722 E33.19571
G1 X218.867 Y201.048 E34.08422
G1 X218.993 Y200.826 E34.09329
G1 X219.025 Y200.782 E34.09523
G1 X236.966 Y218.722 E34.99711
G1 X237.153 Y218.722 E35.00376
G1 X237.324 Y218.718 E35.00984
G1 X237.379 Y218.712 E35.0118
G1 X219.203 Y200.536 E35.92552
G1 X219.372 Y200.338 E35.93478
G1 X219.402 Y200.31 E35.93624
G1 X237.757 Y218.665 E36.85896
G1 X237.939 Y218.631 E36.86554
G1 X238.099 Y218.582 E36.87149
G1 X219.622 Y200.106 E37.80031
G1 X219.84 Y199.935 E37.81016
G1 X219.862 Y199.921 E37.81109
G1 X238.412 Y218.471 E38.74361
G1 X238.51 Y218.433 E38.74735
G1 X238.7 Y218.336 E38.75493
G1 X220.123 Y199.758 E39.68883
G1 X220.386 Y199.622 E39.69936
G1 X220.404 Y199.615 E39.70004
G1 X238.965 Y218.176 E40.63312
G1 X239.036 Y218.131 E40.63611
G1 X239.208 Y217.995 E40.6439
G1 X220.712 Y199.499 E41.57371
G1 X220.917 Y199.439 E41.5813
G1 X221.052 Y199.414 E41.58618
G1 X239.432 Y217.794 E42.51016
G1 X239.499 Y217.73 E42.51345
G1 X239.635 Y217.573 E42.52084
