;FLAVOR:Marlin
;TIME:772
;Filament used: 0.47454m
;Layer height: 0.2
;MINX:241.502
;MINY:185.206
;MINZ:0.3
;MAXX:285.302
;MAXY:230.406
;MAXZ:8.9
;Generated with Cura_SteamEngine 4.10.0
M140 S30
M105
M190 S30
M104 S225
M105
M109 S225
M82 ;absolute extrusion mode
G28 ; home all axes
 M117 Purge extruder
 G92 E0 ; reset extruder
 G1 Z1.0 F3000 ; move z up little to prevent scratching of surface
 G1 X2 Y20 Z0.3 F5000.0 ; move to start-line position
 G1 X2 Y200.0 Z0.3 F1500.0 E15 ; draw 1st line
 G1 X2 Y200.0 Z0.4 F5000.0 ; move to side a little
 G1 X2 Y20 Z0.4 F1500.0 E30 ; draw 2nd line
 G92 E0 ; reset extruder
 G1 Z1.0 F3000 ; move z up little to prevent scratching of surface
G92 E0
G92 E0
G1 F2400 E-2
;LAYER_COUNT:45
;LAYER:0
M107
G0 F6000 X244.868 Y191.682 Z0.3
;TYPE:SKIRT
G1 F2400 E0
G1 F1200 X245.536 Y190.848 E0.04798
G1 X245.662 Y190.705 E0.05654
G1 X246.35 Y189.99 E0.10109
G1 X246.841 Y189.522 E0.13155
G1 X247.535 Y188.912 E0.17303
G1 X247.687 Y188.789 E0.18181
G1 X248.116 Y188.458 E0.20614
G1 X248.326 Y188.304 E0.21784
G1 X249.233 Y187.703 E0.26669
G1 X249.797 Y187.367 E0.29617
G1 X250.637 Y186.913 E0.33904
G1 X251.199 Y186.658 E0.36675
G1 X251.68 Y186.455 E0.3902
G1 X252.076 Y186.297 E0.40934
G1 X252.348 Y186.194 E0.4224
G1 X253.415 Y185.849 E0.47275
G1 X253.893 Y185.72 E0.49498
G1 X254.739 Y185.526 E0.53395
G1 X255.008 Y185.475 E0.54625
G1 X256.145 Y185.318 E0.59778
G1 X256.847 Y185.257 E0.62942
G1 X257.698 Y185.215 E0.66768
G1 X258.507 Y185.206 E0.70401
G1 X268.324 Y185.206 E1.1448
G1 X269.004 Y185.213 E1.17534
G1 X269.428 Y185.224 E1.19438
G1 X270.073 Y185.266 E1.2234
G1 X270.753 Y185.329 E1.25407
G1 X271.799 Y185.475 E1.30149
G1 X272.05 Y185.522 E1.31296
G1 X273.01 Y185.745 E1.35721
G1 X273.581 Y185.904 E1.38382
G1 X274.443 Y186.181 E1.42448
G1 X274.656 Y186.259 E1.43466
G1 X275.169 Y186.461 E1.45942
G1 X275.368 Y186.545 E1.46912
G1 X275.805 Y186.741 E1.49062
G1 X276.023 Y186.844 E1.50145
G1 X276.538 Y187.103 E1.52733
G1 X276.719 Y187.2 E1.53655
G1 X277.623 Y187.74 E1.58383
G1 X278.137 Y188.08 E1.6115
G1 X278.965 Y188.682 E1.65747
G1 X279.398 Y189.028 E1.68236
G1 X280.133 Y189.669 E1.72615
G1 X280.273 Y189.802 E1.73482
G1 X281.014 Y190.575 E1.7829
G1 X281.47 Y191.098 E1.81405
G1 X282.057 Y191.831 E1.85622
G1 X282.191 Y192.013 E1.86637
G1 X282.809 Y192.945 E1.91658
G1 X283.148 Y193.515 E1.94636
G1 X283.615 Y194.383 E1.99061
G1 X283.658 Y194.472 E1.99505
G1 X283.897 Y195.001 E2.02112
G1 X284.107 Y195.499 E2.04538
G1 X284.439 Y196.387 E2.08795
G1 X284.507 Y196.595 E2.09778
G1 X284.789 Y197.619 E2.14547
G1 X284.907 Y198.14 E2.16945
G1 X284.999 Y198.585 E2.18986
G1 X285.053 Y198.877 E2.20319
G1 X285.2 Y199.96 E2.25227
G1 X285.251 Y200.545 E2.27863
G1 X285.293 Y201.397 E2.31693
G1 X285.302 Y202.195 E2.35277
G1 X285.301 Y213.551 E2.86267
G1 X285.295 Y214.108 E2.88768
G1 X285.284 Y214.532 E2.90672
G1 X285.243 Y215.166 E2.93525
G1 X285.193 Y215.711 E2.95982
G1 X285.051 Y216.744 E3.00664
G1 X284.947 Y217.306 E3.0323
G1 X284.734 Y218.237 E3.07519
G1 X284.585 Y218.737 E3.09861
G1 X284.396 Y219.322 E3.12622
G1 X284.013 Y220.34 E3.17506
G1 X283.825 Y220.775 E3.19633
G1 X283.392 Y221.666 E3.24081
G1 X283.29 Y221.855 E3.25046
G1 X282.767 Y222.728 E3.29615
G1 X282.365 Y223.336 E3.32888
G1 X281.827 Y224.083 E3.37021
G1 X281.729 Y224.208 E3.37735
G1 X281.367 Y224.647 E3.4029
G1 X281.209 Y224.829 E3.41372
G1 X280.878 Y225.194 E3.43584
G1 X280.718 Y225.363 E3.44629
G1 X279.932 Y226.117 E3.4952
G1 X279.401 Y226.58 E3.52683
G1 X278.605 Y227.214 E3.57252
G1 X278.43 Y227.341 E3.58223
G1 X277.561 Y227.913 E3.62895
G1 X276.996 Y228.249 E3.65846
G1 X276.214 Y228.674 E3.69842
G1 X276.137 Y228.712 E3.70228
G1 X275.551 Y228.981 E3.73123
G1 X275.038 Y229.199 E3.75626
G1 X274.076 Y229.557 E3.80235
G1 X273.834 Y229.635 E3.81377
G1 X272.883 Y229.897 E3.85806
G1 X272.451 Y229.996 E3.87796
G1 X271.939 Y230.101 E3.90143
G1 X271.586 Y230.165 E3.91753
G1 X270.529 Y230.306 E3.96541
G1 X269.948 Y230.356 E3.9916
G1 X269.106 Y230.397 E4.02945
G1 X268.297 Y230.406 E4.06578
G1 X258.356 Y230.405 E4.51214
G1 X257.8 Y230.399 E4.53711
G1 X257.467 Y230.391 E4.55206
G1 X257.317 Y230.385 E4.5588
G1 X256.726 Y230.346 E4.5854
G1 X256.184 Y230.296 E4.60984
G1 X255.168 Y230.156 E4.65589
G1 X254.619 Y230.055 E4.68095
G1 X253.688 Y229.843 E4.72383
G1 X253.169 Y229.688 E4.74815
G1 X252.564 Y229.492 E4.7767
G1 X251.556 Y229.112 E4.82507
G1 X251.137 Y228.931 E4.84557
G1 X250.29 Y228.523 E4.88778
G1 X250.127 Y228.436 E4.89608
G1 X249.654 Y228.169 E4.92046
G1 X249.421 Y228.03 E4.93265
G1 X248.567 Y227.467 E4.97857
G1 X247.995 Y227.052 E5.01031
G1 X247.213 Y226.43 E5.05517
G1 X247.068 Y226.304 E5.0638
G1 X246.3 Y225.571 E5.11147
G1 X245.899 Y225.151 E5.13754
G1 X245.215 Y224.366 E5.18429
G1 X244.865 Y223.925 E5.20957
G1 X244.303 Y223.153 E5.25245
G1 X244.008 Y222.686 E5.27725
G1 X243.668 Y222.117 E5.30701
G1 X243.188 Y221.227 E5.35241
G1 X243.089 Y221.022 E5.36264
G1 X242.682 Y220.071 E5.40908
G1 X242.48 Y219.533 E5.43489
G1 X242.148 Y218.499 E5.48365
G1 X242.014 Y218.003 E5.50672
G1 X241.835 Y217.237 E5.54204
G1 X241.791 Y217.014 E5.55225
G1 X241.62 Y215.818 E5.60649
G1 X241.555 Y215.088 E5.6394
G1 X241.511 Y214.212 E5.67878
G1 X241.502 Y213.401 E5.7152
G1 X241.503 Y202.035 E6.22555
G1 X241.509 Y201.499 E6.24962
G1 X241.517 Y201.171 E6.26435
G1 X241.523 Y201.021 E6.27109
G1 X241.562 Y200.436 E6.29741
G1 X241.623 Y199.771 E6.3274
G1 X241.774 Y198.692 E6.37632
G1 X241.827 Y198.412 E6.38912
G1 X242.05 Y197.46 E6.43302
G1 X242.2 Y196.924 E6.45801
G1 X242.425 Y196.21 E6.49162
G1 X242.709 Y195.48 E6.52679
G1 X242.997 Y194.809 E6.55958
G1 X243.398 Y193.971 E6.60129
G1 X243.461 Y193.852 E6.60734
G1 X243.749 Y193.34 E6.63372
G1 X243.884 Y193.114 E6.64554
G1 X244.45 Y192.257 E6.69165
G1 X244.868 Y191.682 E6.72357
G0 F6000 X245.192 Y191.917
G1 F1200 X245.836 Y191.113 E6.76983
G1 X245.962 Y190.97 E6.77838
G1 X246.626 Y190.28 E6.82138
G1 X247.117 Y189.812 E6.85184
G1 X247.786 Y189.223 E6.89186
G1 X247.938 Y189.1 E6.90064
G1 X248.353 Y188.781 E6.92414
G1 X248.563 Y188.627 E6.93584
G1 X249.438 Y188.047 E6.98297
G1 X250.002 Y187.711 E7.01245
G1 X250.828 Y187.266 E7.05458
G1 X251.355 Y187.027 E7.08056
G1 X251.836 Y186.824 E7.104
G1 X252.218 Y186.671 E7.12248
G1 X252.49 Y186.568 E7.13554
G1 X253.519 Y186.235 E7.1841
G1 X253.997 Y186.106 E7.20633
G1 X254.814 Y185.919 E7.24396
G1 X255.083 Y185.868 E7.25626
G1 X256.18 Y185.716 E7.30599
G1 X256.882 Y185.655 E7.33762
G1 X257.703 Y185.615 E7.37453
G1 X258.507 Y185.606 E7.41064
G1 X268.324 Y185.606 E7.85143
G1 X268.999 Y185.613 E7.88174
G1 X269.414 Y185.624 E7.90038
G1 X270.036 Y185.664 E7.92837
G1 X270.716 Y185.727 E7.95903
G1 X271.726 Y185.868 E8.00482
G1 X271.977 Y185.915 E8.01629
G1 X272.903 Y186.13 E8.05897
G1 X273.474 Y186.289 E8.08559
G1 X274.306 Y186.557 E8.12483
G1 X274.519 Y186.635 E8.13502
G1 X275.014 Y186.83 E8.15891
G1 X275.213 Y186.914 E8.16861
G1 X275.634 Y187.102 E8.18931
G1 X275.852 Y187.205 E8.20013
G1 X276.349 Y187.456 E8.22513
G1 X276.53 Y187.553 E8.23435
G1 X277.403 Y188.074 E8.28
G1 X277.917 Y188.414 E8.30768
G1 X278.715 Y188.995 E8.352
G1 X279.148 Y189.341 E8.37688
G1 X279.857 Y189.959 E8.41912
G1 X279.997 Y190.092 E8.42779
G1 X280.712 Y190.838 E8.47418
G1 X281.168 Y191.361 E8.50534
G1 X281.735 Y192.068 E8.54603
G1 X281.869 Y192.25 E8.55618
G1 X282.465 Y193.149 E8.60461
G1 X282.804 Y193.719 E8.63439
G1 X283.255 Y194.557 E8.67712
G1 X283.298 Y194.646 E8.68156
G1 X283.529 Y195.157 E8.70674
G1 X283.739 Y195.655 E8.731
G1 X284.058 Y196.511 E8.77202
G1 X284.126 Y196.719 E8.78185
G1 X284.399 Y197.707 E8.82787
G1 X284.517 Y198.228 E8.85186
G1 X284.606 Y198.658 E8.87158
G1 X284.66 Y198.95 E8.88491
G1 X284.801 Y199.995 E8.93226
G1 X284.852 Y200.58 E8.95862
G1 X284.893 Y201.402 E8.99558
G1 X284.902 Y202.195 E9.03119
G1 X284.901 Y213.546 E9.54086
G1 X284.895 Y214.103 E9.56587
G1 X284.884 Y214.518 E9.58451
G1 X284.845 Y215.13 E9.61205
G1 X284.795 Y215.675 E9.63662
G1 X284.657 Y216.672 E9.68181
G1 X284.553 Y217.234 E9.70748
G1 X284.344 Y218.148 E9.74958
G1 X284.204 Y218.614 E9.77142
G1 X284.015 Y219.199 E9.79903
G1 X283.645 Y220.181 E9.84615
G1 X283.457 Y220.616 E9.86743
G1 X283.04 Y221.476 E9.91034
G1 X282.938 Y221.665 E9.91998
G1 X282.434 Y222.508 E9.96408
G1 X282.032 Y223.116 E9.99681
G1 X281.513 Y223.836 E10.03666
G1 X281.415 Y223.961 E10.0438
G1 X281.065 Y224.385 E10.06848
G1 X280.907 Y224.567 E10.0793
G1 X280.588 Y224.919 E10.10063
G1 X280.428 Y225.088 E10.11108
G1 X279.669 Y225.816 E10.15831
G1 X279.138 Y226.279 E10.18994
G1 X278.37 Y226.891 E10.23403
G1 X278.195 Y227.018 E10.24374
G1 X277.356 Y227.569 E10.28881
G1 X276.791 Y227.905 E10.31833
G1 X276.037 Y228.315 E10.35687
G1 X275.96 Y228.353 E10.36072
G1 X275.394 Y228.613 E10.38869
G1 X274.881 Y228.831 E10.41372
G1 X273.954 Y229.177 E10.45814
G1 X273.712 Y229.255 E10.46956
G1 X272.794 Y229.507 E10.51231
G1 X272.362 Y229.606 E10.53221
G1 X271.867 Y229.708 E10.5549
G1 X271.514 Y229.772 E10.57101
G1 X270.495 Y229.907 E10.61716
G1 X269.914 Y229.957 E10.64334
G1 X269.102 Y229.997 E10.67985
G1 X268.297 Y230.006 E10.716
G1 X258.36 Y230.005 E11.16218
G1 X257.804 Y229.999 E11.18715
G1 X257.483 Y229.991 E11.20156
G1 X257.333 Y229.985 E11.2083
G1 X256.763 Y229.947 E11.23395
G1 X256.221 Y229.897 E11.25839
G1 X255.241 Y229.762 E11.30281
G1 X254.692 Y229.661 E11.32788
G1 X253.777 Y229.453 E11.37001
G1 X253.292 Y229.308 E11.39274
G1 X252.687 Y229.112 E11.4213
G1 X251.715 Y228.745 E11.46795
G1 X251.296 Y228.564 E11.48844
G1 X250.478 Y228.17 E11.52921
G1 X250.315 Y228.083 E11.5375
G1 X249.859 Y227.826 E11.56101
G1 X249.626 Y227.687 E11.57319
G1 X248.802 Y227.143 E11.61752
G1 X248.23 Y226.728 E11.64926
G1 X247.475 Y226.128 E11.69256
G1 X247.33 Y226.002 E11.70118
G1 X246.589 Y225.295 E11.74717
G1 X246.188 Y224.875 E11.77324
G1 X245.528 Y224.117 E11.81837
G1 X245.178 Y223.676 E11.84365
G1 X244.627 Y222.917 E11.88576
G1 X244.351 Y222.48 E11.90897
G1 X244.011 Y221.911 E11.93873
G1 X243.549 Y221.053 E11.98249
G1 X243.45 Y220.848 E11.99271
G1 X243.057 Y219.931 E12.03751
G1 X242.855 Y219.393 E12.06331
G1 X242.534 Y218.395 E12.11038
G1 X242.4 Y217.899 E12.13345
G1 X242.227 Y217.159 E12.16758
G1 X242.183 Y216.936 E12.17778
G1 X242.018 Y215.783 E12.23008
G1 X241.953 Y215.053 E12.26299
G1 X241.911 Y214.207 E12.30102
G1 X241.902 Y213.401 E12.33721
G1 X241.903 Y202.04 E12.84734
G1 X241.909 Y201.504 E12.8714
G1 X241.917 Y201.187 E12.88564
G1 X241.923 Y201.037 E12.89238
G1 X241.96 Y200.472 E12.91781
G1 X242.021 Y199.807 E12.94779
G1 X242.167 Y198.766 E12.99499
G1 X242.22 Y198.486 E13.00779
G1 X242.435 Y197.568 E13.05012
G1 X242.585 Y197.032 E13.07511
G1 X242.803 Y196.342 E13.1076
G1 X243.077 Y195.637 E13.14157
G1 X243.365 Y194.966 E13.17435
G1 X243.751 Y194.158 E13.21456
G1 X243.814 Y194.039 E13.22061
G1 X244.093 Y193.545 E13.24608
G1 X244.228 Y193.319 E13.2579
G1 X244.774 Y192.492 E13.3024
G1 X245.192 Y191.917 E13.33432
G0 F6000 X245.515 Y192.152
G1 F1200 X246.136 Y191.377 E13.37891
G1 X246.262 Y191.234 E13.38747
G1 X246.902 Y190.569 E13.42891
G1 X247.393 Y190.101 E13.45936
G1 X248.038 Y189.534 E13.49793
G1 X248.19 Y189.411 E13.5067
G1 X248.59 Y189.103 E13.52937
G1 X248.8 Y188.949 E13.54107
G1 X249.643 Y188.391 E13.58646
G1 X250.207 Y188.055 E13.61594
G1 X251.018 Y187.618 E13.6573
G1 X251.51 Y187.395 E13.68156
G1 X251.991 Y187.192 E13.705
G1 X252.359 Y187.045 E13.72279
G1 X252.631 Y186.942 E13.73585
G1 X253.623 Y186.621 E13.78267
G1 X254.101 Y186.492 E13.8049
G1 X254.889 Y186.312 E13.84119
G1 X255.158 Y186.261 E13.85348
G1 X256.214 Y186.115 E13.90135
G1 X256.916 Y186.054 E13.93299
G1 X257.708 Y186.015 E13.96859
G1 X258.507 Y186.006 E14.00447
G1 X268.324 Y186.006 E14.44527
G1 X268.995 Y186.013 E14.4754
G1 X269.399 Y186.024 E14.49355
G1 X269.999 Y186.062 E14.52054
G1 X270.679 Y186.125 E14.5512
G1 X271.652 Y186.261 E14.59532
G1 X271.903 Y186.308 E14.60678
G1 X272.795 Y186.516 E14.64791
G1 X273.366 Y186.675 E14.67452
G1 X274.168 Y186.932 E14.71234
G1 X274.381 Y187.01 E14.72252
G1 X274.858 Y187.198 E14.74554
G1 X275.057 Y187.282 E14.75524
G1 X275.463 Y187.464 E14.77522
G1 X275.681 Y187.567 E14.78605
G1 X276.16 Y187.808 E14.81012
G1 X276.341 Y187.905 E14.81934
G1 X277.182 Y188.407 E14.86332
G1 X277.696 Y188.747 E14.89099
G1 X278.465 Y189.307 E14.93371
G1 X278.898 Y189.653 E14.95859
G1 X279.582 Y190.249 E14.99933
G1 X279.722 Y190.382 E15.008
G1 X280.411 Y191.101 E15.05271
G1 X280.867 Y191.624 E15.08387
G1 X281.413 Y192.305 E15.12306
G1 X281.547 Y192.487 E15.13321
G1 X282.122 Y193.354 E15.17992
G1 X282.461 Y193.924 E15.2097
G1 X282.894 Y194.731 E15.25082
G1 X282.937 Y194.82 E15.25526
G1 X283.16 Y195.312 E15.27952
G1 X283.37 Y195.81 E15.30378
G1 X283.678 Y196.635 E15.34332
G1 X283.746 Y196.843 E15.35315
G1 X284.009 Y197.796 E15.39754
G1 X284.127 Y198.317 E15.42153
G1 X284.212 Y198.73 E15.44046
G1 X284.266 Y199.022 E15.45379
G1 X284.403 Y200.029 E15.49943
G1 X284.454 Y200.614 E15.52579
G1 X284.493 Y201.407 E15.56144
G1 X284.502 Y202.195 E15.59683
G1 X284.501 Y213.542 E16.10632
G1 X284.495 Y214.099 E16.13133
G1 X284.484 Y214.503 E16.14948
G1 X284.447 Y215.093 E16.17602
G1 X284.397 Y215.638 E16.2006
G1 X284.264 Y216.599 E16.24416
G1 X284.16 Y217.161 E16.26982
G1 X283.824 Y218.491 E16.33141
G1 X283.635 Y219.076 E16.35902
G1 X283.278 Y220.022 E16.40442
G1 X283.09 Y220.457 E16.4257
G1 X282.688 Y221.286 E16.46707
G1 X282.586 Y221.475 E16.47671
G1 X282.1 Y222.287 E16.5192
G1 X281.698 Y222.895 E16.55193
G1 X281.198 Y223.589 E16.59033
G1 X281.1 Y223.714 E16.59747
G1 X280.762 Y224.123 E16.62129
G1 X280.604 Y224.305 E16.63211
G1 X280.297 Y224.644 E16.65265
G1 X280.137 Y224.813 E16.6631
G1 X279.406 Y225.514 E16.70857
G1 X278.875 Y225.977 E16.74021
G1 X278.135 Y226.567 E16.7827
G1 X277.96 Y226.694 E16.79241
G1 X277.152 Y227.226 E16.83585
G1 X276.587 Y227.562 E16.86537
G1 X275.86 Y227.956 E16.90249
G1 X275.783 Y227.994 E16.90635
G1 X275.238 Y228.245 E16.93329
G1 X274.725 Y228.463 E16.95832
G1 X273.831 Y228.796 E17.00115
G1 X273.589 Y228.874 E17.01257
G1 X272.705 Y229.117 E17.05374
G1 X272.273 Y229.216 E17.07364
G1 X271.796 Y229.314 E17.0955
G1 X271.443 Y229.378 E17.11161
G1 X270.461 Y229.509 E17.15609
G1 X269.88 Y229.559 E17.18228
G1 X269.097 Y229.597 E17.21748
G1 X268.297 Y229.606 E17.2534
G1 X258.365 Y229.605 E17.69936
G1 X257.809 Y229.599 E17.72433
G1 X257.499 Y229.592 E17.73825
G1 X257.349 Y229.586 E17.74499
G1 X256.799 Y229.549 E17.76974
G1 X256.257 Y229.499 E17.79418
G1 X255.313 Y229.369 E17.83697
G1 X254.764 Y229.268 E17.86203
G1 X253.867 Y229.062 E17.90336
G1 X253.415 Y228.927 E17.92454
G1 X252.81 Y228.731 E17.95309
G1 X251.873 Y228.378 E17.99805
G1 X251.454 Y228.197 E18.01855
G1 X250.667 Y227.817 E18.05779
G1 X250.504 Y227.73 E18.06608
G1 X250.064 Y227.482 E18.08876
G1 X249.831 Y227.343 E18.10094
G1 X249.037 Y226.82 E18.14363
G1 X248.465 Y226.405 E18.17537
G1 X247.737 Y225.826 E18.21713
G1 X247.592 Y225.7 E18.22576
G1 X246.878 Y225.019 E18.27006
G1 X246.477 Y224.599 E18.29613
G1 X245.841 Y223.869 E18.33961
G1 X245.491 Y223.428 E18.36489
G1 X244.951 Y222.682 E18.40624
G1 X244.695 Y222.275 E18.42783
G1 X244.355 Y221.706 E18.45759
G1 X243.909 Y220.879 E18.49978
G1 X243.81 Y220.674 E18.51
G1 X243.431 Y219.79 E18.55319
G1 X243.229 Y219.252 E18.57899
G1 X242.92 Y218.291 E18.62432
G1 X242.786 Y217.795 E18.64739
G1 X242.619 Y217.082 E18.68027
G1 X242.575 Y216.859 E18.69047
G1 X242.417 Y215.747 E18.7409
G1 X242.352 Y215.017 E18.77381
G1 X242.311 Y214.202 E18.81045
G1 X242.302 Y213.401 E18.84642
G1 X242.303 Y202.044 E19.35636
G1 X242.309 Y201.508 E19.38043
G1 X242.316 Y201.203 E19.39413
G1 X242.322 Y201.053 E19.40087
G1 X242.358 Y200.509 E19.42535
G1 X242.419 Y199.844 E19.45534
G1 X242.56 Y198.841 E19.50081
G1 X242.613 Y198.561 E19.51361
G1 X242.82 Y197.675 E19.55446
G1 X242.97 Y197.139 E19.57945
G1 X243.18 Y196.474 E19.61077
G1 X243.444 Y195.795 E19.64348
G1 X243.732 Y195.124 E19.67627
G1 X244.105 Y194.345 E19.71505
G1 X244.168 Y194.226 E19.72109
G1 X244.436 Y193.75 E19.74562
G1 X244.571 Y193.524 E19.75744
G1 X245.097 Y192.727 E19.80032
G1 X245.515 Y192.152 E19.83224
G0 F6000 X245.839 Y192.387
