;FLAVOR:Marlin
;TIME:11913
;Filament used: 21.8446m
;Layer height: 0.28
;MINX:-37.885
;MINY:-45.575
;MINZ:0.3
;MAXX:38.254
;MAXY:45.382
;MAXZ:119.86
;Generated with Cura_SteamEngine 4.10.0
M140 S30
M105
M190 S30
M104 S228
M105
M109 S228
M82 ;absolute extrusion mode
G21        ;metric values
G90        ;absolute positioning
M107       ;start with the fan off
G28   ;move to endstops

;Z-Offset Reset und dann Z +0,1 für PLA
;MacroZOffset0
;MacroZOffsetPlus0100

G92 E0                  ;zero the extruded length
G1 F200 E3              ;extrude 3mm of feed stock
G92 E0                  ;zero the extruded length again
G1 F120
;Put printing message on LCD screen
M117 Printing...
G92 E0
G92 E0
G1 F3000 E-7
;LAYER_COUNT:429
;LAYER:0
M106 S127.5
G0 F600 X-11.059 Y-39.463 Z0.3
;TYPE:SKIRT
G1 F3000 E0
G1 F300 X-8.662 Y-40.168 E0.26177
G1 X-7.351 Y-40.567 E0.40534
G1 X-6.762 Y-40.704 E0.4687
G1 X-5.26 Y-40.962 E0.62837
G1 X-4.794 Y-41.034 E0.67777
G1 X-4.203 Y-41.084 E0.73991
G1 X-3.418 Y-41.094 E0.82216
G1 X2.583 Y-41.093 E1.45088
G1 X5.374 Y-41.132 E1.74332
G1 X8.06 Y-41.246 E2.02499
G1 X10.753 Y-41.436 E2.30783
G1 X13.434 Y-41.702 E2.5901
G1 X16.132 Y-42.046 E2.87505
G1 X18.839 Y-42.471 E3.16214
G1 X21.461 Y-42.958 E3.44154
G1 X24.087 Y-43.523 E3.72296
G1 X26.781 Y-44.183 E4.01356
G1 X29.334 Y-44.885 E4.29096
G1 X29.771 Y-45.019 E4.33885
G1 X31.091 Y-45.405 E4.48294
G1 X31.661 Y-45.53 E4.54407
G1 X32.183 Y-45.575 E4.59897
G1 X32.979 Y-45.573 E4.68236
G1 X33.56 Y-45.52 E4.74349
G1 X34.128 Y-45.387 E4.80461
G1 X34.673 Y-45.179 E4.86572
G1 X35.451 Y-44.741 E4.95926
G1 X36.134 Y-44.235 E5.04832
G1 X36.551 Y-43.833 E5.109
G1 X37.042 Y-43.246 E5.18918
G1 X37.285 Y-42.895 E5.23391
G1 X37.583 Y-42.394 E5.29498
G1 X37.785 Y-41.935 E5.34752
G1 X37.975 Y-41.409 E5.40611
G1 X38.129 Y-40.846 E5.46727
G1 X38.219 Y-40.197 E5.53591
G1 X38.254 Y-39.571 E5.6016
G1 X38.25 Y-38.983 E5.66321
G1 X38.24 Y-38.749 E5.68774
G1 X38.162 Y-37.639 E5.80433
G1 X38.136 Y-37.349 E5.83483
G1 X37.977 Y-34.632 E6.11998
G1 X37.896 Y-31.923 E6.40392
G1 X37.883 Y-30.16 E6.58864
G1 X37.886 Y-28.734 E6.73804
G1 X37.881 Y-26.431 E6.97932
G1 X37.881 Y38.354 E13.76681
G1 X37.871 Y39.052 E13.83995
G1 X37.831 Y39.613 E13.89887
G1 X37.785 Y40 E13.9397
G1 X37.629 Y40.725 E14.0174
G1 X37.405 Y41.376 E14.08953
G1 X37.039 Y42.138 E14.17809
G1 X36.745 Y42.606 E14.236
G1 X36.215 Y43.276 E14.3255
G1 X35.779 Y43.713 E14.39018
G1 X35.172 Y44.2 E14.47171
G1 X34.624 Y44.546 E14.53961
G1 X33.869 Y44.908 E14.62733
G1 X33.32 Y45.098 E14.6882
G1 X32.612 Y45.269 E14.76451
G1 X31.939 Y45.349 E14.83551
G1 X31.572 Y45.371 E14.87403
G1 X30.746 Y45.382 E14.96058
G1 X-30.855 Y45.381 E21.41448
G1 X-31.556 Y45.371 E21.48793
G1 X-32.091 Y45.334 E21.54412
G1 X-32.505 Y45.284 E21.58781
G1 X-33.243 Y45.124 E21.66692
G1 X-33.88 Y44.903 E21.73756
G1 X-34.637 Y44.539 E21.82557
G1 X-35.112 Y44.241 E21.88432
G1 X-35.777 Y43.714 E21.97321
G1 X-36.234 Y43.255 E22.04107
G1 X-36.696 Y42.678 E22.11852
G1 X-37.057 Y42.105 E22.18947
G1 X-37.41 Y41.363 E22.27556
G1 X-37.605 Y40.798 E22.33818
G1 X-37.77 Y40.103 E22.41302
G1 X-37.849 Y39.446 E22.48235
G1 X-37.871 Y39.075 E22.52128
G1 X-37.882 Y38.246 E22.60815
G1 X-37.881 Y-26.63 E29.40517
G1 X-37.885 Y-28.748 E29.62707
G1 X-37.881 Y-30.971 E29.85997
G1 X-37.872 Y-31.521 E29.9176
G1 X-37.828 Y-32.103 E29.97875
G1 X-37.705 Y-32.673 E30.03985
G1 X-37.505 Y-33.222 E30.10106
G1 X-37.098 Y-33.941 E30.18762
G1 X-36.961 Y-34.136 E30.21259
G1 X-36.593 Y-34.589 E30.27374
G1 X-36.168 Y-34.988 E30.33481
G1 X-35.691 Y-35.325 E30.396
G1 X-35.173 Y-35.594 E30.45715
G1 X-34.549 Y-35.809 E30.5263
G1 X-34.361 Y-35.858 E30.54666
G1 X-33.587 Y-35.985 E30.62883
G1 X-32.859 Y-36.027 E30.70523
G1 X-32.386 Y-36.043 E30.75482
G1 X-29.699 Y-36.203 E31.03683
G1 X-27.014 Y-36.442 E31.31925
G1 X-24.296 Y-36.76 E31.60595
G1 X-21.64 Y-37.147 E31.88716
G1 X-18.978 Y-37.613 E32.1703
G1 X-16.324 Y-38.155 E32.45409
G1 X-13.685 Y-38.77 E32.73799
G1 X-11.059 Y-39.463 E33.02253
G0 F600 X-10.82 Y-38.658
G1 F300 X-8.456 Y-39.353 E33.28069
G1 X-7.106 Y-39.764 E33.42854
G1 X-6.62 Y-39.876 E33.48079
G1 X-5.132 Y-40.132 E33.63898
G1 X-4.191 Y-40.244 E33.73826
G1 X-3.418 Y-40.254 E33.81926
G1 X2.595 Y-40.253 E34.44923
G1 X5.385 Y-40.292 E34.74157
G1 X8.119 Y-40.408 E35.02827
G1 X10.822 Y-40.599 E35.31216
G1 X13.518 Y-40.867 E35.59601
G1 X16.264 Y-41.217 E35.88604
G1 X18.978 Y-41.642 E36.17385
G1 X21.612 Y-42.132 E36.45455
G1 X24.293 Y-42.708 E36.74184
G1 X26.991 Y-43.369 E37.03287
G1 X29.568 Y-44.078 E37.31289
G1 X30.007 Y-44.213 E37.36101
G1 X31.327 Y-44.599 E37.5051
G1 X31.839 Y-44.706 E37.5599
G1 X32.448 Y-44.741 E37.62381
G1 X32.959 Y-44.733 E37.67735
G1 X33.479 Y-44.681 E37.73211
G1 X33.986 Y-44.551 E37.78694
G1 X34.634 Y-44.251 E37.86176
G1 X35.021 Y-44.02 E37.90897
G1 X35.569 Y-43.614 E37.98043
G1 X35.957 Y-43.239 E38.03696
G1 X36.351 Y-42.768 E38.1013
G1 X36.594 Y-42.417 E38.14602
G1 X36.947 Y-41.766 E38.22361
G1 X37.182 Y-41.133 E38.29435
G1 X37.349 Y-40.406 E38.3725
G1 X37.406 Y-39.806 E38.43565
G1 X37.41 Y-38.996 E38.52051
G1 X37.402 Y-38.808 E38.54023
G1 X37.319 Y-37.636 E38.66332
G1 X37.296 Y-37.375 E38.69078
G1 X37.137 Y-34.661 E38.97561
G1 X37.056 Y-31.969 E39.25777
G1 X37.043 Y-30.166 E39.44668
G1 X37.046 Y-28.736 E39.5965
G1 X37.041 Y-26.433 E39.83778
G1 X37.041 Y38.342 E46.62422
G1 X37.031 Y39.04 E46.69736
G1 X36.983 Y39.641 E46.76053
G1 X36.951 Y39.896 E46.78745
G1 X36.826 Y40.478 E46.84982
G1 X36.616 Y41.089 E46.91751
G1 X36.322 Y41.7 E46.98855
G1 X36.037 Y42.154 E47.04471
G1 X35.612 Y42.691 E47.11646
G1 X35.195 Y43.109 E47.17832
G1 X34.708 Y43.5 E47.24375
G1 X34.189 Y43.828 E47.30807
G1 X33.582 Y44.118 E47.37855
G1 X33.054 Y44.301 E47.4371
G1 X32.486 Y44.438 E47.49832
G1 X31.854 Y44.514 E47.56501
G1 X31.56 Y44.531 E47.59586
G1 X30.746 Y44.542 E47.68115
G1 X-30.843 Y44.541 E54.1338
G1 X-31.544 Y44.531 E54.20725
G1 X-32.131 Y44.485 E54.26893
G1 X-32.4 Y44.451 E54.29734
G1 X-32.993 Y44.322 E54.36092
G1 X-33.592 Y44.114 E54.42736
G1 X-34.2 Y43.821 E54.49807
G1 X-34.658 Y43.534 E54.55469
G1 X-35.192 Y43.111 E54.62607
G1 X-35.626 Y42.675 E54.69052
G1 X-35.997 Y42.212 E54.75268
G1 X-36.337 Y41.673 E54.81945
G1 X-36.62 Y41.078 E54.88848
G1 X-36.807 Y40.535 E54.94865
G1 X-36.94 Y39.978 E55.00864
G1 X-37.013 Y39.361 E55.07374
G1 X-37.031 Y39.063 E55.10501
G1 X-37.042 Y38.246 E55.19062
G1 X-37.041 Y-26.63 E61.98764
G1 X-37.045 Y-28.747 E62.20944
G1 X-37.041 Y-30.951 E62.44035
G1 X-37.032 Y-31.516 E62.49955
G1 X-36.988 Y-32.036 E62.55423
G1 X-36.866 Y-32.545 E62.60906
G1 X-36.668 Y-33.028 E62.66375
G1 X-36.41 Y-33.458 E62.71629
G1 X-36.273 Y-33.653 E62.74126
G1 X-35.941 Y-34.057 E62.79605
G1 X-35.551 Y-34.405 E62.85081
G1 X-35.113 Y-34.689 E62.9055
G1 X-34.636 Y-34.904 E62.96032
G1 X-34.15 Y-35.045 E63.01333
G1 X-33.528 Y-35.148 E63.07939
G1 X-32.819 Y-35.188 E63.15379
G1 X-32.378 Y-35.202 E63.20001
G1 X-29.647 Y-35.365 E63.48665
G1 X-26.912 Y-35.608 E63.77432
G1 X-24.186 Y-35.928 E64.06188
G1 X-21.512 Y-36.317 E64.34499
G1 X-18.81 Y-36.79 E64.63238
G1 X-16.143 Y-37.334 E64.91755
G1 X-13.492 Y-37.953 E65.20277
G1 X-10.82 Y-38.658 E65.49229
G0 F600 X-5.917 Y-36.106
;TYPE:SUPPORT
G1 F300 X-5.281 Y-36.199 E65.55627
G1 X-4.829 Y-36.199 E65.60125
G1 X-4.089 Y-36.414 E65.67795
G1 X4.162 Y-36.413 E66.49918
G1 X4.743 Y-36.253 E66.55916
G1 X5.235 Y-36.253 E66.60813
G1 X5.877 Y-36.128 E66.67323
G1 X5.919 Y-36.099 E66.67831
G1 X5.916 Y-35.543 E66.73365
G1 X5.237 Y-35.54 E66.80123
G1 X4.859 Y-35.583 E66.8391
G1 X4.271 Y-35.545 E66.89774
G1 X4.037 Y-35.558 E66.92107
G1 X3.266 Y-35.582 E66.99785
G1 X-3.184 Y-35.583 E67.63982
G1 X-3.957 Y-35.558 E67.7168
G1 X-4.088 Y-35.546 E67.72989
G1 X-4.71 Y-35.591 E67.79196
G1 X-5.181 Y-35.538 E67.83914
G1 X-5.913 Y-35.54 E67.91199
G1 X-5.917 Y-36.106 E67.96833
G0 F600 X-4.179 Y-36
G1 F300 X-3.406 Y-36 E68.04527
G0 F600 X3.504 Y-36
G1 F300 X4.251 Y-36 E68.11962
G1 F3000 E61.11962
;MESH:Tea_Box_open_slot.stl
G0 F600 X-10.341 Y-25.998
G0 X-12.013 Y-25.223
G0 X-11.57 Y-23.153
G0 X-11.471 Y-23.165
;TYPE:WALL-INNER
G1 F3000 E68.11962
G1 F300 X-11.402 Y-22.054 E68.23041
G1 X-11.403 Y20.639 E72.47968
G1 X-11.321 Y21.974 E72.61281
G1 X-11.074 Y23.329 E72.74989
G1 X-10.663 Y24.644 E72.88702
G1 X-10.099 Y25.899 E73.02397
G1 X-9.386 Y27.079 E73.16119
G1 X-8.548 Y28.148 E73.29638
G1 X-8.463 Y28.238 E73.3087
G1 X-7.561 Y29.137 E73.43546
G1 X-6.479 Y29.986 E73.57234
G1 X-5.299 Y30.698 E73.70951
G1 X-4.061 Y31.256 E73.84467
G1 X-3.946 Y31.296 E73.85679
G1 X-2.728 Y31.674 E73.98372
G1 X-1.374 Y31.921 E74.12071
G1 X0.00 Y32.004 E74.25772
G1 X1.374 Y31.921 E74.39472
G1 X2.729 Y31.674 E74.53181
G1 X4.044 Y31.263 E74.66894
G1 X5.299 Y30.699 E74.80588
G1 X6.479 Y29.986 E74.9431
G1 X7.548 Y29.148 E75.0783
G1 X7.638 Y29.063 E75.09062
G1 X8.537 Y28.161 E75.21737
G1 X9.386 Y27.079 E75.35426
G1 X10.098 Y25.899 E75.49143
G1 X10.656 Y24.661 E75.62659
G1 X10.696 Y24.546 E75.6387
G1 X11.074 Y23.328 E75.76564
G1 X11.321 Y21.974 E75.90263
G1 X11.402 Y20.638 E76.03584
G1 X11.403 Y-22.055 E80.28512
G1 X11.471 Y-23.167 E80.396
G1 X11.667 Y-24.208 E80.50144
G1 X11.989 Y-25.217 E80.60685
G1 X12.433 Y-26.175 E80.71195
G1 X13.006 Y-27.096 E80.81991
G1 X13.665 Y-27.91 E80.92415
G1 X14.429 Y-28.644 E81.0296
G1 X15.288 Y-29.287 E81.13639
G1 X16.208 Y-29.814 E81.24192
G1 X17.179 Y-30.219 E81.34664
G1 X18.154 Y-30.49 E81.44736
G1 X32.362 Y-30.49 E82.86149
G1 X32.366 Y-28.746 E83.03507
G1 X32.361 Y-26.442 E83.26439
G1 X32.361 Y38.93 E89.77093
G1 X32.269 Y39.369 E89.81558
G1 X32.034 Y39.666 E89.85327
G1 X31.691 Y39.831 E89.89115
G1 X31.425 Y39.862 E89.91781
G1 X-31.43 Y39.861 E96.17383
G1 X-31.869 Y39.769 E96.21847
G1 X-32.166 Y39.534 E96.25617
G1 X-32.331 Y39.191 E96.29405
G1 X-32.362 Y38.925 E96.3207
G1 X-32.361 Y-26.441 E102.82664
G1 X-32.365 Y-28.741 E103.05557
G1 X-32.362 Y-30.491 E103.22974
G1 X-18.146 Y-30.488 E104.64468
G1 X-17.193 Y-30.224 E104.7431
G1 X-16.202 Y-29.811 E104.84996
G1 X-15.295 Y-29.292 E104.95397
G1 X-14.429 Y-28.645 E105.06156
G1 X-13.669 Y-27.915 E105.16645
G1 X-13.006 Y-27.096 E105.27133
G1 X-12.433 Y-26.175 E105.37929
G1 X-11.995 Y-25.23 E105.48296
G1 X-11.669 Y-24.212 E105.58935
G1 X-11.471 Y-23.165 E105.6954
G0 F600 X-10.735 Y-23.252
;TYPE:WALL-OUTER
G1 F300 X-10.662 Y-22.084 E105.81188
G1 X-10.663 Y20.616 E110.06185
G1 X-10.585 Y21.885 E110.1884
G1 X-10.354 Y23.152 E110.31658
G1 X-9.97 Y24.381 E110.44474
G1 X-9.442 Y25.555 E110.57286
G1 X-8.776 Y26.658 E110.7011
G1 X-7.987 Y27.664 E110.82835
G1 X-7.933 Y27.721 E110.83617
G1 X-7.07 Y28.582 E110.9575
G1 X-6.058 Y29.376 E111.08553
G1 X-4.955 Y30.042 E111.21377
G1 X-3.789 Y30.567 E111.34105
G1 X-3.716 Y30.592 E111.34873
G1 X-2.551 Y30.954 E111.47015
G1 X-1.285 Y31.185 E111.59823
G1 X0.00 Y31.263 E111.72637
G1 X1.285 Y31.185 E111.8545
G1 X2.552 Y30.954 E111.98268
G1 X3.781 Y30.57 E112.11084
G1 X4.955 Y30.042 E112.23896
G1 X6.058 Y29.376 E112.36721
G1 X7.064 Y28.587 E112.49446
G1 X7.121 Y28.533 E112.50227
G1 X7.982 Y27.67 E112.6236
G1 X8.776 Y26.658 E112.75163
G1 X9.442 Y25.555 E112.87987
G1 X9.967 Y24.389 E113.00715
G1 X9.992 Y24.316 E113.01483
G1 X10.354 Y23.151 E113.13625
G1 X10.585 Y21.885 E113.26434
G1 X10.662 Y20.616 E113.39088
G1 X10.663 Y-22.084 E117.64085
G1 X10.735 Y-23.254 E117.75752
G1 X10.949 Y-24.391 E117.87267
G1 X11.297 Y-25.483 E117.98675
G1 X11.785 Y-26.535 E118.10217
G1 X12.399 Y-27.523 E118.21795
G1 X13.121 Y-28.414 E118.33209
G1 X13.946 Y-29.207 E118.44599
G1 X14.883 Y-29.909 E118.56252
G1 X15.879 Y-30.478 E118.67669
G1 X16.936 Y-30.919 E118.79068
G1 X18.053 Y-31.23 E118.90609
G1 X33.101 Y-31.23 E120.40383
G1 X33.106 Y-28.744 E120.65126
G1 X33.101 Y-26.441 E120.88048
G1 X33.101 Y38.969 E127.3908
G1 X33.057 Y39.358 E127.42977
G1 X32.942 Y39.688 E127.46455
G1 X32.751 Y39.995 E127.50054
G1 X32.495 Y40.251 E127.53657
G1 X32.194 Y40.44 E127.57194
G1 X31.858 Y40.557 E127.60736
G1 X31.467 Y40.602 E127.64653
G1 X-31.469 Y40.601 E133.91061
G1 X-31.858 Y40.557 E133.94957
G1 X-32.188 Y40.442 E133.98436
G1 X-32.495 Y40.251 E134.02034
G1 X-32.751 Y39.995 E134.05638
G1 X-32.94 Y39.694 E134.09175
G1 X-33.057 Y39.358 E134.12717
G1 X-33.102 Y38.967 E134.16634
G1 X-33.101 Y-26.44 E140.67636
G1 X-33.105 Y-28.742 E140.90548
G1 X-33.101 Y-31.231 E141.15321
G1 X-18.047 Y-31.228 E142.65155
G1 X-16.948 Y-30.924 E142.76504
G1 X-15.879 Y-30.478 E142.88033
G1 X-14.884 Y-29.909 E142.99441
G1 X-13.952 Y-29.213 E143.11019
G1 X-13.121 Y-28.414 E143.22493
G1 X-12.399 Y-27.523 E143.33907
G1 X-11.785 Y-26.535 E143.45485
G1 X-11.302 Y-25.494 E143.56907
G1 X-10.951 Y-24.398 E143.68362
G1 X-10.735 Y-23.252 E143.79969
G0 F600 X-10.711 Y-22.853
G0 X-11.548 Y-22.802
G0 X-12.295 Y-23.055
;TYPE:SKIN
G1 F300 X-12.232 Y-22.035 E143.9014
G1 X-12.233 Y20.665 E148.15137
G1 X-12.147 Y22.074 E148.29187
G1 X-11.882 Y23.528 E148.43898
G1 X-11.44 Y24.939 E148.58614
G1 X-10.836 Y26.285 E148.73298
G1 X-10.07 Y27.551 E148.88026
G1 X-9.178 Y28.69 E149.02425
G1 X-9.058 Y28.817 E149.04164
G1 X-8.112 Y29.76 E149.17459
G1 X-6.951 Y30.67 E149.32141
G1 X-5.685 Y31.435 E149.46863
G1 X-4.368 Y32.029 E149.61243
G1 X-4.204 Y32.085 E149.62968
G1 X-2.926 Y32.482 E149.76288
G1 X-1.474 Y32.747 E149.90978
G1 X0.00 Y32.836 E150.05676
G1 X1.474 Y32.747 E150.20373
G1 X2.928 Y32.482 E150.35084
G1 X4.339 Y32.04 E150.498
G1 X5.685 Y31.436 E150.64484
G1 X6.951 Y30.67 E150.79212
G1 X8.09 Y29.778 E150.93611
G1 X8.217 Y29.658 E150.9535
G1 X9.16 Y28.712 E151.08645
G1 X10.07 Y27.551 E151.23327
G1 X10.835 Y26.285 E151.38049
G1 X11.429 Y24.968 E151.52429
G1 X11.485 Y24.804 E151.54154
G1 X11.882 Y23.526 E151.67474
G1 X12.147 Y22.074 E151.82164
G1 X12.232 Y20.663 E151.96234
G1 X12.233 Y-22.044 E156.213
G1 X12.295 Y-23.058 E156.31412
G1 X12.474 Y-24.003 E156.40985
G1 X12.766 Y-24.919 E156.50554
G1 X13.162 Y-25.776 E156.5995
G1 X13.687 Y-26.619 E156.69835
G1 X14.274 Y-27.344 E156.79119
G1 X14.969 Y-28.012 E156.88714
G1 X15.745 Y-28.592 E156.98356
G1 X16.575 Y-29.068 E157.0788
G1 X17.451 Y-29.433 E157.17325
G1 X18.268 Y-29.66 E157.25765
G1 X31.534 Y-29.66 E158.57803
G1 X31.536 Y-28.748 E158.6688
G1 X31.531 Y-26.444 E158.89812
G1 X31.531 Y38.845 E165.39639
G1 X31.498 Y39.004 E165.41256
G1 X31.38 Y39.032 E165.42463
G1 X-31.345 Y39.031 E171.66771
G1 X-31.504 Y38.998 E171.68387
G1 X-31.532 Y38.88 E171.69594
G1 X-31.531 Y-26.441 E178.1974
G1 X-31.535 Y-28.741 E178.42632
G1 X-31.534 Y-29.661 E178.51789
G1 X-18.259 Y-29.658 E179.83917
G1 X-17.466 Y-29.439 E179.92105
G1 X-16.575 Y-29.067 E180.01715
G1 X-15.743 Y-28.591 E180.11255
G1 X-14.971 Y-28.015 E180.20842
G1 X-14.278 Y-27.349 E180.30409
G1 X-13.687 Y-26.619 E180.39757
G1 X-13.162 Y-25.776 E180.49642
G1 X-12.769 Y-24.925 E180.58971
G1 X-12.477 Y-24.014 E180.68493
G1 X-12.295 Y-23.055 E180.78208
G0 F600 X-11.442 Y20.64
G0 X-11.36 Y21.978
G0 X-11.112 Y23.338
G0 X-10.7 Y24.658
G0 X-10.134 Y25.917
G0 X-9.418 Y27.101
G0 X-8.491 Y28.265
G0 X-7.587 Y29.166
G0 X-6.501 Y30.018
G0 X-5.317 Y30.733
G0 X-3.958 Y31.333
G0 X-2.737 Y31.712
G0 X-1.378 Y31.96
G0 X0.00 Y32.044
G0 X1.378 Y31.96
G0 X2.738 Y31.712
G0 X4.058 Y31.3
G0 X5.317 Y30.734
G0 X6.501 Y30.018
G0 X7.665 Y29.091
G0 X8.566 Y28.187
G0 X9.418 Y27.101
G0 X10.133 Y25.917
G0 X10.619 Y24.817
G0 X30.725 Y-28.749
G1 F300 X30.725 Y-28.849 E180.79204
G1 X30.547 Y-28.849 E180.80975
G1 X30.725 Y-28.671 E180.83481
G1 X30.723 Y-27.485 E180.95285
G1 X29.359 Y-28.849 E181.14484
G1 X28.171 Y-28.849 E181.26309
G1 X30.72 Y-26.3 E181.62188
G1 X30.72 Y-25.112 E181.74012
G1 X26.983 Y-28.849 E182.26614
G1 X25.795 Y-28.849 E182.38438
G1 X30.72 Y-23.924 E183.07761
G1 X30.72 Y-22.736 E183.19585
G1 X24.608 Y-28.849 E184.05624
G1 X23.42 Y-28.849 E184.17448
G1 X30.72 Y-21.548 E185.20208
G1 X30.72 Y-20.36 E185.32033
G1 X22.232 Y-28.849 E186.51515
G1 X21.044 Y-28.849 E186.63339
G1 X30.72 Y-19.172 E187.99544
G1 X30.72 Y-17.984 E188.11368
G1 X19.856 Y-28.849 E189.64295
G1 X18.668 Y-28.849 E189.76119
G1 X30.72 Y-16.796 E191.45768
G1 X30.72 Y-15.608 E191.57592
G1 X17.68 Y-28.649 E193.41147
G1 X16.926 Y-28.336 E193.49273
G1 X16.849 Y-28.292 E193.50156
G1 X30.72 Y-14.42 E195.45408
G1 X30.72 Y-13.232 E195.57232
