;FLAVOR:Marlin
;TIME:3038
;Filament used: 4.98475m
;Layer height: 0.4
;MINX:-99.056
;MINY:-98.135
;MINZ:0.3
;MAXX:97.543
;MAXY:98.474
;MAXZ:1.9
;Generated with Cura_SteamEngine 4.10.0
M104 S228
M105
M109 S228
M82 ;absolute extrusion mode
G21        ;metric values
G90        ;absolute positioning
M107       ;start with the fan off
G28   ;move to endstops

;Z-Offset Reset und dann Z +0,1 für PLA
;MacroZOffset0
;MacroZOffsetPlus0100

G92 E0                  ;zero the extruded length
G1 F200 E3              ;extrude 3mm of feed stock
G92 E0                  ;zero the extruded length again
G1 F150.0
;Put printing message on LCD screen
M117 Printing...
G92 E0
G92 E0
G1 F2400 E-7
;LAYER_COUNT:5
;LAYER:0
M106 S25.5
M204 S3000
G1 F600 Z1.3
;MESH:ASX1_Vertical_Filament_Spool_Parts_Drawer_petg_white_198mm_58width_GuideLeft.3mf
G0 F1500 X-5.406 Y97.057 Z1.3
M204 S1500
;TYPE:WALL-INNER
G1 F600 Z0.3
G1 F2400 E0
G1 F600 X-5.406 Y94.429 E0.16268
G1 X-5.595 Y94.041 E0.1894
G1 X-5.852 Y93.516 E0.22558
G1 X-6.67 Y93.194 E0.28
G1 X-12.468 Y92.83 E0.63963
G1 X-13.539 Y92.625 E0.70713
G1 X-14.636 Y92.912 E0.77732
G1 X-14.915 Y93.515 E0.81845
G1 X-15.106 Y93.93 E0.84674
G1 X-15.106 Y96.284 E0.99246
G1 X-15.106 Y96.335 E0.99561
G1 X-15.505 Y96.284 E1.01202
G1 X-15.505 Y93.931 E1.10887
G1 X-15.505 Y93.474 E1.13254
G1 X-15.506 Y47.817 E3.95888
G1 X-16.088 Y46.962 E4.0229
G1 X-21.727 Y44.728 E4.39837
G1 X-27.141 Y41.751 E4.78085
G1 X-27.768 Y41.296 E4.8288
G1 X-28.844 Y41.109 E4.89641
G1 X-29.664 Y41.735 E4.96027
G1 X-51.35 Y79.302 E7.64547
G1 X-51.565 Y79.675 E7.67212
G1 X-52.88 Y81.952 E7.83489
G1 X-53.054 Y82.253 E7.85642
G1 X-53.083 Y82.302 E7.85994
G1 X-53.438 Y82.044 E7.87829
G1 X-53.518 Y81.986 E7.88371
G1 X-53.409 Y81.898 E7.88495
G1 X-53.227 Y81.752 E7.89255
G1 X-51.912 Y79.476 E8.00102
G1 X-51.883 Y79.046 E8.02337
G1 X-51.842 Y78.445 E8.06066
G1 X-52.402 Y77.767 E8.11509
G1 X-57.222 Y74.565 E8.47331
G1 X-58.061 Y73.841 E8.54191
G1 X-59.158 Y73.552 E8.61213
G1 X-59.69 Y73.929 E8.6525
G1 X-60.064 Y74.194 E8.68087
G1 X-61.279 Y76.296 E8.83117
G1 X-61.3 Y76.332 E8.83375
G1 X-61.624 Y76.097 E8.85012
G1 X-60.41 Y73.995 E8.94992
G1 X-60.181 Y73.598 E8.97365
G1 X-37.326 Y34.012 E11.80327
G1 X-37.416 Y32.961 E11.86857
G1 X-40.592 Y29.122 E12.177
G1 X-43.911 Y23.895 E12.56029
G1 X-44.69 Y22.237 E12.67369
G1 X-45.53 Y21.555 E12.74067
G1 X-46.538 Y21.694 E12.80366
G1 X-84.136 Y43.4 E15.49114
G1 X-84.513 Y43.617 E15.51807
G1 X-86.789 Y44.931 E15.68076
G1 X-87.014 Y45.061 E15.69684
G1 X-87.051 Y45.083 E15.69951
G1 X-87.23 Y44.702 E15.7168
G1 X-87.264 Y44.63 E15.72104
G1 X-87.125 Y44.609 E15.72176
G1 X-86.988 Y44.587 E15.72669
G1 X-84.713 Y43.272 E15.83444
G1 X-84.47 Y42.911 E15.85697
G1 X-84.142 Y42.424 E15.89331
G1 X-84.276 Y41.557 E15.94762
G1 X-86.853 Y36.368 E16.30627
G1 X-87.217 Y35.327 E16.37454
G1 X-88.016 Y34.518 E16.44493
G1 X-88.672 Y34.581 E16.48572
G1 X-89.134 Y34.624 E16.51445
G1 X-91.278 Y35.862 E16.66771
G1 X-91.352 Y35.905 E16.673
G1 X-91.478 Y35.518 E16.68921
G1 X-89.333 Y34.28 E16.79066
G1 X-88.931 Y34.048 E16.81465
G1 X-49.324 Y11.179 E19.64583
G1 X-48.879 Y10.202 E19.71228
G1 X-49.613 Y6.348 E19.95515
G1 X-50.002 Y0.169 E20.33841
G1 X-49.822 Y-2.726 E20.51797
G1 X-50.233 Y-3.72 E20.58455
G1 X-51.159 Y-4.08 E20.64606
G1 X-94.584 Y-4.08 E23.33423
G1 X-95.016 Y-4.08 E23.36097
G1 X-97.644 Y-4.08 E23.52365
G1 X-97.855 Y-4.08 E23.53671
G1 X-97.885 Y-4.081 E23.53857
G1 X-97.86 Y-4.493 E23.5555
G1 X-97.855 Y-4.562 E23.55826
G1 X-97.719 Y-4.51 E23.55897
G1 X-97.644 Y-4.48
G1 X-95.016 Y-4.48 E23.66742
G1 X-94.628 Y-4.669 E23.6898
G1 X-94.103 Y-4.926 E23.72598
G1 X-93.781 Y-5.744 E23.7804
G1 X-93.416 Y-11.543 E24.14009
G1 X-93.211 Y-12.613 E24.20753
G1 X-93.498 Y-13.71 E24.27773
G1 X-94.101 Y-13.989 E24.31886
G1 X-94.516 Y-14.18 E24.34714
G1 X-96.901 Y-14.18 E24.49478
G1 X-96.977 Y-14.18 E24.49948
G1 X-96.901 Y-14.579 E24.51582
G1 X-94.517 Y-14.579 E24.61395
G1 X-94.06 Y-14.579 E24.63761
G1 X-48.318 Y-14.58 E27.46922
G1 X-47.436 Y-15.222 E27.53675
G1 X-46.543 Y-17.963 E27.7152
G1 X-43.914 Y-23.553 E28.09761
G1 X-41.788 Y-26.901 E28.34311
G1 X-41.666 Y-27.958 E28.40898
G1 X-42.283 Y-28.716 E28.46948
G1 X-79.885 Y-50.424 E31.15724
G1 X-80.261 Y-50.641 E31.18411
G1 X-82.537 Y-51.955 E31.3468
G1 X-82.713 Y-52.057 E31.35939
G1 X-82.731 Y-52.068 E31.3607
G1 X-82.513 Y-52.411 E31.37725
G1 X-82.475 Y-52.471 E31.38104
G1 X-82.379 Y-52.352 E31.38213
G1 X-82.338 Y-52.301
G1 X-80.062 Y-50.986 E31.49021
G1 X-79.628 Y-50.957 E31.51272
G1 X-79.031 Y-50.916 E31.54977
G1 X-78.353 Y-51.476 E31.6042
G1 X-75.154 Y-56.294 E31.96221
G1 X-74.428 Y-57.135 E32.03099
G1 X-74.139 Y-58.232 E32.10121
G1 X-74.516 Y-58.764 E32.14158
G1 X-74.781 Y-59.138 E32.16995
G1 X-76.799 Y-60.304 E32.31423
G1 X-76.857 Y-60.338 E32.31839
G1 X-76.6 Y-60.649 E32.33469
G1 X-74.582 Y-59.484 E32.43049
G1 X-74.185 Y-59.255 E32.45422
G1 X-34.584 Y-36.393 E35.28486
G1 X-33.481 Y-36.523 E35.35361
G1 X-32.152 Y-37.772 E35.46651
G1 X-27.149 Y-41.407 E35.84933
G1 X-22.746 Y-43.829 E36.16041
G1 X-22.125 Y-44.692 E36.22622
G1 X-22.298 Y-45.642 E36.286
G1 X-43.987 Y-83.21 E38.97134
G1 X-44.204 Y-83.587 E38.99827
G1 X-45.518 Y-85.863 E39.16096
G1 X-45.637 Y-86.069 E39.17569
G1 X-45.643 Y-86.079 E39.17641
G1 X-45.29 Y-86.272 E39.19253
G1 X-45.213 Y-86.315 E39.19799
G1 X-45.188 Y-86.15 E39.20012
G1 X-45.174 Y-86.062 E39.20266
G1 X-43.859 Y-83.787 E39.31041
G1 X-43.498 Y-83.544 E39.33294
G1 X-43.011 Y-83.216 E39.36928
G1 X-42.144 Y-83.35 E39.42359
G1 X-36.954 Y-85.927 E39.7823
G1 X-35.913 Y-86.291 E39.85056
G1 X-35.104 Y-87.09 E39.92095
G1 X-35.166 Y-87.743 E39.96156
G1 X-35.21 Y-88.208 E39.99047
G1 X-36.368 Y-90.212 E40.13375
G1 X-36.398 Y-90.264 E40.13746
G1 X-36.024 Y-90.411 E40.15373
G1 X-34.867 Y-88.407 E40.2484
G1 X-34.633 Y-88.002 E40.27254
G1 X-11.792 Y-48.445 E43.10017
G1 X-10.748 Y-48.008 E43.17024
G1 X-9.984 Y-48.205 E43.21908
G1 X-3.852 Y-48.98 E43.60169
G1 X-.281 Y-48.981 E43.82275
G1 X0.019 Y-48.981 E43.84132
G1 X0.019 Y-48.681 E43.85333
G1 X0.019 Y-47.963 E43.89778
G1 X-3.741 Y-47.963 E44.13053
G1 X-3.847 Y-47.955 E44.13711
G1 X-9.808 Y-47.201 E44.50906
G1 X-15.613 Y-45.71 E44.88008
G1 X-15.714 Y-45.676 E44.88668
G1 X-21.223 Y-43.495 E45.25346
G1 X-21.32 Y-43.453 E45.26
G1 X-26.545 Y-40.579 E45.62915
G1 X-26.636 Y-40.524 E45.63573
G1 X-31.488 Y-36.998 E46.00702
G1 X-35.92 Y-32.836 E46.38339
G1 X-39.745 Y-28.213 E46.75483
G1 X-39.807 Y-28.126 E46.76144
G1 X-42.992 Y-23.107 E47.12941
G1 X-43.043 Y-23.013 E47.13603
G1 X-45.574 Y-17.635 E47.50398
G1 X-45.612 Y-17.536 E47.51054
G1 X-47.453 Y-11.873 E47.87916
G1 X-47.48 Y-11.77 E47.88575
G1 X-48.605 Y-5.861 E48.25811
G1 X-48.981 Y0.116 E48.62884
G1 X-48.981 Y0.224 E48.63553
G1 X-48.605 Y6.2 E49.0062
G1 X-47.48 Y12.109 E49.37856
G1 X-47.453 Y12.212 E49.38515
G1 X-45.612 Y17.875 E49.75377
G1 X-45.574 Y17.974 E49.76033
G1 X-43.043 Y23.352 E50.12828
G1 X-42.992 Y23.446 E50.1349
G1 X-39.807 Y28.465 E50.50287
G1 X-39.745 Y28.552 E50.50949
G1 X-35.92 Y33.176 E50.88097
G1 X-31.488 Y37.337 E51.25729
G1 X-26.636 Y40.863 E51.62859
G1 X-26.545 Y40.918 E51.63517
G1 X-21.32 Y43.792 E52.00432
G1 X-21.223 Y43.834 E52.01086
G1 X-15.715 Y46.016 E52.37761
G1 X-15.613 Y46.05 E52.38426
G1 X-9.808 Y47.541 E52.75528
G1 X-3.847 Y48.295 E53.12723
G1 X-3.741 Y48.303 E53.13381
G1 X2.228 Y48.303 E53.50331
G1 X2.334 Y48.295 E53.50989
G1 X8.295 Y47.541 E53.88184
G1 X14.101 Y46.05 E54.25291
G1 X14.203 Y46.016 E54.25957
G1 X19.711 Y43.834 E54.62632
G1 X19.808 Y43.792 E54.63286
G1 X25.033 Y40.918 E55.00201
G1 X25.124 Y40.863 E55.00859
G1 X29.976 Y37.337 E55.37988
G1 X34.344 Y33.237 E55.75073
G1 X34.419 Y33.161 E55.75734
G1 X38.232 Y28.552 E56.12764
G1 X38.294 Y28.465 E56.13425
G1 X41.48 Y23.446 E56.50226
G1 X41.531 Y23.352 E56.50888
G1 X44.062 Y17.974 E56.87682
G1 X44.1 Y17.875 E56.88339
G1 X45.942 Y12.211 E57.25209
G1 X45.968 Y12.107 E57.25872
G1 X47.092 Y6.2 E57.63095
G1 X47.469 Y0.224 E58.00162
G1 X47.469 Y0.116 E58.00831
G1 X47.092 Y-5.861 E58.37904
G1 X45.968 Y-11.768 E58.75127
G1 X45.942 Y-11.872 E58.7579
G1 X44.1 Y-17.536 E59.1266
G1 X44.062 Y-17.635 E59.13317
G1 X41.531 Y-23.013 E59.50111
G1 X41.48 Y-23.107 E59.50773
G1 X38.294 Y-28.126 E59.87574
G1 X38.232 Y-28.213 E59.88235
G1 X34.408 Y-32.836 E60.25375
G1 X29.976 Y-36.998 E60.63012
G1 X25.124 Y-40.524 E61.00141
G1 X25.033 Y-40.579 E61.00799
G1 X19.808 Y-43.453 E61.37714
G1 X19.711 Y-43.495 E61.38368
G1 X14.202 Y-45.676 E61.75046
G1 X14.101 Y-45.71 E61.75706
G1 X8.295 Y-47.201 E62.12813
G1 X3.469 Y-47.812 E62.42927
G1 X3.469 Y-50.267 E62.58124
G1 X3.494 Y-50.344 E62.58625
G1 X3.494 Y-93.658 E65.26755
G1 X3.494 Y-94.09 E65.29429
G1 X3.494 Y-96.718 E65.45698
G1 X3.495 Y-97.035 E65.4766
G1 X3.894 Y-97.035 E65.5013
G1 X4.017 Y-97.035 E65.50891
G1 X3.949 Y-96.859 E65.51296
G1 X3.894 Y-96.718 E65.5161
G1 X3.894 Y-94.09 E65.62456
G1 X4.083 Y-93.702 E65.64693
G1 X4.34 Y-93.177 E65.68312
G1 X5.158 Y-92.855 E65.73753
G1 X10.956 Y-92.49 E66.09716
G1 X12.027 Y-92.285 E66.16467
G1 X13.124 Y-92.572 E66.23486
G1 X13.403 Y-93.175 E66.27599
G1 X13.594 Y-93.59 E66.30427
G1 X13.594 Y-95.945 E66.45005
G1 X13.594 Y-95.996 E66.45321
G1 X13.993 Y-95.945 E66.46961
G1 X13.993 Y-93.591 E66.56651
G1 X13.993 Y-93.134 E66.59017
G1 X13.994 Y-47.478 E69.41645
G1 X14.576 Y-46.623 E69.48048
G1 X20.214 Y-44.389 E69.85589
G1 X25.629 Y-41.412 E70.23842
G1 X26.256 Y-40.957 E70.28638
G1 X27.332 Y-40.77 E70.35398
G1 X28.152 Y-41.397 E70.41788
G1 X30.182 Y-44.916 E70.66937
G1 X49.838 Y-78.961 E73.10292
G1 X50.054 Y-79.335 E73.12966
G1 X51.369 Y-81.611 E73.29237
G1 X51.544 Y-81.913 E73.31398
G1 X51.573 Y-81.962 E73.31751
G1 X51.927 Y-81.705 E73.33578
G1 X52.006 Y-81.647 E73.34114
G1 X51.898 Y-81.56 E73.34226
G1 X51.715 Y-81.412 E73.35181
G1 X50.4 Y-79.136 E73.46002
G1 X50.371 Y-78.704 E73.48244
G1 X50.33 Y-78.105 E73.51961
G1 X50.89 Y-77.427 E73.57405
G1 X55.71 Y-74.226 E73.93223
G1 X56.549 Y-73.502 E74.00083
G1 X57.646 Y-73.213 E74.07105
G1 X58.178 Y-73.59 E74.11142
G1 X58.552 Y-73.855 E74.13979
G1 X59.767 Y-75.957 E74.29009
G1 X59.788 Y-75.993 E74.29267
G1 X60.112 Y-75.758 E74.30904
G1 X58.898 Y-73.656 E74.40884
G1 X58.669 Y-73.259 E74.43257
G1 X35.814 Y-33.673 E77.26219
G1 X35.904 Y-32.622 E77.32749
G1 X39.08 Y-28.782 E77.63597
G1 X42.396 Y-23.559 E78.01895
G1 X43.177 Y-21.898 E78.13257
G1 X44.017 Y-21.216 E78.19955
G1 X45.025 Y-21.355 E78.26254
G1 X82.624 Y-43.061 E80.95007
G1 X83.001 Y-43.278 E80.977
G1 X85.277 Y-44.592 E81.13969
G1 X85.501 Y-44.722 E81.15572
G1 X85.538 Y-44.744 E81.15839
G1 X85.717 Y-44.362 E81.17574
G1 X85.751 Y-44.291 E81.17903
G1 X85.613 Y-44.27 E81.17968
G1 X85.476 Y-44.248 E81.18462
G1 X83.201 Y-42.933 E81.29237
G1 X82.958 Y-42.572 E81.3149
G1 X82.63 Y-42.085 E81.35124
G1 X82.764 Y-41.218 E81.40555
G1 X85.345 Y-36.02 E81.76481
G1 X85.704 Y-34.983 E81.83274
G1 X86.504 Y-34.187 E81.9026
G1 X87.166 Y-34.243 E81.94373
G1 X87.613 Y-34.28 E81.9715
G1 X89.765 Y-35.523 E82.12534
G1 X89.839 Y-35.566 E82.13064
G1 X89.966 Y-35.177 E82.14699
G1 X87.813 Y-33.934 E82.24948
G1 X87.425 Y-33.71 E82.27268
G1 X47.811 Y-10.84 E85.10426
G1 X47.366 Y-9.863 E85.17072
G1 X48.101 Y-6.012 E85.41342
G1 X48.49 Y0.17 E85.79686
G1 X48.31 Y3.066 E85.97648
G1 X48.721 Y4.06 E86.04307
G1 X49.647 Y4.42 E86.10457
G1 X93.072 Y4.42 E88.79274
G1 X93.504 Y4.42 E88.81948
G1 X96.132 Y4.42 E88.98217
G1 X96.342 Y4.42 E88.99517
G1 X96.372 Y4.421 E88.99702
G1 X96.347 Y4.833 E89.01394
G1 X96.342 Y4.901 E89.01663
G1 X96.207 Y4.849 E89.01727
G1 X96.132 Y4.82
G1 X93.504 Y4.82 E89.12573
G1 X93.116 Y5.009 E89.1481
G1 X92.591 Y5.266 E89.18429
G1 X92.269 Y6.084 E89.2387
G1 X91.904 Y11.881 E89.59827
G1 X91.699 Y12.954 E89.6659
G1 X91.986 Y14.05 E89.73603
G1 X92.589 Y14.329 E89.77716
G1 X93.004 Y14.52 E89.80544
G1 X95.388 Y14.52 E89.95302
G1 X95.464 Y14.52 E89.95772
G1 X95.388 Y14.919 E89.97406
G1 X93.005 Y14.919 E90.07215
G1 X92.548 Y14.919 E90.09582
G1 X46.805 Y14.92 E92.92748
G1 X45.923 Y15.562 E92.99501
G1 X45.03 Y18.302 E93.17341
G1 X42.404 Y23.886 E93.55539
G1 X40.276 Y27.24 E93.80128
G1 X40.154 Y28.297 E93.86715
G1 X40.771 Y29.055 E93.92765
G1 X78.373 Y50.764 E96.61544
G1 X78.749 Y50.981 E96.64231
G1 X81.025 Y52.295 E96.805
G1 X81.2 Y52.396 E96.81751
G1 X81.218 Y52.407 E96.81881
G1 X81 Y52.751 E96.8354
G1 X80.962 Y52.81 E96.83915
G1 X80.866 Y52.691 E96.84021
G1 X80.826 Y52.641
G1 X78.55 Y51.326 E96.94829
G1 X78.116 Y51.297 E96.9708
G1 X77.519 Y51.256 E97.00784
G1 X76.841 Y51.816 E97.06228
G1 X73.647 Y56.625 E97.41965
G1 X72.915 Y57.475 E97.48909
G1 X72.626 Y58.571 E97.55926
G1 X73.004 Y59.104 E97.59971
G1 X73.268 Y59.477 E97.628
G1 X75.286 Y60.644 E97.7723
G1 X75.345 Y60.678 E97.77652
G1 X75.087 Y60.989 E97.79284
G1 X73.069 Y59.824 E97.88878
G1 X72.674 Y59.596 E97.91241
G1 X33.072 Y36.733 E100.74314
G1 X31.97 Y36.863 E100.81183
G1 X30.634 Y38.115 E100.92517
G1 X25.637 Y41.746 E101.30755
G1 X21.234 Y44.168 E101.61862
G1 X20.613 Y45.031 E101.68444
G1 X20.786 Y45.981 E101.74422
G1 X42.475 Y83.55 E104.42961
G1 X42.692 Y83.927 E104.45654
G1 X44.006 Y86.203 E104.61923
G1 X44.125 Y86.408 E104.6339
G1 X44.131 Y86.418 E104.63462
G1 X43.778 Y86.612 E104.65076
G1 X43.701 Y86.654 E104.65452
G1 X43.676 Y86.489 E104.65662
G1 X43.662 Y86.402 E104.65914
G1 X42.347 Y84.127 E104.76689
G1 X41.986 Y83.884 E104.78942
G1 X41.499 Y83.556 E104.82576
G1 X40.632 Y83.69 E104.88007
G1 X35.439 Y86.268 E105.23897
G1 X34.396 Y86.632 E105.30735
G1 X33.6 Y87.429 E105.37708
G1 X33.656 Y88.088 E105.41803
G1 X33.693 Y88.539 E105.44604
G1 X34.855 Y90.552 E105.58992
G1 X34.885 Y90.603 E105.59358
G1 X34.511 Y90.751 E105.60988
G1 X33.349 Y88.738 E105.70509
G1 X33.123 Y88.346 E105.72847
G1 X10.281 Y48.788 E108.55618
G1 X9.244 Y48.348 E108.62592
G1 X8.465 Y48.544 E108.67564
G1 X2.339 Y49.319 E109.05789
G1 X-3.751 Y49.319 E109.43488
G1 X-4.692 Y49.777 E109.49967
G1 X-5.006 Y50.661 E109.55774
G1 X-5.006 Y93.997 E112.2404
G1 X-5.006 Y94.429 E112.26281
G1 X-5.006 Y97.057 E112.37126
G1 X-5.007 Y97.374 E112.39088
G1 X-5.406 Y97.374 E112.41558
G1 X-5.529 Y97.374 E112.4232
G1 X-5.461 Y97.198 E112.42724
G1 X-5.406 Y97.057 E112.43039
M204 S3000
G0 F1500 X-4.145 Y50.808
G0 X26.099 Y42.475
G0 X45.834 Y18.616
G0 X48.264 Y-9.753
G0 X83.804 Y-42.286
G0 X85.769 Y-43.421
G0 X86.839 Y-43.348
M204 S1500
G1 F600 X86.302 Y-43.768 E112.47259
G1 X86.12 Y-43.74 E112.48399
G1 X85.679 Y-43.672 E112.51161
G1 X83.621 Y-42.483 E112.65874
G1 X83.259 Y-41.945 E112.69888
G1 X83.343 Y-41.402 E112.7329
G1 X85.9 Y-36.251 E113.08889
G1 X86.226 Y-35.31 E113.15054
G1 X86.73 Y-34.808 E113.19457
G1 X87.429 Y-34.867 E113.238
G1 X89.543 Y-36.088 E113.38912
G1 X89.658 Y-36.26 E113.40193
G1 X89.891 Y-36.606 E113.42775
G1 X89.851 Y-36.989 E113.45159
G1 X90.005 Y-36.66 E113.45365
G1 X90.183 Y-36.282 E113.47062
G1 X90.358 Y-35.91 E113.49607
G1 X90.687 Y-34.9 E113.56182
G1 X48.277 Y-10.416 E116.59326
G1 X47.991 Y-9.788 E116.63598
G1 X48.698 Y-6.082 E116.86953
G1 X49.091 Y0.17 E117.25732
G1 X48.917 Y2.965 E117.43067
G1 X49.177 Y3.594 E117.4728
G1 X49.759 Y3.82 E117.51145
G1 X96.692 Y3.821 E120.41678
G1 X96.693 Y3.821 E120.41684
G1 X97.011 Y3.821 E120.43653
G1 X96.991 Y4.139 E120.44906
G1 X96.908 Y5.456 E120.53075
G1 X96.895 Y5.664 E120.54365
G1 X96.857 Y6.264 E120.58087
G1 X96.602 Y5.646 E120.59329
G1 X96.408 Y5.571 E120.6035
G1 X96.02 Y5.42 E120.62927
G1 X93.643 Y5.42 E120.77642
G1 X93.064 Y5.703 E120.81631
G1 X92.862 Y6.216 E120.85044
G1 X92.501 Y11.951 E121.20616
G1 X92.314 Y12.933 E121.26804
G1 X92.495 Y13.624 E121.31226
G1 X93.136 Y13.92 E121.35597
G1 X95.573 Y13.92 E121.50683
G1 X95.689 Y13.863 E121.51483
G1 X96.125 Y13.651 E121.54484
G1 X96.32 Y13.234 E121.57334
G1 X96.237 Y13.672 E121.57568
G1 X96.146 Y14.149 E121.59484
G1 X95.884 Y15.519 E121.68119
G1 X47 Y15.52 E124.70729
G1 X46.433 Y15.933 E124.75071
G1 X45.591 Y18.519 E124.91907
G1 X42.928 Y24.181 E125.3064
G1 X40.856 Y27.445 E125.54573
G1 X40.779 Y28.114 E125.58741
G1 X41.167 Y28.591 E125.62548
G1 X81.791 Y52.045 E128.52928
G1 X82.061 Y52.2 E128.54856
G1 X81.894 Y52.463 E128.56087
G1 X81.188 Y53.575 E128.6424
G1 X81.075 Y53.753 E128.65546
G1 X80.743 Y54.277 E128.69386
