;FLAVOR:Marlin
;TIME:3886
;Filament used: 10.4592m
;Layer height: 0.3
;MINX:-31.487
;MINY:-0.561
;MINZ:0.3
;MAXX:45.518
;MAXY:75.326
;MAXZ:49.9
;Generated with Cura_SteamEngine 4.10.0
M104 S228
M105
M109 S228
M82 ;absolute extrusion mode
G21        ;metric values
G90        ;absolute positioning
M107       ;start with the fan off
G28   ;move to endstops

;Z-Offset Reset und dann Z +0,1 für PLA
;MacroZOffset0
;MacroZOffsetPlus0100

G92 E0                  ;zero the extruded length
G1 F200 E3              ;extrude 3mm of feed stock
G92 E0                  ;zero the extruded length again
G1 F150.0
;Put printing message on LCD screen
M117 Printing...
G92 E0
G92 E0
G1 F2400 E-7
;LAYER_COUNT:164
;LAYER:0
M106 S25.5
M204 S3000
G1 F600 Z1.3
;MESH:ASX1_Vertical_Filament_Spool_Parts_Drawer_petg_white_198mm_58width_bin.3mf
G0 F1500 X-24.506 Y27.138 Z1.3
M204 S1500
;TYPE:WALL-INNER
G1 F600 Z0.3
G1 F2400 E0
G1 F600 X-24.505 Y27.137 E0.00013
G1 X-23.593 Y26.611 E0.09467
G1 X-23.182 Y26.076 E0.15526
G1 X-22.546 Y23.695 E0.37657
G1 X16.799 Y0.981 E4.45636
G1 X27.167 Y18.939 E6.31851
G1 X27.354 Y19.262 E6.35203
G1 X26.998 Y19.373 E6.37242
G1 X26.997 Y19.374 E6.37255
G1 X26.717 Y19.462 E6.3989
G1 X26.288 Y20.18 E6.47401
G1 X25.428 Y23.399 E6.77323
G1 X25.516 Y24.067 E6.83373
G1 X28.312 Y28.914 E7.33623
G1 X28.846 Y29.325 E7.39675
G1 X32.202 Y30.225 E7.70877
G1 X33.338 Y30.001 E7.81275
G1 X33.441 Y29.803 E7.8328
G1 X33.5 Y29.906
G1 X43.8 Y47.745 E9.68264
G1 X43.95 Y48.004 E9.70951
G1 X43.691 Y48.154 E9.72689
G1 X4.602 Y70.722 E13.78021
G1 X2.226 Y70.082 E14.00119
G1 X1.557 Y70.171 E14.06179
G1 X0.442 Y70.815 E14.17743
G1 X-24.615 Y27.546 E18.6676
G1 X-24.765 Y27.287 E18.69448
G1 X-24.506 Y27.138 E18.71179
M204 S3000
G0 F1500 X-23.062 Y23.3
M204 S1500
G1 F600 X17.019 Y0.161 E22.8679
G1 X28.125 Y19.397 E24.86258
G1 X28.213 Y19.549 E24.87835
G1 X28.539 Y20.113 E24.93685
G1 X27.938 Y19.708 E24.95758
G1 X27.77 Y19.76 E24.97046
G1 X27.115 Y19.966 E25.03212
G1 X26.846 Y20.416 E25.0792
G1 X26.038 Y23.439 E25.3602
G1 X26.095 Y23.87 E25.39925
G1 X28.772 Y28.511 E25.88038
G1 X29.117 Y28.776 E25.91945
G1 X32.223 Y29.609 E26.20823
G1 X32.939 Y29.468 E26.27376
G1 X33.143 Y29.076 E26.31345
G1 X33.334 Y28.707 E26.35076
G1 X33.213 Y28.208 E26.39687
G1 X33.459 Y28.634 E26.40166
G1 X33.667 Y28.994 E26.42653
G1 X44.62 Y47.965 E28.39373
G1 X44.77 Y48.224 E28.42061
G1 X44.511 Y48.374 E28.43798
G1 X4.687 Y71.366 E32.56751
G1 X2.186 Y70.693 E32.80009
G1 X1.754 Y70.75 E32.83922
G1 X0.223 Y71.634 E32.99798
G1 X-25.435 Y27.327 E37.59587
G1 X-25.585 Y27.068 E37.62275
G1 X-25.326 Y26.918 E37.64012
G1 X-23.996 Y26.151 E37.77799
G1 X-23.731 Y25.806 E37.81706
G1 X-23.062 Y23.3 E38.04998
M204 S3000
G0 F1500 X-23.971 Y25.69
G0 X-25.86 Y26.996
G0 X-26.01 Y26.735
M204 S1500
;TYPE:WALL-OUTER
G1 F600 X-24.332 Y25.767 E38.22395
G1 X-24.188 Y25.58 E38.24514
G1 X-23.492 Y22.971 E38.48763
G1 X17.202 Y-.522 E42.70731
G1 X45.303 Y48.148 E47.7542
G1 X45.453 Y48.407 E47.78108
G1 X45.194 Y48.557 E47.79845
G1 X4.758 Y71.902 E51.99142
G1 X2.957 Y71.42 E52.15885
G1 X2.152 Y71.202 E52.23375
G1 X1.918 Y71.233 E52.25494
G1 X0.04 Y72.317 E52.44967
G1 X-26.119 Y27.144 E57.1374
G1 X-26.269 Y26.885 E57.16428
G1 X-26.01 Y26.735 E57.18165
M204 S3000
G0 F1500 X-25.664 Y26.536
G0 X-25.514 Y26.796
G0 X27.144 Y20.308
G0 X27.401 Y20.462
M204 S1500
G1 F600 X27.311 Y20.612 E57.19736
G1 X26.547 Y23.472 E57.4632
G1 X26.578 Y23.706 E57.4844
G1 X29.156 Y28.175 E57.94771
G1 X29.343 Y28.319 E57.9689
G1 X32.24 Y29.096 E58.23826
G1 X32.519 Y29.041 E58.26379
G1 X32.606 Y29.024 E58.27175
G1 X32.804 Y28.643 E58.31031
G1 X32.783 Y28.557 E58.31826
G1 X32.742 Y28.388 E58.33388
G1 X28.167 Y20.465 E59.15548
G1 X27.931 Y20.306 E59.18104
G1 X27.858 Y20.257 E59.18893
G1 X27.446 Y20.386 E59.2277
G1 X27.401 Y20.462 E59.23564
M204 S3000
G0 F1500 X27.311 Y20.612
G0 X27.253 Y20.83
G0 X26.965 Y20.753
G0 X25.739 Y19.948
M204 S1500
;TYPE:SKIN
G1 F600 X24.828 Y23.36 E59.55278
G1 X24.946 Y24.26 E59.63429
G1 X27.86 Y29.31 E60.15788
G1 X28.579 Y29.864 E60.23939
G1 X32.182 Y30.831 E60.5744
G1 X33.233 Y30.622 E60.67063
G1 X43.144 Y47.788 E62.45066
G1 X4.519 Y70.089 E66.45591
G1 X2.265 Y69.482 E66.66554
G1 X1.363 Y69.601 E66.74724
G1 X0.657 Y70.009 E66.82047
G1 X-23.959 Y27.503 E71.2315
G1 X-23.196 Y27.063 E71.31059
G1 X-22.643 Y26.342 E71.39219
G1 X-22.039 Y24.084 E71.6021
G1 X16.583 Y1.787 E75.60693
G1 X26.475 Y18.919 E77.38347
G1 X26.326 Y18.966 E77.3975
G1 X25.739 Y19.948 E77.50024
M204 S3000
G0 F1500 X26.347 Y23.783
G0 X28.321 Y30.384
M204 S1500
G1 F600 X27.423 Y29.691 E77.60211
G1 X26.643 Y28.34 E77.7422
G1 X6.544 Y8.241 E80.29476
G1 X7.082 Y7.93 E80.35057
G1 X25.484 Y26.332 E82.68762
G1 X24.394 Y24.445 E82.88332
G1 X24.387 Y24.387 E82.88856
G1 X7.619 Y7.619 E85.01809
G1 X8.157 Y7.309 E85.07385
G1 X24.259 Y23.41 E87.11874
G1 X24.247 Y23.322 E87.12671
G1 X24.41 Y22.713 E87.18333
G1 X8.695 Y6.998 E89.17913
G1 X9.234 Y6.688 E89.23497
G1 X24.589 Y22.044 E91.18511
G1 X24.767 Y21.373 E91.24745
G1 X9.771 Y6.377 E93.15194
G1 X10.309 Y6.066 E93.20775
G1 X24.946 Y20.704 E95.06671
G1 X25.125 Y20.034 E95.12898
G1 X10.847 Y5.756 E96.94229
G1 X11.385 Y5.446 E96.99805
G1 X25.378 Y19.439 E98.77515
G1 X25.696 Y18.908 E98.83073
G1 X11.923 Y5.135 E100.5799
G1 X12.461 Y4.824 E100.63571
G1 X24.807 Y17.17 E102.20365
G1 X23.647 Y15.162 E102.4119
G1 X12.999 Y4.514 E103.76419
G1 X13.537 Y4.203 E103.81999
G1 X22.487 Y13.153 E104.95664
G1 X21.327 Y11.145 E105.16489
G1 X14.075 Y3.893 E106.08589
G1 X14.613 Y3.582 E106.1417
G1 X20.168 Y9.137 E106.84718
G1 X19.008 Y7.129 E107.05543
G1 X15.151 Y3.271 E107.54533
G1 X15.689 Y2.961 E107.60109
G1 X17.848 Y5.12 E107.87529
G1 X16.688 Y3.111 E108.08361
G1 X16.227 Y2.65 E108.14216
G1 X16.373 Y2.566 E108.15729
M204 S3000
G0 F1500 X26.347 Y23.783
G0 X28.973 Y28.337
G0 X32.248 Y31.399
M204 S1500
G1 F600 X32.162 Y31.416 E108.16516
G1 X31.142 Y31.142 E108.26
G1 X35.241 Y35.241 E108.78058
G1 X36.401 Y37.249 E108.98883
G1 X29.982 Y30.83 E109.80404
G1 X28.822 Y30.519 E109.91189
G1 X37.56 Y39.257 E111.02161
G1 X38.72 Y41.266 E111.22994
G1 X6.006 Y8.551 E115.38467
G1 X5.468 Y8.862 E115.44048
G1 X39.88 Y43.274 E119.81079
G1 X41.039 Y45.282 E120.019
G1 X4.929 Y9.172 E124.60496
G1 X4.392 Y9.483 E124.66068
G1 X42.199 Y47.29 E129.46216
G1 X42.365 Y47.578 E129.49201
G1 X41.904 Y47.844 E129.53981
G1 X3.854 Y9.794 E134.37215
G1 X3.316 Y10.104 E134.42791
G1 X41.366 Y48.154 E139.26025
G1 X40.828 Y48.465 E139.31605
G1 X2.778 Y10.414 E144.14846
G1 X2.24 Y10.726 E144.20431
G1 X40.29 Y48.776 E149.03665
G1 X39.752 Y49.086 E149.09241
G1 X1.702 Y11.036 E153.92475
G1 X1.164 Y11.346 E153.98051
G1 X39.214 Y49.397 E158.81291
G1 X38.676 Y49.707 E158.86867
G1 X0.626 Y11.657 E163.70101
G1 X0.088 Y11.967 E163.75677
G1 X38.138 Y50.017 E168.58911
G1 X37.601 Y50.329 E168.64488
G1 X-.449 Y12.278 E173.47728
G1 X-.987 Y12.589 E173.53309
G1 X37.063 Y50.639 E178.36543
G1 X36.524 Y50.949 E178.42127
G1 X-1.525 Y12.899 E183.25354
G1 X-2.063 Y13.21 E183.30935
G1 X35.986 Y51.26 E188.14162
G1 X35.449 Y51.571 E188.19735
G1 X-2.601 Y13.52 E193.02975
G1 X-3.138 Y13.831 E193.08548
G1 X34.911 Y51.881 E197.91776
G1 X34.373 Y52.192 E197.97356
G1 X-3.676 Y14.142 E202.80584
G1 X-4.215 Y14.452 E202.86168
G1 X33.835 Y52.502 E207.69402
G1 X33.297 Y52.813 E207.74982
G1 X-4.753 Y14.762 E212.58222
G1 X-5.29 Y15.074 E212.638
G1 X32.759 Y53.124 E217.47027
G1 X32.221 Y53.434 E217.52603
G1 X-5.828 Y15.384 E222.35831
G1 X-6.366 Y15.694 E222.41407
G1 X31.683 Y53.745 E227.24641
G1 X31.145 Y54.056 E227.30221
G1 X-6.904 Y16.005 E232.13455
G1 X-7.443 Y16.315 E232.19039
G1 X30.607 Y54.366 E237.02279
G1 X30.069 Y54.677 E237.0786
G1 X-7.98 Y16.626 E241.91094
G1 X-8.518 Y16.937 E241.96674
G1 X29.531 Y54.987 E246.79902
G1 X28.994 Y55.298 E246.85475
G1 X-9.056 Y17.247 E251.68715
G1 X-9.594 Y17.558 E251.74295
G1 X28.456 Y55.608 E256.57529
G1 X27.917 Y55.919 E256.63118
G1 X-10.132 Y17.869 E261.46345
G1 X-10.67 Y18.179 E261.51921
G1 X27.379 Y56.229 E266.35149
G1 X26.842 Y56.54 E266.40722
G1 X-11.208 Y18.49 E271.23956
G1 X-11.746 Y18.8 E271.29532
G1 X26.304 Y56.851 E276.12772
G1 X25.766 Y57.161 E276.18348
G1 X-12.284 Y19.11 E281.01588
G1 X-12.821 Y19.422 E281.07165
G1 X25.228 Y57.472 E285.90393
G1 X24.69 Y57.783 E285.95974
G1 X-13.36 Y19.732 E290.79214
G1 X-13.898 Y20.042 E290.8479
G1 X24.152 Y58.093 E295.6803
G1 X23.614 Y58.404 E295.73611
G1 X-14.436 Y20.353 E300.56851
G1 X-14.973 Y20.664 E300.62424
G1 X23.076 Y58.714 E305.45651
G1 X22.538 Y59.025 E305.51232
G1 X-15.511 Y20.974 E310.34466
G1 X-16.049 Y21.285 E310.40046
G1 X22 Y59.336 E315.2328
G1 X21.462 Y59.646 E315.28856
G1 X-16.588 Y21.595 E320.12096
G1 X-17.126 Y21.906 E320.17677
G1 X20.924 Y59.956 E325.00911
G1 X20.386 Y60.267 E325.06491
G1 X-17.663 Y22.217 E329.89719
G1 X-18.201 Y22.527 E329.95295
G1 X19.849 Y60.578 E334.78535
G1 X19.311 Y60.888 E334.84111
G1 X-18.739 Y22.838 E339.67345
G1 X-19.277 Y23.148 E339.72921
G1 X18.772 Y61.199 E344.56155
G1 X18.234 Y61.509 E344.61731
G1 X-19.815 Y23.458 E349.44965
G1 X-20.353 Y23.77 E349.5055
G1 X17.697 Y61.82 E354.33784
G1 X17.159 Y62.131 E354.39365
G1 X-20.891 Y24.08 E359.22605
G1 X-21.429 Y24.39 E359.28181
G1 X16.621 Y62.441 E364.11421
G1 X16.083 Y62.752 E364.17002
G1 X-21.689 Y24.979 E368.96712
G1 X-21.867 Y25.649 E369.02937
G1 X15.545 Y63.063 E373.78081
G1 X15.007 Y63.373 E373.83657
G1 X-22.047 Y26.318 E378.54248
G1 X-22.121 Y26.597 E378.5684
G1 X-22.336 Y26.877 E378.60011
G1 X14.469 Y63.684 E383.27446
G1 X13.931 Y63.994 E383.33022
G1 X-22.705 Y27.357 E387.98304
G1 X-22.811 Y27.498 E387.99888
G1 X-23.18 Y27.711 E388.03715
G1 X-23.153 Y27.758 E388.04201
G1 X13.394 Y64.305 E392.68347
G1 X12.855 Y64.616 E392.73936
G1 X-21.986 Y29.774 E397.16422
G1 X-20.817 Y31.79 E397.37349
G1 X12.317 Y64.926 E401.58163
G1 X11.779 Y65.236 E401.63739
G1 X-19.65 Y33.806 E405.62893
G1 X-18.482 Y35.823 E405.83824
G1 X11.242 Y65.548 E409.61324
G1 X10.704 Y65.858 E409.669
G1 X-17.314 Y37.839 E413.22734
G1 X-16.147 Y39.855 E413.43653
G1 X10.166 Y66.168 E416.77827
G1 X9.627 Y66.479 E416.83415
G1 X-14.979 Y41.872 E419.95917
G1 X-13.811 Y43.887 E420.16833
G1 X9.09 Y66.79 E423.07687
G1 X8.552 Y67.1 E423.13263
G1 X-12.643 Y45.904 E425.82446
G1 X-11.476 Y47.92 E426.03364
G1 X8.014 Y67.411 E428.50893
G1 X7.476 Y67.721 E428.56469
G1 X-10.308 Y49.936 E430.82332
G1 X-9.14 Y51.953 E431.03263
G1 X6.938 Y68.032 E433.07459
G1 X6.4 Y68.343 E433.1304
G1 X-7.973 Y53.969 E434.95583
G1 X-6.805 Y55.985 E435.16506
G1 X5.862 Y68.653 E436.77383
G1 X5.324 Y68.964 E436.82963
G1 X-5.637 Y58.001 E438.2218
G1 X-4.47 Y60.017 E438.43099
G1 X4.786 Y69.274 E439.60656
G1 X4.439 Y69.476 E439.64262
G1 X4.028 Y69.365 E439.68085
G1 X-3.302 Y62.034 E440.61182
G1 X-2.134 Y64.05 E440.82105
G1 X2.868 Y69.053 E441.45637
G1 X2.303 Y68.901 E441.50891
G1 X1.917 Y68.951 E441.54387
G1 X-.966 Y66.067 E441.91007
G1 X0.2 Y68.083 E442.11921
G1 X1.17 Y69.052 E442.24234
G1 X0.864 Y69.229 E442.27408
M204 S3000
G0 F1500 X34.081 Y33.233
M204 S1500
G1 F600 X32.248 Y31.399 E442.50694
G1 X32.942 Y31.261 E442.57048
M204 S3000
;MESH:NONMESH
G0 X32.942 Y31.261 Z0.6
G0 F1500 X-24.495 Y27.132
;TIME_ELAPSED:504.786089
;LAYER:1
M106 S127.5
M204 S1500
;TYPE:WALL-INNER
;MESH:ASX1_Vertical_Filament_Spool_Parts_Drawer_petg_white_198mm_58width_bin.3mf
G1 F2700 X-24.494 Y27.131 E442.57059
G1 X-23.582 Y26.605 E442.64937
G1 X-23.171 Y26.07 E442.69986
G1 X-22.535 Y23.689 E442.88429
G1 X16.81 Y0.975 E446.28412
G1 X27.178 Y18.933 E447.83591
G1 X27.365 Y19.256 E447.86384
G1 X27.009 Y19.367 E447.88083
G1 X27.008 Y19.368 E447.88094
G1 X26.728 Y19.456 E447.9029
G1 X26.299 Y20.174 E447.96549
G1 X25.439 Y23.393 E448.21484
G1 X25.527 Y24.061 E448.26526
G1 X28.323 Y28.908 E448.68401
G1 X28.857 Y29.319 E448.73444
G1 X32.213 Y30.219 E448.99446
G1 X33.349 Y29.995 E449.08111
G1 X33.452 Y29.797 E449.09781
G1 X33.511 Y29.9
G1 X43.811 Y47.739 E450.63934
G1 X43.961 Y47.998 E450.66174
G1 X43.702 Y48.148 E450.67622
G1 X4.615 Y70.715 E454.05382
G1 X2.236 Y70.076 E454.23817
G1 X1.568 Y70.165 E454.2886
G1 X0.453 Y70.809 E454.38496
G1 X-24.604 Y27.54 E458.12677
G1 X-24.754 Y27.281 E458.14917
G1 X-24.495 Y27.132 E458.16359
M204 S3000
G0 F5250 X-23.051 Y23.294
M204 S1500
G1 F2700 X17.03 Y0.155 E461.62702
G1 X28.136 Y19.391 E463.28925
G1 X28.224 Y19.543 E463.30239
G1 X28.55 Y20.107 E463.35115
G1 X27.949 Y19.702 E463.36842
G1 X27.781 Y19.754 E463.37915
G1 X27.126 Y19.96 E463.43054
G1 X26.857 Y20.41 E463.46977
G1 X26.049 Y23.433 E463.70394
G1 X26.106 Y23.864 E463.73647
G1 X28.783 Y28.505 E464.13742
G1 X29.128 Y28.77 E464.16998
G1 X32.234 Y29.603 E464.41063
G1 X32.95 Y29.462 E464.46524
G1 X33.154 Y29.07 E464.49831
G1 X33.345 Y28.701 E464.5294
G1 X33.224 Y28.202 E464.56783
G1 X33.47 Y28.628 E464.57182
G1 X33.678 Y28.988 E464.59255
G1 X44.631 Y47.959 E466.23188
G1 X44.781 Y48.218 E466.25428
G1 X44.522 Y48.368 E466.26875
G1 X4.7 Y71.359 E469.70986
G1 X2.196 Y70.687 E469.90388
G1 X1.765 Y70.744 E469.93641
G1 X0.234 Y71.628 E470.06871
G1 X-25.424 Y27.321 E473.90028
G1 X-25.574 Y27.062 E473.92268
G1 X-25.315 Y26.912 E473.93716
G1 X-23.985 Y26.145 E474.05205
G1 X-23.72 Y25.8 E474.08461
G1 X-23.051 Y23.294 E474.27871
M204 S3000
G0 F5250 X-23.481 Y22.965
M204 S1500
;TYPE:WALL-OUTER
G1 F1500 X17.213 Y-.528 E477.79511
G1 X45.314 Y48.142 E482.00086
G1 X45.464 Y48.401 E482.02325
G1 X45.205 Y48.551 E482.03773
G1 X4.77 Y71.896 E485.53181
G1 X2.163 Y71.196 E485.73381
G1 X1.929 Y71.227 E485.75148
G1 X0.051 Y72.311 E485.91375
G1 X-26.108 Y27.138 E489.82019
G1 X-26.258 Y26.879 E489.84259
G1 X-25.999 Y26.729 E489.85707
G1 X-24.321 Y25.761 E490.00204
G1 X-24.177 Y25.574 E490.0197
G1 X-23.481 Y22.965 E490.22177
M204 S3000
G0 F5250 X-23.135 Y22.766
G0 X-22.987 Y23.025
G0 X27.155 Y20.302
G0 X27.412 Y20.456
M204 S1500
G1 F1500 X27.322 Y20.606 E490.23486
G1 X26.558 Y23.466 E490.4564
G1 X26.589 Y23.7 E490.47406
G1 X29.167 Y28.169 E490.86016
G1 X29.354 Y28.313 E490.87782
G1 X32.251 Y29.09 E491.10228
G1 X32.53 Y29.035 E491.12356
G1 X32.617 Y29.018 E491.1302
G1 X32.815 Y28.637 E491.16233
G1 X32.794 Y28.551 E491.16895
G1 X32.753 Y28.382 E491.18197
G1 X28.178 Y20.459 E491.86664
G1 X27.942 Y20.3 E491.88793
G1 X27.869 Y20.251 E491.89451
G1 X27.457 Y20.38 E491.92682
G1 X27.412 Y20.456 E491.93343
M204 S3000
G0 F5250 X27.322 Y20.606
G0 X27.264 Y20.824
G0 X26.976 Y20.747
G0 X25.75 Y19.942
M204 S1500
;TYPE:SKIN
G1 F1500 X24.839 Y23.354 E492.19771
G1 X24.957 Y24.254 E492.26564
G1 X27.871 Y29.304 E492.70196
G1 X28.59 Y29.858 E492.76989
G1 X32.193 Y30.825 E493.04906
G1 X33.244 Y30.616 E493.12925
G1 X43.155 Y47.782 E494.61262
G1 X4.532 Y70.082 E497.95016
G1 X2.275 Y69.476 E498.12504
G1 X1.374 Y69.595 E498.19306
G1 X0.668 Y70.003 E498.25408
G1 X-23.948 Y27.497 E501.92994
G1 X-23.185 Y27.057 E501.99585
G1 X-22.632 Y26.336 E502.06385
G1 X-22.028 Y24.078 E502.23877
G1 X16.594 Y1.781 E505.57613
G1 X26.486 Y18.913 E507.05658
G1 X26.337 Y18.96 E507.06827
G1 X25.75 Y19.942 E507.15389
M204 S3000
G0 F5250 X26.358 Y23.777
G0 X28.984 Y28.331
G0 X42.365 Y47.578
M204 S1500
G1 F1500 X40.358 Y48.737 E507.32733
G1 X42.063 Y47.031 E507.50783
G1 X41.753 Y46.493 E507.5543
G1 X38.349 Y49.896 E507.9145
G1 X36.342 Y51.055 E508.08794
G1 X41.442 Y45.956 E508.62763
G1 X41.131 Y45.418 E508.67414
G1 X34.334 Y52.215 E509.39349
G1 X32.326 Y53.374 E509.56699
G1 X40.821 Y44.88 E510.46599
G1 X40.51 Y44.341 E510.51256
G1 X30.318 Y54.534 E511.59126
G1 X28.311 Y55.693 E511.7647
G1 X40.199 Y43.804 E513.0229
G1 X39.889 Y43.266 E513.06936
G1 X26.302 Y56.852 E514.50727
G1 X24.295 Y58.011 E514.68071
G1 X39.578 Y42.728 E516.29815
G1 X39.267 Y42.19 E516.34466
G1 X22.288 Y59.17 E518.14165
G1 X20.279 Y60.33 E518.31526
G1 X38.957 Y41.652 E520.29201
G1 X38.646 Y41.114 E520.33851
G1 X18.272 Y61.489 E522.49481
G1 X16.264 Y62.648 E522.66831
G1 X38.335 Y40.577 E525.00415
G1 X38.025 Y40.039 E525.05062
G1 X14.256 Y63.807 E527.56612
G1 X12.248 Y64.967 E527.73966
G1 X37.714 Y39.501 E530.4348
G1 X37.404 Y38.962 E530.48133
G1 X10.241 Y66.126 E533.35613
G1 X8.232 Y67.286 E533.52974
G1 X37.093 Y38.425 E536.58419
G1 X36.782 Y37.887 E536.63069
G1 X6.225 Y68.445 E539.86469
