;FLAVOR:Marlin
;TIME:778
;Filament used: 0.160493m
;Layer height: 0.1
;MINX:270.682
;MINY:121.215
;MINZ:0.1
;MAXX:278.214
;MAXY:156.452
;MAXZ:6
;Generated with Cura_SteamEngine 4.10.0
M104 S228
M105
M109 S228
M82 ;absolute extrusion mode
G28 ; home all axes
 M117 Purge extruder
 G92 E0 ; reset extruder
 G1 Z1.0 F3000 ; move z up little to prevent scratching of surface
 G1 X2 Y20 Z0.3 F5000.0 ; move to start-line position
 G1 X2 Y200.0 Z0.3 F1500.0 E15 ; draw 1st line
 G1 X2 Y200.0 Z0.4 F5000.0 ; move to side a little
 G1 X2 Y20 Z0.4 F1500.0 E30 ; draw 2nd line
 G92 E0 ; reset extruder
 G1 Z1.0 F3000 ; move z up little to prevent scratching of surface
G92 E0
G92 E0
G1 F2400 E-1.6
;LAYER_COUNT:60
;LAYER:0
M106 S89.3
;MESH:ASX1_Vertical_Filament_Spool_Parts_Drawer_petg_white_198mm_58width_LockLeft.3mf(1)
G0 F6000 X271.692 Y130.715 Z0.1
;TYPE:WALL-INNER
G1 F2400 E0
G1 F900 X277.214 Y130.715 E0.10783
G1 X277.214 Y131.065 E0.11466
G1 X271.692 Y131.065 E0.19345
G1 X271.664 Y131.188 E0.19591
G1 X271.664 Y131.065 E0.19598
G1 X271.664 Y130.715 E0.20074
G1 X271.692 Y130.715
G0 F6000 X271.47 Y121.735
G1 F900 X271.47 Y127.069 E0.3049
G1 X271.661 Y128.323 E0.32967
G1 X271.954 Y130.235 E0.36744
G1 X277.694 Y130.235 E0.47953
G1 X277.694 Y131.545 E0.50511
G1 X272.075 Y131.545 E0.61483
G1 X271.662 Y133.348 E0.65095
G1 X271.617 Y133.545 E0.6549
G1 X271.184 Y133.545 E0.66335
G1 X271.184 Y133.342 E0.66713
G1 X271.184 Y128.339 E0.76482
G1 X271.184 Y127.07 E0.78462
G1 X271.183 Y121.735 E0.84694
G1 X271.47 Y121.735 E0.85254
G0 F6000 X271.95 Y121.255
;TYPE:WALL-OUTER
G1 F900 X271.95 Y127.033 E0.96537
G1 X272.366 Y129.755 E1.01914
G1 X278.174 Y129.755 E1.13255
G1 X278.174 Y132.025 E1.17688
G1 X272.458 Y132.025 E1.28849
G1 X272 Y134.025 E1.32856
G1 X270.704 Y134.025 E1.35387
G1 X270.703 Y121.255 E1.60323
G1 X271.95 Y121.255 E1.62758
G0 F6000 X271.68 Y121.525
G0 X271.398 Y128.562
G0 X271.446 Y128.611
;TYPE:SKIN
G1 F900 X271.472 Y128.919 E1.63076
G1 X271.574 Y130.152 E1.64351
G1 X271.525 Y130.386 E1.64597
G0 F6000 X271.398 Y130.259
G0 X271.398 Y131.391
G0 X271.597 Y131.59
G1 F900 X271.765 Y131.475 E1.6486
G1 X271.545 Y132.103 E1.65717
G1 X271.439 Y133.129 E1.67047
G0 F6000 X271.481 Y133.171
G1 F2400 E0.07047
;MESH:ASX1_Vertical_Filament_Spool_Parts_Drawer_petg_white_198mm_58width_LockLeft.3mf
G0 F6000 X271.829 Y133.81
G0 X271.829 Y134.93
G0 X272.934 Y144.074
G0 X272.945 Y150.069
G0 X271.839 Y150.264
G0 X271.928 Y153.577
;TYPE:WALL-INNER
G1 F2400 E1.67047
G1 F900 X276.682 Y153.577 E1.7633
G1 X276.682 Y153.652 E1.76477
G1 X271.928 Y153.652 E1.7793
G1 X271.928 Y153.577 E1.78077
G0 F6000 X271.561 Y150.191
G1 F900 X271.581 Y150.303 E1.78299
G1 X271.924 Y152.559 E1.82755
G1 X272.007 Y153.097 E1.83818
G1 X277.162 Y153.097 E1.93884
G1 X277.162 Y154.132 E1.95905
G1 X272.12 Y154.132 E2.05751
G1 X271.924 Y154.988 E2.07465
G1 X271.708 Y155.932 E2.09356
G1 X271.448 Y155.932 E2.09864
G1 X271.448 Y154.963 E2.11327
G1 X271.448 Y152.585 E2.1597
G1 X271.448 Y150.303 E2.18822
G1 X271.448 Y150.192 E2.18877
G1 X271.447 Y145.447 E2.28142
G1 X271.561 Y145.447 E2.28365
G1 X271.561 Y150.191 E2.30559
G0 F6000 X272.041 Y150.148
;TYPE:WALL-OUTER
G1 F900 X272.056 Y150.231 E2.30724
G1 X272.419 Y152.617 E2.35437
G1 X277.642 Y152.617 E2.45636
G1 X277.642 Y154.612 E2.49531
G1 X272.503 Y154.612 E2.59566
G1 X272.091 Y156.412 E2.63172
G1 X270.968 Y156.412 E2.65365
G1 X270.967 Y144.967 E2.87713
G1 X272.041 Y144.967 E2.89811
G1 X272.041 Y150.148 E2.99928
G0 F6000 X271.516 Y150.195
G0 X271.661 Y152.868
G0 X271.716 Y152.922
;TYPE:SKIN
G1 F900 X271.741 Y153.23 E3.00116
G1 X271.864 Y153.919 E3.00542
G1 X271.717 Y154.62 E3.00978
G0 F6000 X271.773 Y154.676
G1 F2400 E1.40978
;MESH:NONMESH
G0 F300 X271.773 Y154.676 Z0.2
G0 F6000 X271.483 Y145.187
G0 X271.483 Y144.062
G0 X271.483 Y134.93
G0 X271.483 Y133.805
G0 X271.483 Y132.96
;TIME_ELAPSED:19.472473
;LAYER:1
;TYPE:WALL-INNER
;MESH:ASX1_Vertical_Filament_Spool_Parts_Drawer_petg_white_198mm_58width_LockLeft.3mf(1)
G1 F2400 E3.00978
G1 F1278 X271.483 Y131.265 E3.03656
G1 X271.483 Y130.515 E3.0484
G1 X271.483 Y129.512 E3.06425
G1 X271.483 Y128.883 E3.07419
G1 X271.483 Y128.882 E3.0742
G1 X271.483 Y128.877 E3.07428
G1 X271.483 Y128.882 E3.07436
G1 X271.581 Y129.523 E3.08461
G1 X271.731 Y130.515 E3.09747
G1 X277.414 Y130.515 E3.18725
G1 X277.414 Y131.265 E3.1991
G1 X271.871 Y131.265 E3.28667
G1 X271.483 Y132.96 E3.30029
G0 F10500 X271.083 Y133.665
G1 F1278 X271.082 Y121.814 E3.48752
G1 X271.082 Y121.615 E3.49066
G1 X271.281 Y121.615 E3.49269
G1 X271.609 Y121.615 E3.49788
G1 X271.609 Y127.072 E3.58409
G1 X271.628 Y127.172 E3.5857
G1 X271.877 Y128.817 E3.61198
G1 X271.877 Y128.822 E3.61206
G1 X272.075 Y130.115 E3.63273
G1 X277.814 Y130.115 E3.72339
G1 X277.814 Y131.665 E3.74788
G1 X272.19 Y131.665 E3.83673
G1 X271.732 Y133.665 E3.86915
G1 X271.083 Y133.665 E3.8794
G0 F10500 X270.683 Y134.065
;TYPE:WALL-OUTER
G1 F1278 X270.682 Y121.215 E4.08241
G1 X272.009 Y121.215 E4.10338
G1 X272.009 Y127.034 E4.19531
G1 X272.021 Y127.097 E4.19632
G1 X272.419 Y129.715 E4.23816
G1 X278.214 Y129.715 E4.32971
G1 X278.214 Y132.065 E4.36684
G1 X272.509 Y132.065 E4.45697
G1 X272.051 Y134.065 E4.48938
G1 X270.683 Y134.065 E4.511
G0 F10500 X270.953 Y133.795
G0 X271.842 Y130.874
;TYPE:SKIN
G1 F1278 X271.842 Y130.904 E4.51147
G1 X271.862 Y130.905 E4.51179
G0 F10500 X271.893 Y130.874
G1 F1278 X272.458 Y130.874 E4.52071
G0 F10500 X272.428 Y130.905
G1 F1278 X272.994 Y130.905 E4.52965
G0 F10500 X273.024 Y130.874
G1 F1278 X273.59 Y130.874 E4.5386
G0 F10500 X273.559 Y130.905
G1 F1278 X274.125 Y130.905 E4.54754
G0 F10500 X274.155 Y130.874
G1 F1278 X274.721 Y130.874 E4.55648
G0 F10500 X274.691 Y130.905
G1 F1278 X275.256 Y130.905 E4.56541
G0 F10500 X275.287 Y130.874
G1 F1278 X275.852 Y130.874 E4.57433
G0 F10500 X275.822 Y130.905
G1 F1278 X276.388 Y130.905 E4.58327
G0 F10500 X276.418 Y130.874
G1 F1278 X276.984 Y130.874 E4.59222
G1 X277.053 Y130.874 E4.59331
G1 X277.052 Y130.905 E4.5938
G0 F10500 X277.144 Y130.996
;TYPE:SKIN
G1 F1278 X276.968 Y130.889 E4.59713
G1 X271.874 Y130.892 E4.67955
G1 X271.726 Y130.758 E4.68278
G0 F10500 X271.795 Y130.689
G0 X271.507 Y128.715
G0 X271.583 Y128.638
G1 F1278 X271.44 Y128.499 E4.68443
G1 X271.345 Y126.614 E4.70008
G1 X271.345 Y122.088 E4.73761
G1 X271.309 Y121.841 E4.73968
G0 F10500 X271.361 Y121.789
G0 X271.358 Y133.106
G0 X271.307 Y133.156
G1 F1278 X271.435 Y133.312 E4.74271
G1 X271.573 Y133.457 E4.74571
G0 F10500 X271.54 Y133.465
G1 F2400 E3.14571
;MESH:ASX1_Vertical_Filament_Spool_Parts_Drawer_petg_white_198mm_58width_LockLeft.3mf
G0 F10500 X271.747 Y133.845
G0 X271.747 Y134.93
G0 X271.747 Y144.062
G0 X271.747 Y145.147
G0 X271.747 Y154.591
;TYPE:WALL-INNER
G1 F2400 E4.74571
G1 F1278 X271.747 Y153.852 E4.75738
G1 X271.747 Y153.377 E4.76488
G1 X271.747 Y153.132 E4.76876
G1 X271.784 Y153.377 E4.76896
G1 X276.882 Y153.377 E4.8495
G1 X276.882 Y153.852 E4.85701
G1 X271.916 Y153.852 E4.93546
G1 X271.747 Y154.591 E4.93818
G0 F10500 X272.235 Y154.252
G1 F1278 X271.823 Y156.052 E4.96735
G1 X271.347 Y156.052 E4.97487
G1 X271.347 Y150.476 E5.06296
G1 X271.347 Y150.173 E5.06775
G1 X271.346 Y145.327 E5.14431
G1 X271.7 Y145.327 E5.1499
G1 X271.7 Y150.172 E5.21772
G1 X271.745 Y150.471 E5.22222
G1 X272.128 Y152.977 E5.26227
G1 X277.282 Y152.977 E5.3437
G1 X277.282 Y154.252 E5.36384
G1 X272.235 Y154.252 E5.44357
G0 F10500 X272.554 Y154.652
;TYPE:WALL-OUTER
G1 F1278 X272.142 Y156.452 E5.47275
G1 X270.947 Y156.452 E5.49163
G1 X270.946 Y144.927 E5.67371
G1 X272.1 Y144.927 E5.69194
G1 X272.1 Y150.142 E5.77433
G1 X272.472 Y152.577 E5.81324
G1 X277.682 Y152.577 E5.89555
G1 X277.682 Y154.652 E5.92833
G1 X272.554 Y154.652 E6.00935
G0 F10500 X271.712 Y155.096
;TYPE:SKIN
G1 F1278 X271.646 Y154.879 E6.01213
G1 X271.628 Y155.746 E6.02276
G0 F10500 X271.521 Y155.854
G0 X272.001 Y153.676
G0 X272.063 Y153.613
G1 F1278 X272.346 Y153.613 E6.02426
G1 X276.588 Y153.613 E6.04672
G0 F10500 X276.651 Y153.551
G0 X271.937 Y152.892
G0 X271.901 Y152.927
G1 F1278 X271.73 Y152.815 E6.04881
G1 X271.56 Y150.723 E6.07019
G0 F10500 X271.576 Y150.686
G1 F2400 E4.47019
;MESH:NONMESH
G0 F300 X271.576 Y150.686 Z0.3
G0 F10500 X271.503 Y145.147
G0 X271.503 Y144.062
G0 X271.503 Y134.93
G0 X271.503 Y133.845
G0 X271.503 Y128.885
;TIME_ELAPSED:32.857753
;LAYER:2
;TYPE:WALL-INNER
;MESH:ASX1_Vertical_Filament_Spool_Parts_Drawer_petg_white_198mm_58width_LockLeft.3mf(1)
G1 F2400 E6.07019
G1 F1270.2 X271.751 Y130.515 E6.09624
G1 X277.414 Y130.515 E6.18571
G1 X277.414 Y131.265 E6.19756
G1 X271.89 Y131.265 E6.28483
G1 X271.503 Y132.956 E6.31223
G1 X271.503 Y131.265 E6.3251
G1 X271.503 Y130.515 E6.33695
G1 X271.503 Y128.885 E6.3449
G0 F15000 X271.629 Y121.615
G1 F1270.2 X271.629 Y127.06 E6.43093
G1 X272.095 Y130.115 E6.47975
G1 X277.814 Y130.115 E6.5701
G1 X277.814 Y131.665 E6.59459
G1 X272.209 Y131.665 E6.68314
G1 X271.751 Y133.665 E6.71556
G1 X271.103 Y133.665 E6.72579
G1 X271.102 Y121.814 E6.91302
G1 X271.102 Y121.615 E6.91617
G1 X271.301 Y121.615 E6.9182
G1 X271.629 Y121.615 E6.92338
G0 F15000 X272.029 Y121.215
;TYPE:WALL-OUTER
G1 F1270.2 X272.029 Y127.03 E7.01525
G1 X272.439 Y129.715 E7.05816
G1 X278.214 Y129.715 E7.1494
G1 X278.214 Y132.065 E7.18652
G1 X272.528 Y132.065 E7.27636
G1 X272.07 Y134.065 E7.30877
G1 X270.703 Y134.065 E7.33037
G1 X270.702 Y121.215 E7.53338
G1 X272.029 Y121.215 E7.55434
G0 F15000 X271.759 Y121.485
G0 X271.862 Y130.874
;TYPE:SKIN
G1 F1270.2 X271.862 Y130.904 E7.55482
G1 X272.325 Y130.904 E7.56213
G0 F15000 X272.296 Y130.874
G1 F1270.2 X272.861 Y130.874 E7.57106
G0 F15000 X272.891 Y130.904
G1 F1270.2 X273.457 Y130.904 E7.58
G0 F15000 X273.427 Y130.874
G1 F1270.2 X273.993 Y130.874 E7.58894
G0 F15000 X274.022 Y130.904
G1 F1270.2 X274.588 Y130.904 E7.59788
G0 F15000 X274.558 Y130.874
G1 F1270.2 X275.124 Y130.874 E7.60683
G0 F15000 X275.154 Y130.904
G1 F1270.2 X275.72 Y130.904 E7.61577
G0 F15000 X275.69 Y130.874
G1 F1270.2 X276.256 Y130.874 E7.62471
G0 F15000 X276.285 Y130.904
G1 F1270.2 X276.851 Y130.904 E7.63365
G0 F15000 X276.821 Y130.874
G1 F1270.2 X277.053 Y130.874 E7.63732
G1 X277.052 Y130.905 E7.63781
G0 F15000 X276.836 Y130.889
;TYPE:SKIN
G1 F1270.2 X277.078 Y130.849 E7.64144
G1 X277.22 Y130.707 E7.64441
G1 X276.27 Y130.889 E7.65872
G1 X272.028 Y130.889 E7.72149
G1 X271.811 Y130.955 E7.72485
G0 F15000 X271.945 Y131.089
G0 X271.417 Y133.107
G0 X271.531 Y133.221
G1 F1270.2 X271.396 Y133.369 E7.73007
G0 F15000 X271.277 Y133.25
G0 X271.555 Y128.72
G0 X271.415 Y128.58
G1 F1270.2 X271.478 Y128.359 E7.73208
G1 X271.364 Y126.549 E7.74793
G1 X271.364 Y122.023 E7.78749
G1 X271.433 Y121.809 E7.78945
G0 F15000 X271.429 Y121.829
G1 F2400 E6.18945
;MESH:ASX1_Vertical_Filament_Spool_Parts_Drawer_petg_white_198mm_58width_LockLeft.3mf
G0 F15000 X271.767 Y133.845
G0 X271.767 Y134.93
G0 X271.767 Y144.062
G0 X271.767 Y145.147
G0 X271.767 Y154.587
;TYPE:WALL-INNER
G1 F2400 E7.78945
G1 F1270.2 X271.767 Y153.852 E7.80107
G1 X271.767 Y153.377 E7.80857
G1 X271.767 Y153.139 E7.81233
G1 X271.803 Y153.377 E7.81252
G1 X276.882 Y153.377 E7.89277
G1 X276.882 Y153.852 E7.90027
G1 X271.935 Y153.852 E7.97843
G1 X271.767 Y154.587 E7.9811
G0 F15000 X272.254 Y154.252
G1 F1270.2 X271.842 Y156.052 E8.01027
G1 X271.367 Y156.052 E8.01778
G1 X271.367 Y150.482 E8.10578
G1 X271.367 Y150.173 E8.11066
G1 X271.366 Y145.327 E8.18722
G1 X271.719 Y145.327 E8.19279
G1 X271.719 Y150.172 E8.26042
G1 X271.765 Y150.477 E8.265
G1 X272.147 Y152.977 E8.30496
G1 X277.282 Y152.977 E8.38608
G1 X277.282 Y154.252 E8.40623
G1 X272.254 Y154.252 E8.48566
G0 F15000 X272.573 Y154.652
;TYPE:WALL-OUTER
G1 F1270.2 X272.161 Y156.452 E8.51484
G1 X270.967 Y156.452 E8.5337
G1 X270.966 Y144.927 E8.71578
G1 X272.119 Y144.927 E8.73399
G1 X272.119 Y150.142 E8.81638
G1 X272.491 Y152.577 E8.8553
G1 X277.682 Y152.577 E8.93731
G1 X277.682 Y154.652 E8.97009
G1 X272.573 Y154.652 E9.05081
G0 F15000 X271.897 Y154.8
;TYPE:SKIN
G1 F1270.2 X271.713 Y154.899 E9.05358
G1 X271.634 Y155.668 E9.06386
G0 F15000 X271.728 Y155.762
G0 X272.188 Y153.676
G0 X272.125 Y153.614
G1 F1270.2 X272.408 Y153.614 E9.06531
G1 X276.647 Y153.61 E9.08707
G0 F15000 X276.706 Y153.669
G0 X271.954 Y152.877
G0 X271.747 Y152.67
G1 F1270.2 X271.722 Y152.362 E9.09109
G1 X271.595 Y150.821 E9.11124
G0 F15000 X271.541 Y150.767
G0 X271.541 Y152.747
G1 F1270.2 X271.771 Y152.977 E9.11381
G1 F2400 E7.51381
;MESH:NONMESH
G0 F300 X271.771 Y152.977 Z0.4
G0 F15000 X271.522 Y145.147
G0 X271.522 Y144.062
G0 X271.522 Y134.93
G0 X271.522 Y133.845
G0 X271.522 Y128.904
;TIME_ELAPSED:46.751163
;LAYER:3
;TYPE:WALL-INNER
;MESH:ASX1_Vertical_Filament_Spool_Parts_Drawer_petg_white_198mm_58width_LockLeft.3mf(1)
G1 F2400 E9.11381
G1 F1226.8 X271.764 Y130.515 E9.13954
G1 X277.414 Y130.515 E9.2288
G1 X277.414 Y131.265 E9.24065
G1 X271.9 Y131.265 E9.32777
G1 X271.522 Y132.943 E9.35494
G1 X271.522 Y131.265 E9.36741
G1 X271.522 Y130.515 E9.37926
G1 X271.522 Y128.904 E9.38693
G0 F15000 X271.648 Y121.615
G1 F1226.8 X271.649 Y127.062 E9.47298
G1 X272.108 Y130.115 E9.52176
G1 X277.814 Y130.115 E9.61191
G1 X277.814 Y131.665 E9.63639
G1 X272.22 Y131.665 E9.72477
G1 X271.769 Y133.665 E9.75716
G1 X271.122 Y133.665 E9.76738
G1 X271.121 Y121.814 E9.95461
G1 X271.121 Y121.615 E9.95776
G1 X271.32 Y121.615 E9.95979
G1 X271.648 Y121.615 E9.96497
G0 F15000 X272.048 Y121.215
;TYPE:WALL-OUTER
G1 F1226.8 X272.049 Y127.032 E10.05687
G1 X272.452 Y129.715 E10.09973
G1 X278.214 Y129.715 E10.19077
G1 X278.214 Y132.065 E10.22789
G1 X272.54 Y132.065 E10.31753
G1 X272.089 Y134.065 E10.34992
G1 X270.722 Y134.065 E10.37152
G1 X270.721 Y121.215 E10.57453
G1 X272.048 Y121.215 E10.5955
G0 F15000 X271.328 Y121.822
;TYPE:SKIN
G1 F1226.8 X271.383 Y122.05 E10.59743
G1 X271.384 Y127.14 E10.63931
G1 X271.475 Y128.463 E10.65022
G1 X271.583 Y128.638 E10.65191
G0 F15000 X271.474 Y128.747
G0 X271.795 Y130.689
G0 X271.745 Y130.738
G1 F1226.8 X271.887 Y130.88 E10.65514
G1 X276.968 Y130.889 E10.73681
G1 X277.144 Y130.996 E10.74012
G0 F15000 X277.051 Y131.09
G0 X272.356 Y131.834
G0 X271.632 Y133.115
G0 X271.464 Y133.283
G1 F1226.8 X271.597 Y133.433 E10.74259
G1 X271.336 Y133.128 E10.74753
G0 F15000 X271.322 Y133.169
G1 F2400 E9.14753
;MESH:ASX1_Vertical_Filament_Spool_Parts_Drawer_petg_white_198mm_58width_LockLeft.3mf
G0 F15000 X271.786 Y133.845
G0 X271.786 Y134.93
G0 X271.786 Y144.062
G0 X271.786 Y145.147
G0 X271.786 Y154.539
;TYPE:WALL-INNER
G1 F2400 E10.74753
G1 F1226.8 X271.786 Y153.852 E10.75838
G1 X271.786 Y153.377 E10.76589
G1 X271.786 Y153.196 E10.76875
G1 X271.813 Y153.377 E10.76887
G1 X276.882 Y153.377 E10.84895
G1 X276.882 Y153.852 E10.85646
G1 X271.94 Y153.852 E10.93453
G1 X271.786 Y154.539 E10.93684
G0 F15000 X272.26 Y154.252
G1 F1226.8 X271.856 Y156.052 E10.96599
G1 X271.386 Y156.052 E10.97341
G1 X271.386 Y150.506 E11.06103
G1 X271.386 Y150.179 E11.0662
G1 X271.385 Y145.327 E11.14285
G1 X271.735 Y145.327 E11.14838
G1 X271.736 Y150.178 E11.21561
G1 X271.784 Y150.501 E11.22045
G1 X272.157 Y152.977 E11.26001
G1 X277.282 Y152.977 E11.34098
G1 X277.282 Y154.252 E11.36112
G1 X272.26 Y154.252 E11.44046
G0 F15000 X272.58 Y154.652
;TYPE:WALL-OUTER
G1 F1226.8 X272.176 Y156.452 E11.46961
G1 X270.986 Y156.452 E11.48841
G1 X270.985 Y144.927 E11.67049
G1 X272.135 Y144.927 E11.68865
G1 X272.136 Y150.148 E11.77114
G1 X272.501 Y152.577 E11.80994
G1 X277.682 Y152.577 E11.8918
G1 X277.682 Y154.652 E11.92458
G1 X272.58 Y154.652 E12.00518
G0 F15000 X271.75 Y155.058
;TYPE:SKIN
G1 F1226.8 X271.691 Y154.834 E12.00798
G1 X271.668 Y155.706 E12.0185
G0 F15000 X271.56 Y155.815
G0 X272.001 Y153.676
G0 X272.063 Y153.614
G1 F1226.8 X272.346 Y153.614 E12.02
G1 X276.588 Y153.614 E12.04235
G0 F15000 X276.651 Y153.552
G0 X271.963 Y152.866
G0 X271.878 Y152.95
G1 F1226.8 X271.742 Y152.803 E12.04443
G1 X271.581 Y150.702 E12.0663
G0 F15000 X271.602 Y150.681
G1 F2400 E10.4663
;MESH:NONMESH
G0 F300 X271.602 Y150.681 Z0.5
G0 F15000 X271.541 Y145.147
G0 X271.541 Y144.062
G0 X271.541 Y134.93
G0 X271.541 Y133.845
G0 X271.541 Y132.891
;TIME_ELAPSED:59.853368
;LAYER:4
;TYPE:WALL-INNER
;MESH:ASX1_Vertical_Filament_Spool_Parts_Drawer_petg_white_198mm_58width_LockLeft.3mf(1)
