;FLAVOR:Marlin
;TIME:2551
;Filament used: 0.583867m
;Layer height: 0.1
;MINX:137.602
;MINY:60.32
;MINZ:0.1
;MAXX:230.953
;MAXY:93.746
;MAXZ:5.1
;Generated with Cura_SteamEngine 4.10.0
M104 S228
M105
M109 S228
M82 ;absolute extrusion mode
G28 ; home all axes
 M117 Purge extruder
 G92 E0 ; reset extruder
 G1 Z1.0 F3000 ; move z up little to prevent scratching of surface
 G1 X2 Y20 Z0.3 F5000.0 ; move to start-line position
 G1 X2 Y200.0 Z0.3 F1500.0 E15 ; draw 1st line
 G1 X2 Y200.0 Z0.4 F5000.0 ; move to side a little
 G1 X2 Y20 Z0.4 F1500.0 E30 ; draw 2nd line
 G92 E0 ; reset extruder
 G1 Z1.0 F3000 ; move z up little to prevent scratching of surface
G92 E0
G92 E0
G1 F2400 E-1.6
;LAYER_COUNT:51
;LAYER:0
M106 S89.3
;MESH:ASX1_Vertical_Filament_Spool_Parts_Drawer_petg_white_198mm_58width_LockRight.3mf(4)
G0 F6000 X142.959 Y80.721 Z0.1
;TYPE:WALL-INNER
G1 F2400 E0
G1 F300 X142.959 Y81.346 E0.0122
G1 X138.602 Y81.346 E0.09728
G1 X138.602 Y80.721 E0.10949
G1 X142.959 Y80.721 E0.19457
G0 F6000 X143.438 Y70.891
G1 F300 X143.438 Y76.813 E0.31021
G1 X143.438 Y80.24 E0.37713
G1 X143.439 Y82.124 E0.41391
G1 X143.439 Y84.026 E0.45105
G1 X143.295 Y84.026 E0.45387
G1 X142.963 Y82.153 E0.47807
G1 X142.904 Y81.826 E0.48456
G1 X138.122 Y81.826 E0.57794
G1 X138.122 Y80.241 E0.60889
G1 X143.006 Y80.241 E0.70426
G1 X143.41 Y76.813 E0.73701
G1 X143.411 Y70.891 E0.74364
G1 X143.438 Y70.891 E0.74417
G0 F6000 X143.918 Y70.411
;TYPE:WALL-OUTER
G1 F300 X143.919 Y84.506 E1.0194
G1 X142.892 Y84.506 E1.03946
G1 X142.502 Y82.306 E1.08309
G1 X137.642 Y82.306 E1.17799
G1 X137.642 Y79.761 E1.22769
G1 X142.579 Y79.761 E1.32409
G1 X142.93 Y76.785 E1.38261
G1 X142.931 Y70.411 E1.50707
G1 X143.918 Y70.411 E1.52634
G0 F6000 X143.648 Y70.681
G0 X143.169 Y76.799
G0 X142.822 Y79.67
G0 X142.595 Y80.831
G0 X142.668 Y81.009
;TYPE:SKIN
G1 F300 X142.41 Y81.033 E1.5285
G1 X139.015 Y81.033 E1.55671
G0 F6000 X138.918 Y80.831
G0 X138.784 Y81.137
G0 X143.104 Y81.727
G1 F300 X143.223 Y81.846 E1.55808
G1 F2400 E-0.04192
;MESH:ASX1_Vertical_Filament_Spool_Parts_Drawer_petg_white_198mm_58width_LockRight.3mf(1)
G0 F6000 X143.718 Y75.506
G0 X148.351 Y75.506
G0 X149.11 Y75.506
;TYPE:WALL-INNER
G1 F2400 E1.55808
G1 F300 X149.11 Y74.881 E1.57028
G1 X153.467 Y74.881 E1.65536
G1 X153.467 Y75.506 E1.66757
G1 X149.11 Y75.506 E1.75265
G0 F6000 X148.659 Y79.414
G1 F300 X148.658 Y85.336 E1.86829
G1 X148.631 Y85.336 E1.86881
G1 X148.631 Y79.414 E1.87545
G1 X148.631 Y75.987 E1.94237
G1 X148.63 Y74.098 E1.97926
G1 X148.63 Y72.201 E2.0163
G1 X148.774 Y72.201 E2.01911
G1 X149.106 Y74.069 E2.04326
G1 X149.166 Y74.401 E2.04984
G1 X153.947 Y74.401 E2.1432
G1 X153.947 Y75.986 E2.17415
G1 X149.063 Y75.986 E2.26952
G1 X148.659 Y79.414 E2.30227
G0 F6000 X149.139 Y79.442
;TYPE:WALL-OUTER
G1 F300 X149.138 Y85.816 E2.42673
G1 X148.151 Y85.816 E2.44601
G1 X148.15 Y71.721 E2.72124
G1 X149.177 Y71.721 E2.7413
G1 X149.568 Y73.921 E2.78493
G1 X154.427 Y73.921 E2.87981
G1 X154.427 Y76.466 E2.92951
G1 X149.49 Y76.466 E3.02591
G1 X149.139 Y79.442 E3.08443
G0 F6000 X148.842 Y79.407
G0 X149.396 Y75.396
G0 X149.359 Y75.255
;TYPE:SKIN
G1 F300 X149.58 Y75.193 E3.08626
G1 X152.975 Y75.193 E3.11339
G1 X153.205 Y75.141 E3.11527
G0 F6000 X153.16 Y74.991
G0 X148.981 Y74.593
G1 F300 X148.843 Y74.456 E3.11685
G1 F2400 E1.51685
;MESH:ASX1_Vertical_Filament_Spool_Parts_Drawer_petg_white_198mm_58width_LockRight.3mf(2)
G0 F6000 X148.365 Y85.602
G0 X152.751 Y85.602
G0 X153.673 Y86.102
G0 X157.848 Y86.284
;TYPE:WALL-INNER
G1 F2400 E3.11685
G1 F300 X153.491 Y86.284 E3.20193
G1 X153.491 Y85.659 E3.21414
G1 X157.848 Y85.659 E3.29922
G1 X157.848 Y86.284 E3.31142
G0 F6000 X158.184 Y88.964
G1 F300 X157.852 Y87.091 E3.34856
G1 X157.793 Y86.764 E3.35505
G1 X153.011 Y86.764 E3.44843
G1 X153.011 Y85.179 E3.47938
G1 X157.895 Y85.179 E3.57475
G1 X158.299 Y81.751 E3.64215
G1 X158.3 Y75.829 E3.75779
G1 X158.327 Y75.829 E3.75832
G1 X158.327 Y81.751 E3.76496
G1 X158.327 Y85.178 E3.79723
G1 X158.328 Y87.062 E3.83402
G1 X158.328 Y88.964 E3.85822
G1 X158.184 Y88.964 E3.86103
G0 F6000 X157.781 Y89.444
;TYPE:WALL-OUTER
G1 F300 X157.391 Y87.244 E3.90466
G1 X152.531 Y87.244 E3.99956
G1 X152.531 Y84.699 E4.04926
G1 X157.468 Y84.699 E4.14566
G1 X157.819 Y81.723 E4.20418
G1 X157.82 Y75.349 E4.32864
G1 X158.807 Y75.349 E4.34792
G1 X158.808 Y89.444 E4.62315
G1 X157.781 Y89.444 E4.64321
G0 F6000 X158.013 Y89.168
G0 X158.112 Y86.836
G0 X158.058 Y86.782
;TYPE:SKIN
G1 F300 X158.077 Y86.518 E4.64509
G1 X157.53 Y85.971 E4.65058
G1 X153.853 Y85.971 E4.67672
G0 F6000 X153.756 Y85.389
G1 F2400 E3.07672
;MESH:ASX1_Vertical_Filament_Spool_Parts_Drawer_petg_white_198mm_58width_LockRight.3mf(3)
G0 F6000 X157.672 Y84.928
G0 X158.038 Y81.736
G0 X156.915 Y81.667
G0 X156.927 Y74.456
G0 X158.038 Y74.11
G0 X158.038 Y72.985
G0 X158.798 Y68.07
G0 X159.241 Y67.888
;TYPE:WALL-INNER
G1 F2400 E4.67672
G1 F300 X159.241 Y72.245 E4.7618
G1 X158.616 Y72.245 E4.774
G1 X158.616 Y67.888 E4.85908
G1 X159.241 Y67.888 E4.87129
G0 F6000 X161.921 Y67.552
G1 F300 X160.047 Y67.885 E4.90845
G1 X159.721 Y67.944 E4.91492
G1 X159.721 Y72.725 E5.00828
G1 X158.136 Y72.725 E5.03923
G1 X158.136 Y67.841 E5.1346
G1 X154.708 Y67.437 E5.202
G1 X148.786 Y67.436 E5.31764
G1 X148.786 Y67.409 E5.31817
G1 X154.708 Y67.409 E5.32481
G1 X158.135 Y67.409 E5.35708
G1 X160.018 Y67.408 E5.39385
G1 X161.921 Y67.408 E5.41803
G1 X161.921 Y67.552 E5.42084
G0 F6000 X162.401 Y67.955
;TYPE:WALL-OUTER
G1 F300 X160.201 Y68.346 E5.46447
G1 X160.201 Y73.205 E5.55935
G1 X157.656 Y73.205 E5.60905
G1 X157.656 Y68.268 E5.70545
G1 X154.68 Y67.917 E5.76397
G1 X148.306 Y67.916 E5.88843
G1 X148.306 Y66.929 E5.90771
G1 X162.401 Y66.928 E6.18294
G1 X162.401 Y67.955 E6.20299
G0 F6000 X162.125 Y67.723
G0 X159.881 Y67.675
G0 X159.855 Y67.648
;TYPE:SKIN
G1 F300 X159.602 Y67.678 E6.2047
G1 X158.96 Y68.167 E6.21008
G1 X158.927 Y69.832 E6.2212
G1 X158.927 Y71.811 E6.23441
G1 X158.846 Y72.013 E6.23586
G0 F6000 X158.346 Y71.997
G1 F2400 E4.63586
;MESH:ASX1_Vertical_Filament_Spool_Parts_Drawer_petg_white_198mm_58width_LockLeft.3mf(1)
G0 F6000 X159.059 Y72.063
G0 X159.986 Y68.166
G0 X161.096 Y69.095
G0 X205.996 Y65.165
G0 X207.116 Y65.165
G0 X210.686 Y65.278
;TYPE:WALL-INNER
G1 F2400 E6.23586
G1 F300 X210.686 Y69.634 E6.32092
G1 X210.061 Y69.634 E6.33313
G1 X210.061 Y65.278 E6.41819
G1 X210.686 Y65.278 E6.43039
G0 F6000 X211.166 Y65.23
G1 F300 X211.166 Y70.114 E6.52576
G1 X209.581 Y70.114 E6.55671
G1 X209.581 Y65.331 E6.65011
G1 X209.26 Y65.274 E6.65648
G1 X207.381 Y64.942 E6.69374
G1 X207.381 Y64.798 E6.69655
G1 X209.29 Y64.798 E6.72084
G1 X211.166 Y64.798 E6.75748
G1 X214.593 Y64.798 E6.8244
G1 X220.516 Y64.797 E6.94006
G1 X220.516 Y64.825 E6.9406
G1 X214.594 Y64.825 E6.94711
G1 X211.166 Y65.23 E6.97959
G0 F6000 X211.646 Y65.657
;TYPE:WALL-OUTER
G1 F300 X211.646 Y70.594 E7.07599
G1 X209.101 Y70.594 E7.12569
G1 X209.101 Y65.734 E7.22059
G1 X206.901 Y65.345 E7.26422
G1 X206.901 Y64.318 E7.28427
G1 X220.996 Y64.317 E7.55951
G1 X220.996 Y65.305 E7.5788
G1 X214.622 Y65.305 E7.70326
G1 X211.646 Y65.657 E7.76178
G0 F6000 X211.346 Y65.657
G0 X210.576 Y65.654
G0 X210.389 Y65.573
;TYPE:SKIN
G1 F300 X210.372 Y65.839 E7.764
G1 X210.372 Y69.233 E7.79232
G0 F6000 X210.576 Y69.331
G0 X210.27 Y69.452
G0 X209.659 Y65.126
G0 X209.602 Y65.069
G1 F300 X209.844 Y65.028 E7.794
G0 F6000 X209.86 Y65.045
G1 F2400 E6.194
;MESH:ASX1_Vertical_Filament_Spool_Parts_Drawer_petg_white_198mm_58width_LockLeft.3mf(3)
G0 F6000 X220.405 Y64.518
G0 X220.519 Y69.826
G0 X220.406 Y73.396
;TYPE:WALL-INNER
G1 F2400 E7.794
G1 F300 X216.05 Y73.396 E7.87905
G1 X216.05 Y72.771 E7.89126
G1 X220.406 Y72.771 E7.97632
G1 X220.406 Y73.396 E7.98852
G0 F6000 X220.859 Y77.304
G1 F300 X220.455 Y73.876 E8.05593
G1 X215.57 Y73.876 E8.15131
G1 X215.57 Y72.291 E8.18227
G1 X220.353 Y72.291 E8.27566
G1 X220.41 Y71.97 E8.28203
G1 X220.742 Y70.091 E8.31929
G1 X220.886 Y70.091 E8.3221
G1 X220.886 Y72 E8.3464
G1 X220.886 Y73.876 E8.38303
G1 X220.886 Y77.303 E8.41496
G1 X220.887 Y83.226 E8.53062
G1 X220.859 Y83.226 E8.53117
G1 X220.859 Y77.304 E8.5378
G0 F6000 X220.379 Y77.332
;TYPE:WALL-OUTER
G1 F300 X220.028 Y74.356 E8.59631
G1 X215.09 Y74.356 E8.69274
G1 X215.09 Y71.811 E8.74243
G1 X219.95 Y71.811 E8.83733
G1 X220.339 Y69.611 E8.88096
G1 X221.366 Y69.611 E8.90101
G1 X221.367 Y83.706 E9.17625
G1 X220.379 Y83.706 E9.19554
G1 X220.379 Y77.332 E9.32001
G0 F6000 X220.679 Y77.332
G0 X220.232 Y74.127
G0 X219.976 Y73.286
G0 X219.878 Y73.083
;TYPE:SKIN
G1 F300 X219.595 Y73.083 E9.32238
G1 X216.484 Y73.083 E9.34848
G1 X216.281 Y73.163 E9.35031
G0 F6000 X216.299 Y73.286
G0 X216.232 Y72.98
G0 X220.064 Y72.881
G0 X220.127 Y73.049
G1 F300 X220.615 Y72.405 E9.35268
G1 X220.652 Y72.16 E9.3534
G0 F6000 X220.635 Y72.143
G1 F2400 E7.7534
;MESH:ASX1_Vertical_Filament_Spool_Parts_Drawer_petg_white_198mm_58width_LockLeft.3mf
G0 F6000 X221.166 Y71.295
G0 X224.837 Y71.295
G0 X225.597 Y71.295
;TYPE:WALL-INNER
G1 F2400 E9.3534
G1 F300 X225.597 Y70.67 E9.36561
G1 X229.953 Y70.67 E9.45067
G1 X229.953 Y71.295 E9.46287
G1 X225.597 Y71.295 E9.54793
G0 F6000 X225.117 Y73.975
G1 F300 X225.117 Y72.066 E9.58521
G1 X225.117 Y70.19 E9.62184
G1 X225.117 Y66.763 E9.68876
G1 X225.116 Y60.84 E9.80442
G1 X225.144 Y60.84 E9.80497
G1 X225.144 Y66.762 E9.8116
G1 X225.549 Y70.19 E9.84407
G1 X230.433 Y70.19 E9.93944
G1 X230.433 Y71.775 E9.97039
G1 X225.65 Y71.775 E10.06379
G1 X225.593 Y72.096 E10.07016
G1 X225.261 Y73.975 E10.09444
G1 X225.117 Y73.975 E10.09725
G0 F6000 X224.637 Y74.455
;TYPE:WALL-OUTER
G1 F300 X224.636 Y60.36 E10.37248
G1 X225.624 Y60.36 E10.39177
G1 X225.624 Y66.734 E10.51624
G1 X225.976 Y69.71 E10.57476
G1 X230.913 Y69.71 E10.67116
G1 X230.913 Y72.255 E10.72086
G1 X226.053 Y72.255 E10.81576
G1 X225.664 Y74.455 E10.85939
G1 X224.637 Y74.455 E10.87944
G0 F6000 X224.907 Y74.185
G0 X225.42 Y71.837
G0 X225.375 Y71.792
;TYPE:SKIN
G1 F300 X225.411 Y71.544 E10.88121
G1 X225.98 Y70.982 E10.88686
G1 X229.648 Y70.973 E10.91277
G0 F6000 X230.223 Y71.062
G1 F2400 E9.31277
;MESH:ASX1_Vertical_Filament_Spool_Parts_Drawer_petg_white_198mm_58width_LockLeft.3mf(2)
G0 F6000 X225.873 Y72.04
G0 X226.803 Y73.15
G0 X225.873 Y86.544
G0 X225.873 Y87.669
G0 X225.832 Y92.765
;TYPE:WALL-INNER
G1 F2400 E10.91277
G1 F300 X225.832 Y88.409 E10.99783
G1 X226.457 Y88.409 E11.01004
G1 X226.457 Y92.765 E11.0951
G1 X225.832 Y92.765 E11.1073
G0 F6000 X221.924 Y93.218
G1 F300 X225.352 Y92.813 E11.17471
G1 X225.352 Y87.929 E11.27008
G1 X226.937 Y87.929 E11.30103
G1 X226.937 Y92.71 E11.39438
G1 X227.267 Y92.769 E11.40093
G1 X229.137 Y93.101 E11.43802
G1 X229.137 Y93.245 E11.44083
G1 X227.238 Y93.245 E11.465
G1 X225.352 Y93.245 E11.50182
G1 X221.925 Y93.245 E11.53382
G1 X216.002 Y93.246 E11.64948
G1 X216.002 Y93.218 E11.65003
G1 X221.924 Y93.218 E11.65666
G0 F6000 X221.896 Y92.738
;TYPE:WALL-OUTER
G1 F300 X224.872 Y92.386 E11.71518
G1 X224.872 Y87.449 E11.81158
G1 X227.417 Y87.449 E11.86128
G1 X227.417 Y92.308 E11.95616
G1 X229.617 Y92.698 E11.99979
G1 X229.617 Y93.725 E12.01984
G1 X215.522 Y93.726 E12.29508
G1 X215.522 Y92.738 E12.31437
G1 X221.896 Y92.738 E12.43884
G0 F6000 X221.896 Y93.038
G0 X225.101 Y92.59
G0 X225.942 Y92.261
G0 X226.142 Y92.358
;TYPE:SKIN
G1 F300 X226.142 Y92.075 E12.44118
G1 X226.162 Y88.701 E12.46915
G0 F6000 X226.085 Y88.519
G0 X226.665 Y92.881
G0 X226.739 Y92.955
G1 F300 X227.05 Y92.982 E12.47182
G0 F6000 X227.092 Y93.024
G1 F2400 E10.87182
;MESH:NONMESH
G0 F300 X227.092 Y93.024 Z0.2
G0 F6000 X215.736 Y93.512
G0 X214.617 Y93.512
G0 X157.031 Y90.339
G0 X147.258 Y86.709
G0 X144.823 Y84.291
G0 X143.705 Y84.292
G0 X143.14 Y80.521
;TIME_ELAPSED:160.682537
;LAYER:1
;TYPE:WALL-INNER
;MESH:ASX1_Vertical_Filament_Spool_Parts_Drawer_petg_white_198mm_58width_LockRight.3mf(4)
G1 F2400 E12.47182
G1 F1050 X143.14 Y81.546 E12.48801
G1 X143.14 Y81.658 E12.48978
G1 X143.12 Y81.546 E12.48984
G1 X138.402 Y81.546 E12.56438
G1 X138.402 Y80.521 E12.58057
G1 X143.14 Y80.521 E12.65543
G0 F10500 X143.539 Y70.771
G1 F1050 X143.539 Y76.805 E12.75075
G1 X143.539 Y77.915 E12.76829
G1 X143.54 Y83.953 E12.86368
G1 X143.54 Y84.146 E12.86673
G1 X143.175 Y84.146 E12.8725
G1 X143.142 Y83.956 E12.87541
G1 X142.785 Y81.946 E12.90767
G1 X138.002 Y81.946 E12.98323
G1 X138.002 Y80.121 E13.01206
G1 X142.881 Y80.121 E13.08914
G1 X143.141 Y77.908 E13.12435
G1 X143.27 Y76.806 E13.13902
G1 X143.271 Y70.771 E13.20319
G1 X143.539 Y70.771 E13.20743
G0 F10500 X143.939 Y70.371
;TYPE:WALL-OUTER
G1 F1050 X143.94 Y84.546 E13.43137
G1 X142.839 Y84.546 E13.44877
G1 X142.45 Y82.346 E13.48406
G1 X137.602 Y82.346 E13.56065
G1 X137.602 Y79.721 E13.60212
G1 X142.525 Y79.721 E13.6799
G1 X142.87 Y76.783 E13.72664
G1 X142.871 Y70.371 E13.82794
G1 X143.939 Y70.371 E13.84481
G0 F10500 X143.669 Y70.641
G0 X142.75 Y80.631
G0 X142.75 Y80.911
;TYPE:SKIN
G1 F450 X142.75 Y81.156 E13.84868
G1 X138.792 Y81.156 E13.91121
G1 X138.792 Y80.911 E13.91508
G1 X142.75 Y80.911 E13.97761
G0 F10500 X143.224 Y80.221
;TYPE:SKIN
G1 F450 X143.211 Y79.951 E13.98024
G1 X143.302 Y78.162 E13.99762
G0 F10500 X143.321 Y78.144
G0 X143.343 Y81.799
G0 X143.17 Y81.972
G1 F450 X143.201 Y82.223 E14.00073
G1 X143.343 Y83.778 E14.01991
G0 F10500 X143.322 Y83.799
G0 X142.955 Y81.904
G1 F450 X143.032 Y81.827 E14.02077
G1 F2400 E12.42077
;MESH:ASX1_Vertical_Filament_Spool_Parts_Drawer_petg_white_198mm_58width_LockRight.3mf(1)
G0 F10500 X143.739 Y75.706
G0 X144.804 Y75.705
G0 X147.266 Y75.707
G0 X148.331 Y75.706
G0 X148.93 Y75.706
;TYPE:WALL-INNER
G1 F2400 E14.02077
G1 F1050 X148.93 Y74.681 E14.03697
G1 X148.93 Y74.569 E14.03874
G1 X148.95 Y74.681 E14.0388
G1 X153.667 Y74.681 E14.11332
G1 X153.667 Y75.706 E14.12951
G1 X148.93 Y75.706 E14.20435
G0 F10500 X148.799 Y79.421
G1 F1050 X148.798 Y85.456 E14.2997
G1 X148.531 Y85.456 E14.30391
G1 X148.531 Y79.422 E14.36783
G1 X148.531 Y78.304 E14.38549
G1 X148.53 Y72.274 E14.48075
G1 X148.53 Y72.081 E14.4838
G1 X148.895 Y72.081 E14.48957
G1 X148.928 Y72.271 E14.49249
G1 X149.285 Y74.281 E14.52474
G1 X154.067 Y74.281 E14.60029
G1 X154.067 Y76.106 E14.62912
G1 X149.188 Y76.106 E14.7062
G1 X148.929 Y78.311 E14.74128
G1 X148.799 Y79.421 E14.75604
G0 F10500 X149.199 Y79.444
;TYPE:WALL-OUTER
G1 F1050 X149.198 Y85.856 E14.85734
G1 X148.131 Y85.856 E14.8742
G1 X148.13 Y71.681 E15.09814
G1 X149.23 Y71.681 E15.11552
G1 X149.62 Y73.881 E15.15082
G1 X154.467 Y73.881 E15.22739
G1 X154.467 Y76.506 E15.26886
G1 X149.544 Y76.506 E15.34664
G1 X149.199 Y79.444 E15.39338
G0 F10500 X148.76 Y79.419
G0 X149.04 Y75.316
G0 X149.32 Y75.316
;TYPE:SKIN
G1 F450 X149.32 Y75.071 E15.39725
G1 X153.277 Y75.071 E15.45976
G1 X153.277 Y75.316 E15.46363
G1 X149.32 Y75.316 E15.52615
G0 F10500 X148.848 Y76.011
;TYPE:SKIN
G1 F450 X148.855 Y76.286 E15.52914
G1 X148.76 Y77.795 E15.54558
G0 F10500 X148.703 Y77.853
G0 X148.737 Y74.425
G0 X148.904 Y74.257
G1 F450 X148.866 Y74.012 E15.54862
G1 X148.73 Y72.452 E15.56782
G0 F10500 X148.756 Y72.426
G0 X149.115 Y74.33
G1 F450 X149.047 Y74.398 E15.56858
G1 F2400 E13.96858
;MESH:ASX1_Vertical_Filament_Spool_Parts_Drawer_petg_white_198mm_58width_LockRight.3mf(2)
G0 F10500 X149.112 Y75.524
G0 X154.253 Y76.292
G0 X154.253 Y77.371
G0 X156.895 Y81.668
G0 X157.978 Y81.734
G0 X158.028 Y86.596
;TYPE:WALL-INNER
G1 F2400 E15.56858
G1 F1050 X158.008 Y86.484 E15.57038
G1 X153.291 Y86.484 E15.6449
G1 X153.291 Y85.459 E15.66109
G1 X158.028 Y85.459 E15.73593
G1 X158.028 Y86.484 E15.75212
G1 X158.028 Y86.596 E15.75217
G0 F10500 X158.063 Y89.084
G1 F1050 X158.03 Y88.894 E15.75521
G1 X157.673 Y86.884 E15.78747
G1 X152.891 Y86.884 E15.86301
G1 X152.891 Y85.059 E15.89185
G1 X157.77 Y85.059 E15.96893
G1 X158.029 Y82.854 E16.004
G1 X158.159 Y81.744 E16.02166
G1 X158.16 Y75.709 E16.117
G1 X158.427 Y75.709 E16.12122
G1 X158.427 Y81.743 E16.18514
G1 X158.427 Y82.861 E16.19991
G1 X158.428 Y88.891 E16.29517
G1 X158.428 Y89.084 E16.29809
G1 X158.063 Y89.084 E16.30386
G0 F10500 X157.728 Y89.484
;TYPE:WALL-OUTER
G1 F1050 X157.338 Y87.284 E16.33916
G1 X152.491 Y87.284 E16.41573
G1 X152.491 Y84.659 E16.4572
G1 X157.414 Y84.659 E16.53498
G1 X157.759 Y81.721 E16.58171
G1 X157.76 Y75.309 E16.68301
