;FLAVOR:Marlin
;TIME:6543
;Filament used: 6.15223m
;Layer height: 0.3
;MINX:53.378
;MINY:60.853
;MINZ:0.3
;MAXX:250.579
;MAXY:258.062
;MAXZ:2.1
;Generated with Cura_SteamEngine 4.10.0
M104 S205
M105
M109 S205
M82 ;absolute extrusion mode
G28 ; home all axes
 M117 Purge extruder
 G92 E0 ; reset extruder
 G1 Z1.0 F3000 ; move z up little to prevent scratching of surface
 G1 X2 Y20 Z0.3 F5000.0 ; move to start-line position
 G1 X2 Y200.0 Z0.3 F1500.0 E15 ; draw 1st line
 G1 X2 Y200.0 Z0.4 F5000.0 ; move to side a little
 G1 X2 Y20 Z0.4 F1500.0 E30 ; draw 2nd line
 G92 E0 ; reset extruder
 G1 Z1.0 F3000 ; move z up little to prevent scratching of surface
G92 E0
G92 E0
G1 F2400 E-1.6
;LAYER_COUNT:7
;LAYER:0
M106 S89.3
;MESH:AKLP_Vertical_Filament_Spool_Parts_Drawer_petg_white_198mm_58width_GuideLeft_petg_08nz_0h38m_v02.3mf
G0 F6000 X73.397 Y107.703 Z0.3
;TYPE:WALL-INNER
G1 F2400 E0
G1 F900 X76.884 Y102.456 E0.36906
G1 X77.794 Y101.4 E0.45072
G1 X77.982 Y101.181 E0.46763
G1 X77.732 Y101.037 E0.47802
G1 X74.954 Y99.433 E0.66594
G1 X74.953 Y99.433 E0.66599
G1 X74.14 Y100.375 E0.73889
G1 X73.977 Y100.621 E0.75618
G1 X70.556 Y105.77 E1.11832
G1 X70.416 Y105.981 E1.13315
G1 X70.635 Y106.108 E1.14259
G1 X73.397 Y107.703 E1.32943
G0 F6000 X73.247 Y107.062
;TYPE:WALL-OUTER
G1 F900 X76.499 Y102.167 E1.6737
G1 X77.24 Y101.307 E1.7402
G1 X75.057 Y100.047 E1.88785
G1 X74.523 Y100.666 E1.93574
G1 X71.099 Y105.821 E2.29828
G1 X73.247 Y107.062 E2.4436
G1 F2400 E0.8436
G0 F6000 X73.097 Y107.32
G0 X70.145 Y106.589
G0 X69.698 Y107.294
G0 X110.067 Y131.659
G0 X104.271 Y143.579
G0 X55.651 Y144.488
G0 X55.26 Y145.987
;TYPE:WALL-INNER
G1 F2400 E2.4436
G1 F900 X55.027 Y147.21 E2.51653
G1 X54.62 Y153.673 E2.89589
G1 X54.605 Y153.927 E2.9108
G1 X54.859 Y153.927 E2.92027
G1 X54.86 Y153.927 E2.92033
G1 X58.048 Y153.927 E3.10709
G1 X58.444 Y147.642 E3.476
G1 X58.705 Y146.271 E3.55776
G1 X58.758 Y145.987 E3.57468
G1 X58.47 Y145.987 E3.58506
G1 X58.469 Y145.987 E3.58512
G1 X55.26 Y145.987 E3.77311
G0 F6000 X55.657 Y146.467
;TYPE:WALL-OUTER
G1 F900 X55.504 Y147.27 E3.821
G1 X55.116 Y153.447 E4.18357
G1 X57.597 Y153.447 E4.3289
G1 X57.967 Y147.579 E4.67334
G1 X58.178 Y146.467 E4.73965
G1 X55.657 Y146.467 E4.88733
G1 F2400 E3.28733
G0 F6000 X55.363 Y146.411
G0 X54.619 Y155.423
G0 X101.793 Y156.34
G0 X102.722 Y169.561
G0 X60.992 Y194.704
G0 X61.274 Y195.506
G0 X63.965 Y193.96
G0 X65.067 Y195.992
;TYPE:WALL-INNER
G1 F2400 E4.88733
G1 F900 X64.607 Y194.673 E4.96916
G1 X64.512 Y194.401 E4.98604
G1 X64.262 Y194.545 E4.99644
G1 X61.483 Y196.15 E5.18444
G1 X61.799 Y197.054 E5.24054
G1 X61.893 Y197.325 E5.25734
G1 X64.773 Y203.127 E5.6368
G1 X64.886 Y203.355 E5.65171
G1 X65.106 Y203.228 E5.66117
G1 X67.867 Y201.633 E5.84796
G1 X65.067 Y195.992 E6.21688
G0 F6000 X64.624 Y196.179
;TYPE:WALL-OUTER
G1 F900 X64.25 Y195.107 E6.28339
G1 X62.067 Y196.367 E6.43105
G1 X62.336 Y197.139 E6.47894
G1 X65.089 Y202.684 E6.84161
G1 X67.237 Y201.443 E6.98693
G1 X64.624 Y196.179 E7.3312
G0 F6000 X65.11 Y195.975
G1 F2400 E5.7312
G0 F6000 X68.735 Y201.895
G0 X65.229 Y203.92
G0 X65.589 Y204.676
G0 X106.948 Y181.856
G0 X114.36 Y192.861
G0 X90.822 Y235.447
G0 X91.502 Y235.938
G0 X93.081 Y233.219
G0 X94.978 Y234.551
;TYPE:WALL-INNER
G1 F2400 E7.3312
G1 F900 X93.922 Y233.641 E7.41286
G1 X93.703 Y233.453 E7.42977
G1 X93.559 Y233.703 E7.44016
G1 X91.955 Y236.481 E7.62808
G1 X92.046 Y236.56 E7.63514
G1 X92.895 Y237.295 E7.70092
G1 X94.793 Y238.556 E7.83441
G1 X98.291 Y240.88 E8.08043
G1 X98.502 Y241.02 E8.09526
G1 X98.629 Y240.801 E8.1047
G1 X100.224 Y238.039 E8.29154
G1 X94.978 Y234.551 E8.66059
G0 F6000 X94.689 Y234.936
;TYPE:WALL-OUTER
G1 F900 X93.829 Y234.195 E8.72709
G1 X92.569 Y236.378 E8.87474
G1 X93.186 Y236.912 E8.92255
G1 X98.342 Y240.337 E9.28516
G1 X99.583 Y238.189 E9.43048
G1 X94.689 Y234.936 E9.77473
G0 F6000 X95.008 Y234.516
G1 F2400 E8.17473
G0 F6000 X101.107 Y237.832
G0 X99.036 Y241.416
G0 X99.722 Y241.904
G0 X124.163 Y201.401
G0 X136.101 Y207.246
G0 X137.01 Y255.767
G0 X137.844 Y255.868
G0 X138.508 Y252.966
;TYPE:WALL-INNER
G1 F2400 E9.77473
G1 F900 X138.508 Y256.155 E9.96155
G1 X138.508 Y256.175 E9.96272
G1 X139.731 Y256.408 E10.03565
G1 X141.551 Y256.522 E10.14248
G1 X146.194 Y256.815 E10.41501
G1 X146.448 Y256.831 E10.42992
G1 X146.448 Y256.577 E10.43938
G1 X146.448 Y256.576 E10.43944
G1 X146.448 Y253.388 E10.6262
G1 X140.165 Y252.992 E10.99499
G1 X138.792 Y252.73 E11.07688
G1 X138.508 Y252.677 E11.0938
G1 X138.508 Y252.965 E11.10418
G1 X138.508 Y252.966 E11.10424
G0 F6000 X138.988 Y253.257
;TYPE:WALL-OUTER
G1 F900 X138.988 Y255.778 E11.25192
G1 X139.791 Y255.931 E11.29981
G1 X145.968 Y256.32 E11.66238
G1 X145.968 Y253.839 E11.80772
G1 X140.1 Y253.469 E12.15216
G1 X138.988 Y253.257 E12.21848
G1 F2400 E10.61848
G0 F6000 X139.044 Y252.963
G0 X147.109 Y252.767
G0 X147.11 Y256.88
G0 X147.945 Y256.88
G0 X148.86 Y209.739
G0 X162.111 Y208.765
G0 X187.153 Y250.313
G0 X189.259 Y249.511
G0 X195.648 Y246.663
;TYPE:WALL-INNER
G1 F2400 E12.21848
G1 F900 X195.876 Y246.55 E12.23338
G1 X195.749 Y246.33 E12.24284
G1 X194.154 Y243.569 E12.42964
G1 X188.513 Y246.368 E12.79853
G1 X187.196 Y246.828 E12.88026
G1 X186.924 Y246.923 E12.89713
G1 X187.068 Y247.173 E12.90754
G1 X188.661 Y249.932 E13.09417
G1 X188.672 Y249.952 E13.0955
G1 X189.846 Y249.543 E13.16833
G1 X190.858 Y249.041 E13.23451
G1 X195.648 Y246.663 E13.54779
G0 F6000 X195.205 Y246.347
;TYPE:WALL-OUTER
G1 F900 X193.964 Y244.199 E13.69311
G1 X188.7 Y246.811 E14.03736
G1 X187.629 Y247.185 E14.10382
G1 X188.889 Y249.368 E14.25147
G1 X189.66 Y249.1 E14.29929
G1 X195.205 Y246.347 E14.66195
G1 F2400 E13.06195
G0 F6000 X195.337 Y246.615
G0 X196.434 Y246.192
G0 X197.165 Y245.788
G0 X174.393 Y204.516
G0 X185.372 Y197.072
G0 X227.872 Y220.558
G0 X228.407 Y219.904
G0 X224.947 Y217.908
G0 X225.401 Y217.387
G0 X230.56 Y211.211
;TYPE:WALL-INNER
G1 F2400 E14.66195
G1 F900 X227.073 Y216.458 E15.03101
G1 X226.163 Y217.514 E15.11268
G1 X225.975 Y217.733 E15.12958
G1 X226.225 Y217.877 E15.13997
G1 X229.003 Y219.481 E15.32789
G1 X229.004 Y219.481 E15.32795
G1 X229.817 Y218.539 E15.40084
G1 X229.98 Y218.293 E15.41813
G1 X233.401 Y213.144 E15.78027
G1 X233.541 Y212.933 E15.7951
G1 X233.322 Y212.806 E15.80454
G1 X230.56 Y211.211 E15.99138
G0 F6000 X230.71 Y211.852
;TYPE:WALL-OUTER
G1 F900 X227.458 Y216.747 E16.33565
G1 X226.717 Y217.607 E16.40215
G1 X228.9 Y218.867 E16.54981
G1 X229.434 Y218.248 E16.5977
G1 X232.858 Y213.093 E16.96023
G1 X230.71 Y211.852 E17.10555
G1 F2400 E15.50555
G0 F6000 X230.86 Y211.594
G0 X233.813 Y212.325
G0 X234.259 Y211.621
G0 X193.89 Y187.256
G0 X199.686 Y175.335
G0 X248.306 Y174.426
G0 X248.459 Y173.592
G0 X244.394 Y173.592
G0 X244.66 Y172.24
G0 X245.909 Y164.987
;TYPE:WALL-INNER
G1 F2400 E17.10555
G1 F900 X245.513 Y171.279 E17.47487
G1 X245.252 Y172.643 E17.55623
G1 X245.198 Y172.927 E17.57316
G1 X245.487 Y172.927 E17.58357
G1 X248.697 Y172.927 E17.77162
G1 X248.93 Y171.705 E17.8445
G1 X249.337 Y165.241 E18.22391
G1 X249.352 Y164.987 E18.23882
G1 X249.098 Y164.987 E18.24829
G1 X249.097 Y164.987 E18.24835
G1 X245.909 Y164.987 E18.43511
G0 F6000 X246.36 Y165.467
;TYPE:WALL-OUTER
G1 F900 X245.99 Y171.336 E18.7796
G1 X245.778 Y172.447 E18.84586
G1 X248.3 Y172.447 E18.9936
G1 X248.453 Y171.645 E19.04143
G1 X248.841 Y165.467 E19.40406
G1 X246.36 Y165.467 E19.5494
G1 F2400 E17.9494
G0 F6000 X246.062 Y165.448
G0 X246.592 Y164.334
G0 X249.287 Y164.326
G0 X249.338 Y163.491
G0 X202.165 Y162.574
G0 X201.235 Y149.353
G0 X242.965 Y124.21
G0 X242.064 Y121.589
;TYPE:WALL-INNER
G1 F2400 E19.5494
G1 F900 X239.184 Y115.788 E19.9288
G1 X239.071 Y115.56 E19.94371
G1 X238.851 Y115.687 E19.95317
G1 X236.09 Y117.282 E20.13996
G1 X238.89 Y122.922 E20.50884
G1 X239.35 Y124.241 E20.59067
G1 X239.445 Y124.513 E20.60755
G1 X239.695 Y124.369 E20.61795
G1 X242.474 Y122.764 E20.80595
G1 X242.158 Y121.861 E20.86199
G1 X242.064 Y121.589 E20.87885
G0 F6000 X241.621 Y121.775
;TYPE:WALL-OUTER
G1 F900 X238.868 Y116.231 E21.24146
G1 X236.72 Y117.472 E21.38678
G1 X239.333 Y122.735 E21.73101
G1 X239.707 Y123.807 E21.79752
G1 X241.89 Y122.547 E21.94517
G1 X241.621 Y121.775 E21.99306
G0 F6000 X242.107 Y121.571
G1 F2400 E20.39306
G0 F6000 X238.369 Y114.238
G0 X197.009 Y137.058
G0 X189.597 Y126.054
G0 X213.134 Y83.467
G0 X205.665 Y78.034
;TYPE:WALL-INNER
G1 F2400 E21.99306
G1 F900 X205.454 Y77.894 E22.0079
G1 X205.327 Y78.113 E22.01733
G1 X203.732 Y80.875 E22.20418
G1 X208.979 Y84.363 E22.57327
G1 X210.035 Y85.273 E22.65493
G1 X210.254 Y85.461 E22.67184
G1 X210.398 Y85.211 E22.68223
G1 X212.002 Y82.432 E22.8702
G1 X211.907 Y82.35 E22.87755
G1 X211.061 Y81.619 E22.94305
G1 X209.194 Y80.379 E23.07434
G1 X205.665 Y78.034 E23.32255
G0 F6000 X205.614 Y78.577
;TYPE:WALL-OUTER
G1 F900 X204.373 Y80.725 E23.46788
G1 X209.268 Y83.978 E23.81218
G1 X210.128 Y84.719 E23.87868
G1 X211.388 Y82.536 E24.02633
G1 X210.77 Y82.002 E24.07418
G1 X205.614 Y78.577 E24.43679
G1 F2400 E22.83679
G0 F6000 X205.78 Y78.328
G0 X204.921 Y77.497
G0 X204.235 Y77.011
G0 X179.794 Y117.512
G0 X167.855 Y111.668
G0 X166.946 Y63.148
G0 X166.112 Y63.047
G0 X166.102 Y65.924
G0 X163.8 Y65.922
;TYPE:WALL-INNER
G1 F2400 E24.43679
G1 F900 X165.164 Y66.183 E24.51815
G1 X165.448 Y66.237 E24.53508
G1 X165.448 Y65.948 E24.54549
G1 X165.448 Y62.759 E24.73231
G1 X165.448 Y62.739 E24.73348
G1 X164.226 Y62.506 E24.80636
G1 X162.39 Y62.391 E24.91412
G1 X157.762 Y62.099 E25.18578
G1 X157.508 Y62.083 E25.20068
G1 X157.508 Y62.337 E25.21015
G1 X157.508 Y62.338 E25.2102
G1 X157.508 Y65.526 E25.39696
G1 X163.8 Y65.922 E25.76628
G0 F6000 X163.857 Y65.445
;TYPE:WALL-OUTER
G1 F900 X164.968 Y65.657 E25.83254
G1 X164.968 Y63.136 E25.98022
G1 X164.166 Y62.983 E26.02805
G1 X157.988 Y62.594 E26.39068
G1 X157.988 Y65.075 E26.53602
G1 X163.857 Y65.445 E26.88052
G0 F6000 X163.791 Y65.968
G1 F2400 E25.28052
G0 F6000 X156.847 Y66.147
G0 X156.846 Y62.035
G0 X156.011 Y62.035
G0 X155.073 Y112.472
G0 X160.805 Y113.186
G0 X166.534 Y114.656
G0 X172.034 Y116.835
G0 X177.218 Y119.685
G0 X182.004 Y123.163
G0 X186.317 Y127.211
G0 X190.088 Y131.77
G0 X193.258 Y136.763
G0 X195.776 Y142.116
G0 X197.604 Y147.743
G0 X198.713 Y153.554
G0 X199.083 Y159.457
G0 X198.713 Y165.361
G0 X197.604 Y171.171
G0 X195.776 Y176.798
G0 X193.258 Y182.151
G0 X190.088 Y187.145
G0 X186.317 Y191.703
G0 X182.004 Y195.751
G0 X177.218 Y199.229
G0 X172.034 Y202.08
G0 X166.534 Y204.258
G0 X160.805 Y205.728
G0 X154.936 Y206.469
G0 X149.021 Y206.469
G0 X143.152 Y205.728
G0 X137.423 Y204.258
G0 X131.922 Y202.08
G0 X126.739 Y199.229
G0 X121.953 Y195.751
G0 X117.64 Y191.703
G0 X113.869 Y187.145
G0 X110.699 Y182.151
G0 X108.181 Y176.798
G0 X106.353 Y171.171
G0 X105.245 Y165.361
G0 X104.873 Y159.457
G0 X105.244 Y153.554
G0 X106.353 Y147.743
G0 X108.181 Y142.116
G0 X110.699 Y136.763
G0 X113.869 Y131.77
G0 X117.64 Y127.211
G0 X121.953 Y123.163
G0 X126.739 Y119.685
G0 X131.922 Y116.835
G0 X137.423 Y114.656
G0 X143.152 Y113.186
G0 X149.021 Y112.445
G0 X153.885 Y112.456
G0 X153.885 Y109.175
G0 X141.845 Y110.148
G0 X116.804 Y68.601
G0 X115.285 Y68.962
;TYPE:WALL-INNER
G1 F2400 E26.88052
G1 F900 X114.11 Y69.372 E26.95342
G1 X113.107 Y69.869 E27.01899
G1 X108.309 Y72.251 E27.3328
G1 X108.081 Y72.364 E27.34771
G1 X108.208 Y72.584 E27.35717
G1 X109.803 Y75.345 E27.54396
G1 X115.443 Y72.546 E27.91281
G1 X116.762 Y72.086 E27.99464
G1 X117.034 Y71.991 E28.01152
G1 X116.89 Y71.741 E28.02192
G1 X115.285 Y68.962 E28.20992
G0 F6000 X115.068 Y69.546
;TYPE:WALL-OUTER
G1 F900 X114.296 Y69.815 E28.25781
G1 X108.752 Y72.567 E28.62039
G1 X109.993 Y74.715 E28.76572
G1 X115.256 Y72.103 E29.10991
G1 X116.328 Y71.729 E29.17642
G1 X115.068 Y69.546 E29.32408
G1 F2400 E27.72408
G0 F6000 X115.327 Y69.397
G0 X116.025 Y68.913
G0 X116.804 Y68.601
G0 X141.845 Y110.148
G0 X153.885 Y109.175
G0 X153.885 Y112.456
G0 X149.021 Y112.445
G0 X143.152 Y113.186
G0 X137.423 Y114.656
G0 X131.922 Y116.835
G0 X126.739 Y119.685
G0 X121.953 Y123.163
G0 X117.64 Y127.211
G0 X113.869 Y131.77
G0 X110.699 Y136.763
G0 X108.181 Y142.116
G0 X106.353 Y147.743
G0 X105.244 Y153.554
G0 X104.873 Y159.457
G0 X105.245 Y165.361
G0 X106.353 Y171.171
G0 X108.181 Y176.798
G0 X110.699 Y182.151
G0 X113.869 Y187.145
G0 X117.64 Y191.703
G0 X121.953 Y195.751
G0 X126.739 Y199.229
G0 X131.922 Y202.08
G0 X137.423 Y204.258
G0 X143.152 Y205.728
G0 X149.021 Y206.469
G0 X154.936 Y206.469
G0 X160.805 Y205.728
G0 X166.534 Y204.258
G0 X172.034 Y202.08
G0 X177.218 Y199.229
G0 X182.004 Y195.751
G0 X186.317 Y191.703
G0 X190.088 Y187.145
G0 X193.258 Y182.151
G0 X195.776 Y176.798
G0 X197.604 Y171.171
G0 X198.713 Y165.361
G0 X199.083 Y159.457
G0 X198.713 Y153.554
G0 X197.604 Y147.743
G0 X195.776 Y142.116
G0 X193.258 Y136.763
G0 X190.088 Y131.77
G0 X186.317 Y127.211
G0 X182.004 Y123.163
G0 X172.342 Y116.182
;TYPE:WALL-INNER
G1 F2400 E29.32408
G1 F900 X166.758 Y113.971 E29.6759
G1 X160.94 Y112.478 E30.02777
G1 X160.911 Y112.475 E30.02948
G1 X155.803 Y111.828 E30.3311
G1 X155.803 Y109.862 E30.44627
G1 X155.828 Y109.861 E30.44774
G1 X155.829 Y61.853 E33.2601
G1 X157.028 Y61.853 E33.33034
G1 X157.028 Y65.977 E33.57192
G1 X163.743 Y66.399 E33.96607
G1 X165.357 Y66.707 E34.06233
G1 X165.643 Y66.763 E34.0794
G1 X165.644 Y66.764 E34.07948
G1 X165.928 Y66.817 E34.09641
G1 X165.928 Y66.528 E34.10684
G1 X165.928 Y66.527 E34.10689
G1 X165.928 Y63.109 E34.30712
G1 X165.928 Y63.108 E34.30718
G1 X165.928 Y62.838 E34.323
G1 X166.196 Y62.871 E34.3329
G1 X167.127 Y62.989 E34.38788
G1 X167.128 Y112.162 E37.26848
G1 X173.109 Y114.532 E37.64536
G1 X178.583 Y117.541 E38.01129
G1 X179.81 Y118.428 E38.09998
G1 X180.024 Y118.583 E38.11546
G1 X180.156 Y118.354 E38.1252
G1 X204.105 Y76.873 E40.93112
G1 X204.166 Y76.766 E40.93833
G1 X204.389 Y76.888 E40.95323
G1 X204.489 Y76.96 E40.95918
G1 X205.158 Y77.447 E41.00766
G1 X203.091 Y81.025 E41.24972
G1 X208.69 Y84.748 E41.64361
G1 X210.161 Y86.015 E41.75734
G1 X210.38 Y86.203 E41.77425
G1 X210.524 Y85.953 E41.78464
G1 X212.265 Y82.937 E41.98864
G1 X212.397 Y82.707 E42.00418
G1 X212.612 Y82.863 E42.01395
G1 X213.372 Y83.416 E42.06901
G1 X188.715 Y126.129 E44.95818
G1 X192.145 Y130.28 E45.27362
G1 X195.489 Y135.545 E45.639
G1 X196.575 Y137.857 E45.78864
G1 X196.685 Y138.092 E45.80384
G1 X196.91 Y137.963 E45.81345
G1 X238.45 Y113.98 E48.62336
G1 X238.963 Y115.069 E48.69388
G1 X238.832 Y115.145 E48.70275
G1 X235.46 Y117.092 E48.93085
G1 X238.447 Y123.109 E49.32437
G1 X239.088 Y124.947 E49.4384
G1 X239.183 Y125.219 E49.45528
G1 X239.433 Y125.075 E49.46568
G1 X242.74 Y123.165 E49.6894
G1 X242.765 Y123.15 E49.69111
G1 X242.908 Y123.454 E49.70429
G1 X243.181 Y124.293 E49.75597
G1 X200.424 Y148.981 E52.64827
G1 X201.233 Y153.243 E52.90241
G1 X201.624 Y159.457 E53.26715
G1 X201.4 Y163.054 E53.47827
G1 X201.385 Y163.307 E53.49312
G1 X201.638 Y163.307 E53.50255
G1 X201.639 Y163.307 E53.50261
G1 X249.279 Y163.308 E56.29341
G1 X249.28 Y163.308 E56.29347
G1 X249.533 Y163.308 E56.30829
G1 X249.518 Y163.561 E56.31774
G1 X249.458 Y164.507 E56.37327
G1 X245.458 Y164.507 E56.60759
G1 X245.036 Y171.222 E57.00174
G1 X244.728 Y172.836 E57.098
G1 X244.672 Y173.122 E57.11507
G1 X244.671 Y173.123 E57.11515
G1 X244.618 Y173.407 E57.13208
G1 X244.907 Y173.407 E57.1425
G1 X244.908 Y173.407 E57.14256
G1 X248.394 Y173.407 E57.34678
G1 X248.683 Y173.407 E57.36371
G1 X248.629 Y173.691 E57.37412
G1 X248.454 Y174.606 E57.4287
G1 X199.156 Y174.607 E60.31663
G1 X198.141 Y177.733 E60.50916
G1 X195.489 Y183.37 E60.8741
G1 X192.996 Y187.298 E61.14664
G1 X192.863 Y187.508 E61.1612
G1 X193.078 Y187.632 E61.1705
G1 X234.301 Y211.434 E63.95902
G1 X234.516 Y211.558 E63.97356
G1 X234.383 Y211.768 E63.98287
G1 X233.873 Y212.57 E64.03855
G1 X230.41 Y210.57 E64.27281
G1 X226.688 Y216.169 E64.66667
G1 X225.421 Y217.64 E64.7804
G1 X225.233 Y217.859 E64.79731
G1 X225.483 Y218.003 E64.8077
G1 X228.444 Y219.712 E65.00797
G1 X228.689 Y219.853 E65.02453
G1 X228.509 Y220.071 E65.03477
G1 X227.914 Y220.79 E65.08944
G1 X185.268 Y196.17 E67.97412
G1 X183.626 Y197.712 E68.10607
G1 X178.59 Y201.373 E68.4708
G1 X173.597 Y204.116 E68.80453
G1 X173.384 Y204.233 E68.81877
