;FLAVOR:Marlin
;TIME:5796
;Filament used: 6.46547m
;Layer height: 0.15
;Generated with Cura_SteamEngine 3.6.0
M104 S205
M105
M109 S205
M82 ;absolute extrusion mode
G21 ;metric values
G90 ;absolute positioning
M82 ;set extruder to absolute mode
M107 ;start with the fan off
G28 X0 Y0 ;move X/Y to min endstops
G28 Z0 ;move Z to min endstops
G1 Z15.0 F120 ;move the platform down 15mm
G92 E0 ;zero the extruded length
G1 F200 E3 ;extrude 3mm of feed stock
G92 E0 ;zero the extruded length again
G1 F120
M117 Printing...
G5
G92 E0
G1 F2400 E-6
;LAYER_COUNT:284
;LAYER:0
M106 S127.5
M204 S3000
M205 X10 Y10
;MESH:Sex_Dice_rep.stl
G0 F1800 X90.821 Y100.084 Z0.15
M204 S1000
M205 X8 Y8
;TYPE:WALL-INNER
G1 F2400 E0
G1 F1200 X90.611 Y100.343 E0.01164
G1 X90.596 Y100.37 E0.01272
G1 X90.544 Y100.461 E0.01638
G1 X90.516 Y100.374 E0.01666
G1 X90.497 Y100.315
G1 X90.557 Y100.271
G1 X90.818 Y100.081 E0.01751
G1 X90.865 Y100.047
G1 X90.821 Y100.084
M204 S3000
M205 X10 Y10
G0 F1800 X90.561 Y100.331
G0 X90.664 Y102.254
G0 X90.894 Y102.804
G0 X95.186 Y109.545
G0 X95.284 Y109.553
M204 S1000
M205 X8 Y8
G1 F1200 X95.315 Y110.022 E0.03393
G1 X95.371 Y110.242 E0.04185
G1 X95.461 Y110.484 E0.05087
G1 X95.637 Y110.774 E0.06272
G1 X95.883 Y111.019 E0.07484
G1 X96.143 Y111.194 E0.08579
G1 X96.332 Y111.3 E0.09336
G1 X96.454 Y111.353 E0.098
G1 X96.525 Y111.383 E0.10069
G1 X96.725 Y111.435 E0.10791
G1 X96.925 Y111.465 E0.11497
G1 X96.858 Y111.545
G1 X96.8 Y111.614
G1 X96.649 Y111.793 E0.11982
G1 X96.607 Y111.858 E0.12252
G1 X96.355 Y112.244 E0.13862
G1 X96.136 Y112.632 E0.15418
G1 X96.05 Y112.831 E0.16175
G1 X95.934 Y113.159 E0.1739
G1 X95.816 Y113.582 E0.18923
G1 X95.746 Y113.99 E0.20369
G1 X95.729 Y114.304 E0.21467
G1 X95.756 Y114.569 E0.22398
G1 X95.839 Y114.899 E0.23586
G1 X96.012 Y115.299 E0.25108
G1 X96.245 Y115.67 E0.26638
G1 X96.468 Y115.933 E0.27842
G1 X96.665 Y116.117 E0.28783
G1 X96.95 Y116.32 E0.30005
G1 X97.354 Y116.538 E0.31609
G1 X97.79 Y116.693 E0.33225
G1 X98.136 Y116.764 E0.34458
G1 X98.4 Y116.783 E0.35382
G1 X98.713 Y116.76 E0.36479
G1 X99.102 Y116.67 E0.37873
G1 X99.487 Y116.523 E0.39312
G1 X99.85 Y116.325 E0.40756
G1 X100.193 Y116.09 E0.42208
G1 X100.515 Y115.814 E0.43689
G1 X100.806 Y115.508 E0.45164
G1 X101.008 Y115.251 E0.46306
G1 X101.165 Y115.017 E0.4729
G1 X101.38 Y114.622 E0.4886
G1 X101.587 Y114.082 E0.5088
G1 X101.708 Y113.506 E0.52935
G1 X101.742 Y113.078 E0.54435
G1 X101.744 Y113.044 E0.54554
G1 X101.744 Y112.773 E0.555
G1 X101.743 Y112.743 E0.55605
G1 X101.735 Y112.679 E0.5583
G1 X101.759 Y112.685
G1 X101.84 Y112.709
G1 X101.923 Y112.733
G1 X102.15 Y112.771 E0.56437
G1 X102.184 Y112.773 E0.56556
G1 X102.631 Y112.81 E0.58122
G1 X102.863 Y112.815 E0.58932
G1 X103.168 Y112.775 E0.60007
G1 X103.383 Y112.728 E0.60775
G1 X103.94 Y112.525 E0.62846
G1 X104.442 Y112.224 E0.6489
G1 X104.614 Y112.085 E0.65662
G1 X104.849 Y111.849 E0.66825
G1 X105.244 Y111.417 E0.68869
G1 X107.29 Y109.081 E0.79714
G1 X108.945 Y107.22 E0.88412
G1 X109.145 Y106.968 E0.89535
G1 X109.315 Y106.733 E0.90548
G1 X109.562 Y106.33 E0.92199
G1 X109.747 Y105.917 E0.93779
G1 X109.873 Y105.483 E0.95357
G1 X109.936 Y105.027 E0.96965
G1 X110.097 Y104.899 E0.97683
G1 X110.714 Y104.448 E1.00352
G1 X111.189 Y104.131 E1.02347
G1 X111.535 Y103.925 E1.03753
G1 X111.854 Y103.765 E1.04999
G1 X112.19 Y103.63 E1.06264
G1 X112.576 Y103.548 E1.07642
G1 X112.946 Y103.497 E1.08946
G1 X114.207 Y103.386 E1.13367
G1 X115.599 Y103.316 E1.18235
G1 X117.808 Y103.264 E1.25951
G1 X118.047 Y103.241 E1.2679
G1 X118.249 Y103.222 E1.27498
G1 X118.488 Y103.174 E1.2835
G1 X118.584 Y103.139 E1.28707
G1 X118.565 Y103.199
G1 X118.528 Y103.312 E1.28748
G1 X118.466 Y103.505 E1.29314
G1 X113.956 Y117.351 E1.80169
G1 X96.043 Y117.352 E2.42727
G1 X91.842 Y104.444 E2.90133
G1 X91.808 Y104.34 E2.90515
G1 X91.773 Y104.232 E2.90912
G1 X91.734 Y104.113 E2.91349
G1 X91.719 Y104.069 E2.91512
G1 X91.783 Y104.096
G1 X91.986 Y104.163 E2.91854
G1 X92.205 Y104.211 E2.92414
G1 X92.314 Y104.222 E2.92756
G1 X92.451 Y104.237 E2.93237
G1 X93.07 Y104.271 E2.95402
G1 X93.315 Y104.274 E2.96258
G1 X93.547 Y104.26 E2.97069
G1 X93.797 Y104.219 E2.97954
G1 X94.204 Y104.13 E2.99409
G1 X94.606 Y104.01 E3.00874
G1 X94.983 Y103.862 E3.02289
G1 X95.252 Y103.731 E3.03334
G1 X95.477 Y103.6 E3.04243
G1 X95.587 Y103.511 E3.04737
G1 X95.759 Y103.373 E3.05507
G1 X95.943 Y103.177 E3.06446
G1 X95.984 Y103.288
G1 X96.061 Y103.494 E3.07036
G1 X96.83 Y105.549 E3.14698
G1 X97.285 Y106.789 E3.19311
G1 X97.175 Y106.922 E3.19914
G1 X96.261 Y107.862 E3.24493
G1 X95.741 Y108.423 E3.27164
G1 X95.535 Y108.711 E3.28401
G1 X95.381 Y109.083 E3.29807
G1 X95.284 Y109.553 E3.31483
M204 S3000
M205 X10 Y10
G0 F1800 X95.186 Y109.545
G0 X96.15 Y110.691
G0 X96.661 Y110.983
G0 X97.229 Y111.056
G0 X97.691 Y111.314
G0 X99.216 Y110.223
G0 X99.204 Y110.186
M204 S1000
M205 X8 Y8
G1 F1200 X99.192 Y110.187 E3.31525
G1 X99.203 Y110.176 E3.31534
G1 X99.244 Y110.186 E3.31677
G1 X99.204 Y110.186
M204 S3000
M205 X10 Y10
G0 F1800 X99.787 Y110.222
M204 S1000
M205 X8 Y8
G1 F1200 X99.769 Y110.218 E3.31741
G1 X99.786 Y110.216
G1 X99.787 Y110.222
M204 S3000
M205 X10 Y10
G0 F1800 X99.807 Y110.188
G0 X97.61 Y111.349
G0 X96.97 Y111.045
G0 X96.522 Y110.922
G0 X95.971 Y110.512
G0 X90.778 Y102.614
G0 X90.614 Y101.889
G0 X90.346 Y101.064
G0 X90.96 Y100.579
G0 X91.412 Y100.137
G0 X91.876 Y99.871
G0 X92.804 Y99.587
G0 X97.418 Y98.851
G0 X106.117 Y99.063
G0 X106.083 Y99.156
M204 S1000
M205 X8 Y8
G1 F1200 X105.424 Y98.924 E3.34181
G1 X104.875 Y98.86 E3.36111
G1 X104.617 Y98.869 E3.37013
G1 X104.254 Y98.905 E3.38287
G1 X103.676 Y98.983 E3.40324
G1 X103.029 Y99.082 E3.42609
G1 X102.61 Y99.099 E3.44074
G1 X101.77 Y99.097 E3.47007
G1 X101.309 Y99.07 E3.4862
G1 X101.045 Y99.042 E3.49547
G1 X100.304 Y98.928 E3.52165
G1 X99.333 Y98.741 E3.55619
G1 X98.218 Y98.515 E3.59592
G1 X97.79 Y98.452 E3.61103
G1 X97.421 Y98.429 E3.62394
G1 X97.122 Y98.444 E3.63439
G1 X96.747 Y98.538 E3.6479
G1 X96.456 Y98.672 E3.65908
G1 X96.189 Y98.839 E3.67008
G1 X95.868 Y99.117 E3.68491
G1 X95.535 Y99.56 E3.70427
G1 X95.459 Y99.732 E3.71083
G1 X95.439 Y99.776 E3.71252
G1 X95.429 Y99.798 E3.71337
G1 X95.38 Y99.76
G1 X95.349 Y99.736 E3.71398
G1 X94.991 Y99.525 E3.72512
G1 X94.604 Y99.358 E3.73984
G1 X94.202 Y99.239 E3.75448
G1 X93.786 Y99.163 E3.76925
G1 X93.367 Y99.135 E3.78392
G1 X93.063 Y99.14 E3.79453
G1 X93.037 Y99.14 E3.79544
G1 X92.734 Y99.171 E3.80608
G1 X92.272 Y99.277 E3.82263
G1 X91.698 Y99.489 E3.844
G1 X91.394 Y99.662 E3.85622
G1 X91.675 Y99.459 E3.85657
G1 X92.152 Y99.112 E3.86083
G1 X92.504 Y98.856 E3.86984
G1 X92.716 Y98.701 E3.87709
G1 X92.737 Y98.686 E3.87798
G1 X105 Y89.771 E4.40745
G1 X117.012 Y98.501 E4.92604
G1 X117.258 Y98.68 E4.93666
G1 X117.631 Y98.952 E4.95278
G1 X117.72 Y99.017 E4.95663
G1 X117.592 Y99.005 E4.95687
G1 X117.043 Y98.978 E4.96566
G1 X116.738 Y98.973 E4.97457
G1 X116.448 Y98.968 E4.9847
G1 X115.071 Y98.98 E5.03279
G1 X113.499 Y99.005 E5.08769
G1 X112.667 Y99.043 E5.11678
G1 X111.97 Y99.105 E5.14122
G1 X111.645 Y99.148 E5.15267
G1 X111.338 Y99.203 E5.16356
G1 X110.773 Y99.34 E5.18386
G1 X110.246 Y99.525 E5.20337
G1 X109.721 Y99.752 E5.22334
G1 X109.002 Y100.112 E5.25142
G1 X108.572 Y100.352 E5.26862
G1 X108.157 Y100.605 E5.2856
G1 X107.753 Y100.875 E5.30257
G1 X107.751 Y100.876 E5.30264
G1 X107.503 Y101.056 E5.31335
G1 X107.33 Y101.183 E5.32084
G1 X107.305 Y101.201 E5.32192
G1 X107.304 Y101.146
G1 X107.274 Y100.953 E5.32423
G1 X107.23 Y100.683 E5.33104
G1 X107.23 Y100.681 E5.33111
G1 X107.13 Y100.336 E5.34365
G1 X106.981 Y100.013 E5.35607
G1 X106.641 Y99.571 E5.37555
G1 X106.083 Y99.156 E5.39984
M204 S3000
M205 X10 Y10
G1 F2400 E-0.60016
G1 F300 Z0.225
G0 F1800 X106.271 Y98.629 Z0.225
G0 X104.615 Y104.354
M204 S1000
M205 X8 Y8
;TYPE:WALL-OUTER
G1 F300 Z0.15
G1 F2400 E5.39984
G1 F1200 X104.428 Y104.573 E5.40989
G1 X104.43 Y104.242 E5.41326
G1 X104.431 Y104.198
G1 X104.488 Y104.207
G1 X104.709 Y104.244 E5.41687
G1 X104.615 Y104.354 E5.41724
M204 S3000
M205 X10 Y10
G0 F1800 X104.428 Y104.573
G0 X104.428 Y104.56
G1 F2400 E-0.58276
G0 F1800 X104.468 Y104.449
G0 X104.428 Y104.195
G0 X101.683 Y102.993
G0 X101.566 Y102.938
G0 X101.672 Y102.976
M204 S1000
M205 X8 Y8
G1 F2400 E5.41724
G1 F1200 X101.614 Y103.029 E5.41998
G1 X101.526 Y103.11 E5.42416
G1 X101.345 Y103.278 E5.43279
G1 X100.987 Y103.609 E5.44981
G1 X100.85 Y103.747 E5.4566
G1 X100.636 Y103.963 E5.46722
G1 X100.521 Y104.079 E5.47293
G1 X100.411 Y104.19 E5.47839
G1 X100.365 Y104.237 E5.48068
G1 X100.323 Y104.285 E5.48291
G1 X100.247 Y104.37 E5.48689
G1 X100.183 Y104.441 E5.49023
G1 X100.158 Y104.468 E5.49151
G1 X99.929 Y104.758 E5.50442
G1 X99.823 Y104.917 E5.51109
G1 X99.792 Y104.795
G1 X99.736 Y104.579 E5.51639
G1 X99.651 Y104.248 E5.52529
G1 X99.643 Y104.22 E5.52631
G1 X99.631 Y104.176 E5.5279
G1 X99.611 Y104.099 E5.53068
G1 X99.828 Y104.124 E5.53461
G1 X99.979 Y104.132 E5.53826
G1 X100.139 Y104.122 E5.54181
G1 X100.3 Y104.08 E5.54461
G1 X100.451 Y104.01 E5.54613
G1 X100.588 Y103.915 E5.54705
G1 X100.82 Y103.718 E5.54809
G1 X100.964 Y103.586 E5.54855
G1 X101.324 Y103.257 E5.54951
G1 X101.303 Y103.03 E5.55177
G1 X101.302 Y103.012
G1 X101.293 Y102.926 E5.55212
G1 X101.289 Y102.891
G1 X101.285 Y102.851
G1 X101.375 Y102.862 E5.55306
G1 X101.47 Y102.875 E5.55411
G1 X101.684 Y102.889 E5.55807
G1 X101.684 Y102.976 E5.56018
G1 X101.684 Y102.994 E5.56025
G1 X101.672 Y102.976
M204 S3000
M205 X10 Y10
G0 F1800 X101.614 Y103.029
G0 X101.526 Y103.11
G0 X101.451 Y103.18
G1 F2400 E-0.43975
G0 F1800 X101.411 Y103.117
G0 X101.346 Y103.265
G0 X100.629 Y103.886
G0 X99.823 Y104.916
G0 X97.808 Y106.886
G0 X97.741 Y106.832
G0 X97.799 Y106.888
M204 S1000
M205 X8 Y8
G1 F2400 E5.56025
G1 F1200 X97.516 Y107.23 E5.57576
G1 X96.595 Y108.179 E5.62194
G1 X96.098 Y108.714 E5.64744
G1 X95.94 Y108.935 E5.65693
G1 X95.823 Y109.219 E5.66766
G1 X95.747 Y109.585 E5.68071
G1 X95.771 Y109.949 E5.69345
G1 X95.811 Y110.105 E5.69907
G1 X95.877 Y110.283 E5.7057
G1 X96.001 Y110.488 E5.71407
G1 X96.176 Y110.662 E5.72269
G1 X96.384 Y110.802 E5.73145
G1 X96.536 Y110.887 E5.73753
G1 X96.675 Y110.947 E5.74281
G1 X96.817 Y110.984 E5.74794
G1 X96.971 Y111.007 E5.75338
G1 X97.228 Y111.017 E5.76236
G1 X97.484 Y110.97 E5.77145
G1 X97.521 Y110.952 E5.77289
G1 X97.724 Y110.851 E5.7808
G1 X97.754 Y110.83 E5.78208
G1 X97.97 Y110.679 E5.79129
G1 X97.989 Y110.664 E5.79213
G1 X98.103 Y110.573 E5.79723
G1 X98.2 Y110.487 E5.80175
G1 X98.401 Y110.31 E5.81111
G1 X98.421 Y110.292 E5.81205
G1 X98.749 Y109.984 E5.82776
G1 X98.994 Y109.73 E5.84008
G1 X99.064 Y109.627 E5.84443
G1 X99.203 Y109.704 E5.84998
G1 X99.423 Y109.755 E5.85787
G1 X99.65 Y109.766 E5.86581
G1 X99.883 Y109.746 E5.87397
G1 X100.113 Y109.699 E5.88217
G1 X100.186 Y109.675 E5.88486
G1 X100.247 Y109.654 E5.88711
G1 X100.243 Y109.709
G1 X100.237 Y109.777
G1 X100.233 Y109.814
G1 X100.24 Y110.145 E5.89579
G1 X100.297 Y110.477 E5.90756
G1 X100.348 Y110.639 E5.91349
G1 X100.412 Y110.839 E5.92082
G1 X100.427 Y110.884 E5.92248
G1 X100.523 Y111.068 E5.92973
G1 X100.372 Y110.961 E5.93009
G1 X100.266 Y110.886 E5.93065
G1 X100.133 Y110.823 E5.93228
G1 X99.987 Y110.754 E5.93545
G1 X99.688 Y110.672 E5.94628
G1 X99.381 Y110.641 E5.95705
G1 X99.137 Y110.65 E5.96558
G1 X98.97 Y110.674 E5.97147
G1 X98.771 Y110.728 E5.97867
G1 X98.621 Y110.788 E5.98399
G1 X98.507 Y110.834 E5.98749
G1 X98.298 Y110.944 E5.99439
G1 X98.239 Y110.975 E5.99572
G1 X98.186 Y111.009 E5.99661
G1 X97.976 Y111.146 E6.00263
G1 X97.958 Y111.159
G1 X97.748 Y111.318 E6.00951
G1 X97.716 Y111.343 E6.01002
G1 X97.47 Y111.563 E6.02154
G1 X97.239 Y111.802 E6.03315
G1 X97.02 Y112.066 E6.04513
G1 X96.748 Y112.483 E6.06252
G1 X96.549 Y112.836 E6.07667
G1 X96.479 Y112.999 E6.08286
G1 X96.373 Y113.298 E6.09394
G1 X96.265 Y113.683 E6.10791
G1 X96.204 Y114.042 E6.12062
G1 X96.19 Y114.293 E6.1294
G1 X96.21 Y114.489 E6.13628
G1 X96.276 Y114.751 E6.14572
G1 X96.42 Y115.084 E6.15839
G1 X96.617 Y115.397 E6.17131
G1 X96.802 Y115.615 E6.18129
G1 X96.957 Y115.76 E6.1887
G1 X97.194 Y115.929 E6.19887
G1 X97.541 Y116.116 E6.21263
G1 X97.914 Y116.249 E6.22646
G1 X98.199 Y116.307 E6.23662
G1 X98.4 Y116.322 E6.24366
G1 X98.644 Y116.304 E6.2522
G1 X98.967 Y116.229 E6.26378
G1 X99.294 Y116.104 E6.27601
G1 X99.609 Y115.932 E6.28854
G1 X99.913 Y115.724 E6.30141
G1 X100.198 Y115.48 E6.31451
G1 X100.458 Y115.207 E6.32768
G1 X100.636 Y114.98 E6.33775
G1 X100.771 Y114.779 E6.34621
G1 X100.961 Y114.429 E6.36012
G1 X101.144 Y113.951 E6.37799
G1 X101.252 Y113.44 E6.39623
G1 X101.284 Y113.027 E6.4107
G1 X101.283 Y112.773 E6.41957
G1 X101.23 Y112.354 E6.43432
G1 X101.216 Y112.304 E6.43613
G1 X101.17 Y112.146 E6.44188
G1 X101.119 Y111.973 E6.44818
G1 X101.106 Y111.929 E6.44978
G1 X101.033 Y111.746 E6.45666
G1 X101.166 Y111.856 E6.45694
G1 X101.258 Y111.932 E6.45768
G1 X101.425 Y112.034 E6.46069
G1 X101.466 Y112.059
G1 X101.693 Y112.166 E6.46758
G1 X101.864 Y112.237 E6.47405
G1 X102.025 Y112.284 E6.4799
G1 X102.206 Y112.314 E6.48631
G1 X102.654 Y112.35 E6.50201
G1 X102.838 Y112.354 E6.50843
G1 X103.089 Y112.321 E6.51728
G1 X103.255 Y112.285 E6.52321
G1 X103.741 Y112.108 E6.54127
G1 X104.178 Y111.846 E6.55906
G1 X104.305 Y111.743 E6.56478
G1 X104.516 Y111.531 E6.57522
G1 X104.901 Y111.11 E6.59514
G1 X106.946 Y108.775 E6.70354
G1 X108.593 Y106.923 E6.7901
G1 X108.779 Y106.69 E6.80051
G1 X108.932 Y106.478 E6.80964
G1 X109.154 Y106.115 E6.8245
G1 X109.314 Y105.758 E6.83816
G1 X109.422 Y105.387 E6.85166
G1 X109.505 Y104.781 E6.87302
G1 X109.812 Y104.538 E6.88669
G1 X110.459 Y104.065 E6.91468
G1 X110.934 Y103.748 E6.93462
G1 X111.315 Y103.521 E6.95011
G1 X111.668 Y103.344 E6.9639
G1 X112.047 Y103.192 E6.97816
G1 X112.194 Y103.155 E6.98346
G1 X112.505 Y103.093 E6.99453
G1 X112.885 Y103.041 E7.00793
G1 X114.171 Y102.928 E7.05301
G1 X115.588 Y102.856 E7.10256
G1 X117.78 Y102.805 E7.17913
G1 X118.182 Y102.766 E7.19324
G1 X118.362 Y102.73 E7.19965
G1 X118.655 Y102.621 E7.21057
G1 X118.692 Y102.608 E7.21193
G1 X118.854 Y102.503 E7.21868
G1 X119.039 Y102.348 E7.22711
G1 X119.21 Y102.165 E7.23585
G1 X119.346 Y101.969 E7.24418
G1 X119.418 Y101.831 E7.24962
G1 X119.468 Y101.697 E7.25461
G1 X119.499 Y101.552 E7.25979
G1 X119.526 Y101.281 E7.2693
G1 X119.525 Y101.039 E7.27776
G1 X119.511 Y100.921 E7.28191
G1 X119.465 Y100.723 E7.289
G1 X119.389 Y100.509 E7.29693
G1 X119.363 Y100.452 E7.29912
G1 X119.292 Y100.301 E7.30495
G1 X119.27 Y100.262 E7.30651
G1 X119.174 Y100.096 E7.31321
G1 X119.01 Y99.894 E7.3223
G1 X118.777 Y99.737 E7.33211
G1 X118.49 Y99.628 E7.34283
G1 X118.342 Y99.588 E7.34819
G1 X118.116 Y99.527 E7.35636
G1 X117.967 Y99.502 E7.36164
G1 X117.559 Y99.464 E7.37595
G1 X117.028 Y99.438 E7.39451
G1 X116.446 Y99.428 E7.41484
G1 X115.077 Y99.44 E7.46265
G1 X113.513 Y99.465 E7.51728
G1 X112.698 Y99.502 E7.54577
G1 X112.021 Y99.562 E7.56951
G1 X111.716 Y99.603 E7.58025
G1 X111.433 Y99.653 E7.59029
G1 X110.904 Y99.782 E7.60931
G1 X110.413 Y99.954 E7.62748
G1 X109.915 Y100.169 E7.64642
G1 X109.217 Y100.519 E7.67369
G1 X108.804 Y100.749 E7.6902
G1 X108.405 Y100.993 E7.70653
G1 X108.013 Y101.254 E7.72298
G1 X107.62 Y101.538 E7.73991
G1 X107.302 Y101.788 E7.75404
G1 X107.222 Y101.851 E7.75759
G1 X107.144 Y101.918 E7.76118
G1 X106.995 Y102.045 E7.76802
G1 X106.908 Y102.119 E7.77201
G1 X106.757 Y102.247 E7.77892
G1 X106.493 Y102.471 E7.79101
G1 X106.69 Y102.169 E7.7925
G1 X106.785 Y101.975 E7.7948
G1 X106.827 Y101.849 E7.79658
G1 X106.83 Y101.813
G1 X106.854 Y101.58 E7.80233
G1 X106.852 Y101.478 E7.80589
G1 X106.845 Y101.188 E7.81602
G1 X106.78 Y100.783 E7.83035
G1 X106.698 Y100.497 E7.84074
G1 X106.585 Y100.253 E7.85013
G1 X106.315 Y99.902 E7.86559
G1 X105.864 Y99.567 E7.88521
G1 X105.32 Y99.375 E7.90536
G1 X104.856 Y99.321 E7.92167
G1 X104.648 Y99.328 E7.92894
G1 X104.307 Y99.362 E7.94091
G1 X103.742 Y99.438 E7.96082
G1 X103.073 Y99.541 E7.98446
G1 X102.628 Y99.559 E8.00001
G1 X101.76 Y99.557 E8.03032
G1 X101.277 Y99.529 E8.04722
G1 X100.975 Y99.497 E8.05783
G1 X100.227 Y99.382 E8.08426
G1 X99.246 Y99.193 E8.11915
G1 X98.139 Y98.968 E8.1586
G1 X97.742 Y98.91 E8.17261
G1 X97.418 Y98.89 E8.18394
