;FLAVOR:Marlin
;TIME:8073
;Filament used: 11.6386m
;Layer height: 0.3
;MINX:162.448
;MINY:37.505
;MINZ:0.3
;MAXX:213.768
;MAXY:143.805
;MAXZ:80.1
;Generated with Cura_SteamEngine 4.10.0
M104 S228
M105
M109 S228
M82 ;absolute extrusion mode
G28 ; home all axes
 M117 Purge extruder
 G92 E0 ; reset extruder
 G1 Z1.0 F3000 ; move z up little to prevent scratching of surface
 G1 X2 Y20 Z0.3 F5000.0 ; move to start-line position
 G1 X2 Y200.0 Z0.3 F1500.0 E15 ; draw 1st line
 G1 X2 Y200.0 Z0.4 F5000.0 ; move to side a little
 G1 X2 Y20 Z0.4 F1500.0 E30 ; draw 2nd line
 G92 E0 ; reset extruder
 G1 Z1.0 F3000 ; move z up little to prevent scratching of surface
G92 E0
G92 E0
G1 F2400 E-2
;LAYER_COUNT:267
;LAYER:0
M107
G0 F6000 X163.961 Y54.531 Z0.3
;TYPE:SKIRT
G1 F2400 E0
G1 F1200 X164.077 Y54.202 E0.01819
G1 X164.195 Y53.884 E0.03587
G1 X164.461 Y53.234 E0.07249
G1 X164.931 Y52.185 E0.13242
G1 X165.084 Y51.859 E0.15119
G1 X165.221 Y51.579 E0.16744
G1 X165.54 Y50.976 E0.20301
G1 X166.105 Y49.987 E0.26239
G1 X166.297 Y49.664 E0.28198
G1 X166.492 Y49.349 E0.30129
G1 X166.868 Y48.783 E0.33672
G1 X167.493 Y47.904 E0.39295
G1 X167.704 Y47.617 E0.41152
G1 X167.932 Y47.318 E0.43113
G1 X168.354 Y46.8 E0.46596
G1 X169.076 Y45.967 E0.52343
G1 X169.323 Y45.692 E0.5427
G1 X169.692 Y45.295 E0.57096
G1 X170.131 Y44.849 E0.60359
G1 X170.385 Y44.606 E0.62191
G1 X170.597 Y44.408 E0.63704
G1 X171.008 Y44.037 E0.6659
G1 X171.408 Y43.684 E0.69372
G1 X171.934 Y43.25 E0.72927
G1 X172.817 Y42.566 E0.7875
G1 X173.127 Y42.334 E0.80769
G1 X173.393 Y42.143 E0.82476
G1 X173.939 Y41.776 E0.85906
G1 X174.908 Y41.167 E0.91873
G1 X175.234 Y40.97 E0.93859
G1 X175.529 Y40.799 E0.95636
G1 X176.119 Y40.482 E0.99128
G1 X177.122 Y39.982 E1.04971
G1 X177.467 Y39.817 E1.06965
G1 X177.808 Y39.662 E1.08918
G1 X178.42 Y39.407 E1.12374
G1 X179.419 Y39.026 E1.17948
G1 X179.756 Y38.904 E1.19817
G1 X180.12 Y38.779 E1.21823
G1 X180.784 Y38.575 E1.25445
G1 X181.865 Y38.281 E1.31286
G1 X182.206 Y38.194 E1.3312
G1 X182.548 Y38.113 E1.34953
G1 X183.224 Y37.976 E1.38549
G1 X184.31 Y37.792 E1.44291
G1 X184.653 Y37.739 E1.46101
G1 X185.035 Y37.687 E1.48111
G1 X185.728 Y37.616 E1.51742
G1 X186.813 Y37.54 E1.57413
G1 X187.179 Y37.521 E1.59324
G1 X187.544 Y37.508 E1.61228
G1 X188.224 Y37.505 E1.64773
G1 X189.321 Y37.536 E1.70495
G1 X189.704 Y37.554 E1.72494
G1 X190.077 Y37.578 E1.74442
G1 X190.733 Y37.641 E1.77878
G1 X191.83 Y37.78 E1.83643
G1 X192.186 Y37.831 E1.85518
G1 X192.546 Y37.889 E1.87419
G1 X193.233 Y38.023 E1.91068
G1 X194.345 Y38.278 E1.97016
G1 X194.719 Y38.371 E1.99025
G1 X195.029 Y38.454 E2.00699
G1 X195.651 Y38.641 E2.04085
G1 X196.734 Y39.003 E2.10038
G1 X197.073 Y39.122 E2.11911
G1 X197.382 Y39.237 E2.1363
G1 X198.026 Y39.501 E2.17259
G1 X199.065 Y39.967 E2.23196
G1 X199.366 Y40.108 E2.24928
G1 X199.66 Y40.251 E2.26633
G1 X200.287 Y40.582 E2.30329
G1 X201.279 Y41.149 E2.36286
G1 X201.572 Y41.323 E2.38063
G1 X201.855 Y41.497 E2.39795
G1 X202.447 Y41.888 E2.43494
G1 X203.366 Y42.541 E2.49371
G1 X203.662 Y42.76 E2.51291
G1 X203.933 Y42.967 E2.53069
G1 X204.456 Y43.393 E2.56586
G1 X205.313 Y44.138 E2.62506
G1 X205.607 Y44.403 E2.64569
G1 X205.86 Y44.64 E2.66377
G1 X206.316 Y45.094 E2.69732
G1 X207.088 Y45.91 E2.75588
G1 X207.363 Y46.212 E2.77717
G1 X207.589 Y46.47 E2.79506
G1 X207.999 Y46.968 E2.82869
G1 X208.692 Y47.863 E2.8877
G1 X208.937 Y48.193 E2.90913
G1 X209.142 Y48.48 E2.92752
G1 X209.491 Y49 E2.96017
G1 X210.071 Y49.922 E3.01695
G1 X210.267 Y50.245 E3.03665
G1 X210.447 Y50.555 E3.05534
G1 X210.768 Y51.152 E3.09068
G1 X211.277 Y52.173 E3.15016
G1 X211.436 Y52.507 E3.16944
G1 X211.586 Y52.836 E3.18829
G1 X211.845 Y53.455 E3.22328
G1 X212.225 Y54.45 E3.27881
G1 X212.355 Y54.809 E3.29871
G1 X212.483 Y55.184 E3.31937
G1 X212.679 Y55.821 E3.35412
G1 X212.97 Y56.887 E3.41173
G1 X213.058 Y57.232 E3.43029
G1 X213.138 Y57.569 E3.44835
G1 X213.277 Y58.256 E3.48489
G1 X213.465 Y59.369 E3.54374
G1 X213.518 Y59.713 E3.56188
G1 X213.565 Y60.06 E3.58014
G1 X213.635 Y60.744 E3.61599
G1 X213.713 Y61.855 E3.67405
G1 X213.732 Y62.228 E3.69352
G1 X213.758 Y62.968 E3.73213
G1 X213.765 Y63.245 E3.74657
G1 X213.768 Y63.573 E3.76368
G1 X213.767 Y132.556 E7.36012
G1 X213.757 Y133.283 E7.39803
G1 X213.704 Y134.204 E7.44612
G1 X213.572 Y135.118 E7.49427
G1 X213.361 Y136.017 E7.54241
G1 X213.074 Y136.894 E7.59052
G1 X212.711 Y137.743 E7.63866
G1 X212.276 Y138.558 E7.68682
G1 X211.773 Y139.332 E7.73495
G1 X211.204 Y140.059 E7.78308
G1 X210.575 Y140.734 E7.83118
G1 X209.889 Y141.353 E7.87936
G1 X209.153 Y141.91 E7.92748
G1 X208.371 Y142.401 E7.97562
G1 X207.549 Y142.822 E8.02377
G1 X206.694 Y143.171 E8.07191
G1 X205.813 Y143.445 E8.12001
G1 X204.911 Y143.641 E8.16814
G1 X203.995 Y143.758 E8.21628
G1 X203.398 Y143.792 E8.24746
G1 X203.078 Y143.801 E8.26415
G1 X202.778 Y143.805 E8.27979
G1 X173.678 Y143.804 E9.79692
G1 X172.98 Y143.795 E9.83332
G1 X172.058 Y143.743 E9.88146
G1 X171.144 Y143.612 E9.9296
G1 X170.245 Y143.402 E9.97773
G1 X169.367 Y143.115 E10.02589
G1 X168.518 Y142.753 E10.07401
G1 X167.703 Y142.319 E10.12215
G1 X166.929 Y141.816 E10.17027
G1 X166.201 Y141.248 E10.21841
G1 X165.525 Y140.619 E10.26655
G1 X164.906 Y139.934 E10.31469
G1 X164.349 Y139.198 E10.36281
G1 X163.857 Y138.417 E10.41093
G1 X163.435 Y137.596 E10.45906
G1 X163.085 Y136.741 E10.50722
G1 X162.811 Y135.86 E10.55533
G1 X162.614 Y134.958 E10.60346
G1 X162.496 Y134.042 E10.65161
G1 X162.46 Y133.405 E10.68487
G1 X162.451 Y133.048 E10.70349
G1 X162.448 Y132.779 E10.71752
G1 X162.45 Y63.674 E14.32032
G1 X162.463 Y62.754 E14.36829
G1 X162.473 Y62.425 E14.38545
G1 X162.511 Y61.616 E14.42768
G1 X162.536 Y61.218 E14.44847
G1 X162.6 Y60.542 E14.48387
G1 X162.745 Y59.401 E14.54383
G1 X162.795 Y59.056 E14.56201
G1 X162.851 Y58.707 E14.58044
G1 X162.987 Y58.007 E14.61761
G1 X163.236 Y56.924 E14.67555
G1 X163.327 Y56.557 E14.69526
G1 X163.418 Y56.217 E14.71361
G1 X163.606 Y55.593 E14.74759
G1 X163.961 Y54.531 E14.80597
G0 F6000 X164.378 Y54.671
G1 F1200 X164.489 Y54.356 E14.82338
G1 X164.607 Y54.038 E14.84106
G1 X164.862 Y53.414 E14.87621
G1 X165.332 Y52.365 E14.93614
G1 X165.479 Y52.052 E14.95417
G1 X165.616 Y51.772 E14.97042
G1 X165.922 Y51.194 E15.00451
G1 X166.487 Y50.205 E15.0639
G1 X166.671 Y49.896 E15.08265
G1 X166.866 Y49.581 E15.10196
G1 X167.227 Y49.038 E15.13596
G1 X167.852 Y48.159 E15.19219
G1 X168.054 Y47.884 E15.20998
G1 X168.282 Y47.585 E15.22958
G1 X168.686 Y47.088 E15.26297
G1 X169.408 Y46.255 E15.32044
G1 X169.645 Y45.991 E15.33894
G1 X170.014 Y45.594 E15.3672
G1 X170.435 Y45.167 E15.39846
G1 X170.689 Y44.924 E15.41679
G1 X170.893 Y44.735 E15.43128
G1 X171.3 Y44.367 E15.45989
G1 X171.7 Y44.014 E15.4877
G1 X172.203 Y43.598 E15.52173
G1 X173.086 Y42.914 E15.57997
G1 X173.384 Y42.691 E15.59937
G1 X173.65 Y42.5 E15.61644
G1 X174.173 Y42.149 E15.64928
G1 X175.142 Y41.54 E15.70895
G1 X175.455 Y41.351 E15.72801
G1 X175.75 Y41.18 E15.74579
G1 X176.315 Y40.875 E15.77926
G1 X177.318 Y40.375 E15.83769
G1 X177.649 Y40.218 E15.85679
G1 X177.99 Y40.063 E15.87632
G1 X178.577 Y39.818 E15.90948
G1 X179.576 Y39.437 E15.96523
G1 X179.899 Y39.32 E15.98314
G1 X180.263 Y39.195 E16.0032
G1 X180.9 Y38.999 E16.03795
G1 X181.981 Y38.705 E16.09635
G1 X182.308 Y38.622 E16.11394
G1 X182.65 Y38.541 E16.13227
G1 X183.298 Y38.41 E16.16673
G1 X184.384 Y38.226 E16.22416
G1 X184.713 Y38.175 E16.24152
G1 X185.095 Y38.123 E16.26161
G1 X185.759 Y38.055 E16.29641
G1 X186.844 Y37.979 E16.35312
G1 X187.194 Y37.96 E16.37139
G1 X187.559 Y37.947 E16.39043
G1 X188.212 Y37.945 E16.42448
G1 X189.309 Y37.976 E16.48169
G1 X189.676 Y37.993 E16.50085
G1 X190.049 Y38.017 E16.52034
G1 X190.678 Y38.077 E16.55328
G1 X191.775 Y38.216 E16.61093
G1 X192.116 Y38.265 E16.62889
G1 X192.476 Y38.323 E16.6479
G1 X193.134 Y38.452 E16.68286
G1 X194.246 Y38.707 E16.74234
G1 X194.605 Y38.796 E16.76162
G1 X194.915 Y38.879 E16.77835
G1 X195.512 Y39.058 E16.81084
G1 X196.595 Y39.42 E16.87038
G1 X196.92 Y39.535 E16.88835
G1 X197.229 Y39.65 E16.90554
G1 X197.846 Y39.903 E16.94031
G1 X198.885 Y40.369 E16.99967
G1 X199.173 Y40.503 E17.01623
G1 X199.467 Y40.646 E17.03328
G1 X200.069 Y40.964 E17.06877
G1 X201.061 Y41.531 E17.12834
G1 X201.342 Y41.698 E17.14539
G1 X201.625 Y41.872 E17.16271
G1 X202.192 Y42.247 E17.19815
G1 X203.111 Y42.9 E17.25692
G1 X203.395 Y43.109 E17.27531
G1 X203.666 Y43.316 E17.29309
G1 X204.167 Y43.725 E17.3268
G1 X205.024 Y44.47 E17.38601
G1 X205.306 Y44.724 E17.40579
G1 X205.559 Y44.961 E17.42387
G1 X205.996 Y45.396 E17.45601
G1 X206.768 Y46.212 E17.51458
G1 X207.032 Y46.502 E17.53502
G1 X207.258 Y46.76 E17.5529
G1 X207.651 Y47.237 E17.58513
G1 X208.344 Y48.132 E17.64414
G1 X208.579 Y48.449 E17.66471
G1 X208.784 Y48.736 E17.6831
G1 X209.119 Y49.234 E17.71439
G1 X209.699 Y50.156 E17.77118
G1 X209.886 Y50.466 E17.79006
G1 X210.066 Y50.776 E17.80874
G1 X210.374 Y51.348 E17.84261
G1 X210.883 Y52.369 E17.90209
G1 X211.036 Y52.689 E17.92058
G1 X211.186 Y53.018 E17.93944
G1 X211.434 Y53.612 E17.97299
G1 X211.814 Y54.607 E18.02852
G1 X211.939 Y54.952 E18.04765
G1 X212.067 Y55.327 E18.06831
G1 X212.254 Y55.937 E18.10158
G1 X212.545 Y57.003 E18.15919
G1 X212.63 Y57.333 E18.17695
G1 X212.71 Y57.67 E18.19501
G1 X212.843 Y58.329 E18.23006
G1 X213.031 Y59.442 E18.28891
G1 X213.082 Y59.772 E18.30632
G1 X213.129 Y60.119 E18.32457
G1 X213.196 Y60.775 E18.35895
G1 X213.274 Y61.886 E18.41702
G1 X213.293 Y62.243 E18.43566
G1 X213.319 Y62.983 E18.47426
G1 X213.325 Y63.249 E18.48813
G1 X213.328 Y63.577 E18.50523
G1 X213.327 Y132.55 E22.10116
G1 X213.317 Y133.277 E22.13906
G1 X213.265 Y134.179 E22.18617
G1 X213.133 Y135.073 E22.23328
G1 X212.922 Y135.952 E22.28041
G1 X212.635 Y136.81 E22.32758
G1 X212.273 Y137.638 E22.37469
G1 X211.839 Y138.431 E22.42182
G1 X211.337 Y139.183 E22.46896
G1 X210.771 Y139.887 E22.51605
G1 X210.144 Y140.539 E22.56321
G1 X209.462 Y141.133 E22.61037
G1 X208.731 Y141.664 E22.65747
G1 X207.955 Y142.128 E22.70461
G1 X207.142 Y142.522 E22.75171
G1 X206.296 Y142.843 E22.79888
G1 X205.426 Y143.087 E22.84599
G1 X204.538 Y143.254 E22.8931
G1 X203.385 Y143.352 E22.95343
G1 X203.065 Y143.361 E22.97012
G1 X202.778 Y143.365 E22.98508
G1 X173.683 Y143.364 E24.50196
G1 X172.985 Y143.355 E24.53835
G1 X172.083 Y143.304 E24.58545
G1 X171.188 Y143.172 E24.63262
G1 X170.309 Y142.963 E24.67972
G1 X169.452 Y142.676 E24.72684
G1 X168.623 Y142.315 E24.77398
G1 X167.829 Y141.882 E24.82113
G1 X167.077 Y141.38 E24.86827
G1 X166.372 Y140.814 E24.91541
G1 X165.72 Y140.188 E24.96253
G1 X165.126 Y139.507 E25.00964
G1 X164.594 Y138.776 E25.05678
G1 X164.129 Y138.001 E25.1039
G1 X163.734 Y137.188 E25.15102
G1 X163.413 Y136.343 E25.19815
G1 X163.168 Y135.473 E25.24527
G1 X163 Y134.584 E25.29244
G1 X162.9 Y133.394 E25.3547
G1 X162.891 Y133.037 E25.37332
G1 X162.888 Y132.779 E25.38677
G1 X162.89 Y63.681 E28.98921
G1 X162.903 Y62.761 E29.03718
G1 X162.912 Y62.445 E29.05366
G1 X162.94 Y61.824 E29.08607
G1 X162.975 Y61.245 E29.11631
G1 X163.037 Y60.598 E29.1502
G1 X163.182 Y59.457 E29.21016
G1 X163.229 Y59.126 E29.22759
G1 X163.285 Y58.777 E29.24602
G1 X163.416 Y58.106 E29.28166
G1 X163.665 Y57.023 E29.3396
G1 X163.752 Y56.671 E29.3585
G1 X163.843 Y56.331 E29.37685
G1 X164.023 Y55.733 E29.40941
G1 X164.378 Y54.671 E29.46779
G1 F2400 E27.46779
;MESH:SonosWallMount_Mount.stl
G0 F6000 X186.281 Y63.594
G0 X184.557 Y64.02
;TYPE:WALL-INNER
G1 F2400 E29.46779
G1 F1200 X184.868 Y64.845 E29.51376
G1 X185.369 Y65.571 E29.55974
G1 X186.03 Y66.156 E29.60576
G1 X186.812 Y66.564 E29.65175
G1 X186.863 Y66.576 E29.65448
G1 X187.666 Y66.776 E29.69762
G1 X188.55 Y66.776 E29.74371
G1 X189.404 Y66.564 E29.78959
G1 X190.186 Y66.156 E29.83557
G1 X190.847 Y65.571 E29.88159
G1 X191.348 Y64.845 E29.92758
G1 X191.659 Y64.02 E29.97354
G1 X191.766 Y63.145 E30.0195
G1 X191.659 Y62.27 E30.06546
G1 X191.348 Y61.445 E30.11143
G1 X190.847 Y60.719 E30.15741
G1 X190.186 Y60.134 E30.20343
G1 X189.404 Y59.726 E30.24942
G1 X189.353 Y59.714 E30.25215
G1 X188.55 Y59.514 E30.29529
G1 X187.666 Y59.514 E30.34138
G1 X186.812 Y59.726 E30.38726
G1 X186.03 Y60.134 E30.43324
G1 X185.369 Y60.719 E30.47926
G1 X184.868 Y61.445 E30.52525
G1 X184.557 Y62.27 E30.57122
G1 X184.45 Y63.145 E30.61717
G1 X184.557 Y64.02 E30.66313
G0 F6000 X184.987 Y63.914
G1 F1200 X185.261 Y64.639 E30.70354
G1 X185.701 Y65.277 E30.74394
G1 X186.281 Y65.791 E30.78435
G1 X186.969 Y66.15 E30.82481
G1 X187.72 Y66.336 E30.86514
G1 X188.496 Y66.336 E30.9056
G1 X189.247 Y66.15 E30.94594
G1 X189.935 Y65.791 E30.9864
G1 X190.515 Y65.277 E31.0268
G1 X190.955 Y64.639 E31.0672
G1 X191.229 Y63.914 E31.10761
G1 X191.323 Y63.145 E31.148
G1 X191.229 Y62.376 E31.18839
G1 X190.955 Y61.651 E31.2288
G1 X190.515 Y61.013 E31.26921
G1 X189.935 Y60.499 E31.30961
G1 X189.247 Y60.14 E31.35007
G1 X188.496 Y59.954 E31.3904
G1 X187.72 Y59.954 E31.43086
G1 X186.969 Y60.14 E31.4712
G1 X186.281 Y60.499 E31.51166
G1 X185.701 Y61.013 E31.55206
G1 X185.261 Y61.651 E31.59247
G1 X184.987 Y62.376 E31.63287
G1 X184.893 Y63.145 E31.67326
G1 X184.987 Y63.914 E31.71365
G0 F6000 X185.417 Y63.808
;TYPE:WALL-OUTER
G1 F1200 X185.654 Y64.433 E31.7485
G1 X186.033 Y64.983 E31.78333
G1 X186.533 Y65.426 E31.81815
G1 X187.126 Y65.736 E31.85304
G1 X187.774 Y65.896 E31.88784
G1 X188.442 Y65.896 E31.92266
G1 X189.09 Y65.736 E31.95746
G1 X189.683 Y65.426 E31.99235
G1 X190.183 Y64.983 E32.02718
G1 X190.562 Y64.433 E32.062
G1 X190.799 Y63.808 E32.09685
G1 X190.88 Y63.145 E32.13167
G1 X190.799 Y62.482 E32.16649
G1 X190.562 Y61.857 E32.20134
G1 X190.183 Y61.307 E32.23616
G1 X189.683 Y60.864 E32.27099
G1 X189.09 Y60.554 E32.30588
G1 X188.442 Y60.394 E32.34068
G1 X187.774 Y60.394 E32.3755
G1 X187.126 Y60.554 E32.4103
G1 X186.533 Y60.864 E32.44519
G1 X186.033 Y61.307 E32.48001
G1 X185.654 Y61.857 E32.51484
G1 X185.417 Y62.482 E32.54969
G1 X185.336 Y63.145 E32.58451
G1 X185.417 Y63.808 E32.61933
G0 F6000 X184.948 Y63.923
G1 F2400 E30.61933
G0 F6000 X186.281 Y63.594
G0 X188.023 Y47.485
G0 X188.11 Y49.246
;TYPE:WALL-INNER
G1 F2400 E32.61933
G1 F1200 X189.464 Y49.312 E32.69001
G1 X190.819 Y49.513 E32.76142
G1 X192.149 Y49.846 E32.8329
G1 X193.415 Y50.299 E32.903
G1 X194.654 Y50.886 E32.97448
G1 X195.845 Y51.598 E33.04682
G1 X196.925 Y52.401 E33.11699
G1 X197.938 Y53.317 E33.18819
G1 X198.843 Y54.316 E33.25847
G1 X199.675 Y55.439 E33.33133
G1 X200.361 Y56.584 E33.40092
G1 X200.954 Y57.839 E33.47329
G1 X201.406 Y59.103 E33.54327
G1 X201.74 Y60.432 E33.61472
G1 X201.941 Y61.789 E33.68624
G1 X202.008 Y63.156 E33.75759
G1 X202.008 Y132.045 E37.34914
G1 X174.427 Y132.045 E38.78708
G1 X174.208 Y132.045 E38.7985
G1 X174.208 Y131.826 E38.80589
G1 X174.209 Y63.13 E42.38737
G1 X174.274 Y61.789 E42.45737
G1 X174.474 Y60.438 E42.52857
G1 X174.809 Y59.104 E42.60028
G1 X175.261 Y57.84 E42.67026
G1 X175.854 Y56.585 E42.74263
G1 X176.55 Y55.426 E42.81311
G1 X177.363 Y54.329 E42.8843
G1 X178.277 Y53.318 E42.95535
G1 X179.29 Y52.402 E43.02656
G1 X180.37 Y51.599 E43.09672
G1 X181.561 Y50.887 E43.16906
G1 X182.8 Y50.3 E43.24054
G1 X184.066 Y49.847 E43.31064
G1 X185.396 Y49.514 E43.38212
G1 X186.751 Y49.313 E43.45354
G1 X188.11 Y49.246 E43.52448
G0 F6000 X188.109 Y48.806
G1 F1200 X189.51 Y48.874 E43.59761
G1 X190.909 Y49.082 E43.67134
G1 X192.272 Y49.423 E43.74459
G1 X193.588 Y49.894 E43.81747
G1 X194.864 Y50.498 E43.89107
G1 X196.083 Y51.227 E43.96512
G1 X197.205 Y52.061 E44.038
G1 X198.232 Y52.991 E44.11024
G1 X198.249 Y53.006 E44.11142
G1 X199.188 Y54.042 E44.18432
G1 X200.036 Y55.187 E44.2586
G1 X200.051 Y55.213 E44.26016
G1 X200.737 Y56.358 E44.32975
G1 X200.752 Y56.382 E44.33123
G1 X201.359 Y57.666 E44.40527
G1 X201.829 Y58.98 E44.47803
G1 X202.171 Y60.342 E44.55124
G1 X202.174 Y60.367 E44.55256
G1 X202.379 Y61.743 E44.62509
G1 X202.446 Y63.134 E44.69769
G1 X202.448 Y63.156 E44.69884
G1 X202.448 Y132.485 E48.31333
G1 X173.987 Y132.485 E49.79715
G1 X173.768 Y132.485 E49.80857
G1 X173.768 Y132.266 E49.81596
G1 X173.769 Y63.13 E53.42038
G1 X173.836 Y61.744 E53.49272
G1 X174.043 Y60.347 E53.56635
G1 X174.386 Y58.981 E53.63978
G1 X174.856 Y57.667 E53.71254
G1 X175.463 Y56.383 E53.78658
G1 X176.184 Y55.181 E53.85966
