;FLAVOR:Marlin
;TIME:7915
;Filament used: 27.0569m
;Layer height: 0.5
;MINX:86.508
;MINY:91.432
;MINZ:0.5
;MAXX:223.406
;MAXY:228.33
;MAXZ:21
;Generated with Cura_SteamEngine 5.4.0
M140 S95
M105
M190 S95
M104 S245
M105
M109 S245
M82 ;absolute extrusion mode
G28 ; home all axes
 M117 Purge extruder
 G92 E0 ; reset extruder
 G1 Z1.0 F3000 ; move z up little to prevent scratching of surface
 G1 X2 Y20 Z0.3 F5000.0 ; move to start-line position
 G1 X2 Y200.0 Z0.3 F1500.0 E15 ; draw 1st line
 G1 X2 Y200.0 Z0.4 F5000.0 ; move to side a little
 G1 X2 Y20 Z0.4 F1500.0 E30 ; draw 2nd line
 G92 E0 ; reset extruder
 G1 Z1.0 F3000 ; move z up little to prevent scratching of surface
G92 E0
G92 E0
G1 F1500 E-2
;LAYER_COUNT:42
;LAYER:0
M107
G0 F6000 X101.447 Y105.642 Z0.5
;TYPE:SKIRT
G1 F1500 E0
G1 F1200 X102.382 Y104.765 E0.18654
G1 X102.728 Y104.455 E0.25414
G1 X103.679 Y103.64 E0.43639
G1 X104.336 Y103.102 E0.55995
G1 X104.678 Y102.836 E0.623
G1 X106.021 Y101.841 E0.86621
G1 X106.857 Y101.265 E1.01394
G1 X107.924 Y100.577 E1.19868
G1 X109.41 Y99.683 E1.45103
G1 X110.089 Y99.303 E1.56425
G1 X111.514 Y98.558 E1.79824
G1 X112.314 Y98.171 E1.92755
G1 X113.553 Y97.601 E2.12601
G1 X114.4 Y97.241 E2.25993
G1 X115.557 Y96.773 E2.44154
G1 X116.378 Y96.466 E2.56908
G1 X118.127 Y95.852 E2.83881
G1 X119.852 Y95.307 E3.10205
G1 X122.023 Y94.7 E3.43008
G1 X123.5 Y94.331 E3.6516
G1 X125.45 Y93.892 E3.94246
G1 X127.385 Y93.508 E4.22952
G1 X129.451 Y93.148 E4.53468
G1 X131.65 Y92.814 E4.85833
G1 X133.583 Y92.559 E5.14204
G1 X136.101 Y92.275 E5.51077
G1 X137.461 Y92.143 E5.7096
G1 X140.139 Y91.923 E6.10059
G1 X140.939 Y91.867 E6.21729
G1 X143.662 Y91.705 E6.61422
G1 X146.391 Y91.585 E7.01171
G1 X149.269 Y91.497 E7.43069
G1 X152.231 Y91.447 E7.86176
G1 X155.272 Y91.432 E8.30427
G1 X157.991 Y91.449 E8.69993
G1 X160.424 Y91.493 E9.05402
G1 X163.873 Y91.597 E9.55613
G1 X166.446 Y91.715 E9.93092
G1 X168.158 Y91.813 E10.18045
G1 X170.586 Y91.985 E10.53464
G1 X172.695 Y92.167 E10.84267
G1 X174.992 Y92.402 E11.17866
G1 X176.085 Y92.528 E11.33876
G1 X177.906 Y92.762 E11.60591
G1 X179.814 Y93.042 E11.88653
G1 X181.896 Y93.392 E12.19374
G1 X183.751 Y93.744 E12.46848
G1 X185.326 Y94.077 E12.70273
G1 X186.795 Y94.422 E12.9223
G1 X187.85 Y94.688 E13.08063
G1 X189.86 Y95.251 E13.38436
G1 X191.477 Y95.749 E13.63056
G1 X192.722 Y96.173 E13.82195
G1 X194.09 Y96.671 E14.03379
G1 X194.839 Y96.967 E14.15098
G1 X196.178 Y97.523 E14.36195
G1 X196.887 Y97.841 E14.47502
G1 X197.992 Y98.358 E14.65254
G1 X198.36 Y98.54 E14.71228
G1 X199.674 Y99.221 E14.92764
G1 X200.065 Y99.434 E14.99243
G1 X201.267 Y100.124 E15.19411
G1 X201.677 Y100.372 E15.26383
G1 X202.852 Y101.121 E15.46659
G1 X203.237 Y101.379 E15.53403
G1 X204.212 Y102.071 E15.70801
G1 X205.175 Y102.801 E15.88385
G1 X206.424 Y103.799 E16.11649
G1 X206.926 Y104.227 E16.21248
G1 X207.862 Y105.078 E16.39656
G1 X208.808 Y105.976 E16.58636
G1 X209.291 Y106.471 E16.687
G1 X210.072 Y107.306 E16.85336
G1 X210.367 Y107.636 E16.91777
G1 X211.38 Y108.821 E17.14462
G1 X211.99 Y109.586 E17.287
G1 X212.812 Y110.689 E17.48717
G1 X213.573 Y111.782 E17.68097
G1 X214.261 Y112.849 E17.86571
G1 X215.155 Y114.335 E18.11805
G1 X215.535 Y115.014 E18.23128
G1 X216.28 Y116.439 E18.46526
G1 X216.667 Y117.239 E18.59458
G1 X217.237 Y118.478 E18.79303
G1 X217.597 Y119.325 E18.92695
G1 X218.065 Y120.482 E19.10856
G1 X218.372 Y121.303 E19.23611
G1 X218.986 Y123.052 E19.50584
G1 X219.576 Y124.924 E19.79145
G1 X219.981 Y126.357 E20.00814
G1 X220.507 Y128.421 E20.31807
G1 X220.883 Y130.079 E20.56546
G1 X221.336 Y132.343 E20.90143
G1 X221.65 Y134.131 E21.16559
G1 X222.014 Y136.5 E21.51436
G1 X222.279 Y138.504 E21.8085
G1 X222.563 Y141.025 E22.17766
G1 X222.695 Y142.385 E22.37649
G1 X222.915 Y145.064 E22.76763
G1 X222.971 Y145.865 E22.88447
G1 X223.133 Y148.587 E23.28126
G1 X223.253 Y151.316 E23.67875
G1 X223.341 Y154.194 E24.09773
G1 X223.391 Y157.157 E24.52895
G1 X223.406 Y160.196 E24.97117
G1 X223.389 Y162.915 E25.36683
G1 X223.346 Y165.32 E25.71684
G1 X223.241 Y168.796 E26.22288
G1 X223.123 Y171.371 E26.59797
G1 X223.025 Y173.083 E26.84749
G1 X222.853 Y175.511 E27.20168
G1 X222.671 Y177.619 E27.50957
G1 X222.422 Y180.046 E27.86458
G1 X222.225 Y181.695 E28.10624
G1 X221.961 Y183.644 E28.39243
G1 X221.71 Y185.278 E28.63299
G1 X221.42 Y186.97 E28.88279
G1 X221.092 Y188.685 E29.13687
G1 X220.809 Y190.029 E29.33672
G1 X220.417 Y191.719 E29.58917
G1 X220.15 Y192.779 E29.74823
G1 X219.588 Y194.778 E30.05039
G1 X219.091 Y196.395 E30.29655
G1 X218.629 Y197.75 E30.50486
G1 X218.234 Y198.836 E30.67302
G1 X217.806 Y199.926 E30.84342
G1 X217.315 Y201.103 E31.02899
G1 X216.915 Y201.989 E31.17045
G1 X216.234 Y203.415 E31.40039
G1 X215.6 Y204.634 E31.60033
G1 X215.382 Y205.032 E31.66636
G1 X214.698 Y206.217 E31.86546
G1 X214.46 Y206.609 E31.93219
G1 X213.706 Y207.791 E32.1362
G1 X213.454 Y208.168 E32.20219
G1 X212.773 Y209.129 E32.37358
G1 X212.067 Y210.062 E32.54383
G1 X211.178 Y211.185 E32.75225
G1 X210.741 Y211.702 E32.85075
G1 X209.78 Y212.765 E33.05927
G1 X208.866 Y213.729 E33.25258
G1 X208.376 Y214.207 E33.35218
G1 X207.534 Y214.995 E33.51999
G1 X207.202 Y215.292 E33.58481
G1 X206.017 Y216.305 E33.81166
G1 X205.252 Y216.915 E33.95404
G1 X204.149 Y217.737 E34.15421
G1 X203.056 Y218.498 E34.348
G1 X201.989 Y219.186 E34.53274
G1 X200.503 Y220.08 E34.78509
G1 X199.824 Y220.46 E34.89832
G1 X198.399 Y221.205 E35.1323
G1 X197.599 Y221.592 E35.26162
G1 X196.36 Y222.162 E35.46007
G1 X195.513 Y222.522 E35.59399
G1 X194.356 Y222.99 E35.7756
G1 X193.535 Y223.297 E35.90315
G1 X191.446 Y224.023 E36.22496
G1 X189.756 Y224.547 E36.48242
G1 X188.223 Y224.975 E36.71403
G1 X186.334 Y225.451 E36.99749
G1 X184.503 Y225.863 E37.27059
G1 X182.765 Y226.211 E37.52851
G1 X180.446 Y226.617 E37.87109
G1 X178.33 Y226.94 E38.18256
G1 X176.303 Y227.208 E38.48008
G1 X173.717 Y227.496 E38.85871
G1 X171.34 Y227.716 E39.20607
G1 X168.869 Y227.902 E39.56665
G1 X166.251 Y228.058 E39.94828
G1 X163.522 Y228.178 E40.34577
G1 X160.781 Y228.262 E40.74481
G1 X157.659 Y228.316 E41.19917
G1 X154.645 Y228.33 E41.63775
G1 X152.306 Y228.318 E41.97811
G1 X149.651 Y228.275 E42.36449
G1 X146.158 Y228.17 E42.873
G1 X144.24 Y228.087 E43.15236
G1 X141.755 Y227.95 E43.51451
G1 X139.327 Y227.778 E43.8687
G1 X137.219 Y227.596 E44.17658
G1 X134.791 Y227.347 E44.53174
G1 X132.953 Y227.126 E44.80112
G1 X131.321 Y226.904 E45.04078
G1 X130.109 Y226.722 E45.21912
G1 X128.451 Y226.448 E45.46365
G1 X126.669 Y226.119 E45.72734
G1 X124.62 Y225.691 E46.03193
G1 X123.116 Y225.341 E46.25663
G1 X122.085 Y225.081 E46.41135
G1 X120.039 Y224.506 E46.72061
G1 X119.685 Y224.399 E46.77442
G1 X117.28 Y223.62 E47.14228
G1 X116.143 Y223.212 E47.31806
G1 X114.928 Y222.736 E47.50794
G1 X114.002 Y222.354 E47.6537
G1 X112.868 Y221.849 E47.83433
G1 X111.95 Y221.419 E47.98184
G1 X111.1 Y220.994 E48.12013
G1 X109.8 Y220.301 E48.3345
G1 X108.658 Y219.644 E48.52621
G1 X108.26 Y219.403 E48.59391
G1 X107.054 Y218.635 E48.80196
G1 X106.676 Y218.383 E48.86807
G1 X105.697 Y217.69 E49.04261
G1 X104.766 Y216.984 E49.21263
G1 X103.65 Y216.1 E49.41979
G1 X103.237 Y215.755 E49.4981
G1 X102.685 Y215.265 E49.6055
G1 X101.457 Y214.128 E49.84903
G1 X101.17 Y213.852 E49.90697
G1 X100.717 Y213.391 E50.00102
G1 X99.839 Y212.455 E50.18776
G1 X99.529 Y212.108 E50.25547
G1 X98.541 Y210.951 E50.47686
G1 X97.909 Y210.158 E50.62441
G1 X96.918 Y208.82 E50.8667
G1 X96.338 Y207.978 E51.01547
G1 X95.651 Y206.912 E51.20001
G1 X94.758 Y205.428 E51.45204
G1 X94.378 Y204.749 E51.56526
G1 X93.767 Y203.591 E51.75578
G1 X93.246 Y202.524 E51.92856
G1 X92.676 Y201.285 E52.12702
G1 X92.316 Y200.438 E52.26094
G1 X91.848 Y199.281 E52.44255
G1 X91.541 Y198.46 E52.57009
G1 X90.815 Y196.371 E52.89191
G1 X90.291 Y194.681 E53.14937
G1 X89.863 Y193.148 E53.38098
G1 X89.387 Y191.258 E53.66458
G1 X88.975 Y189.425 E53.93796
G1 X88.622 Y187.66 E54.19988
G1 X88.428 Y186.597 E54.35712
G1 X88.077 Y184.466 E54.67138
G1 X87.743 Y182.119 E55.01634
G1 X87.623 Y181.173 E55.1551
G1 X87.342 Y178.642 E55.52566
G1 X87.122 Y176.265 E55.87302
G1 X86.936 Y173.794 E56.2336
G1 X86.78 Y171.176 E56.61523
G1 X86.66 Y168.447 E57.01272
G1 X86.575 Y165.667 E57.41743
G1 X86.522 Y162.585 E57.86597
G1 X86.508 Y159.569 E58.30484
G1 X86.52 Y157.231 E58.64506
G1 X86.564 Y154.54 E59.03669
G1 X86.668 Y151.083 E59.53995
G1 X86.751 Y149.165 E59.81931
G1 X86.889 Y146.678 E60.18175
G1 X87.066 Y144.184 E60.54558
G1 X87.258 Y141.979 E60.86765
G1 X87.482 Y139.804 E61.18581
G1 X87.714 Y137.863 E61.47026
G1 X87.953 Y136.119 E61.72641
G1 X88.108 Y135.085 E61.87855
G1 X88.39 Y133.375 E62.13074
G1 X88.723 Y131.573 E62.39739
G1 X89.151 Y129.524 E62.70199
G1 X89.497 Y128.041 E62.92358
G1 X89.83 Y126.735 E63.1197
G1 X90.261 Y125.2 E63.3517
G1 X90.826 Y123.359 E63.63192
G1 X91.246 Y122.123 E63.82187
G1 X91.73 Y120.794 E64.02769
G1 X92.044 Y119.999 E64.15207
G1 X92.612 Y118.631 E64.3676
G1 X93.001 Y117.768 E64.50535
G1 X93.497 Y116.716 E64.67459
G1 X93.728 Y116.256 E64.74949
G1 X94.645 Y114.538 E65.03287
G1 X95.189 Y113.587 E65.19229
G1 X95.406 Y113.23 E65.25308
G1 X96.185 Y112.003 E65.46457
G1 X96.454 Y111.6 E65.53508
G1 X97.148 Y110.623 E65.70946
G1 X97.873 Y109.667 E65.88405
G1 X98.743 Y108.57 E66.08778
G1 X99.083 Y108.163 E66.16495
G1 X99.574 Y107.609 E66.27267
G1 X100.715 Y106.377 E66.51702
G1 X100.99 Y106.091 E66.57475
G1 X101.447 Y105.642 E66.66798
G1 F1500 E64.66798
;MESH:SonosWallMount_Base.stl
G0 F6000 X158.436 Y160.83
;TYPE:WALL-INNER
G1 F1500 E66.66798
G1 F1200 X158.091 Y161.666 E66.79958
G1 X157.506 Y162.435 E66.94018
G1 X156.761 Y163.006 E67.07676
G1 X155.897 Y163.366 E67.21296
G1 X154.965 Y163.49 E67.34977
G1 X154.014 Y163.365 E67.48935
G1 X153.167 Y163.014 E67.62276
G1 X152.411 Y162.438 E67.76106
G1 X151.83 Y161.681 E67.89992
G1 X151.472 Y160.819 E68.03574
G1 X151.348 Y159.889 E68.17226
G1 X151.473 Y158.938 E68.31184
G1 X151.825 Y158.088 E68.44571
G1 X152.393 Y157.344 E68.58191
G1 X153.135 Y156.767 E68.71869
G1 X154.049 Y156.39 E68.86256
G1 X154.951 Y156.273 E68.99491
G1 X155.906 Y156.402 E69.13514
G1 X156.749 Y156.748 E69.26773
G1 X157.503 Y157.326 E69.40598
G1 X158.091 Y158.094 E69.54673
G1 X158.441 Y158.943 E69.68035
G1 X158.565 Y159.874 E69.81702
G1 X158.436 Y160.83 E69.95739
G1 F1500 E67.95739
G0 F6000 X207.31 Y124.264
G1 F1500 E69.95739
G1 F1200 X206.646 Y122.703 E70.20423
G1 X205.927 Y121.21 E70.44537
G1 X205.211 Y119.889 E70.66401
G1 X204.177 Y118.214 E70.95044
G1 X203.064 Y116.656 E71.22906
G1 X201.925 Y115.275 E71.48954
G1 X200.701 Y113.98 E71.74883
G1 X199.159 Y112.567 E72.05317
G1 X197.466 Y111.244 E72.36583
G1 X196.432 Y110.535 E72.54826
G1 X195.336 Y109.851 E72.73625
G1 X194.139 Y109.178 E72.93607
G1 X192.852 Y108.527 E73.14594
G1 X191.322 Y107.838 E73.39011
G1 X189.605 Y107.158 E73.65884
G1 X187.768 Y106.523 E73.94167
G1 X185.777 Y105.931 E74.24392
G1 X184.558 Y105.609 E74.42738
G1 X183.266 Y105.298 E74.62076
G1 X181.932 Y105.005 E74.8195
G1 X180.506 Y104.724 E75.03099
G1 X179.023 Y104.46 E75.25018
G1 X177.479 Y104.215 E75.47766
G1 X176.023 Y104.006 E75.6917
G1 X174.173 Y103.779 E75.96292
G1 X172.137 Y103.564 E76.26083
G1 X169.99 Y103.372 E76.57449
G1 X167.754 Y103.208 E76.90073
G1 X165.189 Y103.06 E77.2746
G1 X162.958 Y102.969 E77.59951
G1 X160.399 Y102.893 E77.97204
G1 X157.73 Y102.846 E78.36047
G1 X154.646 Y102.832 E78.80924
G1 X151.987 Y102.848 E79.19617
G1 X149.143 Y102.902 E79.61008
G1 X146.269 Y102.997 E80.02851
G1 X144.044 Y103.095 E80.35259
G1 X141.348 Y103.264 E80.74567
G1 X138.98 Y103.451 E81.09131
G1 X136.455 Y103.695 E81.46045
G1 X134.623 Y103.914 E81.72892
G1 X132.576 Y104.194 E82.02956
G1 X131.11 Y104.429 E82.24561
G1 X130.865 Y104.458 E82.28151
G1 X128.639 Y104.869 E82.6109
G1 X127.042 Y105.207 E82.84843
G1 X125.424 Y105.591 E83.09041
G1 X123.869 Y106.005 E83.32456
G1 X122.443 Y106.429 E83.54104
G1 X121.088 Y106.875 E83.74862
G1 X119.339 Y107.528 E84.02028
G1 X117.778 Y108.192 E84.26712
G1 X116.285 Y108.91 E84.50819
G1 X114.956 Y109.633 E84.72834
G1 X113.289 Y110.661 E85.01333
G1 X111.73 Y111.774 E85.29206
G1 X110.351 Y112.913 E85.55232
G1 X109.056 Y114.137 E85.81161
G1 X107.641 Y115.68 E86.11626
G1 X106.331 Y117.356 E86.4258
G1 X105.602 Y118.419 E86.61336
G1 X104.926 Y119.502 E86.79913
G1 X104.253 Y120.704 E86.99958
G1 X103.602 Y121.988 E87.20906
G1 X102.9 Y123.546 E87.45772
G1 X102.243 Y125.205 E87.71737
G1 X101.599 Y127.07 E88.00448
G1 X101.002 Y129.072 E88.30847
G1 X100.682 Y130.287 E88.4913
G1 X100.373 Y131.572 E88.68361
G1 X100.08 Y132.906 E88.88235
G1 X99.799 Y134.333 E89.09399
G1 X99.536 Y135.812 E89.31258
G1 X99.29 Y137.365 E89.54138
G1 X99.081 Y138.815 E89.75455
G1 X98.852 Y140.677 E90.02754
G1 X98.639 Y142.701 E90.32368
G1 X98.447 Y144.848 E90.63735
G1 X98.283 Y147.084 E90.96359
G1 X98.136 Y149.635 E91.33541
G1 X98.132 Y149.89 E91.37252
G1 X98.045 Y151.881 E91.66251
G1 X97.968 Y154.439 E92.0349
G1 X97.921 Y157.107 E92.42319
G1 X97.908 Y160.192 E92.8721
G1 X97.924 Y162.851 E93.25903
G1 X97.977 Y165.695 E93.67294
G1 X98.072 Y168.569 E94.09137
G1 X98.17 Y170.794 E94.41546
G1 X98.339 Y173.49 E94.80853
G1 X98.526 Y175.858 E95.15418
G1 X98.759 Y178.259 E95.50519
G1 X98.987 Y180.204 E95.79016
G1 X99.269 Y182.262 E96.09242
G1 X99.582 Y184.211 E96.37966
G1 X99.916 Y186.049 E96.65149
G1 X100.279 Y187.782 E96.90914
G1 X100.666 Y189.413 E97.15306
G1 X101.08 Y190.969 E97.38736
G1 X101.504 Y192.395 E97.60384
G1 X101.95 Y193.75 E97.81141
G1 X102.603 Y195.499 E98.08307
G1 X103.267 Y197.06 E98.32992
G1 X103.984 Y198.549 E98.5704
G1 X104.703 Y199.874 E98.78976
G1 X105.736 Y201.549 E99.07612
G1 X106.849 Y203.108 E99.35485
G1 X107.988 Y204.487 E99.61511
G1 X109.212 Y205.782 E99.8744
G1 X110.755 Y207.197 E100.17905
G1 X112.443 Y208.516 E100.49077
G1 X113.48 Y209.228 E100.67381
G1 X114.579 Y209.912 E100.86217
G1 X115.775 Y210.584 E101.06179
G1 X117.058 Y211.234 E101.27108
G1 X118.605 Y211.931 E101.51798
G1 X120.291 Y212.599 E101.78187
G1 X122.14 Y213.237 E102.06649
G1 X124.134 Y213.832 E102.36929
G1 X125.348 Y214.152 E102.55197
G1 X126.646 Y214.465 E102.74626
G1 X127.981 Y214.757 E102.94511
G1 X129.407 Y215.039 E103.15663
G1 X130.877 Y215.3 E103.37388
G1 X132.429 Y215.546 E103.60254
G1 X133.891 Y215.757 E103.81748
G1 X135.74 Y215.984 E104.08856
G1 X137.776 Y216.199 E104.38647
G1 X139.923 Y216.391 E104.70013
G1 X142.159 Y216.555 E105.02637
G1 X144.71 Y216.702 E105.39819
G1 X144.965 Y216.706 E105.4353
G1 X146.956 Y216.793 E105.7253
G1 X149.514 Y216.87 E106.09769
G1 X152.182 Y216.917 E106.48598
G1 X155.1 Y216.931 E106.91059
G1 X157.926 Y216.914 E107.32182
G1 X160.77 Y216.861 E107.73573
G1 X163.644 Y216.767 E108.15416
G1 X165.869 Y216.668 E108.47824
G1 X168.565 Y216.499 E108.87132
G1 X170.933 Y216.312 E109.21697
G1 X173.334 Y216.079 E109.56798
G1 X175.292 Y215.849 E109.85486
G1 X177.337 Y215.569 E110.15521
G1 X179.287 Y215.256 E110.44259
G1 X181.141 Y214.918 E110.71682
G1 X182.873 Y214.555 E110.97432
G1 X184.488 Y214.172 E111.21584
G1 X186.044 Y213.758 E111.45014
G1 X187.472 Y213.334 E111.6669
G1 X188.826 Y212.888 E111.87434
G1 X190.574 Y212.235 E112.14586
G1 X192.137 Y211.571 E112.39297
G1 X193.628 Y210.853 E112.63378
G1 X194.957 Y210.13 E112.85393
G1 X196.63 Y209.098 E113.13996
G1 X198.182 Y207.989 E113.41753
G1 X199.563 Y206.85 E113.67801
G1 X200.858 Y205.626 E113.93731
G1 X202.271 Y204.084 E114.24165
G1 X203.594 Y202.391 E114.5543
G1 X204.304 Y201.354 E114.73717
G1 X204.989 Y200.256 E114.92549
G1 X205.668 Y199.048 E115.12714
G1 X206.311 Y197.777 E115.3344
G1 X207 Y196.247 E115.57857
G1 X207.68 Y194.53 E115.8473
G1 X208.315 Y192.692 E116.13026
G1 X208.91 Y190.692 E116.43389
G1 X209.231 Y189.476 E116.6169
G1 X209.54 Y188.191 E116.80921
G1 X209.832 Y186.857 E117.00792
G1 X210.114 Y185.431 E117.21944
G1 X210.378 Y183.948 E117.43863
G1 X210.624 Y182.399 E117.66686
G1 X210.811 Y181.071 E117.86201
G1 X211.061 Y179.085 E118.15328
G1 X211.274 Y177.062 E118.44928
G1 X211.466 Y174.915 E118.76294
G1 X211.63 Y172.679 E119.08918
G1 X211.778 Y170.114 E119.46304
G1 X211.869 Y167.883 E119.78795
G1 X211.945 Y165.324 E120.16048
G1 X211.992 Y162.655 E120.54892
G1 X212.006 Y160.025 E120.93162
