;FLAVOR:Marlin
;TIME:8052
;Filament used: 11.6387m
;Layer height: 0.3
;MINX:144.04
;MINY:37.505
;MINZ:0.3
;MAXX:195.36
;MAXY:143.805
;MAXZ:80.1
;Generated with Cura_SteamEngine 4.10.0
M104 S228
M105
M109 S228
M82 ;absolute extrusion mode
G28 ; home all axes
 M117 Purge extruder
 G92 E0 ; reset extruder
 G1 Z1.0 F3000 ; move z up little to prevent scratching of surface
 G1 X2 Y20 Z0.3 F5000.0 ; move to start-line position
 G1 X2 Y200.0 Z0.3 F1500.0 E15 ; draw 1st line
 G1 X2 Y200.0 Z0.4 F5000.0 ; move to side a little
 G1 X2 Y20 Z0.4 F1500.0 E30 ; draw 2nd line
 G92 E0 ; reset extruder
 G1 Z1.0 F3000 ; move z up little to prevent scratching of surface
G92 E0
G92 E0
G1 F2400 E-2
;LAYER_COUNT:267
;LAYER:0
M107
G0 F6000 X145.669 Y54.202 Z0.3
;TYPE:SKIRT
G1 F2400 E0
G1 F1200 X145.787 Y53.884 E0.01768
G1 X146.053 Y53.234 E0.0543
G1 X146.523 Y52.185 E0.11423
G1 X146.676 Y51.859 E0.133
G1 X146.813 Y51.579 E0.14925
G1 X147.132 Y50.976 E0.18482
G1 X147.697 Y49.987 E0.2442
G1 X147.889 Y49.664 E0.26379
G1 X148.084 Y49.349 E0.28311
G1 X148.46 Y48.783 E0.31853
G1 X149.085 Y47.904 E0.37476
G1 X149.297 Y47.616 E0.39341
G1 X149.522 Y47.321 E0.41275
G1 X149.949 Y46.797 E0.44799
G1 X150.681 Y45.954 E0.5062
G1 X150.934 Y45.673 E0.52591
G1 X151.183 Y45.406 E0.54495
G1 X151.653 Y44.933 E0.57971
G1 X152.433 Y44.195 E0.63569
G1 X152.715 Y43.937 E0.65562
G1 X152.999 Y43.687 E0.67535
G1 X153.507 Y43.267 E0.70971
G1 X154.423 Y42.556 E0.77016
G1 X154.773 Y42.296 E0.79289
G1 X155.027 Y42.115 E0.80916
G1 X155.538 Y41.772 E0.84124
G1 X156.484 Y41.177 E0.89951
G1 X156.825 Y40.971 E0.92028
G1 X157.133 Y40.793 E0.93882
G1 X157.707 Y40.485 E0.97278
G1 X158.713 Y39.983 E1.0314
G1 X159.053 Y39.82 E1.05106
G1 X159.391 Y39.666 E1.07042
G1 X160.012 Y39.407 E1.1055
G1 X161.011 Y39.026 E1.16124
G1 X161.348 Y38.904 E1.17993
G1 X161.712 Y38.779 E1.19999
G1 X162.376 Y38.575 E1.23621
G1 X163.457 Y38.281 E1.29461
G1 X163.798 Y38.194 E1.31296
G1 X164.14 Y38.113 E1.33129
G1 X164.816 Y37.976 E1.36725
G1 X165.902 Y37.792 E1.42467
G1 X166.245 Y37.739 E1.44277
G1 X166.627 Y37.687 E1.46286
G1 X167.32 Y37.616 E1.49918
G1 X168.405 Y37.54 E1.55589
G1 X168.771 Y37.521 E1.575
G1 X169.136 Y37.508 E1.59404
G1 X169.816 Y37.505 E1.62949
G1 X170.913 Y37.536 E1.68671
G1 X171.28 Y37.553 E1.70586
G1 X171.662 Y37.577 E1.72581
G1 X172.335 Y37.641 E1.76106
G1 X173.415 Y37.778 E1.81782
G1 X173.753 Y37.826 E1.83562
G1 X174.123 Y37.885 E1.85515
G1 X174.831 Y38.023 E1.89276
G1 X175.928 Y38.275 E1.95144
G1 X176.301 Y38.368 E1.97148
G1 X176.633 Y38.457 E1.9894
G1 X177.255 Y38.644 E2.02326
G1 X178.31 Y38.997 E2.08126
G1 X178.642 Y39.114 E2.09961
G1 X178.981 Y39.24 E2.11847
G1 X179.632 Y39.507 E2.15515
G1 X180.648 Y39.963 E2.21321
G1 X180.95 Y40.104 E2.23059
G1 X181.256 Y40.253 E2.24833
G1 X181.879 Y40.582 E2.28506
G1 X182.871 Y41.149 E2.34463
G1 X183.164 Y41.323 E2.3624
G1 X183.447 Y41.497 E2.37972
G1 X184.039 Y41.888 E2.41671
G1 X184.958 Y42.541 E2.47548
G1 X185.254 Y42.76 E2.49468
G1 X185.525 Y42.967 E2.51246
G1 X186.048 Y43.393 E2.54763
G1 X186.905 Y44.138 E2.60683
G1 X187.199 Y44.403 E2.62746
G1 X187.452 Y44.64 E2.64554
G1 X187.908 Y45.094 E2.67909
G1 X188.68 Y45.91 E2.73765
G1 X188.955 Y46.212 E2.75894
G1 X189.181 Y46.47 E2.77683
G1 X189.591 Y46.968 E2.81046
G1 X190.284 Y47.863 E2.86947
G1 X190.529 Y48.193 E2.8909
G1 X190.734 Y48.48 E2.90929
G1 X191.083 Y49 E2.94194
G1 X191.663 Y49.922 E2.99873
G1 X191.859 Y50.245 E3.01842
G1 X192.039 Y50.555 E3.03711
G1 X192.36 Y51.152 E3.07245
G1 X192.869 Y52.173 E3.13193
G1 X193.028 Y52.507 E3.15121
G1 X193.178 Y52.836 E3.17007
G1 X193.437 Y53.455 E3.20505
G1 X193.817 Y54.45 E3.26058
G1 X193.947 Y54.809 E3.28048
G1 X194.075 Y55.184 E3.30114
G1 X194.271 Y55.821 E3.33589
G1 X194.562 Y56.887 E3.3935
G1 X194.65 Y57.232 E3.41206
G1 X194.73 Y57.569 E3.43012
G1 X194.869 Y58.256 E3.46666
G1 X195.057 Y59.369 E3.52551
G1 X195.11 Y59.713 E3.54366
G1 X195.157 Y60.06 E3.56191
G1 X195.227 Y60.744 E3.59776
G1 X195.305 Y61.855 E3.65582
G1 X195.324 Y62.228 E3.67529
G1 X195.35 Y62.968 E3.7139
G1 X195.357 Y63.245 E3.72834
G1 X195.36 Y63.573 E3.74545
G1 X195.359 Y132.556 E7.34189
G1 X195.349 Y133.283 E7.3798
G1 X195.296 Y134.204 E7.42789
G1 X195.164 Y135.118 E7.47604
G1 X194.953 Y136.017 E7.52418
G1 X194.666 Y136.894 E7.57229
G1 X194.303 Y137.743 E7.62043
G1 X193.868 Y138.558 E7.6686
G1 X193.365 Y139.332 E7.71672
G1 X192.796 Y140.059 E7.76485
G1 X192.167 Y140.734 E7.81295
G1 X191.481 Y141.353 E7.86113
G1 X190.745 Y141.91 E7.90925
G1 X189.963 Y142.401 E7.95739
G1 X189.141 Y142.822 E8.00554
G1 X188.286 Y143.171 E8.05368
G1 X187.405 Y143.445 E8.10178
G1 X186.503 Y143.641 E8.14991
G1 X185.587 Y143.758 E8.19805
G1 X184.99 Y143.792 E8.22923
G1 X184.67 Y143.801 E8.24592
G1 X184.37 Y143.805 E8.26156
G1 X155.27 Y143.804 E9.77869
G1 X154.572 Y143.795 E9.81509
G1 X153.65 Y143.743 E9.86323
G1 X152.736 Y143.612 E9.91137
G1 X151.837 Y143.402 E9.9595
G1 X150.959 Y143.115 E10.00766
G1 X150.11 Y142.753 E10.05578
G1 X149.295 Y142.319 E10.10392
G1 X148.521 Y141.816 E10.15204
G1 X147.793 Y141.248 E10.20018
G1 X147.117 Y140.619 E10.24832
G1 X146.498 Y139.934 E10.29646
G1 X145.941 Y139.198 E10.34458
G1 X145.449 Y138.417 E10.3927
G1 X145.027 Y137.596 E10.44083
G1 X144.677 Y136.741 E10.489
G1 X144.403 Y135.86 E10.5371
G1 X144.206 Y134.958 E10.58523
G1 X144.088 Y134.042 E10.63338
G1 X144.052 Y133.405 E10.66664
G1 X144.043 Y133.048 E10.68526
G1 X144.04 Y132.779 E10.69929
G1 X144.042 Y63.674 E14.3021
G1 X144.055 Y62.754 E14.35006
G1 X144.065 Y62.425 E14.36722
G1 X144.103 Y61.616 E14.40945
G1 X144.128 Y61.218 E14.43024
G1 X144.192 Y60.542 E14.46564
G1 X144.337 Y59.401 E14.52561
G1 X144.387 Y59.056 E14.54378
G1 X144.443 Y58.707 E14.56221
G1 X144.579 Y58.007 E14.59939
G1 X144.828 Y56.924 E14.65732
G1 X144.919 Y56.557 E14.67703
G1 X145.01 Y56.217 E14.69538
G1 X145.198 Y55.593 E14.72936
G1 X145.553 Y54.531 E14.78774
G1 X145.669 Y54.202 E14.80593
G0 F6000 X146.081 Y54.356
G1 F1200 X146.199 Y54.038 E14.82361
G1 X146.454 Y53.414 E14.85875
G1 X146.924 Y52.365 E14.91868
G1 X147.071 Y52.052 E14.93671
G1 X147.208 Y51.772 E14.95296
G1 X147.514 Y51.194 E14.98706
G1 X148.079 Y50.205 E15.04644
G1 X148.263 Y49.896 E15.06519
G1 X148.458 Y49.581 E15.08451
G1 X148.819 Y49.038 E15.1185
G1 X149.444 Y48.159 E15.17473
G1 X149.647 Y47.883 E15.19259
G1 X149.872 Y47.588 E15.21194
G1 X150.281 Y47.085 E15.24574
G1 X151.013 Y46.242 E15.30394
G1 X151.256 Y45.973 E15.32284
G1 X151.505 Y45.706 E15.34188
G1 X151.955 Y45.252 E15.3752
G1 X152.735 Y44.514 E15.43119
G1 X153.006 Y44.267 E15.4503
G1 X153.29 Y44.017 E15.47003
G1 X153.776 Y43.615 E15.50291
G1 X154.692 Y42.904 E15.56336
G1 X155.028 Y42.654 E15.5852
G1 X155.282 Y42.473 E15.60146
G1 X155.772 Y42.145 E15.6322
G1 X156.718 Y41.55 E15.69046
G1 X157.045 Y41.352 E15.71039
G1 X157.353 Y41.174 E15.72894
G1 X157.904 Y40.878 E15.76155
G1 X158.91 Y40.376 E15.82017
G1 X159.236 Y40.221 E15.83899
G1 X159.574 Y40.067 E15.85835
G1 X160.169 Y39.818 E15.89198
G1 X161.168 Y39.437 E15.94772
G1 X161.491 Y39.32 E15.96563
G1 X161.855 Y39.195 E15.9857
G1 X162.492 Y38.999 E16.02044
G1 X163.573 Y38.705 E16.07885
G1 X163.9 Y38.622 E16.09644
G1 X164.242 Y38.541 E16.11476
G1 X164.89 Y38.41 E16.14923
G1 X165.976 Y38.226 E16.20665
G1 X166.305 Y38.175 E16.22401
G1 X166.687 Y38.123 E16.24411
G1 X167.351 Y38.055 E16.27891
G1 X168.436 Y37.979 E16.33561
G1 X168.786 Y37.96 E16.35389
G1 X169.151 Y37.947 E16.37293
G1 X169.804 Y37.945 E16.40697
G1 X170.901 Y37.976 E16.46419
G1 X171.253 Y37.992 E16.48256
G1 X171.635 Y38.016 E16.50251
G1 X172.28 Y38.077 E16.53629
G1 X173.36 Y38.214 E16.59305
G1 X173.683 Y38.261 E16.61007
G1 X174.053 Y38.32 E16.6296
G1 X174.732 Y38.451 E16.66565
G1 X175.829 Y38.703 E16.72433
G1 X176.187 Y38.793 E16.74358
G1 X176.519 Y38.882 E16.7615
G1 X177.116 Y39.061 E16.79399
G1 X178.171 Y39.414 E16.85199
G1 X178.489 Y39.526 E16.86957
G1 X178.828 Y39.652 E16.88843
G1 X179.452 Y39.908 E16.92359
G1 X180.468 Y40.364 E16.98165
G1 X180.757 Y40.499 E16.99828
G1 X181.063 Y40.648 E17.01602
G1 X181.661 Y40.964 E17.05129
G1 X182.653 Y41.531 E17.11086
G1 X182.934 Y41.698 E17.1279
G1 X183.217 Y41.872 E17.14522
G1 X183.784 Y42.247 E17.18066
G1 X184.703 Y42.9 E17.23943
G1 X184.987 Y43.109 E17.25782
G1 X185.258 Y43.316 E17.2756
G1 X185.759 Y43.725 E17.30932
G1 X186.616 Y44.47 E17.36852
G1 X186.898 Y44.724 E17.3883
G1 X187.151 Y44.961 E17.40638
G1 X187.588 Y45.396 E17.43852
G1 X188.36 Y46.212 E17.49709
G1 X188.624 Y46.502 E17.51753
G1 X188.85 Y46.76 E17.53542
G1 X189.243 Y47.237 E17.56764
G1 X189.936 Y48.132 E17.62665
G1 X190.171 Y48.449 E17.64722
G1 X190.376 Y48.736 E17.66561
G1 X190.711 Y49.234 E17.6969
G1 X191.291 Y50.156 E17.75369
G1 X191.478 Y50.466 E17.77257
G1 X191.658 Y50.776 E17.79126
G1 X191.966 Y51.348 E17.82513
G1 X192.475 Y52.369 E17.8846
G1 X192.628 Y52.689 E17.9031
G1 X192.778 Y53.018 E17.92195
G1 X193.026 Y53.612 E17.95551
G1 X193.406 Y54.607 E18.01103
G1 X193.531 Y54.952 E18.03017
G1 X193.659 Y55.327 E18.05082
G1 X193.846 Y55.937 E18.08409
G1 X194.137 Y57.003 E18.1417
G1 X194.222 Y57.333 E18.15946
G1 X194.302 Y57.67 E18.17752
G1 X194.435 Y58.329 E18.21257
G1 X194.623 Y59.442 E18.27142
G1 X194.674 Y59.772 E18.28883
G1 X194.721 Y60.119 E18.30708
G1 X194.788 Y60.775 E18.34146
G1 X194.866 Y61.886 E18.39953
G1 X194.885 Y62.243 E18.41817
G1 X194.911 Y62.983 E18.45677
G1 X194.917 Y63.249 E18.47064
G1 X194.92 Y63.577 E18.48774
G1 X194.919 Y132.55 E22.08367
G1 X194.909 Y133.277 E22.12157
G1 X194.857 Y134.179 E22.16868
G1 X194.725 Y135.073 E22.21579
G1 X194.514 Y135.952 E22.26292
G1 X194.227 Y136.81 E22.31009
G1 X193.865 Y137.638 E22.3572
G1 X193.431 Y138.431 E22.40433
G1 X192.929 Y139.183 E22.45147
G1 X192.363 Y139.887 E22.49857
G1 X191.736 Y140.539 E22.54573
G1 X191.054 Y141.133 E22.59288
G1 X190.323 Y141.664 E22.63998
G1 X189.547 Y142.128 E22.68712
G1 X188.734 Y142.522 E22.73422
G1 X187.888 Y142.843 E22.7814
G1 X187.018 Y143.087 E22.8285
G1 X186.13 Y143.254 E22.87561
G1 X184.977 Y143.352 E22.93594
G1 X184.657 Y143.361 E22.95263
G1 X184.37 Y143.365 E22.96759
G1 X155.275 Y143.364 E24.48447
G1 X154.577 Y143.355 E24.52086
G1 X153.675 Y143.304 E24.56796
G1 X152.78 Y143.172 E24.61513
G1 X151.901 Y142.963 E24.66223
G1 X151.044 Y142.676 E24.70935
G1 X150.215 Y142.315 E24.75649
G1 X149.421 Y141.882 E24.80364
G1 X148.669 Y141.38 E24.85078
G1 X147.964 Y140.814 E24.89792
G1 X147.312 Y140.188 E24.94504
G1 X146.718 Y139.507 E24.99215
G1 X146.186 Y138.776 E25.03929
G1 X145.721 Y138.001 E25.08641
G1 X145.326 Y137.188 E25.13353
G1 X145.005 Y136.343 E25.18066
G1 X144.76 Y135.473 E25.22778
G1 X144.592 Y134.584 E25.27495
G1 X144.492 Y133.394 E25.33721
G1 X144.483 Y133.037 E25.35583
G1 X144.48 Y132.779 E25.36928
G1 X144.482 Y63.681 E28.97172
G1 X144.495 Y62.761 E29.01969
G1 X144.504 Y62.445 E29.03617
G1 X144.532 Y61.824 E29.06858
G1 X144.567 Y61.245 E29.09882
G1 X144.629 Y60.598 E29.13271
G1 X144.774 Y59.457 E29.19267
G1 X144.821 Y59.126 E29.2101
G1 X144.877 Y58.777 E29.22853
G1 X145.008 Y58.106 E29.26417
G1 X145.257 Y57.023 E29.32211
G1 X145.344 Y56.671 E29.34101
G1 X145.435 Y56.331 E29.35936
G1 X145.615 Y55.733 E29.39192
G1 X145.97 Y54.671 E29.4503
G1 X146.081 Y54.356 E29.46771
G1 F2400 E27.46771
;MESH:SonosWallMount_Mount.stl
G0 F6000 X167.873 Y63.594
G0 X166.149 Y64.02
;TYPE:WALL-INNER
G1 F2400 E29.46771
G1 F1200 X166.462 Y64.845 E29.51372
G1 X166.962 Y65.571 E29.55967
G1 X167.622 Y66.156 E29.60565
G1 X168.404 Y66.564 E29.65164
G1 X168.455 Y66.576 E29.65437
G1 X169.258 Y66.776 E29.69751
G1 X170.143 Y66.776 E29.74365
G1 X170.996 Y66.564 E29.78948
G1 X171.778 Y66.156 E29.83546
G1 X172.439 Y65.571 E29.88148
G1 X172.94 Y64.845 E29.92747
G1 X173.251 Y64.02 E29.97344
G1 X173.358 Y63.145 E30.0194
G1 X173.251 Y62.27 E30.06535
G1 X172.94 Y61.445 E30.11132
G1 X172.439 Y60.719 E30.15731
G1 X171.778 Y60.134 E30.20333
G1 X170.996 Y59.726 E30.24931
G1 X170.143 Y59.514 E30.29514
G1 X169.258 Y59.514 E30.34128
G1 X168.404 Y59.726 E30.38715
G1 X167.622 Y60.134 E30.43314
G1 X166.962 Y60.719 E30.47912
G1 X166.462 Y61.445 E30.52508
G1 X166.444 Y61.495 E30.52785
G1 X166.149 Y62.27 E30.57108
G1 X166.042 Y63.145 E30.61704
G1 X166.149 Y64.02 E30.663
G0 F6000 X166.579 Y63.914
G1 F1200 X166.854 Y64.639 E30.70342
G1 X167.294 Y65.277 E30.74383
G1 X167.874 Y65.791 E30.78423
G1 X168.561 Y66.15 E30.82464
G1 X169.312 Y66.336 E30.86498
G1 X170.089 Y66.336 E30.90549
G1 X170.839 Y66.15 E30.94577
G1 X171.527 Y65.791 E30.98623
G1 X172.107 Y65.277 E31.02664
G1 X172.547 Y64.639 E31.06704
G1 X172.821 Y63.914 E31.10745
G1 X172.915 Y63.145 E31.14784
G1 X172.821 Y62.376 E31.18823
G1 X172.547 Y61.651 E31.22864
G1 X172.107 Y61.013 E31.26904
G1 X171.527 Y60.499 E31.30945
G1 X170.839 Y60.14 E31.34991
G1 X170.089 Y59.954 E31.39019
G1 X169.312 Y59.954 E31.4307
G1 X168.561 Y60.14 E31.47104
G1 X167.874 Y60.499 E31.51145
G1 X167.294 Y61.013 E31.55185
G1 X166.854 Y61.651 E31.59226
G1 X166.579 Y62.376 E31.63268
G1 X166.485 Y63.145 E31.67308
G1 X166.579 Y63.914 E31.71347
G0 F6000 X167.009 Y63.808
;TYPE:WALL-OUTER
G1 F1200 X167.246 Y64.433 E31.74831
G1 X167.626 Y64.983 E31.78317
G1 X168.126 Y65.426 E31.81799
G1 X168.718 Y65.736 E31.85283
G1 X169.366 Y65.896 E31.88763
G1 X170.035 Y65.896 E31.92251
G1 X170.682 Y65.736 E31.95726
G1 X171.275 Y65.426 E31.99214
G1 X171.775 Y64.983 E32.02697
G1 X172.154 Y64.433 E32.06179
G1 X172.391 Y63.808 E32.09664
G1 X172.472 Y63.145 E32.13147
G1 X172.391 Y62.482 E32.16629
G1 X172.154 Y61.857 E32.20114
G1 X171.775 Y61.307 E32.23596
G1 X171.275 Y60.864 E32.27079
G1 X170.682 Y60.554 E32.30567
G1 X170.035 Y60.394 E32.34042
G1 X169.366 Y60.394 E32.3753
G1 X168.718 Y60.554 E32.4101
G1 X168.126 Y60.864 E32.44494
G1 X167.626 Y61.307 E32.47976
G1 X167.246 Y61.857 E32.51462
G1 X167.009 Y62.482 E32.54947
G1 X166.928 Y63.145 E32.58429
G1 X167.009 Y63.808 E32.61911
G0 F6000 X166.54 Y63.923
G1 F2400 E30.61911
G0 F6000 X167.873 Y63.594
G0 X169.615 Y47.485
G0 X169.702 Y49.246
;TYPE:WALL-INNER
G1 F2400 E32.61911
G1 F1200 X171.056 Y49.312 E32.68979
G1 X172.412 Y49.513 E32.76125
G1 X173.742 Y49.846 E32.83273
G1 X175.007 Y50.299 E32.90279
G1 X176.246 Y50.886 E32.97427
G1 X177.437 Y51.598 E33.04661
G1 X178.517 Y52.401 E33.11677
G1 X179.53 Y53.317 E33.18798
G1 X180.435 Y54.316 E33.25825
G1 X181.267 Y55.439 E33.33112
G1 X181.953 Y56.584 E33.40071
G1 X182.546 Y57.839 E33.47307
G1 X182.998 Y59.103 E33.54306
G1 X183.332 Y60.432 E33.6145
G1 X183.533 Y61.789 E33.68602
G1 X183.6 Y63.156 E33.75737
G1 X183.6 Y132.045 E37.34892
G1 X156.019 Y132.045 E38.78686
G1 X155.8 Y132.045 E38.79828
G1 X155.8 Y131.826 E38.80567
G1 X155.801 Y63.13 E42.38715
G1 X155.866 Y61.789 E42.45715
G1 X156.066 Y60.438 E42.52835
G1 X156.401 Y59.104 E42.60006
G1 X156.853 Y57.84 E42.67005
G1 X157.446 Y56.585 E42.74241
G1 X158.142 Y55.426 E42.8129
G1 X158.955 Y54.33 E42.88404
G1 X159.862 Y53.328 E42.9545
G1 X160.892 Y52.394 E43.02699
G1 X161.963 Y51.599 E43.09653
G1 X163.153 Y50.887 E43.16883
G1 X164.392 Y50.3 E43.24031
G1 X165.658 Y49.847 E43.31041
G1 X166.988 Y49.514 E43.38189
G1 X168.343 Y49.313 E43.45331
G1 X169.702 Y49.246 E43.52424
G0 F6000 X169.701 Y48.806
G1 F1200 X171.102 Y48.874 E43.59737
G1 X172.502 Y49.082 E43.67116
G1 X173.865 Y49.423 E43.74441
G1 X175.18 Y49.894 E43.81723
G1 X176.456 Y50.498 E43.89084
G1 X177.675 Y51.227 E43.96489
G1 X178.797 Y52.061 E44.03777
G1 X179.824 Y52.991 E44.11001
G1 X179.841 Y53.006 E44.11119
G1 X180.78 Y54.042 E44.18408
G1 X181.628 Y55.187 E44.25837
G1 X181.643 Y55.213 E44.25993
G1 X182.329 Y56.358 E44.32952
G1 X182.344 Y56.382 E44.331
G1 X182.951 Y57.666 E44.40504
G1 X183.421 Y58.98 E44.4778
G1 X183.763 Y60.342 E44.55101
G1 X183.766 Y60.367 E44.55232
G1 X183.971 Y61.743 E44.62485
G1 X184.038 Y63.134 E44.69746
G1 X184.04 Y63.156 E44.69861
G1 X184.04 Y132.485 E48.3131
G1 X155.579 Y132.485 E49.79692
G1 X155.36 Y132.485 E49.80833
G1 X155.36 Y132.266 E49.81572
G1 X155.361 Y63.13 E53.42015
G1 X155.428 Y61.744 E53.49249
G1 X155.635 Y60.347 E53.56612
G1 X155.978 Y58.981 E53.63955
G1 X156.448 Y57.667 E53.7123
G1 X157.055 Y56.383 E53.78635
G1 X157.776 Y55.181 E53.85942
G1 X158.615 Y54.05 E53.93284
G1 X159.555 Y53.012 E54.00585
