;FLAVOR:Marlin
;TIME:9245
;Filament used: 13.5539m
;Layer height: 0.3
;MINX:35.68
;MINY:78.905
;MINZ:0.3
;MAXX:172.998
;MAXY:216.223
;MAXZ:21
;Generated with Cura_SteamEngine 4.10.0
M104 S228
M105
M109 S228
M82 ;absolute extrusion mode
G28 ; home all axes
 M117 Purge extruder
 G92 E0 ; reset extruder
 G1 Z1.0 F3000 ; move z up little to prevent scratching of surface
 G1 X2 Y20 Z0.3 F5000.0 ; move to start-line position
 G1 X2 Y200.0 Z0.3 F1500.0 E15 ; draw 1st line
 G1 X2 Y200.0 Z0.4 F5000.0 ; move to side a little
 G1 X2 Y20 Z0.4 F1500.0 E30 ; draw 2nd line
 G92 E0 ; reset extruder
 G1 Z1.0 F3000 ; move z up little to prevent scratching of surface
G92 E0
G92 E0
G1 F2400 E-2
;LAYER_COUNT:70
;LAYER:0
M107
G0 F6000 X56.565 Y88.473 Z0.3
;TYPE:SKIRT
G1 F2400 E0
G1 F1200 X56.789 Y88.33 E0.01386
G1 X57.777 Y87.721 E0.07436
G1 X58.39 Y87.354 E0.11161
G1 X58.649 Y87.204 E0.12722
G1 X59.365 Y86.804 E0.16998
G1 X59.723 Y86.611 E0.19118
G1 X60.5 Y86.204 E0.23691
G1 X60.729 Y86.087 E0.25032
G1 X61.054 Y85.927 E0.2692
G1 X61.624 Y85.654 E0.30215
G1 X62.477 Y85.257 E0.3512
G1 X62.78 Y85.122 E0.3685
G1 X63.714 Y84.724 E0.42143
G1 X64.463 Y84.418 E0.46361
G1 X64.703 Y84.323 E0.47707
G1 X65.465 Y84.033 E0.51958
G1 X65.717 Y83.941 E0.53356
G1 X67.302 Y83.383 E0.62117
G1 X67.69 Y83.255 E0.64247
G1 X69.415 Y82.721 E0.73661
G1 X69.671 Y82.645 E0.75053
G1 X70.847 Y82.313 E0.81424
G1 X71.247 Y82.206 E0.83583
G1 X72.743 Y81.83 E0.91625
G1 X73.287 Y81.703 E0.94537
G1 X74.648 Y81.4 E1.01807
G1 X75.307 Y81.262 E1.05317
G1 X76.524 Y81.022 E1.11784
G1 X77.396 Y80.863 E1.16405
G1 X79.14 Y80.569 E1.25626
G1 X79.699 Y80.48 E1.28577
G1 X80.929 Y80.298 E1.35059
G1 X81.96 Y80.158 E1.40484
G1 X83.467 Y79.97 E1.48402
G1 X84.356 Y79.868 E1.53067
G1 X85.547 Y79.741 E1.59311
G1 X86.837 Y79.616 E1.66068
G1 X87.947 Y79.519 E1.71877
G1 X89.478 Y79.399 E1.79884
G1 X90.429 Y79.333 E1.84854
G1 X92.233 Y79.22 E1.94277
G1 X92.996 Y79.18 E1.98261
G1 X94.941 Y79.089 E2.08412
G1 X95.834 Y79.055 E2.13071
G1 X97.854 Y78.99 E2.23608
G1 X98.627 Y78.97 E2.27639
G1 X100.944 Y78.927 E2.39721
G1 X101.623 Y78.919 E2.43261
G1 X103.993 Y78.906 E2.55618
G1 X104.652 Y78.905 E2.59053
G1 X106.947 Y78.917 E2.71019
G1 X107.612 Y78.925 E2.74486
G1 X109.764 Y78.962 E2.85707
G1 X110.55 Y78.983 E2.89806
G1 X112.515 Y79.042 E3.00055
G1 X113.113 Y79.063 E3.03175
G1 X114.956 Y79.142 E3.12792
G1 X116.077 Y79.201 E3.18645
G1 X117.492 Y79.283 E3.26034
G1 X118.423 Y79.344 E3.30899
G1 X119.928 Y79.454 E3.38766
G1 X120.737 Y79.519 E3.42997
G1 X122.19 Y79.648 E3.50602
G1 X123.238 Y79.751 E3.56092
G1 X124.352 Y79.87 E3.61933
G1 X125.484 Y80.001 E3.67874
G1 X126.298 Y80.102 E3.72151
G1 X127.329 Y80.239 E3.77573
G1 X128.133 Y80.352 E3.81806
G1 X129.075 Y80.493 E3.86772
G1 X129.769 Y80.604 E3.90436
G1 X131.478 Y80.897 E3.99476
G1 X132.637 Y81.113 E4.05622
G1 X133.039 Y81.194 E4.0776
G1 X134.268 Y81.455 E4.14311
G1 X134.386 Y81.478 E4.14938
G1 X134.769 Y81.559 E4.16978
G1 X136.033 Y81.852 E4.23743
G1 X136.24 Y81.902 E4.24853
G1 X137.276 Y82.164 E4.30425
G1 X137.543 Y82.236 E4.31866
G1 X139.221 Y82.708 E4.40954
G1 X140.02 Y82.947 E4.45302
G1 X140.974 Y83.247 E4.50516
G1 X141.256 Y83.34 E4.52064
G1 X142.313 Y83.706 E4.57896
G1 X143.221 Y84.034 E4.62929
G1 X143.518 Y84.147 E4.64586
G1 X144.482 Y84.529 E4.69992
G1 X145.34 Y84.883 E4.74831
G1 X145.621 Y85.004 E4.76426
G1 X146.516 Y85.405 E4.81539
G1 X147.285 Y85.766 E4.85968
G1 X147.514 Y85.877 E4.87295
G1 X148.328 Y86.284 E4.92039
G1 X149.207 Y86.745 E4.97214
G1 X149.453 Y86.878 E4.98672
G1 X149.927 Y87.144 E5.01506
G1 X150.769 Y87.633 E5.06582
G1 X150.998 Y87.77 E5.07973
G1 X151.281 Y87.944 E5.09705
G1 X151.479 Y88.069 E5.10926
G1 X152.469 Y88.708 E5.17069
G1 X152.818 Y88.942 E5.1926
G1 X153.353 Y89.318 E5.22669
G1 X153.661 Y89.544 E5.24661
G1 X154.858 Y90.452 E5.32494
G1 X155.29 Y90.789 E5.3535
G1 X155.801 Y91.199 E5.38766
G1 X156.122 Y91.466 E5.40943
G1 X156.362 Y91.676 E5.42605
G1 X156.793 Y92.063 E5.45625
G1 X157.493 Y92.706 E5.50581
G1 X158.055 Y93.235 E5.54604
G1 X158.303 Y93.475 E5.56404
G1 X158.536 Y93.709 E5.58125
G1 X158.72 Y93.899 E5.59504
G1 X159.399 Y94.617 E5.64656
G1 X159.676 Y94.919 E5.66793
G1 X159.904 Y95.176 E5.68584
G1 X160.731 Y96.138 E5.75198
G1 X161.002 Y96.464 E5.77408
G1 X161.511 Y97.097 E5.81643
G1 X161.727 Y97.375 E5.83478
G1 X161.988 Y97.726 E5.85759
G1 X162.255 Y98.093 E5.88125
G1 X162.692 Y98.706 E5.9205
G1 X163.086 Y99.274 E5.95654
G1 X163.235 Y99.494 E5.97039
G1 X163.377 Y99.71 E5.98387
G1 X163.524 Y99.941 E5.99814
G1 X164.085 Y100.844 E6.05357
G1 X164.552 Y101.623 E6.10092
G1 X164.692 Y101.863 E6.1154
G1 X165.029 Y102.462 E6.15124
G1 X165.205 Y102.785 E6.17041
G1 X165.703 Y103.733 E6.22624
G1 X165.855 Y104.036 E6.24391
G1 X166.248 Y104.85 E6.29104
G1 X166.698 Y105.821 E6.34684
G1 X166.832 Y106.123 E6.36406
G1 X167.164 Y106.904 E6.4083
G1 X167.485 Y107.69 E6.45257
G1 X167.579 Y107.928 E6.46591
G1 X167.869 Y108.69 E6.50842
G1 X167.962 Y108.945 E6.52257
G1 X168.554 Y110.628 E6.61558
G1 X168.672 Y110.985 E6.63518
G1 X169.109 Y112.383 E6.71155
G1 X169.195 Y112.669 E6.72712
G1 X169.571 Y114.002 E6.79932
G1 X169.691 Y114.452 E6.82361
G1 X170.066 Y115.942 E6.90371
G1 X170.2 Y116.508 E6.93403
G1 X170.506 Y117.883 E7.00747
G1 X170.639 Y118.524 E7.0416
G1 X170.901 Y119.859 E7.11253
G1 X171.048 Y120.664 E7.15519
G1 X171.269 Y121.958 E7.22363
G1 X171.428 Y122.956 E7.27632
G1 X171.589 Y124.047 E7.33382
G1 X171.74 Y125.153 E7.39201
G1 X171.946 Y126.816 E7.47938
G1 X172.041 Y127.632 E7.52221
G1 X172.155 Y128.701 E7.57826
G1 X172.287 Y130.069 E7.64991
G1 X172.373 Y131.042 E7.70083
G1 X172.511 Y132.802 E7.79287
G1 X172.564 Y133.556 E7.83228
G1 X172.682 Y135.454 E7.93142
G1 X172.719 Y136.138 E7.96714
G1 X172.811 Y138.085 E8.06876
G1 X172.848 Y139.046 E8.1189
G1 X172.909 Y140.939 E8.21764
G1 X172.933 Y141.867 E8.26604
G1 X172.975 Y144.138 E8.38446
G1 X172.984 Y144.853 E8.42174
G1 X172.998 Y147.739 E8.5722
G1 X172.985 Y150.176 E8.69926
G1 X172.978 Y150.752 E8.72929
G1 X172.941 Y152.933 E8.84301
G1 X172.924 Y153.655 E8.88066
G1 X172.863 Y155.692 E8.98691
G1 X172.843 Y156.237 E9.01534
G1 X172.76 Y158.163 E9.11585
G1 X172.706 Y159.191 E9.16952
G1 X172.62 Y160.697 E9.24816
G1 X172.558 Y161.648 E9.29785
G1 X172.448 Y163.154 E9.37657
G1 X172.383 Y163.96 E9.41873
G1 X172.254 Y165.415 E9.49488
G1 X172.151 Y166.463 E9.54979
G1 X172.029 Y167.61 E9.60992
G1 X171.905 Y168.679 E9.66603
G1 X171.802 Y169.515 E9.70994
G1 X171.666 Y170.542 E9.76395
G1 X171.575 Y171.178 E9.79745
G1 X171.386 Y172.419 E9.86289
G1 X171.347 Y172.687 E9.87701
G1 X171.307 Y172.941 E9.89042
G1 X171.018 Y174.639 E9.98022
G1 X170.812 Y175.742 E10.03872
G1 X170.711 Y176.253 E10.06587
G1 X170.334 Y178.034 E10.16079
G1 X170.05 Y179.267 E10.22675
G1 X169.73 Y180.534 E10.29488
G1 X169.658 Y180.803 E10.3094
G1 X169.235 Y182.305 E10.39075
G1 X168.97 Y183.197 E10.43927
G1 X168.659 Y184.189 E10.49347
G1 X168.563 Y184.48 E10.50944
G1 X168.202 Y185.522 E10.56693
G1 X167.842 Y186.515 E10.622
G1 X167.735 Y186.798 E10.63778
G1 X167.376 Y187.703 E10.68853
G1 X167.096 Y188.382 E10.72683
G1 X166.988 Y188.635 E10.74117
G1 X166.577 Y189.563 E10.79408
G1 X166.49 Y189.755 E10.80507
G1 X166.167 Y190.447 E10.84489
G1 X166.045 Y190.698 E10.85944
G1 X165.634 Y191.523 E10.90749
G1 X165.204 Y192.348 E10.95599
G1 X165.049 Y192.635 E10.973
G1 X164.768 Y193.133 E11.00281
G1 X164.251 Y194.024 E11.05652
G1 X164.098 Y194.279 E11.07202
G1 X163.826 Y194.717 E11.0989
G1 X163.245 Y195.62 E11.15488
G1 X163.068 Y195.886 E11.17154
G1 X162.806 Y196.265 E11.19556
G1 X162.483 Y196.719 E11.22461
G1 X162.311 Y196.954 E11.23979
G1 X161.658 Y197.818 E11.29625
G1 X161.126 Y198.499 E11.34131
G1 X160.674 Y199.062 E11.37895
G1 X160.424 Y199.362 E11.39931
G1 X160.235 Y199.578 E11.41427
G1 X159.852 Y200.004 E11.44414
G1 X159.174 Y200.743 E11.49642
G1 X158.681 Y201.267 E11.53393
G1 X158.439 Y201.515 E11.552
G1 X158.013 Y201.936 E11.58322
G1 X157.42 Y202.499 E11.62585
G1 X156.994 Y202.891 E11.65604
G1 X156.743 Y203.114 E11.67354
G1 X155.724 Y203.989 E11.74356
G1 X155.351 Y204.298 E11.76882
G1 X155.03 Y204.555 E11.79026
G1 X154.74 Y204.779 E11.80936
G1 X153.655 Y205.588 E11.87992
G1 X153.333 Y205.821 E11.90064
G1 X152.628 Y206.311 E11.9454
G1 X152.406 Y206.461 E11.95937
G1 X152.106 Y206.658 E11.97808
G1 X151.855 Y206.818 E11.9936
G1 X150.902 Y207.405 E12.05195
G1 X150.301 Y207.765 E12.08848
G1 X150.014 Y207.931 E12.10576
G1 X149.257 Y208.353 E12.15095
G1 X149.018 Y208.482 E12.16511
G1 X148.185 Y208.919 E12.21415
G1 X147.958 Y209.035 E12.22744
G1 X147.591 Y209.216 E12.24878
G1 X147.056 Y209.472 E12.2797
G1 X146.221 Y209.86 E12.3277
G1 X145.995 Y209.962 E12.34063
G1 X145.632 Y210.12 E12.36127
G1 X144.999 Y210.389 E12.39712
G1 X144.173 Y210.726 E12.44363
G1 X143.936 Y210.82 E12.45693
G1 X143.263 Y211.076 E12.49447
G1 X143.011 Y211.168 E12.50845
G1 X141.26 Y211.784 E12.60523
G1 X140.909 Y211.9 E12.6245
G1 X139.562 Y212.322 E12.69809
G1 X139.259 Y212.412 E12.71457
G1 X137.74 Y212.839 E12.79683
G1 X137.319 Y212.95 E12.81953
G1 X135.966 Y213.29 E12.89226
G1 X135.396 Y213.425 E12.9228
G1 X134.018 Y213.732 E12.99641
G1 X133.345 Y213.872 E13.03225
G1 X131.982 Y214.138 E13.10465
G1 X131.221 Y214.276 E13.14497
G1 X129.936 Y214.496 E13.21294
G1 X129.011 Y214.642 E13.26176
G1 X127.728 Y214.832 E13.32938
G1 X126.791 Y214.959 E13.37868
G1 X125.034 Y215.178 E13.47099
G1 X124.264 Y215.267 E13.5114
G1 X123.197 Y215.38 E13.56734
G1 X121.728 Y215.522 E13.64428
G1 X120.834 Y215.6 E13.69107
G1 X119.096 Y215.737 E13.78196
G1 X118.345 Y215.789 E13.82121
G1 X116.443 Y215.908 E13.92056
G1 X115.68 Y215.948 E13.96039
G1 X113.735 Y216.039 E14.06191
G1 X112.842 Y216.073 E14.1085
G1 X110.823 Y216.138 E14.21381
G1 X110.05 Y216.158 E14.25413
G1 X107.734 Y216.201 E14.3749
G1 X107.053 Y216.209 E14.4104
G1 X104.685 Y216.222 E14.53386
G1 X104.028 Y216.223 E14.56811
G1 X101.688 Y216.209 E14.69011
G1 X101.041 Y216.201 E14.72385
G1 X98.912 Y216.165 E14.83486
G1 X98.266 Y216.15 E14.86855
G1 X96.27 Y216.089 E14.97266
G1 X95.532 Y216.063 E15.01116
G1 X93.721 Y215.985 E15.10566
G1 X92.6 Y215.926 E15.16419
G1 X91.185 Y215.844 E15.23808
G1 X90.254 Y215.783 E15.28672
G1 X88.748 Y215.673 E15.36545
G1 X87.941 Y215.608 E15.40766
G1 X86.489 Y215.479 E15.48366
G1 X85.435 Y215.376 E15.53887
G1 X84.255 Y215.249 E15.60074
G1 X83.308 Y215.141 E15.65043
G1 X82.259 Y215.011 E15.70554
G1 X81.488 Y214.908 E15.7461
G1 X80.608 Y214.785 E15.79242
G1 X78.985 Y214.535 E15.87803
G1 X77.346 Y214.253 E15.96474
G1 X77.189 Y214.229 E15.97302
G1 X75.989 Y214.004 E16.03667
G1 X75.647 Y213.935 E16.05486
G1 X73.884 Y213.563 E16.1488
G1 X72.78 Y213.309 E16.20786
G1 X71.38 Y212.957 E16.28312
G1 X71.106 Y212.884 E16.29791
G1 X69.486 Y212.428 E16.38565
G1 X68.676 Y212.186 E16.42972
G1 X67.69 Y211.876 E16.48361
G1 X67.398 Y211.78 E16.49963
G1 X66.384 Y211.427 E16.55561
G1 X65.337 Y211.047 E16.61368
G1 X65.053 Y210.94 E16.6295
G1 X64.187 Y210.596 E16.67808
G1 X63.492 Y210.309 E16.71728
G1 X63.248 Y210.204 E16.73113
G1 X62.344 Y209.804 E16.78267
G1 X62.139 Y209.711 E16.79441
G1 X61.438 Y209.383 E16.83476
G1 X61.196 Y209.266 E16.84877
G1 X60.372 Y208.855 E16.89678
G1 X59.537 Y208.419 E16.94589
G1 X59.262 Y208.271 E16.96217
G1 X58.706 Y207.958 E16.99543
G1 X57.82 Y207.442 E17.04889
G1 X57.562 Y207.287 E17.06458
G1 X57.322 Y207.138 E17.07931
G1 X56.25 Y206.448 E17.14577
G1 X55.973 Y206.264 E17.16311
G1 X55.646 Y206.037 E17.18386
G1 X55.191 Y205.714 E17.21296
G1 X54.938 Y205.529 E17.2293
G1 X54.066 Y204.869 E17.28631
G1 X53.402 Y204.349 E17.33028
G1 X52.838 Y203.896 E17.368
G1 X52.539 Y203.648 E17.38825
G1 X52.329 Y203.465 E17.40277
G1 X51.891 Y203.071 E17.43349
G1 X51.137 Y202.379 E17.48684
G1 X50.625 Y201.897 E17.5235
G1 X50.378 Y201.657 E17.54146
G1 X50.142 Y201.42 E17.55889
G1 X49.959 Y201.231 E17.57261
G1 X49.283 Y200.516 E17.62391
G1 X49.024 Y200.234 E17.64387
G1 X48.784 Y199.963 E17.66274
G1 X47.818 Y198.836 E17.74013
G1 X47.598 Y198.569 E17.75817
G1 X47.157 Y198.019 E17.79492
G1 X46.942 Y197.741 E17.81324
G1 X46.637 Y197.331 E17.83989
G1 X45.976 Y196.408 E17.89907
G1 X45.593 Y195.857 E17.93406
G1 X45.425 Y195.608 E17.94972
G1 X45.253 Y195.345 E17.9661
G1 X45.106 Y195.115 E17.98033
G1 X44.472 Y194.087 E18.0433
G1 X44.12 Y193.497 E18.07912
G1 X43.983 Y193.259 E18.09344
G1 X43.571 Y192.523 E18.13741
G1 X43.386 Y192.178 E18.15782
G1 X42.973 Y191.389 E18.20425
G1 X42.757 Y190.959 E18.22934
G1 X42.487 Y190.401 E18.26166
G1 X42.032 Y189.424 E18.31784
G1 X41.899 Y189.126 E18.33486
G1 X41.522 Y188.244 E18.38487
G1 X41.167 Y187.376 E18.43376
G1 X41.072 Y187.136 E18.44721
G1 X40.832 Y186.506 E18.48236
G1 X40.738 Y186.247 E18.49673
G1 X40.161 Y184.606 E18.58742
G1 X40.035 Y184.226 E18.60829
G1 X39.491 Y182.471 E18.70408
G1 X39.412 Y182.203 E18.71865
G1 X39.076 Y181.009 E18.78331
G1 X39.001 Y180.73 E18.79838
G1 X38.596 Y179.12 E18.88493
G1 X38.479 Y178.622 E18.9116
G1 X38.17 Y177.236 E18.98563
G1 X38.034 Y176.576 E19.02077
G1 X37.764 Y175.203 E19.09372
G1 X37.632 Y174.475 E19.13229
G1 X37.343 Y172.757 E19.22312
G1 X37.258 Y172.223 E19.25131
G1 X37.061 Y170.89 E19.32156
G1 X36.937 Y169.977 E19.3696
G1 X36.75 Y168.463 E19.44913
G1 X36.63 Y167.429 E19.5034
G1 X36.524 Y166.439 E19.55531
G1 X36.38 Y164.951 E19.63325
G1 X36.298 Y164.017 E19.68213
G1 X36.177 Y162.464 E19.76334
G1 X36.103 Y161.4 E19.81895
G1 X36.004 Y159.816 E19.90169
G1 X35.949 Y158.813 E19.95406
G1 X35.86 Y156.883 E20.05479
G1 X35.83 Y156.12 E20.0946
G1 X35.761 Y153.939 E20.20836
G1 X35.744 Y153.232 E20.24523
G1 X35.702 Y150.951 E20.36417
G1 X35.694 Y150.231 E20.40171
G1 X35.681 Y147.909 E20.52277
G1 X35.68 Y147.247 E20.55729
G1 X35.693 Y144.883 E20.68054
G1 X35.7 Y144.286 E20.71166
G1 X35.739 Y142.089 E20.82622
G1 X35.819 Y139.307 E20.97132
G1 X35.839 Y138.769 E20.99939
G1 X35.918 Y136.933 E21.0952
G1 X35.968 Y135.975 E21.14521
G1 X36.061 Y134.37 E21.22903
G1 X36.121 Y133.446 E21.2773
G1 X36.234 Y131.904 E21.35791
G1 X36.294 Y131.158 E21.39693
G1 X36.423 Y129.721 E21.47215
G1 X36.526 Y128.66 E21.52773
G1 X36.653 Y127.476 E21.58981
G1 X36.761 Y126.536 E21.63914
G1 X36.883 Y125.55 E21.69094
G1 X37.018 Y124.534 E21.74437
G1 X37.131 Y123.74 E21.78618
G1 X37.266 Y122.841 E21.83358
G1 X37.381 Y122.123 E21.87149
G1 X37.576 Y120.993 E21.93127
G1 X37.6 Y120.838 E21.93945
G1 X37.651 Y120.542 E21.95511
G1 X37.892 Y119.245 E22.02389
G1 X37.967 Y118.871 E22.04377
G1 X38.33 Y117.16 E22.13496
G1 X38.609 Y115.942 E22.20011
G1 X38.688 Y115.618 E22.21749
G1 X38.934 Y114.643 E22.26992
G1 X39.009 Y114.361 E22.28513
G1 X39.494 Y112.644 E22.37815
G1 X39.719 Y111.895 E22.41892
G1 X40.043 Y110.866 E22.47517
G1 X40.136 Y110.584 E22.49065
G1 X40.489 Y109.566 E22.54682
G1 X40.803 Y108.697 E22.59499
G1 X40.907 Y108.422 E22.61032
G1 X41.237 Y107.582 E22.65737
G1 X41.664 Y106.548 E22.7157
G1 X41.779 Y106.281 E22.73085
G1 X42.097 Y105.569 E22.77151
G1 X42.183 Y105.381 E22.78229
G1 X42.544 Y104.613 E22.82653
G1 X42.649 Y104.396 E22.8391
G1 X43.055 Y103.58 E22.88662
G1 X43.498 Y102.734 E22.9364
G1 X43.63 Y102.489 E22.95091
G1 X43.898 Y102.012 E22.97944
G1 X44.427 Y101.101 E23.03436
G1 X44.576 Y100.852 E23.04949
G1 X44.744 Y100.58 E23.06615
G1 X45.415 Y99.535 E23.1309
G1 X45.574 Y99.294 E23.14595
G1 X45.746 Y99.042 E23.16186
G1 X46.114 Y98.521 E23.19511
G1 X46.319 Y98.241 E23.21321
G1 X47.234 Y97.035 E23.29213
G1 X47.568 Y96.608 E23.32039
G1 X47.964 Y96.113 E23.35344
G1 X48.184 Y95.847 E23.37144
G1 X48.451 Y95.54 E23.39265
G1 X48.845 Y95.102 E23.42337
G1 X49.501 Y94.387 E23.47395
G1 X50.006 Y93.85 E23.51239
G1 X50.25 Y93.599 E23.53064
G1 X50.485 Y93.365 E23.54793
G1 X50.668 Y93.188 E23.5612
G1 X51.259 Y92.627 E23.60368
G1 X51.709 Y92.213 E23.63556
G1 X51.951 Y91.998 E23.65244
G1 X52.913 Y91.171 E23.71858
G1 X53.256 Y90.886 E23.74183
G1 X53.889 Y90.379 E23.78411
G1 X54.106 Y90.21 E23.79845
G1 X54.53 Y89.892 E23.82608
G1 X55.353 Y89.3 E23.87894
G1 X56.039 Y88.822 E23.92253
G1 X56.3 Y88.646 E23.93894
G1 X56.565 Y88.473 E23.95544
G0 F6000 X56.805 Y88.841
G1 F1200 X57.02 Y88.705 E23.9687
G1 X58.003 Y88.098 E24.02893
G1 X58.616 Y87.731 E24.06618
G1 X58.864 Y87.588 E24.08111
