;FLAVOR:Marlin
;TIME:1611
;Filament used: 1.65349m
;Layer height: 0.3
;MINX:90.846
;MINY:125.821
;MINZ:0.3
;MAXX:128.956
;MAXY:191.844
;MAXZ:27.3
;Generated with Cura_SteamEngine 4.10.0
M104 S205
M105
M109 S205
M82 ;absolute extrusion mode
G21 ;metric values
G90 ;absolute positioning
M82 ;set extruder to absolute mode
M107 ;start with the fan off
G28 X0 Y0 ;move X/Y to min endstops
G28 Z0 ;move Z to min endstops
M501
M420 S1 ;Marlin Bed-leveling on
G1 Z15.0 F120 ;move the platform down 15mm
G92 E0 ;zero the extruded length
G1 F200 E3 ;extrude 3mm of feed stock
G92 E0 ;zero the extruded length again
G1 F120
M117 Printing...
G5
G92 E0
G92 E0
G1 F2400 E-6
;LAYER_COUNT:91
;LAYER:0
M107
M204 S3000
M205 X10 Y10
G1 F600 Z0.375
G0 F1200 X93.472 Y129.273 Z0.375
M204 S1800
M205 X8 Y8
;TYPE:SKIRT
G1 F600 Z0.3
G1 F2400 E0
G1 F1200 X93.935 Y128.942 E0.04472
G1 X94.503 Y128.586 E0.0974
G1 X94.931 Y128.346 E0.13595
G1 X95.549 Y128.028 E0.19057
G1 X96.329 Y127.673 E0.25791
G1 X96.852 Y127.471 E0.30196
G1 X97.011 Y127.417 E0.31515
G1 X97.719 Y127.219 E0.37292
G1 X98.443 Y127.099 E0.43059
G1 X99.068 Y127.059 E0.4798
G1 X100.008 Y127.044 E0.55367
G1 X101.138 Y127.043 E0.64246
G1 X106.122 Y127.052 E1.03409
G1 X114.266 Y127.051 E1.67402
G1 X115.759 Y127.046 E1.79134
G1 X119.929 Y127.042 E2.11901
G1 X120.652 Y127.051 E2.17582
G1 X121.384 Y127.1 E2.23347
G1 X122.108 Y127.228 E2.29124
G1 X122.741 Y127.41 E2.34299
G1 X123.394 Y127.648 E2.39761
G1 X123.658 Y127.758 E2.42008
G1 X124.134 Y127.967 E2.46093
G1 X124.624 Y128.206 E2.50377
G1 X125.207 Y128.529 E2.55614
G1 X125.761 Y128.87 E2.60726
G1 X125.922 Y128.977 E2.62245
G1 X126.511 Y129.417 E2.68022
G1 X127.048 Y129.917 E2.73787
G1 X127.528 Y130.473 E2.79559
G1 X127.945 Y131.078 E2.85333
G1 X128.294 Y131.725 E2.91109
G1 X128.57 Y132.406 E2.96883
G1 X128.77 Y133.112 E3.02649
G1 X128.893 Y133.837 E3.08427
G1 X128.947 Y134.685 E3.15104
G1 X128.955 Y135.317 E3.2007
G1 X128.933 Y136.446 E3.28943
G1 X128.918 Y139.095 E3.49759
G1 X128.934 Y139.965 E3.56596
G1 X128.956 Y141.636 E3.69727
G1 X128.956 Y141.824 E3.71205
G1 X128.936 Y143.216 E3.82144
G1 X128.94 Y143.533 E3.84635
G1 X128.92 Y144.785 E3.94474
G1 X128.943 Y146.459 E4.07629
G1 X128.935 Y146.663 E4.09233
G1 X128.956 Y148.128 E4.20746
G1 X128.956 Y148.324 E4.22286
G1 X128.936 Y149.716 E4.33225
G1 X128.94 Y150.033 E4.35716
G1 X128.92 Y151.285 E4.45555
G1 X128.943 Y152.959 E4.5871
G1 X128.935 Y153.163 E4.60315
G1 X128.956 Y154.628 E4.71827
G1 X128.956 Y154.824 E4.73367
G1 X128.936 Y156.216 E4.84306
G1 X128.94 Y156.533 E4.86798
G1 X128.92 Y157.785 E4.96637
G1 X128.943 Y159.459 E5.09792
G1 X128.935 Y159.663 E5.11396
G1 X128.956 Y161.128 E5.22909
G1 X128.956 Y161.324 E5.24449
G1 X128.936 Y162.716 E5.35388
G1 X128.94 Y163.033 E5.37879
G1 X128.92 Y164.285 E5.47718
G1 X128.943 Y165.959 E5.60873
G1 X128.935 Y166.163 E5.62477
G1 X128.956 Y167.628 E5.7399
G1 X128.956 Y167.824 E5.7553
G1 X128.936 Y169.216 E5.86469
G1 X128.94 Y169.533 E5.8896
G1 X128.92 Y170.785 E5.98799
G1 X128.943 Y172.459 E6.11954
G1 X128.935 Y172.663 E6.13559
G1 X128.956 Y174.128 E6.25071
G1 X128.956 Y174.324 E6.26611
G1 X128.936 Y175.716 E6.3755
G1 X128.94 Y176.033 E6.40042
G1 X128.92 Y177.285 E6.49881
G1 X128.943 Y178.959 E6.63036
G1 X128.935 Y179.163 E6.6464
G1 X128.956 Y180.628 E6.76153
G1 X128.95 Y181.241 E6.8097
G1 X128.937 Y181.62 E6.83949
G1 X128.866 Y182.351 E6.8972
G1 X128.715 Y183.07 E6.95493
G1 X128.488 Y183.768 E7.01261
G1 X128.186 Y184.438 E7.07036
G1 X127.813 Y185.07 E7.12802
G1 X127.373 Y185.659 E7.18579
G1 X126.872 Y186.196 E7.2435
G1 X126.316 Y186.676 E7.30122
G1 X125.667 Y187.118 E7.36292
G1 X124.954 Y187.546 E7.42826
G1 X124.568 Y187.761 E7.46298
G1 X123.818 Y188.147 E7.52926
G1 X121.442 Y189.413 E7.74081
G1 X118.969 Y190.824 E7.96453
G1 X118.813 Y190.915 E7.97872
G1 X118.159 Y191.25 E8.03646
G1 X117.473 Y191.512 E8.09416
G1 X116.763 Y191.698 E8.15184
G1 X116.036 Y191.805 E8.20958
G1 X115.193 Y191.83 E8.27585
G1 X114.459 Y191.806 E8.33355
G1 X113.014 Y191.74 E8.44722
G1 X110.389 Y191.695 E8.65351
G1 X107.724 Y191.725 E8.86293
G1 X104.846 Y191.844 E9.08927
G1 X104.283 Y191.844 E9.13351
G1 X104.117 Y191.837 E9.14656
G1 X103.385 Y191.766 E9.20435
G1 X102.666 Y191.616 E9.26207
G1 X101.968 Y191.389 E9.31974
G1 X101.036 Y190.945 E9.40086
G1 X98.672 Y189.585 E9.61516
G1 X95.396 Y187.841 E9.90679
G1 X94.528 Y187.362 E9.98469
G1 X94.091 Y187.099 E10.02476
G1 X93.923 Y186.989 E10.04054
G1 X93.332 Y186.554 E10.0982
G1 X92.791 Y186.057 E10.15593
G1 X92.307 Y185.504 E10.21368
G1 X91.886 Y184.902 E10.2714
G1 X91.533 Y184.258 E10.32911
G1 X91.252 Y183.579 E10.38685
G1 X91.047 Y182.874 E10.44454
G1 X90.92 Y182.15 E10.5023
G1 X90.855 Y181.176 E10.579
G1 X90.846 Y180.639 E10.6212
G1 X90.867 Y179.207 E10.73374
G1 X90.863 Y178.893 E10.75841
G1 X90.883 Y177.644 E10.85657
G1 X90.86 Y175.967 E10.98836
G1 X90.867 Y175.784 E11.00275
G1 X90.846 Y174.339 E11.1163
G1 X90.846 Y174.139 E11.13202
G1 X90.867 Y172.707 E11.24455
G1 X90.863 Y172.393 E11.26923
G1 X90.883 Y171.144 E11.36738
G1 X90.86 Y169.467 E11.49917
G1 X90.867 Y169.284 E11.51356
G1 X90.846 Y167.839 E11.62711
G1 X90.846 Y167.639 E11.64283
G1 X90.867 Y166.207 E11.75536
G1 X90.863 Y165.893 E11.78004
G1 X90.883 Y164.644 E11.87819
G1 X90.86 Y162.967 E12.00998
G1 X90.867 Y162.784 E12.02437
G1 X90.846 Y161.339 E12.13793
G1 X90.846 Y161.139 E12.15364
G1 X90.867 Y159.707 E12.26618
G1 X90.863 Y159.393 E12.29085
G1 X90.883 Y158.144 E12.38901
G1 X90.86 Y156.467 E12.52079
G1 X90.867 Y156.284 E12.53518
G1 X90.846 Y154.839 E12.64874
G1 X90.846 Y154.639 E12.66445
G1 X90.867 Y153.207 E12.77699
G1 X90.863 Y152.893 E12.80166
G1 X90.883 Y151.644 E12.89982
G1 X90.86 Y149.967 E13.03161
G1 X90.867 Y149.784 E13.046
G1 X90.846 Y148.339 E13.15955
G1 X90.846 Y148.139 E13.17527
G1 X90.867 Y146.707 E13.2878
G1 X90.863 Y146.393 E13.31248
G1 X90.883 Y145.144 E13.41063
G1 X90.86 Y143.467 E13.54242
G1 X90.867 Y143.284 E13.55681
G1 X90.846 Y141.839 E13.67036
G1 X90.846 Y141.639 E13.68608
G1 X90.868 Y140.173 E13.80129
G1 X90.864 Y139.895 E13.82313
G1 X90.886 Y138.513 E13.93174
G1 X90.87 Y136.588 E14.08301
G1 X90.847 Y135.351 E14.18022
G1 X90.853 Y134.69 E14.23216
G1 X90.864 Y134.336 E14.25999
G1 X90.934 Y133.605 E14.3177
G1 X91.082 Y132.885 E14.37546
G1 X91.308 Y132.186 E14.43318
G1 X91.608 Y131.516 E14.49086
G1 X91.979 Y130.882 E14.54858
G1 X92.417 Y130.292 E14.60632
G1 X92.917 Y129.754 E14.66404
G1 X93.472 Y129.273 E14.72174
M204 S3000
M205 X10 Y10
G0 X94.213 Y129.599
M204 S1800
M205 X8 Y8
G1 X94.868 Y129.183 E14.78272
G1 X95.251 Y128.968 E14.81723
G1 X95.869 Y128.65 E14.87184
G1 X96.609 Y128.315 E14.93567
G1 X97.077 Y128.133 E14.97513
G1 X97.236 Y128.079 E14.98832
G1 X97.907 Y127.894 E15.04301
G1 X98.594 Y127.787 E15.09765
G1 X99.08 Y127.759 E15.1359
G1 X100.009 Y127.744 E15.20891
G1 X101.137 Y127.743 E15.29754
G1 X106.12 Y127.752 E15.68909
G1 X114.269 Y127.751 E16.32941
G1 X115.759 Y127.746 E16.4465
G1 X120.012 Y127.742 E16.78068
G1 X120.643 Y127.75 E16.83027
G1 X121.336 Y127.799 E16.88486
G1 X122.02 Y127.927 E16.93954
G1 X122.516 Y128.073 E16.98017
G1 X123.14 Y128.3 E17.03234
G1 X123.376 Y128.398 E17.05242
G1 X123.852 Y128.607 E17.09327
G1 X124.597 Y128.987 E17.15899
G1 X125.145 Y129.309 E17.20893
G1 X125.535 Y129.56 E17.24537
G1 X126.091 Y129.978 E17.30003
G1 X126.595 Y130.456 E17.35461
G1 X127.042 Y130.99 E17.40933
G1 X127.424 Y131.571 E17.46397
G1 X127.737 Y132.192 E17.51861
G1 X127.976 Y132.845 E17.57325
G1 X128.139 Y133.521 E17.6279
G1 X128.23 Y134.323 E17.69132
G1 X128.254 Y134.93 E17.73905
G1 X128.255 Y135.303 E17.76836
G1 X128.234 Y136.394 E17.8541
G1 X128.218 Y139.104 E18.06705
G1 X128.234 Y139.974 E18.13543
G1 X128.256 Y141.645 E18.26674
G1 X128.256 Y141.814 E18.28002
G1 X128.234 Y143.311 E18.39766
G1 X128.24 Y143.522 E18.41425
G1 X128.219 Y144.784 E18.51343
G1 X128.243 Y146.469 E18.64584
G1 X128.235 Y146.654 E18.66039
G1 X128.256 Y148.138 E18.77701
G1 X128.256 Y148.314 E18.79084
G1 X128.234 Y149.811 E18.90848
G1 X128.24 Y150.022 E18.92507
G1 X128.219 Y151.284 E19.02425
G1 X128.243 Y152.969 E19.15666
G1 X128.235 Y153.154 E19.17121
G1 X128.256 Y154.638 E19.28783
G1 X128.256 Y154.814 E19.30166
G1 X128.234 Y156.311 E19.41931
G1 X128.24 Y156.522 E19.43589
G1 X128.219 Y157.784 E19.53507
G1 X128.243 Y159.469 E19.66749
G1 X128.235 Y159.654 E19.68204
G1 X128.256 Y161.138 E19.79866
G1 X128.256 Y161.314 E19.81249
G1 X128.234 Y162.811 E19.93013
G1 X128.24 Y163.022 E19.94672
G1 X128.219 Y164.284 E20.04589
G1 X128.243 Y165.969 E20.17831
G1 X128.235 Y166.154 E20.19286
G1 X128.256 Y167.638 E20.30948
G1 X128.256 Y167.814 E20.32331
G1 X128.234 Y169.311 E20.44095
G1 X128.24 Y169.522 E20.45754
G1 X128.219 Y170.784 E20.55672
G1 X128.243 Y172.469 E20.68913
G1 X128.235 Y172.654 E20.70368
G1 X128.256 Y174.138 E20.8203
G1 X128.256 Y174.314 E20.83413
G1 X128.234 Y175.811 E20.95178
G1 X128.24 Y176.022 E20.96836
G1 X128.219 Y177.284 E21.06754
G1 X128.243 Y178.969 E21.19996
G1 X128.235 Y179.16 E21.21498
G1 X128.256 Y180.638 E21.33113
G1 X128.25 Y181.231 E21.37772
G1 X128.237 Y181.59 E21.40595
G1 X128.168 Y182.282 E21.4606
G1 X128.019 Y182.961 E21.51522
G1 X127.794 Y183.619 E21.56986
G1 X127.494 Y184.246 E21.62448
G1 X127.125 Y184.835 E21.67909
G1 X126.69 Y185.378 E21.73376
G1 X126.196 Y185.867 E21.78838
G1 X125.649 Y186.297 E21.84306
G1 X125.307 Y186.518 E21.87505
G1 X124.594 Y186.946 E21.9404
G1 X124.248 Y187.139 E21.97153
G1 X123.453 Y187.548 E22.04178
G1 X121.121 Y188.791 E22.24942
G1 X118.46 Y190.31 E22.49019
G1 X117.841 Y190.625 E22.54476
G1 X117.189 Y190.867 E22.59941
G1 X116.513 Y191.033 E22.65411
G1 X115.823 Y191.12 E22.70875
G1 X115.216 Y191.131 E22.75646
G1 X114.491 Y191.107 E22.81346
G1 X113.023 Y191.04 E22.92893
G1 X110.393 Y190.995 E23.13562
G1 X107.72 Y191.025 E23.34567
G1 X104.817 Y191.145 E23.57397
G1 X104.312 Y191.145 E23.61365
G1 X104.146 Y191.138 E23.62671
G1 X103.454 Y191.068 E23.68136
G1 X102.775 Y190.92 E23.73597
G1 X102.117 Y190.695 E23.79061
G1 X101.385 Y190.338 E23.8546
G1 X99.012 Y188.974 E24.06968
G1 X95.734 Y187.228 E24.36151
G1 X94.866 Y186.749 E24.43941
G1 X94.307 Y186.404 E24.49103
G1 X93.748 Y185.99 E24.54569
G1 X93.24 Y185.515 E24.60034
G1 X92.79 Y184.984 E24.65503
G1 X92.404 Y184.406 E24.70964
G1 X92.087 Y183.787 E24.76429
G1 X91.843 Y183.136 E24.81892
G1 X91.675 Y182.461 E24.87358
G1 X91.578 Y181.636 E24.93885
G1 X91.548 Y180.96 E24.99202
G1 X91.546 Y180.649 E25.01646
G1 X91.569 Y179.114 E25.13709
G1 X91.563 Y178.905 E25.15351
G1 X91.584 Y177.647 E25.25238
G1 X91.56 Y175.958 E25.38511
G1 X91.567 Y175.786 E25.39864
G1 X91.546 Y174.329 E25.51313
G1 X91.546 Y174.149 E25.52728
G1 X91.569 Y172.614 E25.64791
G1 X91.563 Y172.405 E25.66434
G1 X91.584 Y171.147 E25.7632
G1 X91.56 Y169.458 E25.89593
G1 X91.567 Y169.286 E25.90946
G1 X91.546 Y167.829 E26.02396
G1 X91.546 Y167.649 E26.0381
G1 X91.569 Y166.114 E26.15873
G1 X91.563 Y165.905 E26.17516
G1 X91.584 Y164.647 E26.27402
G1 X91.56 Y162.958 E26.40675
G1 X91.567 Y162.786 E26.42028
G1 X91.546 Y161.329 E26.53478
G1 X91.546 Y161.149 E26.54892
G1 X91.569 Y159.614 E26.66955
G1 X91.563 Y159.405 E26.68598
G1 X91.584 Y158.147 E26.78484
G1 X91.56 Y156.458 E26.91757
G1 X91.567 Y156.286 E26.9311
G1 X91.546 Y154.829 E27.0456
G1 X91.546 Y154.649 E27.05974
G1 X91.569 Y153.114 E27.18037
G1 X91.563 Y152.905 E27.1968
G1 X91.584 Y151.647 E27.29566
G1 X91.56 Y149.958 E27.42839
G1 X91.567 Y149.786 E27.44192
G1 X91.546 Y148.329 E27.55642
G1 X91.546 Y148.149 E27.57056
G1 X91.569 Y146.614 E27.69119
G1 X91.563 Y146.405 E27.70762
G1 X91.584 Y145.147 E27.80649
G1 X91.56 Y143.458 E27.93922
G1 X91.567 Y143.286 E27.95274
G1 X91.546 Y141.829 E28.06724
G1 X91.546 Y141.649 E28.08139
G1 X91.569 Y140.091 E28.20382
G1 X91.564 Y139.906 E28.21836
G1 X91.587 Y138.518 E28.32744
G1 X91.57 Y136.582 E28.47957
G1 X91.547 Y135.338 E28.57734
G1 X91.553 Y134.7 E28.62748
G1 X91.564 Y134.364 E28.65389
G1 X91.632 Y133.672 E28.70853
G1 X91.778 Y132.992 E28.76318
G1 X92.002 Y132.334 E28.8178
G1 X92.3 Y131.705 E28.87249
G1 X92.668 Y131.115 E28.92713
G1 X93.101 Y130.571 E28.98176
G1 X93.594 Y130.081 E29.03638
G1 X94.213 Y129.599 E29.09802
M204 S3000
M205 X10 Y10
G0 X94.267 Y130.428
M204 S1800
M205 X8 Y8
G1 X94.721 Y130.1 E29.14204
G1 X95.232 Y129.781 E29.18937
G1 X95.571 Y129.591 E29.21991
G1 X96.189 Y129.273 E29.27452
G1 X96.888 Y128.956 E29.33483
G1 X97.462 Y128.742 E29.38296
G1 X98.092 Y128.57 E29.43428
G1 X98.74 Y128.476 E29.48573
G1 X99.092 Y128.459 E29.51342
G1 X100.009 Y128.444 E29.58549
G1 X101.136 Y128.443 E29.67404
G1 X106.118 Y128.452 E30.06551
G1 X114.271 Y128.451 E30.70615
G1 X115.76 Y128.446 E30.82315
G1 X120.003 Y128.442 E31.15656
G1 X120.634 Y128.45 E31.20614
G1 X121.286 Y128.499 E31.25752
G1 X121.927 Y128.626 E31.30887
G1 X122.478 Y128.799 E31.35425
G1 X123.095 Y129.039 E31.40627
G1 X123.571 Y129.248 E31.44712
G1 X124.265 Y129.603 E31.50837
G1 X124.784 Y129.908 E31.55567
G1 X125.147 Y130.143 E31.58965
G1 X125.669 Y130.538 E31.64109
G1 X126.138 Y130.993 E31.69243
G1 X126.549 Y131.502 E31.74384
G1 X126.894 Y132.057 E31.79519
G1 X127.169 Y132.651 E31.84662
G1 X127.369 Y133.273 E31.89796
G1 X127.492 Y133.915 E31.94933
G1 X127.548 Y134.749 E32.01501
G1 X127.555 Y135.289 E32.05744
G1 X127.534 Y136.344 E32.14036
G1 X127.518 Y139.113 E32.35794
G1 X127.535 Y139.984 E32.4264
G1 X127.557 Y141.655 E32.55771
G1 X127.533 Y143.35 E32.69091
G1 X127.54 Y143.51 E32.7035
G1 X127.519 Y144.77 E32.80252
G1 X127.543 Y146.479 E32.93682
G1 X127.535 Y146.661 E32.95113
G1 X127.556 Y148.148 E33.06799
G1 X127.556 Y148.304 E33.08025
G1 X127.533 Y149.85 E33.20174
G1 X127.54 Y150.01 E33.21432
G1 X127.519 Y151.27 E33.31334
G1 X127.543 Y152.979 E33.44765
G1 X127.535 Y153.161 E33.46196
G1 X127.556 Y154.648 E33.57882
G1 X127.556 Y154.804 E33.59107
G1 X127.533 Y156.35 E33.71257
G1 X127.54 Y156.51 E33.72515
G1 X127.519 Y157.77 E33.82417
G1 X127.543 Y159.479 E33.95848
G1 X127.535 Y159.661 E33.97279
G1 X127.556 Y161.148 E34.08965
G1 X127.556 Y161.304 E34.1019
G1 X127.533 Y162.85 E34.2234
G1 X127.54 Y163.01 E34.23598
G1 X127.519 Y164.27 E34.335
G1 X127.543 Y165.979 E34.4693
G1 X127.535 Y166.161 E34.48362
G1 X127.556 Y167.648 E34.60047
G1 X127.556 Y167.804 E34.61273
G1 X127.533 Y169.35 E34.73423
G1 X127.54 Y169.51 E34.74681
G1 X127.519 Y170.77 E34.84583
G1 X127.543 Y172.479 E34.98013
G1 X127.535 Y172.661 E34.99445
G1 X127.556 Y174.148 E35.1113
G1 X127.556 Y174.304 E35.12356
G1 X127.533 Y175.85 E35.24506
G1 X127.54 Y176.01 E35.25764
G1 X127.519 Y177.27 E35.35666
G1 X127.543 Y178.979 E35.49096
G1 X127.535 Y179.161 E35.50528
G1 X127.556 Y180.648 E35.62213
G1 X127.55 Y181.221 E35.66716
G1 X127.538 Y181.56 E35.69381
G1 X127.47 Y182.21 E35.74517
G1 X127.324 Y182.847 E35.79652
G1 X127.1 Y183.462 E35.84795
G1 X126.804 Y184.045 E35.89933
G1 X126.438 Y184.587 E35.95072
G1 X126.009 Y185.08 E36.00207
G1 X125.523 Y185.518 E36.05348
G1 X124.946 Y185.918 E36.10864
G1 X124.233 Y186.346 E36.17399
G1 X123.927 Y186.516 E36.2015
G1 X123.201 Y186.89 E36.26567
G1 X120.758 Y188.192 E36.48319
G1 X118.108 Y189.705 E36.72297
G1 X117.524 Y190 E36.77438
G1 X116.908 Y190.22 E36.82578
G1 X116.271 Y190.365 E36.87711
G1 X115.62 Y190.43 E36.92852
G1 X115.238 Y190.431 E36.95854
G1 X114.522 Y190.407 E37.01483
G1 X113.066 Y190.341 E37.12936
G1 X110.398 Y190.295 E37.33903
G1 X107.683 Y190.325 E37.55238
G1 X104.788 Y190.445 E37.78006
G1 X104.176 Y190.438 E37.82815
G1 X103.525 Y190.371 E37.87957
G1 X102.888 Y190.225 E37.93092
G1 X102.273 Y190.002 E37.98233
G1 X101.734 Y189.731 E38.02973
G1 X99.353 Y188.362 E38.24555
G1 X96.072 Y186.615 E38.53763
G1 X95.204 Y186.136 E38.61553
G1 X94.69 Y185.818 E38.66302
G1 X94.166 Y185.427 E38.71439
G1 X93.694 Y184.975 E38.76575
G1 X93.28 Y184.469 E38.81712
G1 X92.931 Y183.916 E38.8685
G1 X92.652 Y183.324 E38.91993
G1 X92.447 Y182.703 E38.97131
G1 X92.32 Y182.062 E39.02266
G1 X92.253 Y181.108 E39.09781
G1 X92.246 Y180.66 E39.13301
G1 X92.27 Y179.075 E39.25757
G1 X92.263 Y178.916 E39.27008
G1 X92.284 Y177.648 E39.36973
G1 X92.26 Y175.948 E39.50332
G1 X92.268 Y175.784 E39.51622
G1 X92.246 Y174.319 E39.63135
G1 X92.246 Y174.16 E39.64385
