;FLAVOR:Marlin
;TIME:592
;Filament used: 0.539943m
;Layer height: 0.3
;MINX:12.102
;MINY:144.926
;MINZ:0.3
;MAXX:35.802
;MAXY:175.738
;MAXZ:20.7
;Generated with Cura_SteamEngine 4.10.0
M104 S205
M105
M109 S205
M82 ;absolute extrusion mode
G21 ;metric values
G90 ;absolute positioning
M82 ;set extruder to absolute mode
M107 ;start with the fan off
G28 X0 Y0 ;move X/Y to min endstops
G28 Z0 ;move Z to min endstops
M501
M420 S1 ;Marlin Bed-leveling on
G1 Z15.0 F120 ;move the platform down 15mm
G92 E0 ;zero the extruded length
G1 F200 E3 ;extrude 3mm of feed stock
G92 E0 ;zero the extruded length again
G1 F120
M117 Printing...
G5
G92 E0
G92 E0
G1 F2400 E-6
;LAYER_COUNT:69
;LAYER:0
M107
M204 S3000
M205 X10 Y10
G1 F600 Z0.375
G0 F1200 X17.907 Y145.003 Z0.375
M204 S1800
M205 X8 Y8
;TYPE:SKIRT
G1 F600 Z0.3
G1 F2400 E0
G1 F600 X18.672 Y144.938 E0.06033
G1 X19.182 Y144.926 E0.10041
G1 X28.345 Y144.926 E0.82042
G1 X29.14 Y144.937 E0.88289
G1 X29.873 Y144.987 E0.94062
G1 X30.596 Y145.117 E0.99834
G1 X31.3 Y145.325 E1.05603
G1 X31.978 Y145.608 E1.11376
G1 X32.621 Y145.962 E1.17143
G1 X33.222 Y146.385 E1.22918
G1 X33.773 Y146.871 E1.28691
G1 X34.268 Y147.413 E1.34459
G1 X34.702 Y148.006 E1.40233
G1 X35.068 Y148.643 E1.46006
G1 X35.363 Y149.316 E1.5178
G1 X35.583 Y150.017 E1.57553
G1 X35.726 Y150.737 E1.63321
G1 X35.79 Y151.496 E1.69306
G1 X35.802 Y152.006 E1.73315
G1 X35.801 Y168.336 E3.01631
G1 X35.792 Y169.063 E3.07344
G1 X35.743 Y169.795 E3.13109
G1 X35.615 Y170.519 E3.18886
G1 X35.409 Y171.224 E3.24657
G1 X35.127 Y171.902 E3.30427
G1 X34.773 Y172.546 E3.36202
G1 X34.352 Y173.148 E3.41974
G1 X33.868 Y173.7 E3.47743
G1 X33.326 Y174.196 E3.53516
G1 X32.734 Y174.631 E3.59288
G1 X32.098 Y174.998 E3.65058
G1 X31.426 Y175.295 E3.70831
G1 X30.725 Y175.516 E3.76607
G1 X30.005 Y175.66 E3.82376
G1 X29.232 Y175.726 E3.88473
G1 X28.722 Y175.738 E3.92481
G1 X19.472 Y175.737 E4.65165
G1 X18.774 Y175.728 E4.7065
G1 X18.041 Y175.679 E4.76423
G1 X17.318 Y175.55 E4.82193
G1 X16.613 Y175.344 E4.87965
G1 X15.935 Y175.062 E4.93735
G1 X15.291 Y174.708 E4.99509
G1 X14.69 Y174.286 E5.0528
G1 X14.138 Y173.801 E5.11053
G1 X13.642 Y173.259 E5.16826
G1 X13.207 Y172.667 E5.22599
G1 X12.84 Y172.031 E5.28369
G1 X12.544 Y171.358 E5.34146
G1 X12.323 Y170.658 E5.39914
G1 X12.179 Y169.937 E5.45691
G1 X12.113 Y169.161 E5.51811
G1 X12.102 Y168.646 E5.55858
G1 X12.103 Y152.259 E6.84623
G1 X12.112 Y151.594 E6.89849
G1 X12.162 Y150.861 E6.95622
G1 X12.291 Y150.138 E7.01393
G1 X12.498 Y149.433 E7.07166
G1 X12.78 Y148.755 E7.12936
G1 X13.135 Y148.111 E7.18714
G1 X13.557 Y147.51 E7.24485
G1 X14.042 Y146.959 E7.30253
G1 X14.584 Y146.463 E7.36026
G1 X15.177 Y146.029 E7.418
G1 X15.813 Y145.662 E7.4757
G1 X16.486 Y145.367 E7.53344
G1 X17.186 Y145.146 E7.59112
G1 X17.907 Y145.003 E7.64887
M204 S3000
M205 X10 Y10
G0 F1200 X17.795 Y145.73
M204 S1800
M205 X8 Y8
G1 F600 X18.691 Y145.637 E7.71966
G1 X19.182 Y145.626 E7.75825
G1 X28.345 Y145.626 E8.47825
G1 X29.13 Y145.637 E8.53994
G1 X29.823 Y145.687 E8.59454
G1 X30.507 Y145.816 E8.64923
G1 X31.171 Y146.022 E8.70386
G1 X31.806 Y146.304 E8.75845
G1 X32.406 Y146.657 E8.81315
G1 X32.961 Y147.076 E8.8678
G1 X33.464 Y147.556 E8.92243
G1 X33.909 Y148.09 E8.97705
G1 X34.289 Y148.673 E9.03173
G1 X34.6 Y149.294 E9.08631
G1 X34.838 Y149.948 E9.14099
G1 X34.999 Y150.624 E9.1956
G1 X35.091 Y151.516 E9.26606
G1 X35.102 Y152.006 E9.30457
G1 X35.102 Y168.327 E10.58703
G1 X35.093 Y169.054 E10.64416
G1 X35.044 Y169.748 E10.69883
G1 X34.916 Y170.431 E10.75343
G1 X34.711 Y171.096 E10.80811
G1 X34.43 Y171.732 E10.86274
G1 X34.079 Y172.332 E10.91736
G1 X33.661 Y172.888 E10.97202
G1 X33.182 Y173.392 E11.02666
G1 X32.648 Y173.838 E11.08133
G1 X32.067 Y174.219 E11.13592
G1 X31.445 Y174.532 E11.19064
G1 X30.792 Y174.771 E11.24528
G1 X30.116 Y174.933 E11.2999
G1 X29.213 Y175.027 E11.37124
G1 X28.722 Y175.038 E11.40983
G1 X19.481 Y175.037 E12.13596
G1 X18.783 Y175.028 E12.19081
G1 X18.089 Y174.98 E12.24547
G1 X17.406 Y174.851 E12.30009
G1 X16.742 Y174.646 E12.35469
G1 X16.105 Y174.365 E12.4094
G1 X15.505 Y174.013 E12.46406
G1 X14.95 Y173.595 E12.51866
G1 X14.446 Y173.116 E12.57329
G1 X14.001 Y172.582 E12.62791
G1 X13.619 Y172 E12.68262
G1 X13.307 Y171.379 E12.73723
G1 X13.069 Y170.725 E12.79191
G1 X12.906 Y170.049 E12.84655
G1 X12.813 Y169.142 E12.9182
G1 X12.802 Y168.646 E12.95718
G1 X12.803 Y152.268 E14.24411
G1 X12.812 Y151.603 E14.29637
G1 X12.861 Y150.909 E14.35104
G1 X12.99 Y150.226 E14.40566
G1 X13.196 Y149.562 E14.46029
G1 X13.477 Y148.926 E14.51492
G1 X13.829 Y148.326 E14.56958
G1 X14.248 Y147.771 E14.62423
G1 X14.727 Y147.267 E14.67886
G1 X15.262 Y146.822 E14.73354
G1 X15.843 Y146.441 E14.78814
G1 X16.465 Y146.13 E14.84278
G1 X17.118 Y145.891 E14.89742
G1 X17.795 Y145.73 E14.9521
M204 S3000
M205 X10 Y10
G0 F1200 X18.382 Y146.356
M204 S1800
M205 X8 Y8
G1 F600 X19.032 Y146.328 E15.00322
G1 X19.182 Y146.326 E15.01501
G1 X28.345 Y146.326 E15.73501
G1 X29.12 Y146.337 E15.79591
G1 X29.772 Y146.386 E15.84729
G1 X30.413 Y146.514 E15.89865
G1 X31.034 Y146.72 E15.95006
G1 X31.625 Y147 E16.00145
G1 X32.177 Y147.35 E16.05281
G1 X32.682 Y147.765 E16.10417
G1 X33.134 Y148.238 E16.15558
G1 X33.524 Y148.763 E16.20697
G1 X33.847 Y149.331 E16.25831
G1 X34.098 Y149.935 E16.30971
G1 X34.274 Y150.565 E16.36111
G1 X34.391 Y151.536 E16.43796
G1 X34.402 Y152.006 E16.4749
G1 X34.402 Y168.318 E17.75665
G1 X34.393 Y169.045 E17.81378
G1 X34.345 Y169.697 E17.86515
G1 X34.217 Y170.339 E17.91659
G1 X34.013 Y170.96 E17.96795
G1 X33.734 Y171.551 E18.0193
G1 X33.385 Y172.104 E18.07069
G1 X32.971 Y172.611 E18.12212
G1 X32.499 Y173.063 E18.17347
G1 X31.975 Y173.454 E18.22485
G1 X31.407 Y173.778 E18.27623
G1 X30.804 Y174.031 E18.32761
G1 X30.174 Y174.208 E18.37903
G1 X29.528 Y174.307 E18.43039
G1 X28.872 Y174.336 E18.48198
G1 X28.722 Y174.338 E18.49377
G1 X19.49 Y174.338 E19.21919
G1 X18.792 Y174.329 E19.27405
G1 X18.14 Y174.28 E19.32542
G1 X17.499 Y174.153 E19.37677
G1 X16.878 Y173.948 E19.42816
G1 X16.286 Y173.669 E19.47958
G1 X15.733 Y173.32 E19.53096
G1 X15.227 Y172.906 E19.58234
G1 X14.775 Y172.433 E19.63374
G1 X14.384 Y171.909 E19.68512
G1 X14.06 Y171.341 E19.7365
G1 X13.808 Y170.737 E19.78793
G1 X13.631 Y170.108 E19.83927
G1 X13.533 Y169.461 E19.89069
G1 X13.504 Y168.791 E19.94339
G1 X13.502 Y168.646 E19.95478
G1 X13.502 Y152.278 E21.24093
G1 X13.511 Y151.613 E21.29319
G1 X13.56 Y150.961 E21.34456
G1 X13.688 Y150.319 E21.396
G1 X13.894 Y149.698 E21.44742
G1 X14.173 Y149.107 E21.49877
G1 X14.522 Y148.555 E21.55009
G1 X14.937 Y148.049 E21.60151
G1 X15.41 Y147.597 E21.65292
G1 X15.934 Y147.207 E21.70424
G1 X16.502 Y146.883 E21.75563
G1 X17.106 Y146.631 E21.80705
G1 X17.736 Y146.455 E21.85845
G1 X18.382 Y146.356 E21.9098
M204 S3000
M205 X10 Y10
G1 F2400 E15.9098
;MESH:3_Finger_Mount.stl
G0 F1200 X19.916 Y151.011
G0 X19.916 Y152.74
G0 X27.932 Y167.868
G0 X28.002 Y167.938
M204 S1800
M205 X8 Y8
;TYPE:WALL-INNER
G1 F2400 E21.9098
G1 F600 X19.902 Y167.938 E22.54628
G1 X19.902 Y152.726 E23.74159
G1 X28.002 Y152.726 E24.37807
G1 X28.002 Y167.938 E25.57338
M204 S3000
M205 X10 Y10
G0 F1200 X28.652 Y168.588
M204 S1800
M205 X8 Y8
;TYPE:WALL-OUTER
G1 F600 X19.252 Y168.588 E26.31201
G1 X19.252 Y152.076 E27.60947
G1 X28.652 Y152.076 E28.34809
G1 X28.652 Y168.588 E29.64556
M204 S3000
M205 X10 Y10
G0 F1200 X28.352 Y168.588
G0 X27.932 Y167.868
G0 X27.312 Y167.248
M204 S1800
M205 X8 Y8
;TYPE:SKIN
G1 F600 X20.592 Y167.248 E30.1736
G1 X20.592 Y153.416 E31.26047
G1 X27.312 Y153.416 E31.78851
G1 X27.312 Y167.248 E32.87539
M204 S3000
M205 X10 Y10
G0 F1200 X21.399 Y166.921
M204 S1800
M205 X8 Y8
G1 F600 X20.916 Y166.439 E32.92901
M204 S3000
M205 X10 Y10
G0 F1200 X20.916 Y165.449
M204 S1800
M205 X8 Y8
G1 F600 X22.389 Y166.921 E33.09264
M204 S3000
M205 X10 Y10
G0 F1200 X23.379 Y166.921
M204 S1800
M205 X8 Y8
G1 F600 X20.916 Y164.459 E33.36628
M204 S3000
M205 X10 Y10
G0 F1200 X20.916 Y163.469
M204 S1800
M205 X8 Y8
G1 F600 X24.369 Y166.921 E33.74994
M204 S3000
M205 X10 Y10
G0 F1200 X25.358 Y166.921
M204 S1800
M205 X8 Y8
G1 F600 X20.916 Y162.479 E34.24356
M204 S3000
M205 X10 Y10
G0 F1200 X20.916 Y161.489
M204 S1800
M205 X8 Y8
G1 F600 X26.348 Y166.921 E34.84719
M204 S3000
M205 X10 Y10
G0 F1200 X26.987 Y166.57
M204 S1800
M205 X8 Y8
G1 F600 X20.916 Y160.499 E35.52183
M204 S3000
M205 X10 Y10
G0 F1200 X20.916 Y159.509
M204 S1800
M205 X8 Y8
G1 F600 X26.987 Y165.58 E36.19647
M204 S3000
M205 X10 Y10
G0 F1200 X26.987 Y164.59
M204 S1800
M205 X8 Y8
G1 F600 X20.916 Y158.519 E36.8711
M204 S3000
M205 X10 Y10
G0 F1200 X20.916 Y157.529
M204 S1800
M205 X8 Y8
G1 F600 X26.987 Y163.6 E37.54574
M204 S3000
M205 X10 Y10
G0 F1200 X26.987 Y162.61
M204 S1800
M205 X8 Y8
G1 F600 X20.916 Y156.54 E38.22032
M204 S3000
M205 X10 Y10
G0 F1200 X20.916 Y155.55
M204 S1800
M205 X8 Y8
G1 F600 X26.987 Y161.62 E38.89491
M204 S3000
M205 X10 Y10
G0 F1200 X26.987 Y160.63
M204 S1800
M205 X8 Y8
G1 F600 X20.916 Y154.56 E39.56949
M204 S3000
M205 X10 Y10
G0 F1200 X21.086 Y153.739
M204 S1800
M205 X8 Y8
G1 F600 X26.987 Y159.64 E40.22524
M204 S3000
M205 X10 Y10
G0 F1200 X26.987 Y158.65
M204 S1800
M205 X8 Y8
G1 F600 X22.076 Y153.739 E40.77097
M204 S3000
M205 X10 Y10
G0 F1200 X23.066 Y153.739
M204 S1800
M205 X8 Y8
G1 F600 X26.987 Y157.66 E41.20669
M204 S3000
M205 X10 Y10
G0 F1200 X26.987 Y156.67
M204 S1800
M205 X8 Y8
G1 F600 X24.056 Y153.739 E41.5324
M204 S3000
M205 X10 Y10
G0 F1200 X25.046 Y153.739
M204 S1800
M205 X8 Y8
G1 F600 X26.987 Y155.68 E41.74809
M204 S3000
M205 X10 Y10
G0 F1200 X26.987 Y154.69
M204 S1800
M205 X8 Y8
G1 F600 X26.036 Y153.739 E41.85377
M204 S3000
M205 X10 Y10
;MESH:NONMESH
G0 X26.036 Y153.739 Z0.6
G0 F1200 X27.932 Y167.868
G0 X28.302 Y168.238
;TIME_ELAPSED:65.663669
;LAYER:1
M106 S127.5
M204 S1800
M205 X8 Y8
;TYPE:WALL-INNER
;MESH:3_Finger_Mount.stl
G1 F2100 X19.602 Y168.238 E42.34207
G1 X19.602 Y152.426 E43.22954
G1 X28.302 Y152.426 E43.71784
G1 X28.302 Y168.238 E44.60532
M204 S3000
M205 X10 Y10
G0 F4200 X28.752 Y168.688
M204 S1800
M205 X8 Y8
;TYPE:WALL-OUTER
G1 F1200 X19.152 Y168.688 E45.14413
G1 X19.152 Y151.976 E46.08212
G1 X28.752 Y151.976 E46.62093
G1 X28.752 Y168.688 E47.55892
M204 S3000
M205 X10 Y10
G0 F4200 X28.452 Y168.688
G0 X28.232 Y168.168
G0 X27.812 Y167.748
M204 S1800
M205 X8 Y8
;TYPE:SKIN
G1 F600 X20.092 Y167.748 E47.99221
G1 X20.092 Y152.916 E48.82468
G1 X27.812 Y152.916 E49.25798
G1 X27.812 Y167.748 E50.09044
M204 S3000
M205 X10 Y10
G0 F4200 X26.932 Y167.522
M204 S1800
M205 X8 Y8
G1 F600 X27.586 Y166.868 E50.14236
M204 S3000
M205 X10 Y10
G0 F4200 X27.586 Y166.16
M204 S1800
M205 X8 Y8
G1 F600 X26.225 Y167.522 E50.25042
M204 S3000
M205 X10 Y10
G0 F4200 X25.518 Y167.522
M204 S1800
M205 X8 Y8
G1 F600 X27.586 Y165.453 E50.41461
M204 S3000
M205 X10 Y10
G0 F4200 X27.586 Y164.746
M204 S1800
M205 X8 Y8
G1 F600 X24.81 Y167.522 E50.63496
M204 S3000
M205 X10 Y10
G0 F4200 X24.103 Y167.522
M204 S1800
M205 X8 Y8
G1 F600 X27.586 Y164.039 E50.91142
M204 S3000
M205 X10 Y10
G0 F4200 X27.586 Y163.332
M204 S1800
M205 X8 Y8
G1 F600 X23.396 Y167.522 E51.244
M204 S3000
M205 X10 Y10
G0 F4200 X22.689 Y167.522
M204 S1800
M205 X8 Y8
G1 F600 X27.586 Y162.625 E51.6327
M204 S3000
M205 X10 Y10
G0 F4200 X27.586 Y161.918
M204 S1800
M205 X8 Y8
G1 F600 X21.982 Y167.522 E52.07751
M204 S3000
M205 X10 Y10
G0 F4200 X21.275 Y167.522
M204 S1800
M205 X8 Y8
G1 F600 X27.586 Y161.211 E52.57845
M204 S3000
M205 X10 Y10
G0 F4200 X27.586 Y160.504
M204 S1800
M205 X8 Y8
G1 F600 X20.568 Y167.522 E53.1355
M204 S3000
M205 X10 Y10
G0 F4200 X20.317 Y167.065
M204 S1800
M205 X8 Y8
G1 F600 X27.586 Y159.796 E53.71248
M204 S3000
M205 X10 Y10
G0 F4200 X27.586 Y159.089
M204 S1800
M205 X8 Y8
G1 F600 X20.317 Y166.358 E54.28945
M204 S3000
M205 X10 Y10
G0 F4200 X20.317 Y165.651
M204 S1800
M205 X8 Y8
G1 F600 X27.586 Y158.382 E54.86643
M204 S3000
M205 X10 Y10
G0 F4200 X27.586 Y157.675
M204 S1800
M205 X8 Y8
G1 F600 X20.317 Y164.944 E55.4434
M204 S3000
M205 X10 Y10
G0 F4200 X20.317 Y164.237
M204 S1800
M205 X8 Y8
G1 F600 X27.586 Y156.968 E56.02038
M204 S3000
M205 X10 Y10
G0 F4200 X27.586 Y156.261
M204 S1800
M205 X8 Y8
G1 F600 X20.317 Y163.53 E56.59735
M204 S3000
M205 X10 Y10
G0 F4200 X20.317 Y162.823
M204 S1800
M205 X8 Y8
G1 F600 X27.586 Y155.554 E57.17433
M204 S3000
M205 X10 Y10
G0 F4200 X27.586 Y154.847
M204 S1800
M205 X8 Y8
G1 F600 X20.317 Y162.116 E57.75131
M204 S3000
M205 X10 Y10
G0 F4200 X20.317 Y161.409
M204 S1800
M205 X8 Y8
G1 F600 X27.586 Y154.14 E58.32828
M204 S3000
M205 X10 Y10
G0 F4200 X27.586 Y153.432
M204 S1800
M205 X8 Y8
G1 F600 X20.317 Y160.702 E58.9053
M204 S3000
M205 X10 Y10
G0 F4200 X20.317 Y159.994
M204 S1800
M205 X8 Y8
G1 F600 X27.171 Y153.14 E59.44933
M204 S3000
M205 X10 Y10
G0 F4200 X26.464 Y153.14
M204 S1800
M205 X8 Y8
G1 F600 X20.317 Y159.287 E59.93725
M204 S3000
M205 X10 Y10
G0 F4200 X20.317 Y158.58
M204 S1800
M205 X8 Y8
G1 F600 X25.757 Y153.14 E60.36905
M204 S3000
M205 X10 Y10
G0 F4200 X25.05 Y153.14
M204 S1800
M205 X8 Y8
G1 F600 X20.317 Y157.873 E60.74473
M204 S3000
M205 X10 Y10
G0 F4200 X20.317 Y157.166
M204 S1800
M205 X8 Y8
G1 F600 X24.343 Y153.14 E61.06429
M204 S3000
M205 X10 Y10
G0 F4200 X23.636 Y153.14
M204 S1800
M205 X8 Y8
G1 F600 X20.317 Y156.459 E61.32774
M204 S3000
M205 X10 Y10
G0 F4200 X20.317 Y155.752
M204 S1800
M205 X8 Y8
G1 F600 X22.929 Y153.14 E61.53506
M204 S3000
M205 X10 Y10
G0 F4200 X22.222 Y153.14
M204 S1800
M205 X8 Y8
G1 F600 X20.317 Y155.045 E61.68627
M204 S3000
M205 X10 Y10
G0 F4200 X20.317 Y154.338
M204 S1800
M205 X8 Y8
G1 F600 X21.515 Y153.14 E61.78136
M204 S3000
M205 X10 Y10
G0 F4200 X20.808 Y153.14
M204 S1800
M205 X8 Y8
G1 F600 X20.317 Y153.63 E61.8203
M204 S3000
M205 X10 Y10
;MESH:NONMESH
G0 X20.317 Y153.63 Z0.9
G0 F4200 X27.077 Y152.85
;TIME_ELAPSED:96.361993
;LAYER:2
M106 S255
M204 S1800
M205 X8 Y8
;TYPE:FILL
;MESH:3_Finger_Mount.stl
G1 F2754.5 X27.876 Y153.65 E61.88376
G1 X27.876 Y157.185 E62.08216
G1 X23.541 Y152.85 E62.42625
G1 X20.027 Y152.85 E62.62348
G1 X20.026 Y152.87 E62.62461
G1 X27.876 Y160.721 E63.24774
G1 X27.876 Y164.256 E63.44615
G1 X20.026 Y156.406 E64.06924
G1 X20.026 Y159.941 E64.26765
G1 X27.876 Y167.792 E64.89078
G1 X27.876 Y167.811 E64.89184
G1 X24.361 Y167.811 E65.08913
G1 X20.026 Y163.477 E65.43318
G1 X20.026 Y167.012 E65.63159
G1 X20.825 Y167.811 E65.69501
M204 S3000
M205 X10 Y10
G0 F7200 X28.232 Y168.168
G0 X28.302 Y168.238
M204 S1800
M205 X8 Y8
;TYPE:WALL-INNER
G1 F2754.5 X19.602 Y168.238 E66.18331
G1 X19.602 Y152.426 E67.07078
G1 X28.302 Y152.426 E67.55908
G1 X28.302 Y168.238 E68.44655
M204 S3000
M205 X10 Y10
G0 F7200 X28.752 Y168.688
M204 S1800
M205 X8 Y8
;TYPE:WALL-OUTER
G1 F1377.2 X19.152 Y168.688 E68.98536
G1 X19.152 Y151.976 E69.92335
G1 X28.752 Y151.976 E70.46216
G1 X28.752 Y168.688 E71.40015
M204 S3000
M205 X10 Y10
G0 F7200 X28.452 Y168.688
G0 X27.802 Y167.885
;MESH:NONMESH
G0 F600 X27.802 Y167.885 Z1.2
G0 F7200 X28.302 Y168.238
;TIME_ELAPSED:101.842565
;LAYER:3
M106 S127.5
M204 S1800
M205 X8 Y8
;TYPE:WALL-INNER
;MESH:3_Finger_Mount.stl
G1 F3600 X19.602 Y168.238 E71.88845
G1 X19.602 Y152.426 E72.77592
G1 X28.302 Y152.426 E73.26422
G1 X28.302 Y168.238 E74.15169
M204 S3000
M205 X10 Y10
G0 F7200 X28.752 Y168.688
M204 S1800
M205 X8 Y8
;TYPE:WALL-OUTER
G1 F1800 X19.152 Y168.688 E74.69051
G1 X19.152 Y151.976 E75.62849
G1 X28.752 Y151.976 E76.16731
G1 X28.752 Y168.688 E77.10529
M204 S3000
M205 X10 Y10
G0 F7200 X28.452 Y168.688
G0 X28.232 Y168.168
G0 X27.812 Y167.748
M204 S1800
M205 X8 Y8
;TYPE:SKIN
G1 F600 X20.092 Y167.748 E77.53859
G1 X20.092 Y152.916 E78.37106
G1 X27.812 Y152.916 E78.80436
G1 X27.812 Y167.748 E79.63682
M204 S3000
M205 X10 Y10
G0 F7200 X26.932 Y167.522
M204 S1800
M205 X8 Y8
G1 F600 X27.586 Y166.868 E79.68873
M204 S3000
M205 X10 Y10
G0 F7200 X27.586 Y166.16
M204 S1800
M205 X8 Y8
G1 F600 X26.225 Y167.522 E79.7968
M204 S3000
M205 X10 Y10
G0 F7200 X25.518 Y167.522
M204 S1800
M205 X8 Y8
G1 F600 X27.586 Y165.453 E79.96099
M204 S3000
M205 X10 Y10
G0 F7200 X27.586 Y164.746
M204 S1800
M205 X8 Y8
G1 F600 X24.81 Y167.522 E80.18133
M204 S3000
M205 X10 Y10
G0 F7200 X24.103 Y167.522
M204 S1800
M205 X8 Y8
G1 F600 X27.586 Y164.039 E80.4578
M204 S3000
M205 X10 Y10
