;FLAVOR:Marlin
;TIME:4183
;Filament used: 4.2734m
;Layer height: 0.3
;MINX:7.937
;MINY:106.708
;MINZ:0.3
;MAXX:185.914
;MAXY:190.163
;MAXZ:48.9
;Generated with Cura_SteamEngine 4.10.0
M104 S205
M105
M109 S205
M82 ;absolute extrusion mode
G21 ;metric values
G90 ;absolute positioning
M82 ;set extruder to absolute mode
M107 ;start with the fan off
G28 X0 Y0 ;move X/Y to min endstops
G28 Z0 ;move Z to min endstops
M501
M420 S1 ;Marlin Bed-leveling on
G1 Z15.0 F120 ;move the platform down 15mm
G92 E0 ;zero the extruded length
G1 F200 E3 ;extrude 3mm of feed stock
G92 E0 ;zero the extruded length again
G1 F120
M117 Printing...
G5
G92 E0
G92 E0
G1 F2400 E-6
;LAYER_COUNT:163
;LAYER:0
M107
M204 S3000
M205 X10 Y10
G1 F600 Z0.375
G0 F1200 X14.01 Y106.751 Z0.375
M204 S1800
M205 X8 Y8
;TYPE:SKIRT
G1 F600 Z0.3
G1 F2400 E0
G1 F600 X14.58 Y106.717 E0.04487
G1 X15.15 Y106.708 E0.08966
G1 X27.321 Y106.708 E1.04602
G1 X28.12 Y106.719 E1.10881
G1 X28.853 Y106.769 E1.16654
G1 X29.576 Y106.899 E1.22427
G1 X30.281 Y107.106 E1.282
G1 X30.958 Y107.389 E1.33966
G1 X31.602 Y107.744 E1.39744
G1 X32.202 Y108.167 E1.45513
G1 X32.621 Y108.525 E1.49843
G1 X33.57 Y109.408 E1.60029
G1 X35.559 Y111.207 E1.81102
G1 X37.542 Y112.9 E2.01591
G1 X39.616 Y114.573 E2.22529
G1 X41.717 Y116.171 E2.4327
G1 X43.843 Y117.697 E2.63834
G1 X46.023 Y119.168 E2.84498
G1 X48.286 Y120.605 E3.05563
G1 X50.52 Y121.935 E3.25992
G1 X52.829 Y123.224 E3.46771
G1 X55.174 Y124.446 E3.67549
G1 X57.545 Y125.599 E3.88266
G1 X59.937 Y126.679 E4.08889
G1 X62.391 Y127.704 E4.29786
G1 X64.846 Y128.651 E4.50462
G1 X67.335 Y129.527 E4.71196
G1 X69.843 Y130.333 E4.91896
G1 X72.371 Y131.068 E5.12583
G1 X74.938 Y131.735 E5.33423
G1 X77.485 Y132.321 E5.5396
G1 X80.117 Y132.85 E5.75055
G1 X82.669 Y133.285 E5.95397
G1 X85.298 Y133.658 E6.16262
G1 X87.91 Y133.955 E6.36918
G1 X90.552 Y134.179 E6.57753
G1 X93.18 Y134.328 E6.78436
G1 X95.798 Y134.401 E6.99015
G1 X98.457 Y134.401 E7.19909
G1 X101.082 Y134.326 E7.40544
G1 X103.699 Y134.177 E7.61141
G1 X106.345 Y133.952 E7.82007
G1 X108.997 Y133.65 E8.02981
G1 X111.554 Y133.286 E8.23275
G1 X114.2 Y132.832 E8.44371
G1 X116.735 Y132.324 E8.64686
G1 X119.317 Y131.729 E8.85506
G1 X121.869 Y131.064 E9.06229
G1 X124.448 Y130.314 E9.27333
G1 X126.915 Y129.52 E9.47698
G1 X129.42 Y128.635 E9.68573
G1 X131.823 Y127.709 E9.88809
G1 X134.314 Y126.668 E10.10023
G1 X136.734 Y125.574 E10.30891
G1 X139.079 Y124.434 E10.5138
G1 X141.43 Y123.207 E10.72218
G1 X143.719 Y121.929 E10.92818
G1 X145.981 Y120.58 E11.13513
G1 X148.213 Y119.163 E11.34287
G1 X150.419 Y117.673 E11.55204
G1 X152.531 Y116.157 E11.75633
G1 X154.642 Y114.549 E11.96484
G1 X156.683 Y112.903 E12.17088
G1 X158.695 Y111.182 E12.37892
G1 X161.617 Y108.506 E12.69026
G1 X162.185 Y108.04 E12.74799
G1 X162.8 Y107.639 E12.80568
G1 X163.455 Y107.307 E12.86338
G1 X164.143 Y107.047 E12.92117
G1 X164.854 Y106.865 E12.97884
G1 X165.581 Y106.76 E13.03656
G1 X166.043 Y106.735 E13.07292
G1 X167.059 Y106.715 E13.15277
G1 X178.489 Y106.714 E14.0509
G1 X179.267 Y106.725 E14.11204
G1 X179.999 Y106.776 E14.1697
G1 X180.722 Y106.906 E14.22742
G1 X181.427 Y107.114 E14.28518
G1 X182.105 Y107.397 E14.34291
G1 X182.748 Y107.752 E14.40062
G1 X183.348 Y108.175 E14.45831
G1 X183.899 Y108.661 E14.51604
G1 X184.394 Y109.203 E14.57372
G1 X184.827 Y109.797 E14.63148
G1 X185.193 Y110.434 E14.6892
G1 X185.488 Y111.106 E14.74687
G1 X185.708 Y111.807 E14.8046
G1 X185.85 Y112.528 E14.86234
G1 X185.914 Y113.26 E14.92008
G1 X185.909 Y113.845 E14.96605
G1 X185.818 Y114.754 E15.03784
G1 X185.746 Y115.183 E15.07202
G1 X185.522 Y116.437 E15.17211
G1 X185.218 Y118.011 E15.29808
G1 X184.989 Y119.098 E15.38537
G1 X184.656 Y120.582 E15.50487
G1 X184.398 Y121.659 E15.5919
G1 X183.987 Y123.259 E15.7217
G1 X183.726 Y124.216 E15.79965
G1 X183.264 Y125.819 E15.93073
G1 X182.953 Y126.84 E16.0146
G1 X182.47 Y128.344 E16.13872
G1 X182.123 Y129.375 E16.2242
G1 X181.604 Y130.843 E16.34655
G1 X181.233 Y131.847 E16.43065
G1 X180.658 Y133.333 E16.55586
G1 X180.296 Y134.228 E16.63172
G1 X179.599 Y135.882 E16.77275
G1 X179.179 Y136.836 E16.85466
G1 X178.526 Y138.263 E16.97797
G1 X178.064 Y139.236 E17.06261
G1 X177.345 Y140.692 E17.1902
G1 X176.836 Y141.685 E17.27788
G1 X176.13 Y143.013 E17.39606
G1 X175.592 Y143.99 E17.4837
G1 X174.795 Y145.387 E17.61008
G1 X174.268 Y146.281 E17.69163
G1 X173.407 Y147.694 E17.82165
G1 X172.842 Y148.588 E17.90475
G1 X171.998 Y149.886 E18.02641
G1 X171.365 Y150.829 E18.11565
G1 X170.465 Y152.121 E18.23938
G1 X169.828 Y153.01 E18.32531
G1 X168.885 Y154.285 E18.44992
G1 X168.239 Y155.132 E18.53363
G1 X167.245 Y156.397 E18.66004
G1 X166.542 Y157.262 E18.74763
G1 X165.574 Y158.421 E18.86628
G1 X164.818 Y159.299 E18.95732
G1 X163.802 Y160.444 E19.07761
G1 X163.062 Y161.253 E19.16376
G1 X161.959 Y162.424 E19.29017
G1 X161.227 Y163.18 E19.37285
G1 X160.059 Y164.347 E19.50259
G1 X159.271 Y165.112 E19.58889
G1 X158.183 Y166.137 E19.70634
G1 X157.329 Y166.919 E19.79733
G1 X156.182 Y167.938 E19.91789
G1 X155.311 Y168.689 E20.00826
G1 X154.136 Y169.671 E20.12859
G1 X153.302 Y170.348 E20.21299
G1 X152.021 Y171.358 E20.34117
G1 X151.147 Y172.025 E20.42756
G1 X149.914 Y172.938 E20.54812
G1 X148.982 Y173.606 E20.63822
G1 X147.726 Y174.479 E20.75841
G1 X146.818 Y175.091 E20.84445
G1 X145.483 Y175.962 E20.96971
G1 X144.5 Y176.583 E21.06107
G1 X143.238 Y177.352 E21.17719
G1 X142.262 Y177.928 E21.26625
G1 X140.897 Y178.707 E21.38974
G1 X139.949 Y179.229 E21.47478
G1 X138.504 Y179.998 E21.6034
G1 X137.603 Y180.46 E21.68296
G1 X136.13 Y181.188 E21.81207
G1 X135.096 Y181.68 E21.90205
G1 X133.693 Y182.323 E22.02332
G1 X132.701 Y182.759 E22.10846
G1 X131.276 Y183.361 E22.23002
G1 X130.21 Y183.792 E22.32037
G1 X128.855 Y184.318 E22.43458
G1 X127.717 Y184.74 E22.52995
G1 X126.271 Y185.253 E22.65051
G1 X125.221 Y185.606 E22.73756
G1 X123.741 Y186.082 E22.85972
G1 X122.677 Y186.407 E22.94714
G1 X121.18 Y186.839 E23.06957
G1 X120.117 Y187.13 E23.15617
G1 X118.568 Y187.528 E23.28184
G1 X117.489 Y187.787 E23.36903
G1 X115.966 Y188.129 E23.49168
G1 X114.907 Y188.352 E23.57672
G1 X113.345 Y188.656 E23.70176
G1 X112.298 Y188.843 E23.78533
G1 X110.711 Y189.104 E23.91171
G1 X109.648 Y189.262 E23.99615
G1 X108.048 Y189.476 E24.123
G1 X106.936 Y189.607 E24.21098
G1 X105.459 Y189.759 E24.32765
G1 X104.282 Y189.864 E24.4205
G1 X102.764 Y189.975 E24.5401
G1 X101.652 Y190.04 E24.62763
G1 X100.09 Y190.109 E24.75049
G1 X98.974 Y190.141 E24.83821
G1 X97.392 Y190.163 E24.96253
G1 X96.29 Y190.162 E25.04913
G1 X94.737 Y190.139 E25.17117
G1 X93.136 Y190.09 E25.29703
G1 X92.376 Y190.052 E25.35682
G1 X90.944 Y189.965 E25.46955
G1 X89.41 Y189.85 E25.59043
G1 X88.291 Y189.75 E25.67871
G1 X86.733 Y189.586 E25.80181
G1 X85.696 Y189.462 E25.88387
G1 X84.119 Y189.249 E26.00891
G1 X82.781 Y189.05 E26.11521
G1 X81.557 Y188.844 E26.21274
G1 X80.421 Y188.638 E26.30346
G1 X78.822 Y188.326 E26.43147
G1 X77.746 Y188.098 E26.5179
G1 X76.235 Y187.755 E26.63965
G1 X75.112 Y187.482 E26.73046
G1 X73.624 Y187.098 E26.85121
G1 X72.554 Y186.804 E26.93841
G1 X71.016 Y186.357 E27.06426
G1 X69.992 Y186.043 E27.14842
G1 X68.508 Y185.563 E27.27098
G1 X67.437 Y185.2 E27.35983
G1 X66.069 Y184.714 E27.47391
G1 X64.94 Y184.293 E27.56859
G1 X63.437 Y183.706 E27.69538
G1 X62.491 Y183.322 E27.7756
G1 X60.97 Y182.676 E27.90545
G1 X60.029 Y182.259 E27.98633
G1 X58.545 Y181.577 E28.11466
G1 X57.568 Y181.109 E28.19978
G1 X56.154 Y180.408 E28.3238
G1 X55.203 Y179.918 E28.40786
G1 X53.783 Y179.16 E28.53434
G1 X52.794 Y178.612 E28.62319
G1 X51.509 Y177.875 E28.73959
G1 X50.5 Y177.277 E28.83175
G1 X49.188 Y176.473 E28.95266
G1 X48.265 Y175.887 E29.03857
G1 X46.941 Y175.022 E29.16284
G1 X46.024 Y174.402 E29.24982
G1 X44.736 Y173.503 E29.37324
G1 X43.839 Y172.856 E29.46015
G1 X42.597 Y171.936 E29.5816
G1 X41.666 Y171.222 E29.67379
G1 X40.502 Y170.302 E29.79037
G1 X39.621 Y169.585 E29.87963
G1 X38.403 Y168.563 E30.00456
G1 X37.583 Y167.853 E30.08979
G1 X36.387 Y166.788 E30.21563
G1 X35.651 Y166.111 E30.29421
G1 X34.43 Y164.958 E30.42617
G1 X33.655 Y164.202 E30.51124
G1 X32.567 Y163.109 E30.63242
G1 X31.792 Y162.307 E30.72006
G1 X30.711 Y161.156 E30.84413
G1 X29.976 Y160.349 E30.9299
G1 X28.909 Y159.143 E31.05643
G1 X28.225 Y158.344 E31.13908
G1 X27.255 Y157.182 E31.25802
G1 X26.493 Y156.24 E31.35322
G1 X25.562 Y155.053 E31.47176
G1 X24.868 Y154.14 E31.56187
G1 X23.945 Y152.888 E31.6841
G1 X23.281 Y151.956 E31.77402
G1 X22.411 Y150.699 E31.89414
G1 X21.814 Y149.807 E31.97848
G1 X20.929 Y148.447 E32.10598
G1 X20.36 Y147.54 E32.19011
G1 X19.532 Y146.178 E32.31536
G1 X18.981 Y145.24 E32.40084
G1 X18.192 Y143.85 E32.52643
G1 X17.682 Y142.917 E32.60998
G1 X16.936 Y141.509 E32.73518
G1 X16.44 Y140.539 E32.82079
G1 X15.74 Y139.114 E32.94554
G1 X15.278 Y138.139 E33.03032
G1 X14.604 Y136.66 E33.15804
G1 X14.183 Y135.696 E33.24069
G1 X13.563 Y134.219 E33.36656
G1 X13.15 Y133.191 E33.45361
G1 X12.6 Y131.765 E33.57371
G1 X12.215 Y130.721 E33.66114
G1 X11.681 Y129.201 E33.78774
G1 X11.337 Y128.176 E33.87269
G1 X10.872 Y126.718 E33.99295
G1 X10.539 Y125.618 E34.08325
G1 X10.11 Y124.118 E34.20585
G1 X9.832 Y123.092 E34.28937
G1 X9.431 Y121.517 E34.41708
G1 X9.175 Y120.445 E34.50368
G1 X8.837 Y118.932 E34.6255
G1 X8.631 Y117.935 E34.7055
G1 X8.317 Y116.307 E34.83578
G1 X8.132 Y115.265 E34.91894
G1 X8.016 Y114.553 E34.97562
G1 X7.937 Y113.823 E35.03332
G1 X7.939 Y113.088 E35.09107
G1 X8.02 Y112.358 E35.14878
G1 X8.18 Y111.641 E35.20651
G1 X8.417 Y110.946 E35.26421
G1 X8.728 Y110.281 E35.32189
G1 X9.109 Y109.653 E35.37961
G1 X9.557 Y109.071 E35.43732
G1 X10.065 Y108.54 E35.49507
G1 X10.628 Y108.068 E35.5528
G1 X11.239 Y107.66 E35.61053
G1 X11.89 Y107.321 E35.6682
G1 X12.575 Y107.054 E35.72597
G1 X13.284 Y106.863 E35.78367
G1 X14.01 Y106.751 E35.84139
M204 S3000
M205 X10 Y10
G0 F1200 X13.941 Y107.463
M204 S1800
M205 X8 Y8
G1 F600 X14.448 Y107.422 E35.88136
G1 X15.157 Y107.408 E35.93708
G1 X27.321 Y107.408 E36.89289
G1 X28.11 Y107.419 E36.95489
G1 X28.804 Y107.468 E37.00956
G1 X29.487 Y107.598 E37.06419
G1 X30.151 Y107.804 E37.11882
G1 X30.787 Y108.086 E37.17349
G1 X31.386 Y108.438 E37.22808
G1 X32.144 Y109.038 E37.30405
G1 X33.084 Y109.912 E37.4049
G1 X35.074 Y111.713 E37.6158
G1 X37.124 Y113.463 E37.82759
G1 X39.172 Y115.115 E38.03435
G1 X41.282 Y116.72 E38.24266
G1 X43.448 Y118.274 E38.45213
G1 X45.653 Y119.762 E38.66116
G1 X47.908 Y121.193 E38.87101
G1 X50.19 Y122.553 E39.07976
G1 X52.5 Y123.842 E39.28762
G1 X54.843 Y125.063 E39.49522
G1 X57.264 Y126.24 E39.70675
G1 X59.663 Y127.323 E39.91357
G1 X62.123 Y128.351 E40.12307
G1 X64.633 Y129.319 E40.33446
G1 X67.099 Y130.187 E40.53988
G1 X69.621 Y130.997 E40.74802
G1 X72.202 Y131.747 E40.95922
G1 X74.749 Y132.41 E41.16602
G1 X77.369 Y133.012 E41.37726
G1 X79.965 Y133.534 E41.58533
G1 X82.562 Y133.977 E41.79234
G1 X85.224 Y134.355 E42.00361
G1 X87.842 Y134.652 E42.21065
G1 X90.49 Y134.877 E42.41947
G1 X93.121 Y135.026 E42.62654
G1 X95.813 Y135.101 E42.83815
G1 X98.442 Y135.101 E43.04473
G1 X101.143 Y135.024 E43.25705
G1 X103.764 Y134.875 E43.46333
G1 X106.411 Y134.65 E43.67208
G1 X109.066 Y134.347 E43.88205
G1 X111.673 Y133.976 E44.08897
G1 X114.305 Y133.525 E44.2988
G1 X116.892 Y133.006 E44.50613
G1 X119.506 Y132.403 E44.71692
G1 X122.072 Y131.735 E44.92527
G1 X124.616 Y130.995 E45.13346
G1 X127.141 Y130.182 E45.34189
G1 X129.663 Y129.292 E45.55204
G1 X132.091 Y128.356 E45.75651
G1 X134.601 Y127.307 E45.97027
G1 X137.002 Y126.222 E46.17731
G1 X139.424 Y125.044 E46.38894
G1 X141.74 Y123.836 E46.59419
G1 X144.063 Y122.538 E46.80328
G1 X146.36 Y121.169 E47.0134
G1 X148.6 Y119.746 E47.22193
G1 X150.822 Y118.245 E47.43263
G1 X152.943 Y116.723 E47.63776
G1 X155.086 Y115.091 E47.84942
G1 X157.119 Y113.451 E48.05467
G1 X159.158 Y111.707 E48.2655
G1 X162.09 Y109.022 E48.57789
G1 X162.629 Y108.583 E48.63252
G1 X163.215 Y108.208 E48.68718
G1 X163.84 Y107.903 E48.74183
G1 X164.496 Y107.672 E48.79648
G1 X165.174 Y107.518 E48.85111
G1 X166.057 Y107.435 E48.9208
G1 X167.192 Y107.414 E49.01
G1 X178.578 Y107.415 E49.90468
G1 X179.256 Y107.425 E49.95796
G1 X179.95 Y107.475 E50.01263
G1 X180.633 Y107.604 E50.06725
G1 X181.297 Y107.811 E50.1219
G1 X181.933 Y108.093 E50.17657
G1 X182.532 Y108.446 E50.2312
G1 X183.087 Y108.865 E50.28585
G1 X183.59 Y109.346 E50.34053
G1 X184.034 Y109.88 E50.3951
G1 X184.414 Y110.463 E50.44979
G1 X184.725 Y111.085 E50.50443
G1 X184.963 Y111.738 E50.55904
G1 X185.124 Y112.415 E50.61372
G1 X185.206 Y113.105 E50.66832
G1 X185.214 Y113.664 E50.71225
G1 X185.209 Y113.823 E50.72475
G1 X185.128 Y114.638 E50.78911
G1 X185.056 Y115.061 E50.82282
G1 X184.835 Y116.304 E50.92203
G1 X184.552 Y117.772 E51.0395
G1 X184.306 Y118.945 E51.13368
G1 X183.975 Y120.42 E51.25246
G1 X183.72 Y121.485 E51.33851
G1 X183.311 Y123.076 E51.46759
G1 X183.053 Y124.023 E51.54472
G1 X182.594 Y125.615 E51.67491
G1 X182.286 Y126.626 E51.75795
G1 X181.806 Y128.121 E51.88133
G1 X181.463 Y129.142 E51.96596
G1 X180.947 Y130.6 E52.08749
G1 X180.543 Y131.69 E52.17884
G1 X180.009 Y133.071 E52.29518
G1 X179.614 Y134.044 E52.3777
G1 X178.958 Y135.6 E52.51038
G1 X178.542 Y136.545 E52.59152
G1 X177.893 Y137.963 E52.71405
G1 X177.436 Y138.926 E52.79781
G1 X176.722 Y140.373 E52.9246
G1 X176.218 Y141.357 E53.01147
G1 X175.516 Y142.676 E53.12888
G1 X174.984 Y143.644 E53.21567
G1 X174.192 Y145.032 E53.34125
G1 X173.67 Y145.917 E53.42198
G1 X172.815 Y147.321 E53.55115
G1 X172.255 Y148.207 E53.63351
G1 X171.417 Y149.497 E53.75438
G1 X170.849 Y150.344 E53.83452
G1 X169.896 Y151.714 E53.96565
G1 X169.265 Y152.594 E54.05074
G1 X168.328 Y153.861 E54.17457
G1 X167.688 Y154.7 E54.25748
G1 X166.701 Y155.956 E54.383
G1 X166.005 Y156.814 E54.46981
G1 X165.043 Y157.965 E54.58769
G1 X164.294 Y158.835 E54.67789
G1 X163.285 Y159.972 E54.79734
G1 X162.553 Y160.773 E54.8826
G1 X161.456 Y161.938 E55.00834
G1 X160.732 Y162.685 E55.09009
G1 X159.571 Y163.845 E55.21905
G1 X158.791 Y164.602 E55.30445
G1 X157.71 Y165.621 E55.42119
G1 X156.864 Y166.396 E55.51134
G1 X155.725 Y167.408 E55.63106
G1 X154.862 Y168.152 E55.7206
G1 X153.694 Y169.128 E55.8402
G1 X152.869 Y169.798 E55.92371
G1 X151.596 Y170.802 E56.0511
G1 X150.731 Y171.462 E56.1366
G1 X149.505 Y172.369 E56.25643
G1 X148.582 Y173.032 E56.34573
G1 X147.335 Y173.899 E56.46507
G1 X146.435 Y174.505 E56.55033
G1 X145.108 Y175.371 E56.67484
G1 X144.135 Y175.986 E56.76529
G1 X142.882 Y176.749 E56.88056
G1 X141.915 Y177.32 E56.9688
G1 X140.559 Y178.094 E57.09149
G1 X139.62 Y178.611 E57.17572
G1 X138.185 Y179.375 E57.30346
G1 X137.292 Y179.832 E57.38229
G1 X135.829 Y180.556 E57.51055
G1 X134.804 Y181.044 E57.59975
G1 X133.41 Y181.682 E57.72022
G1 X132.428 Y182.114 E57.80452
G1 X131.014 Y182.712 E57.92515
G1 X129.956 Y183.139 E58.0148
G1 X128.517 Y183.697 E58.13608
G1 X127.483 Y184.08 E58.22272
G1 X126.047 Y184.589 E58.34244
G1 X125.006 Y184.94 E58.42876
G1 X123.536 Y185.413 E58.5501
G1 X122.482 Y185.734 E58.63668
G1 X120.995 Y186.164 E58.75831
G1 X119.942 Y186.452 E58.84409
G1 X118.404 Y186.847 E58.96886
G1 X117.336 Y187.104 E59.05518
G1 X115.821 Y187.445 E59.1772
G1 X114.773 Y187.665 E59.26134
G1 X113.221 Y187.967 E59.38558
G1 X112.184 Y188.152 E59.46835
G1 X110.608 Y188.412 E59.59387
G1 X109.555 Y188.568 E59.67751
G1 X107.966 Y188.781 E59.80349
G1 X106.864 Y188.911 E59.89068
G1 X105.397 Y189.062 E60.00656
G1 X104.23 Y189.166 E60.09862
G1 X102.811 Y189.271 E60.21043
G1 X101.621 Y189.341 E60.3041
G1 X100.069 Y189.409 E60.42617
G1 X98.964 Y189.441 E60.51303
G1 X97.392 Y189.463 E60.63657
G1 X96.3 Y189.462 E60.72237
G1 X94.758 Y189.439 E60.84355
G1 X93.03 Y189.385 E60.9794
G1 X92.418 Y189.353 E61.02755
G1 X90.996 Y189.267 E61.13949
G1 X89.472 Y189.153 E61.25958
G1 X88.363 Y189.053 E61.34708
G1 X86.816 Y188.891 E61.4693
G1 X85.789 Y188.768 E61.55057
G1 X84.222 Y188.556 E61.67483
G1 X82.767 Y188.339 E61.79042
G1 X81.681 Y188.155 E61.87697
G1 X80.555 Y187.951 E61.96689
G1 X78.967 Y187.641 E62.09403
G1 X77.9 Y187.415 E62.17973
G1 X76.399 Y187.075 E62.30066
G1 X75.287 Y186.804 E62.39059
G1 X73.809 Y186.422 E62.51055
G1 X72.749 Y186.131 E62.59692
G1 X71.221 Y185.688 E62.72193
