;FLAVOR:Marlin
;TIME:1532
;Filament used: 1.61287m
;Layer height: 0.3
;MINX:8.268
;MINY:141.431
;MINZ:0.3
;MAXX:90.956
;MAXY:194.337
;MAXZ:30
;Generated with Cura_SteamEngine 4.10.0
M104 S205
M105
M109 S205
M82 ;absolute extrusion mode
G21 ;metric values
G90 ;absolute positioning
M82 ;set extruder to absolute mode
M107 ;start with the fan off
G28 X0 Y0 ;move X/Y to min endstops
G28 Z0 ;move Z to min endstops
M501
M420 S1 ;Marlin Bed-leveling on
G1 Z15.0 F120 ;move the platform down 15mm
G92 E0 ;zero the extruded length
G1 F200 E3 ;extrude 3mm of feed stock
G92 E0 ;zero the extruded length again
G1 F120
M117 Printing...
G5
G92 E0
G92 E0
G1 F2400 E-6
;LAYER_COUNT:100
;LAYER:0
M107
M204 S3000
M205 X10 Y10
G1 F600 Z0.375
G0 F1200 X22.128 Y141.58 Z0.375
M204 S1800
M205 X8 Y8
;TYPE:SKIRT
G1 F600 Z0.3
G1 F2400 E0
G1 F1200 X22.854 Y141.468 E0.05772
G1 X23.399 Y141.435 E0.10062
G1 X23.611 Y141.431 E0.11729
G1 X24.345 Y141.457 E0.175
G1 X25.072 Y141.563 E0.23273
G1 X25.783 Y141.747 E0.29044
G1 X26.47 Y142.007 E0.34816
G1 X26.943 Y142.24 E0.38959
G1 X27.632 Y142.612 E0.45111
G1 X30.047 Y143.872 E0.66515
G1 X32.431 Y145.032 E0.87348
G1 X34.828 Y146.116 E1.08019
G1 X37.28 Y147.142 E1.28905
G1 X39.726 Y148.083 E1.49498
G1 X42.226 Y148.965 E1.70329
G1 X44.735 Y149.773 E1.91041
G1 X47.228 Y150.499 E2.11444
G1 X49.802 Y151.168 E2.32342
G1 X52.433 Y151.774 E2.53557
G1 X53.916 Y152.084 E2.65462
G1 X82.142 Y157.696 E4.91595
G1 X82.9 Y157.857 E4.97684
G1 X83.401 Y157.982 E5.01741
G1 X84.048 Y158.182 E5.07062
G1 X84.615 Y158.396 E5.11825
G1 X84.904 Y158.52 E5.14296
G1 X85.467 Y158.793 E5.19212
G1 X85.752 Y158.948 E5.21761
G1 X86.255 Y159.251 E5.26376
G1 X86.498 Y159.412 E5.28666
G1 X86.982 Y159.764 E5.33369
G1 X87.23 Y159.962 E5.35862
G1 X87.687 Y160.363 E5.4064
G1 X87.925 Y160.591 E5.43229
G1 X88.344 Y161.029 E5.47992
G1 X88.521 Y161.232 E5.50109
G1 X88.888 Y161.693 E5.54739
G1 X89.111 Y161.999 E5.57714
G1 X89.436 Y162.487 E5.62321
G1 X89.547 Y162.671 E5.6401
G1 X89.861 Y163.255 E5.6922
G1 X90.043 Y163.637 E5.72545
G1 X90.265 Y164.159 E5.77002
G1 X90.357 Y164.403 E5.79051
G1 X90.553 Y165.008 E5.84048
G1 X90.634 Y165.305 E5.86467
G1 X90.76 Y165.859 E5.90931
G1 X90.818 Y166.174 E5.93448
G1 X90.903 Y166.795 E5.98373
G1 X90.929 Y167.086 E6.00669
G1 X90.956 Y167.687 E6.05396
G1 X90.956 Y168.07 E6.08406
G1 X90.92 Y168.77 E6.13913
G1 X90.825 Y169.52 E6.19854
G1 X90.779 Y169.781 E6.21936
G1 X90.635 Y170.415 E6.27045
G1 X90.532 Y170.786 E6.3007
G1 X90.343 Y171.364 E6.34849
G1 X90.252 Y171.605 E6.36873
G1 X90.02 Y172.146 E6.41498
G1 X89.882 Y172.433 E6.44001
G1 X89.601 Y172.957 E6.48673
G1 X89.428 Y173.248 E6.51333
G1 X89.077 Y173.78 E6.56341
G1 X88.793 Y174.164 E6.60094
G1 X87.962 Y175.235 E6.70746
G1 X87.583 Y175.711 E6.75527
G1 X86.009 Y177.808 E6.9613
G1 X84.486 Y179.96 E7.16846
G1 X83.007 Y182.181 E7.37813
G1 X81.618 Y184.404 E7.58411
G1 X80.543 Y186.222 E7.75006
G1 X78.241 Y190.211 E8.11196
G1 X77.797 Y190.958 E8.18024
G1 X77.333 Y191.639 E8.24499
G1 X77.264 Y191.728 E8.25384
G1 X76.783 Y192.283 E8.31155
G1 X76.244 Y192.783 E8.36932
G1 X75.654 Y193.221 E8.42706
G1 X75.021 Y193.592 E8.48471
G1 X74.35 Y193.893 E8.5425
G1 X73.651 Y194.119 E8.60022
G1 X72.932 Y194.267 E8.6579
G1 X72.201 Y194.337 E8.71561
G1 X71.466 Y194.326 E8.77337
G1 X70.737 Y194.236 E8.83108
G1 X69.848 Y194.013 E8.9031
G1 X69.105 Y193.772 E8.96448
G1 X15.814 Y175.682 E13.38662
G1 X15.014 Y175.397 E13.45335
G1 X14.274 Y175.092 E13.51624
G1 X13.972 Y174.949 E13.5425
G1 X13.42 Y174.655 E13.59164
G1 X13.123 Y174.479 E13.61877
G1 X12.573 Y174.116 E13.67055
G1 X12.352 Y173.954 E13.69208
G1 X11.931 Y173.618 E13.73441
G1 X11.674 Y173.396 E13.76109
G1 X11.203 Y172.949 E13.81211
G1 X11.035 Y172.773 E13.83123
G1 X10.65 Y172.332 E13.87723
G1 X10.372 Y171.985 E13.91217
G1 X9.981 Y171.444 E13.96462
G1 X9.864 Y171.264 E13.98149
G1 X9.602 Y170.827 E14.02153
G1 X9.435 Y170.522 E14.04885
G1 X9.154 Y169.944 E14.09935
G1 X9.038 Y169.674 E14.12244
G1 X8.82 Y169.094 E14.17113
G1 X8.721 Y168.789 E14.19633
G1 X8.568 Y168.241 E14.24103
G1 X8.5 Y167.95 E14.26452
G1 X8.387 Y167.34 E14.31326
G1 X8.342 Y167.015 E14.33904
G1 X8.287 Y166.429 E14.38529
G1 X8.271 Y166.112 E14.41023
G1 X8.268 Y165.49 E14.45911
G1 X8.279 Y165.227 E14.47979
G1 X8.332 Y164.616 E14.52798
G1 X8.385 Y164.219 E14.55946
G1 X8.483 Y163.665 E14.60366
G1 X8.535 Y163.428 E14.62273
G1 X8.675 Y162.895 E14.66603
G1 X8.752 Y162.644 E14.68666
G1 X8.992 Y161.986 E14.7417
G1 X9.175 Y161.555 E14.77849
G1 X9.484 Y160.921 E14.83391
G1 X9.768 Y160.42 E14.87916
G1 X10.342 Y159.479 E14.96577
G1 X11.682 Y157.211 E15.17277
G1 X12.945 Y154.924 E15.37806
G1 X14.172 Y152.55 E15.58804
G1 X15.308 Y150.188 E15.79399
G1 X16.394 Y147.758 E16.00313
G1 X17.201 Y145.821 E16.16802
G1 X17.263 Y145.666 E16.18113
G1 X17.574 Y145 E16.23889
G1 X17.955 Y144.372 E16.29661
G1 X18.403 Y143.789 E16.35438
G1 X18.91 Y143.259 E16.41202
G1 X19.473 Y142.786 E16.4698
G1 X20.083 Y142.378 E16.52746
G1 X20.735 Y142.038 E16.58524
G1 X21.419 Y141.771 E16.64294
G1 X22.128 Y141.58 E16.70063
M204 S3000
M205 X10 Y10
G0 X22.602 Y142.205
M204 S1800
M205 X8 Y8
G1 X23.412 Y142.135 E16.76452
G1 X23.624 Y142.131 E16.78118
G1 X24.319 Y142.158 E16.83583
G1 X25.006 Y142.264 E16.89045
G1 X25.676 Y142.449 E16.94507
G1 X26.611 Y142.856 E17.0252
G1 X27.361 Y143.26 E17.09214
G1 X29.743 Y144.504 E17.3033
G1 X32.12 Y145.66 E17.51099
G1 X34.553 Y146.76 E17.7208
G1 X37.018 Y147.792 E17.93078
G1 X39.464 Y148.732 E18.13669
G1 X41.989 Y149.624 E18.34711
G1 X44.536 Y150.444 E18.55736
G1 X47.068 Y151.181 E18.76458
G1 X49.621 Y151.845 E18.97186
G1 X52.279 Y152.457 E19.18618
G1 X53.723 Y152.759 E19.3021
G1 X81.997 Y158.381 E21.56728
G1 X82.755 Y158.542 E21.62817
G1 X83.537 Y158.752 E21.6918
G1 X83.831 Y158.848 E21.7161
G1 X84.339 Y159.039 E21.75874
G1 X84.628 Y159.163 E21.78345
G1 X85.133 Y159.408 E21.82756
G1 X85.418 Y159.563 E21.85305
G1 X85.869 Y159.835 E21.89444
G1 X86.112 Y159.996 E21.91734
G1 X86.545 Y160.311 E21.95942
G1 X86.793 Y160.509 E21.98435
G1 X87.203 Y160.868 E22.02717
G1 X87.441 Y161.096 E22.05307
G1 X87.816 Y161.489 E22.09575
G1 X87.993 Y161.692 E22.11692
G1 X88.322 Y162.105 E22.15841
G1 X88.545 Y162.411 E22.18816
G1 X88.836 Y162.849 E22.22948
G1 X88.947 Y163.033 E22.24637
G1 X89.229 Y163.556 E22.29305
G1 X89.411 Y163.938 E22.3263
G1 X89.61 Y164.406 E22.36626
G1 X89.702 Y164.65 E22.38675
G1 X89.878 Y165.192 E22.43153
G1 X89.959 Y165.489 E22.45572
G1 X90.072 Y165.985 E22.4957
G1 X90.13 Y166.3 E22.52086
G1 X90.206 Y166.858 E22.56511
G1 X90.232 Y167.149 E22.58807
G1 X90.256 Y167.687 E22.63039
G1 X90.256 Y168.07 E22.66048
G1 X90.223 Y168.698 E22.7099
G1 X90.135 Y169.398 E22.76533
G1 X90.089 Y169.659 E22.78616
G1 X89.961 Y170.227 E22.83191
G1 X89.858 Y170.598 E22.86216
G1 X89.688 Y171.117 E22.90508
G1 X89.597 Y171.358 E22.92532
G1 X89.389 Y171.843 E22.96679
G1 X89.251 Y172.13 E22.99181
G1 X88.999 Y172.6 E23.03371
G1 X88.826 Y172.891 E23.06032
G1 X88.511 Y173.368 E23.10523
G1 X88.24 Y173.735 E23.14108
G1 X87.414 Y174.8 E23.24698
G1 X87.022 Y175.293 E23.29648
G1 X85.455 Y177.381 E23.50161
G1 X83.892 Y179.588 E23.71411
G1 X82.435 Y181.778 E23.9208
G1 X81.004 Y184.065 E24.13279
G1 X79.936 Y185.873 E24.29779
G1 X79.145 Y187.247 E24.42237
G1 X77.593 Y189.932 E24.66606
G1 X77.195 Y190.6 E24.72716
G1 X76.779 Y191.21 E24.78517
G1 X76.71 Y191.299 E24.79402
G1 X76.253 Y191.823 E24.84866
G1 X75.739 Y192.291 E24.90328
G1 X75.175 Y192.698 E24.95793
G1 X74.568 Y193.036 E25.01252
G1 X73.925 Y193.303 E25.06723
G1 X73.257 Y193.495 E25.12185
G1 X72.571 Y193.608 E25.17648
G1 X71.876 Y193.642 E25.23115
G1 X71.182 Y193.596 E25.2858
G1 X70.498 Y193.47 E25.34046
G1 X70.063 Y193.347 E25.37598
G1 X69.33 Y193.109 E25.43653
G1 X16.049 Y175.022 E29.85785
G1 X15.249 Y174.737 E29.92458
G1 X14.574 Y174.459 E29.98194
G1 X14.272 Y174.316 E30.0082
G1 X13.777 Y174.053 E30.05224
G1 X13.48 Y173.877 E30.07937
G1 X12.987 Y173.551 E30.12581
G1 X12.388 Y173.088 E30.1853
G1 X12.131 Y172.866 E30.21199
G1 X11.71 Y172.465 E30.25767
G1 X11.542 Y172.289 E30.27679
G1 X11.196 Y171.895 E30.31799
G1 X10.918 Y171.548 E30.35293
G1 X10.567 Y171.062 E30.40004
G1 X10.216 Y170.491 E30.45271
G1 X10.049 Y170.186 E30.48003
G1 X9.797 Y169.668 E30.52529
G1 X9.681 Y169.398 E30.54838
G1 X9.486 Y168.878 E30.59202
G1 X9.387 Y168.573 E30.61722
G1 X9.25 Y168.082 E30.65727
G1 X9.182 Y167.791 E30.68076
G1 X9.08 Y167.244 E30.72448
G1 X9.035 Y166.919 E30.75026
G1 X8.986 Y166.394 E30.79169
G1 X8.97 Y166.077 E30.81663
G1 X8.967 Y165.519 E30.86048
G1 X8.978 Y165.256 E30.88116
G1 X9.026 Y164.708 E30.92439
G1 X9.079 Y164.311 E30.95586
G1 X9.167 Y163.815 E30.99544
G1 X9.344 Y163.101 E31.05325
G1 X9.421 Y162.85 E31.07388
G1 X9.636 Y162.26 E31.12322
G1 X9.819 Y161.829 E31.16001
G1 X10.096 Y161.26 E31.20974
G1 X10.366 Y160.784 E31.25274
G1 X10.94 Y159.843 E31.33935
G1 X12.286 Y157.565 E31.54726
G1 X13.57 Y155.241 E31.75589
G1 X14.799 Y152.863 E31.96623
G1 X15.946 Y150.477 E32.17425
G1 X17.03 Y148.051 E32.38304
G1 X17.865 Y146.047 E32.55363
G1 X17.913 Y145.927 E32.56379
G1 X18.209 Y145.298 E32.61841
G1 X18.575 Y144.707 E32.67304
G1 X19.007 Y144.161 E32.72775
G1 X19.498 Y143.669 E32.78236
G1 X20.043 Y143.237 E32.83701
G1 X20.634 Y142.87 E32.89167
G1 X21.263 Y142.573 E32.94633
G1 X21.922 Y142.351 E33.00097
G1 X22.602 Y142.205 E33.05562
M204 S3000
M205 X10 Y10
G0 X22.41 Y142.952
M204 S1800
M205 X8 Y8
G1 X23.057 Y142.855 E33.10703
G1 X23.637 Y142.831 E33.15264
G1 X24.29 Y142.859 E33.204
G1 X24.935 Y142.966 E33.25538
G1 X25.563 Y143.151 E33.30682
G1 X26.278 Y143.472 E33.36841
G1 X26.984 Y143.853 E33.43144
G1 X29.426 Y145.128 E33.64791
G1 X31.839 Y146.302 E33.85877
G1 X34.249 Y147.39 E34.06654
G1 X36.769 Y148.446 E34.28124
G1 X39.234 Y149.393 E34.48873
G1 X41.794 Y150.298 E34.70209
G1 X44.304 Y151.106 E34.90928
G1 X46.865 Y151.851 E35.11886
G1 X49.499 Y152.536 E35.33272
G1 X52.078 Y153.13 E35.54067
G1 X53.637 Y153.456 E35.66583
G1 X81.852 Y159.066 E37.92628
G1 X82.61 Y159.227 E37.98717
G1 X83.32 Y159.417 E38.04492
G1 X84.063 Y159.682 E38.1069
G1 X84.798 Y160.023 E38.17057
G1 X85.482 Y160.418 E38.23264
G1 X86.108 Y160.858 E38.29276
G1 X86.719 Y161.374 E38.3556
G1 X87.288 Y161.949 E38.41917
G1 X87.757 Y162.517 E38.47705
G1 X88.237 Y163.21 E38.54329
G1 X88.348 Y163.394 E38.56017
G1 X88.597 Y163.857 E38.60148
G1 X88.955 Y164.652 E38.66999
G1 X89.047 Y164.896 E38.69048
G1 X89.202 Y165.376 E38.73012
G1 X89.384 Y166.112 E38.78969
G1 X89.509 Y166.92 E38.85394
G1 X89.556 Y167.687 E38.91432
G1 X89.556 Y168.07 E38.94441
G1 X89.527 Y168.625 E38.98808
G1 X89.446 Y169.277 E39.03971
G1 X89.4 Y169.538 E39.06053
G1 X89.286 Y170.04 E39.10098
G1 X89.033 Y170.87 E39.16917
G1 X88.759 Y171.539 E39.22597
G1 X88.398 Y172.242 E39.28807
G1 X88.225 Y172.533 E39.31467
G1 X87.946 Y172.955 E39.35442
G1 X87.686 Y173.307 E39.38881
G1 X86.866 Y174.364 E39.49393
G1 X86.492 Y174.834 E39.54112
G1 X84.854 Y177.016 E39.75551
G1 X83.326 Y179.176 E39.96341
G1 X81.846 Y181.399 E40.17326
G1 X80.408 Y183.698 E40.38634
G1 X79.33 Y185.523 E40.55289
G1 X78.539 Y186.897 E40.67747
G1 X76.992 Y189.573 E40.92035
G1 X76.594 Y190.241 E40.98145
G1 X76.226 Y190.781 E41.0328
G1 X76.157 Y190.87 E41.04165
G1 X75.726 Y191.361 E41.09298
G1 X75.237 Y191.796 E41.14441
G1 X74.7 Y192.169 E41.19579
G1 X74.121 Y192.472 E41.24714
G1 X73.509 Y192.703 E41.29854
G1 X72.874 Y192.858 E41.3499
G1 X72.224 Y192.934 E41.40132
G1 X71.57 Y192.93 E41.45271
G1 X70.922 Y192.846 E41.50405
G1 X70.279 Y192.681 E41.55622
G1 X69.555 Y192.446 E41.61603
G1 X16.284 Y174.363 E46.0365
G1 X15.484 Y174.078 E46.10323
G1 X14.873 Y173.826 E46.15517
G1 X14.134 Y173.451 E46.22028
G1 X13.837 Y173.275 E46.24741
G1 X13.401 Y172.987 E46.28847
G1 X12.846 Y172.559 E46.34354
G1 X12.589 Y172.337 E46.37023
G1 X12.216 Y171.982 E46.41069
G1 X11.743 Y171.457 E46.46621
G1 X11.465 Y171.11 E46.50115
G1 X11.154 Y170.681 E46.54279
G1 X10.83 Y170.154 E46.5914
G1 X10.663 Y169.849 E46.61872
G1 X10.44 Y169.392 E46.65868
G1 X10.151 Y168.662 E46.72037
G1 X9.931 Y167.922 E46.78103
G1 X9.774 Y167.148 E46.84309
G1 X9.685 Y166.359 E46.90548
G1 X9.667 Y165.548 E46.96922
G1 X9.72 Y164.801 E47.02807
G1 X9.85 Y163.965 E47.09455
G1 X10.013 Y163.306 E47.14789
G1 X10.09 Y163.055 E47.16852
G1 X10.281 Y162.533 E47.2122
G1 X10.464 Y162.102 E47.24899
G1 X10.709 Y161.599 E47.29295
G1 X10.964 Y161.149 E47.33359
G1 X11.506 Y160.261 E47.41534
G1 X12.897 Y157.905 E47.63033
G1 X14.192 Y155.561 E47.84075
G1 X15.426 Y153.174 E48.0519
G1 X16.583 Y150.768 E48.26168
G1 X17.668 Y148.34 E48.47064
G1 X18.497 Y146.349 E48.64011
G1 X18.562 Y146.188 E48.65375
G1 X18.843 Y145.597 E48.70518
G1 X19.193 Y145.045 E48.75653
G1 X19.609 Y144.54 E48.80795
G1 X20.082 Y144.09 E48.85925
G1 X20.608 Y143.7 E48.9107
G1 X21.177 Y143.377 E48.96211
G1 X21.78 Y143.127 E49.0134
G1 X22.41 Y142.952 E49.06478
M204 S3000
M205 X10 Y10
G1 F2400 E43.06478
;MESH:Arm_L_Note9_Otterbox2.stl
G0 F1200 X24.38 Y147.509
G0 X24.917 Y152.516
G0 X24.581 Y154.211
G0 X78.696 Y169.729
G0 X78.769 Y169.662
M204 S1800
M205 X8 Y8
;TYPE:WALL-INNER
G1 F2400 E49.06478
G1 F600 X79.256 Y170.07 E49.1147
G1 X78.71 Y169.962 E49.12294
G1 X78.226 Y169.866 E49.16171
G1 X24.565 Y159.19 E53.46087
G1 X24.565 Y156.143 E53.7003
G1 X24.569 Y154.621 E53.81989
G1 X24.569 Y154.62 E53.81997
G1 X24.569 Y154.196 E53.85329
G1 X24.985 Y154.278 E53.87374
G1 X79.203 Y165.062 E58.21748
G1 X79.565 Y165.134 E58.24649
G1 X80.145 Y165.25 E58.29296
G1 X80.214 Y165.264 E58.2985
G1 X80.141 Y165.271
G1 X79.491 Y165.51 E58.31834
G1 X79.188 Y165.723 E58.3414
G1 X78.925 Y165.908 E58.36666
G1 X78.479 Y166.442 E58.42133
G1 X78.189 Y167.07 E58.47569
G1 X78.068 Y167.753 E58.53019
G1 X78.131 Y168.445 E58.58479
G1 X78.369 Y169.095 E58.63918
G1 X78.484 Y169.258 E58.65486
G1 X78.769 Y169.662 E58.68353
M204 S3000
M205 X10 Y10
G0 F1200 X78.696 Y169.729
G0 X80.125 Y169.774
M204 S1800
M205 X8 Y8
;TYPE:WALL-OUTER
G1 F600 X80.641 Y169.863 E58.72468
G1 X81.161 Y169.816 E58.7657
G1 X81.65 Y169.637 E58.80662
G1 X82.078 Y169.336 E58.84774
G1 X82.412 Y168.936 E58.88868
G1 X82.633 Y168.461 E58.92985
G1 X82.723 Y167.947 E58.97085
G1 X82.675 Y167.426 E59.01197
G1 X82.496 Y166.937 E59.05288
G1 X82.195 Y166.508 E59.09406
G1 X81.794 Y166.174 E59.13507
G1 X81.32 Y165.954 E59.17613
G1 X80.806 Y165.864 E59.21713
G1 X80.285 Y165.911 E59.25824
G1 X79.795 Y166.091 E59.29926
G1 X79.369 Y166.39 E59.34015
G1 X79.033 Y166.793 E59.38138
G1 X78.814 Y167.266 E59.42234
G1 X78.723 Y167.78 E59.46336
G1 X78.771 Y168.301 E59.50447
G1 X78.95 Y168.791 E59.54546
G1 X79.251 Y169.218 E59.58651
G1 X79.652 Y169.554 E59.62762
G1 X80.125 Y169.774 E59.66861
M204 S3000
M205 X10 Y10
G0 F1200 X80.42 Y169.825
G0 X79.166 Y170.027
G0 X81.489 Y170.867
M204 S1800
M205 X8 Y8
G1 F600 X80.953 Y170.955 E59.71129
G1 X80.402 Y170.947 E59.75459
G1 X80.1 Y170.901 E59.7786
G1 X23.915 Y159.724 E64.27996
G1 X23.915 Y156.142 E64.56142
G1 X23.919 Y154.05 E64.7258
G1 X23.919 Y153.951 E64.73358
G1 X23.917 Y153.403 E64.77664
G1 X24.023 Y153.424
G1 X24.12 Y153.443 E64.78371
G1 X81.319 Y164.821 E69.3663
G1 X81.861 Y164.98 E69.41068
G1 X82.356 Y165.229 E69.45422
G1 X82.798 Y165.561 E69.49766
G1 X83.175 Y165.968 E69.54125
G1 X83.473 Y166.433 E69.58465
G1 X83.688 Y166.96 E69.62937
G1 X83.802 Y167.502 E69.67289
G1 X83.817 Y168.044 E69.7155
G1 X83.735 Y168.598 E69.7595
G1 X83.554 Y169.127 E69.80344
G1 X83.283 Y169.61 E69.84696
G1 X82.926 Y170.045 E69.89117
G1 X82.502 Y170.402 E69.93473
G1 X82.027 Y170.676 E69.97782
G1 X81.489 Y170.867 E70.02268
M204 S3000
M205 X10 Y10
G0 F1200 X81.193 Y170.915
G0 X79.166 Y170.027
G0 X77.614 Y169.041
M204 S1800
M205 X8 Y8
;TYPE:SKIN
G1 F600 X25.255 Y158.625 E74.21751
G1 X25.257 Y155.036 E74.49953
G1 X78.296 Y165.585 E78.74881
G1 X77.891 Y166.07 E78.79846
G1 X77.525 Y166.861 E78.86694
G1 X77.372 Y167.724 E78.93581
G1 X77.452 Y168.597 E79.0047
G1 X77.614 Y169.041 E79.04184
M204 S3000
M205 X10 Y10
G0 F1200 X77.356 Y166.452
M204 S1800
M205 X8 Y8
G1 F600 X76.453 Y165.549 E79.14218
M204 S3000
M205 X10 Y10
G0 F1200 X75.217 Y165.303
M204 S1800
M205 X8 Y8
G1 F600 X77.131 Y167.216 E79.35482
M204 S3000
M205 X10 Y10
G0 F1200 X77.085 Y168.161
M204 S1800
