;FLAVOR:Marlin
;TIME:850
;Filament used: 1.34348m
;Layer height: 0.3
;MINX:32.555
;MINY:24.627
;MINZ:0.3
;MAXX:117.762
;MAXY:72.895
;MAXZ:12.6
;Generated with Cura_SteamEngine 4.10.0
M104 S205
M105
M109 S205
M82 ;absolute extrusion mode
G21 ;metric values
G90 ;absolute positioning
M82 ;set extruder to absolute mode
M107 ;start with the fan off
G28 X0 Y0 ;move X/Y to min endstops
G28 Z0 ;move Z to min endstops
M501
M420 S1 ;Marlin Bed-leveling on
G1 Z15.0 F120 ;move the platform down 15mm
G92 E0 ;zero the extruded length
G1 F200 E3 ;extrude 3mm of feed stock
G92 E0 ;zero the extruded length again
G1 F120
M117 Printing...
G5
G92 E0
G92 E0
G1 F2400 E-6
;LAYER_COUNT:42
;LAYER:0
M107
M204 S3000
M205 X10 Y10
G1 F600 Z0.375
G0 F1200 X35.711 Y56.179 Z0.375
M204 S1800
M205 X8 Y8
;TYPE:SKIRT
G1 F600 Z0.3
G1 F2400 E0
G1 F600 X36.435 Y55.725 E0.07088
G1 X84.084 Y26.768 E4.69557
G1 X85.26 Y26.085 E4.80837
G1 X85.995 Y25.71 E4.87681
G1 X86.537 Y25.477 E4.92574
G1 X87.145 Y25.254 E4.97945
G1 X87.704 Y25.08 E5.02801
G1 X88.312 Y24.924 E5.08008
G1 X88.868 Y24.812 E5.12712
G1 X89.499 Y24.716 E5.18006
G1 X90.072 Y24.658 E5.22783
G1 X90.718 Y24.629 E5.28146
G1 X91.098 Y24.627 E5.31298
G1 X91.66 Y24.647 E5.35962
G1 X92.281 Y24.7 E5.41132
G1 X92.903 Y24.787 E5.46341
G1 X93.477 Y24.897 E5.51189
G1 X94.116 Y25.055 E5.56648
G1 X94.643 Y25.214 E5.61214
G1 X95.3 Y25.454 E5.67015
G1 X95.764 Y25.648 E5.71187
G1 X96.341 Y25.923 E5.76488
G1 X96.971 Y26.273 E5.82466
G1 X97.4 Y26.54 E5.86657
G1 X97.883 Y26.873 E5.91523
G1 X98.394 Y27.269 E5.96885
G1 X98.9 Y27.706 E6.0243
G1 X99.295 Y28.088 E6.06988
G1 X99.775 Y28.6 E6.12809
G1 X100.194 Y29.104 E6.18245
G1 X100.562 Y29.599 E6.23361
G1 X100.74 Y29.86 E6.25982
G1 X101.05 Y30.339 E6.30714
G1 X101.154 Y30.505 E6.32339
G1 X115.986 Y54.951 E8.69501
G1 X116.39 Y55.639 E8.76119
G1 X116.799 Y56.427 E8.83483
G1 X117.061 Y57.03 E8.88936
G1 X117.236 Y57.51 E8.93173
G1 X117.316 Y57.757 E8.95327
G1 X117.485 Y58.379 E9.00673
G1 X117.562 Y58.727 E9.03629
G1 X117.673 Y59.382 E9.09139
G1 X117.71 Y59.691 E9.1172
G1 X117.755 Y60.304 E9.16818
G1 X117.762 Y60.552 E9.18876
G1 X117.754 Y61.13 E9.23671
G1 X117.728 Y61.582 E9.27426
G1 X117.655 Y62.258 E9.33066
G1 X117.535 Y62.911 E9.38572
G1 X117.389 Y63.506 E9.43654
G1 X117.359 Y63.611 E9.4456
G1 X117.203 Y64.091 E9.48746
G1 X117.049 Y64.509 E9.52441
G1 X116.787 Y65.123 E9.57978
G1 X116.703 Y65.296 E9.59573
G1 X116.447 Y65.774 E9.6407
G1 X116.199 Y66.195 E9.68123
G1 X115.805 Y66.789 E9.74035
G1 X115.388 Y67.322 E9.79648
G1 X115.114 Y67.64 E9.8313
G1 X114.65 Y68.127 E9.88709
G1 X114.182 Y68.559 E9.93991
G1 X113.66 Y68.981 E9.99559
G1 X113.095 Y69.38 E10.05296
G1 X112.61 Y69.692 E10.10079
G1 X112.363 Y69.845 E10.12489
G1 X110.414 Y71.028 E10.31399
G1 X109.777 Y71.403 E10.3753
G1 X109.125 Y71.741 E10.43621
G1 X108.612 Y71.948 E10.4821
G1 X108.337 Y72.046 E10.50631
G1 X107.413 Y72.351 E10.58702
G1 X106.616 Y72.574 E10.65566
G1 X105.898 Y72.727 E10.71655
G1 X105.227 Y72.828 E10.77283
G1 X104.724 Y72.876 E10.81474
G1 X104.469 Y72.891 E10.83593
G1 X103.746 Y72.895 E10.8959
G1 X103.54 Y72.885 E10.913
G1 X102.493 Y72.752 E11.00054
G1 X102.315 Y72.715 E11.01562
G1 X101.734 Y72.567 E11.06535
G1 X100.473 Y72.176 E11.17485
G1 X97.872 Y71.413 E11.39968
G1 X95.338 Y70.748 E11.61697
G1 X92.742 Y70.142 E11.83808
G1 X90.165 Y69.618 E12.05619
G1 X87.566 Y69.167 E12.27498
G1 X84.967 Y68.79 E12.49281
G1 X82.337 Y68.485 E12.71241
G1 X79.719 Y68.255 E12.93039
G1 X77.099 Y68.101 E13.14807
G1 X74.442 Y68.019 E13.36855
G1 X71.819 Y68.012 E13.58611
G1 X69.157 Y68.081 E13.80698
G1 X66.546 Y68.221 E14.02385
G1 X63.923 Y68.438 E14.24216
G1 X61.29 Y68.731 E14.46189
G1 X58.668 Y69.098 E14.68149
G1 X56.073 Y69.535 E14.89975
G1 X53.495 Y70.046 E15.11774
G1 X50.931 Y70.629 E15.33583
G1 X47.626 Y71.501 E15.61934
G1 X47.28 Y71.588 E15.64893
G1 X46.559 Y71.728 E15.70985
G1 X45.827 Y71.789 E15.77077
G1 X45.093 Y71.77 E15.83167
G1 X44.461 Y71.689 E15.88452
G1 X43.294 Y71.483 E15.98281
G1 X40.581 Y71.042 E16.21079
G1 X39.789 Y70.924 E16.2772
G1 X39.07 Y70.776 E16.33809
G1 X38.371 Y70.55 E16.39902
G1 X37.7 Y70.25 E16.45998
G1 X37.066 Y69.879 E16.52091
G1 X36.476 Y69.442 E16.58181
G1 X35.938 Y68.942 E16.64273
G1 X35.456 Y68.387 E16.7037
G1 X35.127 Y67.925 E16.75074
G1 X34.668 Y67.217 E16.82072
G1 X33.889 Y65.975 E16.94232
G1 X33.545 Y65.412 E16.99705
G1 X33.197 Y64.766 E17.05791
G1 X32.921 Y64.085 E17.11885
G1 X32.72 Y63.378 E17.17982
G1 X32.598 Y62.654 E17.24072
G1 X32.555 Y61.921 E17.30162
G1 X32.592 Y61.187 E17.36257
G1 X32.709 Y60.462 E17.42349
G1 X32.903 Y59.753 E17.48445
G1 X33.174 Y59.07 E17.5454
G1 X33.517 Y58.421 E17.60628
G1 X33.928 Y57.812 E17.66722
G1 X34.403 Y57.252 E17.72813
G1 X34.937 Y56.747 E17.78909
G1 X35.711 Y56.179 E17.86872
M204 S3000
M205 X10 Y10
G0 F1200 X36.084 Y56.772
M204 S1800
M205 X8 Y8
G1 F600 X36.799 Y56.323 E17.93875
G1 X84.436 Y27.373 E22.56229
G1 X85.612 Y26.69 E22.67508
G1 X86.279 Y26.35 E22.73718
G1 X86.802 Y26.124 E22.78443
G1 X87.376 Y25.915 E22.8351
G1 X87.887 Y25.756 E22.87949
G1 X88.474 Y25.605 E22.92976
G1 X88.998 Y25.5 E22.97409
G1 X89.576 Y25.412 E23.02258
G1 X90.129 Y25.356 E23.06868
G1 X90.741 Y25.328 E23.1195
G1 X91.082 Y25.327 E23.14778
G1 X91.625 Y25.346 E23.19284
G1 X92.194 Y25.395 E23.24021
G1 X92.795 Y25.478 E23.29054
G1 X93.335 Y25.583 E23.33616
G1 X93.919 Y25.727 E23.38605
G1 X94.421 Y25.878 E23.42953
G1 X95.053 Y26.109 E23.48534
G1 X95.794 Y26.434 E23.55246
G1 X96.312 Y26.702 E23.60083
G1 X97.007 Y27.12 E23.6681
G1 X97.475 Y27.442 E23.71521
G1 X97.958 Y27.817 E23.76593
G1 X98.435 Y28.229 E23.81821
G1 X99.063 Y28.858 E23.89193
G1 X99.637 Y29.528 E23.96511
G1 X99.993 Y30.006 E24.01454
G1 X100.152 Y30.24 E24.03801
G1 X100.462 Y30.719 E24.08533
G1 X100.555 Y30.868 E24.0999
G1 X115.382 Y55.306 E26.47074
G1 X115.786 Y55.994 E26.53692
G1 X116.16 Y56.714 E26.60421
G1 X116.409 Y57.284 E26.65581
G1 X116.65 Y57.973 E26.71635
G1 X116.801 Y58.53 E26.76421
G1 X116.878 Y58.878 E26.79378
G1 X116.978 Y59.466 E26.84325
G1 X117.015 Y59.775 E26.86906
G1 X117.056 Y60.323 E26.91464
G1 X117.063 Y60.571 E26.93522
G1 X117.055 Y61.089 E26.97819
G1 X117.029 Y61.541 E27.01574
G1 X116.963 Y62.148 E27.06638
G1 X116.853 Y62.755 E27.11755
G1 X116.716 Y63.314 E27.16528
G1 X116.546 Y63.849 E27.21184
G1 X116.392 Y64.267 E27.24879
G1 X116.157 Y64.818 E27.29848
G1 X115.844 Y65.419 E27.35468
G1 X115.596 Y65.84 E27.39521
G1 X115.243 Y66.372 E27.44816
G1 X114.857 Y66.865 E27.5001
G1 X114.583 Y67.183 E27.53491
G1 X114.168 Y67.619 E27.58484
G1 X113.727 Y68.026 E27.63461
G1 X113.231 Y68.427 E27.68751
G1 X112.715 Y68.792 E27.73994
G1 X112.241 Y69.097 E27.78669
G1 X111.999 Y69.247 E27.8103
G1 X110.059 Y70.425 E27.99855
G1 X109.422 Y70.8 E28.05986
G1 X108.496 Y71.244 E28.14504
G1 X108.117 Y71.381 E28.17847
G1 X107.193 Y71.686 E28.25917
G1 X106.438 Y71.897 E28.32419
G1 X105.767 Y72.04 E28.3811
G1 X105.134 Y72.134 E28.43418
G1 X104.428 Y72.193 E28.49294
G1 X103.78 Y72.196 E28.54668
G1 X103.574 Y72.186 E28.56379
G1 X102.636 Y72.066 E28.64222
G1 X102.458 Y72.029 E28.6573
G1 X101.937 Y71.897 E28.70188
G1 X101.307 Y71.701 E28.75661
G1 X100.614 Y71.488 E28.81674
G1 X98.069 Y70.741 E29.03673
G1 X95.504 Y70.068 E29.25668
G1 X92.889 Y69.458 E29.4794
G1 X90.288 Y68.928 E29.69957
G1 X87.677 Y68.476 E29.91935
G1 X85.079 Y68.099 E30.13709
G1 X82.409 Y67.789 E30.36004
G1 X79.749 Y67.556 E30.58151
G1 X77.127 Y67.401 E30.79936
G1 X74.466 Y67.319 E31.02018
G1 X71.802 Y67.312 E31.24114
G1 X69.136 Y67.381 E31.46233
G1 X66.486 Y67.524 E31.68245
G1 X63.857 Y67.741 E31.90125
G1 X61.224 Y68.033 E32.12098
G1 X58.558 Y68.406 E32.34425
G1 X55.963 Y68.844 E32.56253
G1 X53.314 Y69.369 E32.78652
G1 X50.794 Y69.942 E33.00087
G1 X47.455 Y70.822 E33.28727
G1 X47.109 Y70.909 E33.31687
G1 X46.426 Y71.04 E33.37455
G1 X45.733 Y71.091 E33.43218
G1 X45.038 Y71.063 E33.48987
G1 X44.583 Y71 E33.52797
G1 X43.385 Y70.789 E33.62887
G1 X40.647 Y70.344 E33.85894
G1 X39.893 Y70.231 E33.92218
G1 X39.212 Y70.089 E33.97988
G1 X38.552 Y69.87 E34.03756
G1 X37.922 Y69.576 E34.09522
G1 X37.33 Y69.212 E34.15286
G1 X36.783 Y68.782 E34.21057
G1 X36.289 Y68.293 E34.26822
G1 X35.714 Y67.543 E34.34661
G1 X35.261 Y66.844 E34.4157
G1 X34.486 Y65.61 E34.53656
G1 X34.142 Y65.047 E34.59128
G1 X33.815 Y64.434 E34.64891
G1 X33.559 Y63.787 E34.70662
G1 X33.38 Y63.115 E34.7643
G1 X33.279 Y62.427 E34.82198
G1 X33.257 Y61.732 E34.87965
G1 X33.316 Y61.039 E34.93734
G1 X33.453 Y60.358 E34.99495
G1 X33.668 Y59.696 E35.05268
G1 X33.957 Y59.064 E35.11032
G1 X34.317 Y58.469 E35.168
G1 X34.743 Y57.919 E35.22571
G1 X35.229 Y57.422 E35.28336
G1 X35.769 Y56.984 E35.34103
G1 X36.084 Y56.772 E35.37252
M204 S3000
M205 X10 Y10
G0 F1200 X36.457 Y57.364
M204 S1800
M205 X8 Y8
G1 F600 X37.162 Y56.921 E35.44158
G1 X84.695 Y28.033 E40.05508
G1 X85.963 Y27.296 E40.17673
G1 X86.562 Y26.99 E40.23252
G1 X87.067 Y26.772 E40.27814
G1 X87.607 Y26.576 E40.32579
G1 X88.336 Y26.36 E40.38885
G1 X88.882 Y26.234 E40.43533
G1 X89.391 Y26.143 E40.47821
G1 X89.932 Y26.077 E40.52342
G1 X90.44 Y26.039 E40.56567
G1 X91.066 Y26.026 E40.6176
G1 X91.591 Y26.046 E40.66118
G1 X92.106 Y26.089 E40.70405
G1 X92.686 Y26.17 E40.75262
G1 X93.193 Y26.268 E40.79545
G1 X93.722 Y26.399 E40.84065
G1 X94.275 Y26.568 E40.88861
G1 X94.807 Y26.764 E40.93564
G1 X95.499 Y27.069 E40.99836
G1 X95.965 Y27.31 E41.04187
G1 X96.615 Y27.699 E41.1047
G1 X97.068 Y28.012 E41.15037
G1 X97.522 Y28.364 E41.19802
G1 X97.97 Y28.752 E41.24718
G1 X98.557 Y29.342 E41.31621
G1 X99.08 Y29.952 E41.38285
G1 X99.424 Y30.414 E41.43063
G1 X99.564 Y30.62 E41.45129
G1 X99.874 Y31.099 E41.49861
G1 X99.957 Y31.231 E41.51154
G1 X114.778 Y55.66 E43.88149
G1 X115.182 Y56.348 E43.94767
G1 X115.522 Y57.001 E44.00873
G1 X115.757 Y57.539 E44.05742
G1 X115.984 Y58.189 E44.11453
G1 X116.118 Y58.681 E44.15682
G1 X116.195 Y59.029 E44.18639
G1 X116.283 Y59.549 E44.23013
G1 X116.356 Y60.343 E44.29626
G1 X116.356 Y61.049 E44.35482
G1 X116.33 Y61.501 E44.39237
G1 X116.272 Y62.037 E44.43709
G1 X116.17 Y62.599 E44.48447
G1 X116.043 Y63.122 E44.5291
G1 X115.889 Y63.607 E44.57131
G1 X115.735 Y64.025 E44.60826
G1 X115.528 Y64.512 E44.65215
G1 X115.241 Y65.063 E44.70368
G1 X114.993 Y65.484 E44.74421
G1 X114.68 Y65.956 E44.79118
G1 X114.327 Y66.408 E44.83875
G1 X114.053 Y66.726 E44.87356
G1 X113.686 Y67.112 E44.91774
G1 X113.273 Y67.494 E44.9644
G1 X112.802 Y67.874 E45.0146
G1 X112.336 Y68.204 E45.06196
G1 X111.872 Y68.503 E45.10774
G1 X111.636 Y68.649 E45.13076
G1 X109.704 Y69.821 E45.31818
G1 X109.067 Y70.196 E45.37949
G1 X108.248 Y70.589 E45.45484
G1 X107.898 Y70.716 E45.48572
G1 X106.974 Y71.021 E45.56643
G1 X106.259 Y71.22 E45.62799
G1 X105.636 Y71.352 E45.68081
G1 X105.041 Y71.44 E45.73069
G1 X104.387 Y71.494 E45.78512
G1 X103.814 Y71.497 E45.83265
G1 X103.608 Y71.487 E45.84976
G1 X102.778 Y71.381 E45.91916
G1 X102.139 Y71.227 E45.97368
G1 X100.858 Y70.831 E46.08489
G1 X98.233 Y70.061 E46.31178
G1 X95.663 Y69.385 E46.5322
G1 X93.05 Y68.776 E46.75473
G1 X90.409 Y68.239 E46.97827
G1 X87.823 Y67.79 E47.19596
G1 X85.121 Y67.398 E47.42242
G1 X82.512 Y67.096 E47.64026
G1 X79.817 Y66.859 E47.86466
G1 X77.12 Y66.7 E48.08874
G1 X74.489 Y66.619 E48.30706
G1 X71.786 Y66.612 E48.53126
G1 X69.117 Y66.681 E48.75271
G1 X66.461 Y66.824 E48.97332
G1 X63.757 Y67.048 E49.19837
G1 X61.119 Y67.34 E49.4185
G1 X58.489 Y67.708 E49.63877
G1 X55.815 Y68.159 E49.86369
G1 X53.201 Y68.677 E50.08472
G1 X50.61 Y69.266 E50.3051
G1 X47.285 Y70.143 E50.59032
G1 X46.939 Y70.23 E50.61991
G1 X46.296 Y70.351 E50.67418
G1 X45.643 Y70.392 E50.72845
G1 X44.704 Y70.311 E50.80662
G1 X43.456 Y70.091 E50.91173
G1 X40.77 Y69.655 E51.13743
G1 X39.997 Y69.539 E51.20226
G1 X39.357 Y69.403 E51.25653
G1 X38.739 Y69.19 E51.31074
G1 X38.151 Y68.903 E51.36501
G1 X37.603 Y68.547 E51.41921
G1 X37.102 Y68.126 E51.47349
G1 X36.657 Y67.647 E51.52772
G1 X36.301 Y67.162 E51.57762
G1 X35.854 Y66.472 E51.64581
G1 X35.084 Y65.245 E51.76596
G1 X34.74 Y64.682 E51.82069
G1 X34.434 Y64.105 E51.87486
G1 X34.2 Y63.494 E51.92912
G1 X34.043 Y62.859 E51.98338
G1 X33.964 Y62.21 E52.03761
G1 X33.966 Y61.556 E52.09185
G1 X34.047 Y60.907 E52.1461
G1 X34.206 Y60.273 E52.20031
G1 X34.442 Y59.663 E52.25456
G1 X34.75 Y59.086 E52.30881
G1 X35.127 Y58.552 E52.36303
G1 X35.566 Y58.067 E52.41729
G1 X36.06 Y57.639 E52.4715
G1 X36.457 Y57.364 E52.51156
M204 S3000
M205 X10 Y10
G1 F2400 E46.51156
;MESH:ArmR_Note9_AkkuPack+8mm.stl
G0 F1200 X39.87 Y60.76
G0 X40.767 Y62.236
G0 X44.348 Y60.831
G0 X47.892 Y60.406
M204 S1800
M205 X8 Y8
;TYPE:WALL-INNER
G1 F2400 E52.51156
G1 F600 X47.893 Y60.407 E52.51167
G1 X48.074 Y60.705 E52.54059
G1 X47.775 Y60.886 E52.55932
G1 X46.764 Y61.5 E52.65743
G1 X46.464 Y61.682 E52.68653
G1 X46.283 Y61.382 E52.7053
G1 X45.897 Y60.741 E52.76736
G1 X47.502 Y59.766 E52.92312
G1 X47.892 Y60.406 E52.98528
M204 S3000
M205 X10 Y10
G0 F1200 X48.4 Y58.601
G0 X87.133 Y35.061
G0 X89.762 Y35.404
M204 S1800
M205 X8 Y8
G1 F600 X89.299 Y35.65 E53.02877
G1 X89.149 Y35.741 E53.04332
G1 X88.579 Y34.799 E53.13464
G1 X89.481 Y34.251 E53.22218
G1 X89.92 Y34.029 E53.26299
G1 X90.329 Y33.895 E53.29868
G1 X90.704 Y33.835 E53.33018
G1 X91.151 Y33.83 E53.36726
G1 X91.57 Y33.894 E53.40242
G1 X91.936 Y34.01 E53.43426
G1 X92.278 Y34.181 E53.46598
G1 X92.606 Y34.414 E53.49935
G1 X92.664 Y34.472 E53.50615
G1 X92.898 Y34.703 E53.53342
G1 X93.108 Y35.018 E53.56482
G1 X93.374 Y35.417 E53.6046
G1 X92.849 Y35.191 E53.61946
G1 X92.82 Y35.187
G1 X92.496 Y35.134 E53.64279
G1 X91.783 Y35.017 E53.70272
G1 X90.725 Y35.096 E53.79071
G1 X89.762 Y35.404 E53.87457
M204 S3000
M205 X10 Y10
G0 F1200 X93.155 Y36.804
G0 X94.002 Y37.575
G0 X108.521 Y60.852
M204 S1800
M205 X8 Y8
G1 F600 X108.522 Y60.727 E53.88494
G1 X108.526 Y60.496 E53.90411
G1 X108.566 Y60.727 E53.90492
G1 X108.545 Y60.855 E53.90564
G1 X108.499 Y61.126 E53.91666
G1 X108.41 Y61.314 E53.93391
G1 X108.457 Y61.117 E53.93425
G1 X108.521 Y60.852 E53.9352
M204 S3000
M205 X10 Y10
G0 F1200 X94.195 Y37.818
G0 X93.155 Y36.804
G0 X90.035 Y36.052
M204 S1800
M205 X8 Y8
G1 F600 X89.645 Y36.259 E53.97182
G1 X89.212 Y36.522 E54.01384
G1 X88.913 Y36.703 E54.04283
G1 X88.732 Y36.404 E54.06156
G1 X87.619 Y34.564 E54.23992
G1 X89.144 Y33.637 E54.38795
G1 X89.648 Y33.382 E54.4348
G1 X90.164 Y33.213 E54.47983
G1 X90.645 Y33.135 E54.52025
G1 X91.2 Y33.13 E54.56628
G1 X91.727 Y33.21 E54.61049
G1 X92.201 Y33.36 E54.65173
G1 X92.639 Y33.579 E54.69235
G1 X93.059 Y33.878 E54.73511
G1 X93.43 Y34.245 E54.77839
G1 X93.748 Y34.685 E54.82342
G1 X94.785 Y36.394 E54.98922
G1 X94.805 Y36.427 E54.99242
G1 X95.236 Y37.138 E55.06139
G1 X107.797 Y57.839 E57.06974
G1 X108.237 Y58.564 E57.14008
G1 X108.254 Y58.593 E57.14287
G1 X108.992 Y59.808 E57.26078
G1 X109.149 Y60.124 E57.29005
G1 X109.247 Y60.476 E57.32035
G1 X109.271 Y60.758 E57.34383
G1 X109.174 Y61.331 E57.39203
G1 X109.031 Y61.646 E57.42072
G1 X108.871 Y61.88 E57.44423
G1 X108.634 Y62.125 E57.47251
G1 X108.324 Y62.353 E57.50442
G1 X107.795 Y62.675 E57.55579
G1 X107.445 Y62.887 E57.58973
G1 X106.523 Y63.448 E57.67925
G1 X105.608 Y64.004 E57.76805
G1 X105.391 Y64.078 E57.78707
G1 X105.579 Y63.959 E57.78761
G1 X106.484 Y63.385 E57.79567
G1 X107.207 Y62.497 E57.83415
G1 X107.384 Y62.128 E57.86243
G1 X107.605 Y61.667 E57.90483
G1 X107.822 Y60.764 E57.98186
G1 X107.836 Y59.834 E58.059
G1 X107.655 Y58.955 E58.13344
G1 X107.649 Y58.922 E58.1362
G1 X107.298 Y58.143 E58.20094
G1 X94.739 Y37.44 E59.87223
G1 X94.219 Y36.783 E59.9351
G1 X94.188 Y36.76 E59.93827
G1 X93.49 Y36.229 E60.01101
G1 X92.651 Y35.868 E60.08677
G1 X91.752 Y35.721 E60.16233
G1 X90.86 Y35.788 E60.23652
G1 X90.035 Y36.052 E60.30836
M204 S3000
M205 X10 Y10
G0 F1200 X87.133 Y35.061
G0 X48.4 Y58.601
G0 X48.854 Y60.64
M204 S1800
M205 X8 Y8
G1 F600 X48.855 Y60.641 E60.30848
G1 X49.036 Y60.939 E60.3374
G1 X48.737 Y61.12 E60.35613
G1 X46.527 Y62.463 E60.57063
G1 X46.227 Y62.645 E60.59973
G1 X46.046 Y62.345 E60.6185
G1 X44.937 Y60.505 E60.79669
G1 X47.736 Y58.804 E61.06835
G1 X48.854 Y60.64 E61.24664
M204 S3000
M205 X10 Y10
G0 F1200 X44.362 Y60.772
G0 X44.339 Y60.869
M204 S1800
M205 X8 Y8
G1 F600 X41.12 Y62.823 E61.55898
