;FLAVOR:Marlin
;TIME:779
;Filament used: 0.863813m
;Layer height: 0.3
;MINX:71.574
;MINY:123.679
;MINZ:0.3
;MAXX:91.174
;MAXY:190.201
;MAXZ:14.1
;Generated with Cura_SteamEngine 4.10.0
M104 S205
M105
M109 S205
M82 ;absolute extrusion mode
G21 ;metric values
G90 ;absolute positioning
M82 ;set extruder to absolute mode
M107 ;start with the fan off
G28 X0 Y0 ;move X/Y to min endstops
G28 Z0 ;move Z to min endstops
M501
M420 S1 ;Marlin Bed-leveling on
G1 Z15.0 F120 ;move the platform down 15mm
G92 E0 ;zero the extruded length
G1 F200 E3 ;extrude 3mm of feed stock
G92 E0 ;zero the extruded length again
G1 F120
M117 Printing...
G5
G92 E0
G92 E0
G1 F2400 E-6
;LAYER_COUNT:47
;LAYER:0
M107
M204 S3000
M205 X10 Y10
G1 F600 Z0.375
G0 F4800 X74.658 Y124.777 Z0.375
M204 S1800
M205 X8 Y8
;TYPE:SKIRT
G1 F600 Z0.3
G1 F2400 E0
G1 X75.295 Y124.411 E0.05773
G1 X75.968 Y124.116 E0.11547
G1 X76.669 Y123.897 E0.17318
G1 X77.389 Y123.754 E0.23086
G1 X78.144 Y123.691 E0.29039
G1 X78.654 Y123.679 E0.33047
G1 X79.652 Y123.679 E0.40889
G1 X81.827 Y123.687 E0.5798
G1 X82.775 Y123.68 E0.65429
G1 X83.846 Y123.68 E0.73845
G1 X84.516 Y123.69 E0.7911
G1 X85.249 Y123.741 E0.84884
G1 X85.971 Y123.871 E0.90648
G1 X86.676 Y124.079 E0.96424
G1 X87.354 Y124.362 E1.02197
G1 X87.997 Y124.718 E1.07972
G1 X88.597 Y125.141 E1.13741
G1 X89.148 Y125.627 E1.19514
G1 X89.643 Y126.169 E1.25281
G1 X90.076 Y126.763 E1.31057
G1 X90.442 Y127.4 E1.3683
G1 X90.737 Y128.073 E1.42604
G1 X90.956 Y128.773 E1.48367
G1 X91.099 Y129.494 E1.54143
G1 X91.162 Y130.25 E1.60104
G1 X91.174 Y130.76 E1.64113
G1 X91.173 Y182.799 E5.7302
G1 X91.164 Y183.526 E5.78733
G1 X91.115 Y184.258 E5.84498
G1 X90.987 Y184.982 E5.90275
G1 X90.781 Y185.687 E5.96046
G1 X90.499 Y186.365 E6.01816
G1 X90.145 Y187.009 E6.07591
G1 X89.724 Y187.611 E6.13363
G1 X89.24 Y188.163 E6.19132
G1 X88.698 Y188.659 E6.24905
G1 X88.106 Y189.094 E6.30677
G1 X87.47 Y189.461 E6.36447
G1 X86.798 Y189.758 E6.4222
G1 X86.097 Y189.979 E6.47996
G1 X85.377 Y190.123 E6.53765
G1 X84.604 Y190.189 E6.59861
G1 X84.094 Y190.201 E6.6387
G1 X83.096 Y190.201 E6.71712
G1 X80.921 Y190.193 E6.88803
G1 X79.973 Y190.2 E6.96252
G1 X78.902 Y190.2 E7.04667
G1 X78.233 Y190.19 E7.09925
G1 X77.5 Y190.139 E7.15698
G1 X76.777 Y190.009 E7.21471
G1 X76.073 Y189.801 E7.27239
G1 X75.395 Y189.518 E7.33012
G1 X74.752 Y189.162 E7.38787
G1 X74.152 Y188.739 E7.44556
G1 X73.601 Y188.253 E7.50329
G1 X73.106 Y187.711 E7.56096
G1 X72.673 Y187.117 E7.61872
G1 X72.307 Y186.48 E7.67645
G1 X72.012 Y185.807 E7.73419
G1 X71.793 Y185.106 E7.7919
G1 X71.65 Y184.386 E7.84958
G1 X71.587 Y183.651 E7.90755
G1 X71.574 Y183.12 E7.94928
G1 X71.575 Y131.006 E12.04425
G1 X71.585 Y130.337 E12.09682
G1 X71.636 Y129.604 E12.15456
G1 X71.766 Y128.881 E12.21228
G1 X71.974 Y128.177 E12.26996
G1 X72.257 Y127.499 E12.32769
G1 X72.613 Y126.856 E12.38544
G1 X73.036 Y126.256 E12.44313
G1 X73.522 Y125.705 E12.50086
G1 X74.064 Y125.21 E12.55854
G1 X74.658 Y124.777 E12.6163
M204 S3000
M205 X10 Y10
G0 F4800 X75.324 Y125.19
M204 S1800
M205 X8 Y8
G1 F2400 X75.946 Y124.879 E12.67094
G1 X76.6 Y124.642 E12.7256
G1 X77.276 Y124.481 E12.7802
G1 X78.164 Y124.39 E12.85035
G1 X78.654 Y124.379 E12.88886
G1 X79.65 Y124.379 E12.96712
G1 X81.83 Y124.387 E13.13842
G1 X82.776 Y124.38 E13.21276
G1 X83.835 Y124.38 E13.29597
G1 X84.505 Y124.39 E13.34862
G1 X85.199 Y124.44 E13.4033
G1 X85.882 Y124.57 E13.45793
G1 X86.546 Y124.777 E13.51258
G1 X87.182 Y125.059 E13.56725
G1 X87.781 Y125.412 E13.62188
G1 X88.335 Y125.831 E13.67646
G1 X88.838 Y126.311 E13.73109
G1 X89.283 Y126.846 E13.78577
G1 X89.663 Y127.429 E13.84046
G1 X89.974 Y128.051 E13.8951
G1 X90.211 Y128.704 E13.94969
G1 X90.372 Y129.381 E14.00437
G1 X90.463 Y130.269 E14.07451
G1 X90.474 Y130.76 E14.1131
G1 X90.474 Y182.79 E18.20146
G1 X90.465 Y183.517 E18.25859
G1 X90.416 Y184.211 E18.31326
G1 X90.288 Y184.894 E18.36786
G1 X90.083 Y185.559 E18.42254
G1 X89.802 Y186.195 E18.47718
G1 X89.451 Y186.795 E18.5318
G1 X89.033 Y187.351 E18.58646
G1 X88.554 Y187.855 E18.64109
G1 X88.02 Y188.301 E18.69576
G1 X87.439 Y188.682 E18.75036
G1 X86.817 Y188.995 E18.80507
G1 X86.164 Y189.234 E18.85971
G1 X85.488 Y189.396 E18.91433
G1 X84.585 Y189.49 E18.98567
G1 X84.094 Y189.501 E19.02426
G1 X83.098 Y189.501 E19.10253
G1 X80.918 Y189.493 E19.27383
G1 X79.972 Y189.5 E19.34816
G1 X78.913 Y189.5 E19.43137
G1 X78.244 Y189.49 E19.48395
G1 X77.55 Y189.44 E19.53862
G1 X76.867 Y189.31 E19.59325
G1 X76.203 Y189.103 E19.64791
G1 X75.567 Y188.821 E19.70257
G1 X74.968 Y188.468 E19.75721
G1 X74.413 Y188.049 E19.81185
G1 X73.911 Y187.568 E19.86648
G1 X73.466 Y187.034 E19.9211
G1 X73.086 Y186.451 E19.97578
G1 X72.775 Y185.829 E20.03043
G1 X72.538 Y185.175 E20.08509
G1 X72.377 Y184.499 E20.13969
G1 X72.287 Y183.629 E20.20842
G1 X72.274 Y183.12 E20.24842
G1 X72.275 Y131.017 E24.34253
G1 X72.285 Y130.348 E24.3951
G1 X72.335 Y129.654 E24.44977
G1 X72.465 Y128.971 E24.50441
G1 X72.672 Y128.307 E24.55906
G1 X72.954 Y127.671 E24.61372
G1 X73.307 Y127.072 E24.66836
G1 X73.726 Y126.517 E24.723
G1 X74.207 Y126.015 E24.77763
G1 X74.741 Y125.57 E24.83225
G1 X75.324 Y125.19 E24.88693
M204 S3000
M205 X10 Y10
G0 F4800 X75.414 Y125.955
M204 S1800
M205 X8 Y8
G1 F2400 X75.982 Y125.633 E24.93824
G1 X76.586 Y125.382 E24.98963
G1 X77.216 Y125.206 E25.04103
G1 X78.184 Y125.09 E25.11764
G1 X78.654 Y125.079 E25.15458
G1 X79.647 Y125.079 E25.23261
G1 X81.833 Y125.087 E25.40438
G1 X82.776 Y125.08 E25.47848
G1 X83.825 Y125.08 E25.5609
G1 X84.495 Y125.09 E25.61356
G1 X85.147 Y125.139 E25.66493
G1 X85.788 Y125.268 E25.71631
G1 X86.409 Y125.474 E25.76772
G1 X86.999 Y125.755 E25.81907
G1 X87.552 Y126.105 E25.8705
G1 X88.057 Y126.52 E25.92186
G1 X88.508 Y126.993 E25.97321
G1 X88.898 Y127.518 E26.0246
G1 X89.22 Y128.087 E26.07598
G1 X89.471 Y128.691 E26.12737
G1 X89.647 Y129.321 E26.17877
G1 X89.763 Y130.289 E26.25538
G1 X89.774 Y130.76 E26.2924
G1 X89.774 Y182.781 E30.38006
G1 X89.765 Y183.508 E30.43719
G1 X89.717 Y184.16 E30.48856
G1 X89.589 Y184.802 E30.54
G1 X89.385 Y185.423 E30.59136
G1 X89.106 Y186.014 E30.64271
G1 X88.757 Y186.567 E30.69409
G1 X88.343 Y187.074 E30.74553
G1 X87.871 Y187.526 E30.79688
G1 X87.347 Y187.917 E30.84825
G1 X86.779 Y188.241 E30.89964
G1 X86.176 Y188.494 E30.95102
G1 X85.546 Y188.671 E31.00244
G1 X84.9 Y188.77 E31.05379
G1 X84.244 Y188.799 E31.10539
G1 X84.094 Y188.801 E31.11718
G1 X83.101 Y188.801 E31.1952
G1 X80.915 Y188.793 E31.36697
G1 X79.972 Y188.8 E31.44107
G1 X78.923 Y188.8 E31.5235
G1 X78.254 Y188.79 E31.57608
G1 X77.602 Y188.741 E31.62745
G1 X76.961 Y188.612 E31.67883
G1 X76.34 Y188.406 E31.73024
G1 X75.75 Y188.125 E31.78159
G1 X75.197 Y187.775 E31.83302
G1 X74.692 Y187.36 E31.88438
G1 X74.241 Y186.886 E31.93579
G1 X73.851 Y186.361 E31.98718
G1 X73.529 Y185.793 E32.03848
G1 X73.278 Y185.189 E32.08988
G1 X73.102 Y184.559 E32.14128
G1 X72.987 Y183.608 E32.21655
G1 X72.974 Y183.12 E32.25491
G1 X72.975 Y131.027 E36.34822
G1 X72.985 Y130.358 E36.4008
G1 X73.034 Y129.706 E36.45217
G1 X73.163 Y129.065 E36.50355
G1 X73.369 Y128.444 E36.55496
G1 X73.65 Y127.854 E36.60631
G1 X74 Y127.301 E36.65774
G1 X74.415 Y126.796 E36.7091
G1 X74.889 Y126.345 E36.76051
G1 X75.414 Y125.955 E36.8119
M204 S3000
M205 X10 Y10
G1 F2400 E30.8119
;MESH:Stand_Link.stl
G0 F4800 X77.659 Y140.034
G0 X79.388 Y140.034
G0 X83.304 Y140.85
G0 X83.374 Y140.92
M204 S1800
M205 X8 Y8
;TYPE:WALL-INNER
G1 F2400 E36.8119
G1 F1200 X79.374 Y140.92 E37.12621
G1 X79.374 Y140.02 E37.19693
G1 X83.374 Y140.02 E37.51124
G1 X83.374 Y140.92 E37.58196
M204 S3000
M205 X10 Y10
G0 F4800 X83.304 Y140.85
G0 X83.304 Y173.79
G0 X83.374 Y173.86
M204 S1800
M205 X8 Y8
G1 F1200 X79.374 Y173.86 E37.89626
G1 X79.374 Y172.96 E37.96698
G1 X83.374 Y172.96 E38.28129
G1 X83.374 Y173.86 E38.35201
M204 S3000
M205 X10 Y10
G0 F4800 X83.304 Y173.79
G0 X79.924 Y173.76
G0 X79.924 Y174.51
M204 S1800
M205 X8 Y8
;TYPE:WALL-OUTER
G1 F1200 X79.924 Y183.05 E39.02306
G1 X79.074 Y183.051 E39.08985
G1 X78.724 Y183.051 E39.11735
G1 X78.724 Y182.701 E39.13515
G1 X78.724 Y130.829 E43.2111
G1 X79.924 Y130.829 E43.30539
G1 X79.924 Y139.37 E43.97652
G1 X82.824 Y139.37 E44.20439
G1 X82.824 Y130.83 E44.87544
G1 X83.674 Y130.829 E44.94223
G1 X84.024 Y130.829 E44.96973
G1 X84.024 Y131.179 E44.98753
G1 X84.024 Y183.051 E49.06348
G1 X82.824 Y183.051 E49.15777
G1 X82.824 Y174.51 E49.8289
G1 X79.924 Y174.51 E50.05677
M204 S3000
M205 X10 Y10
G0 F4800 X79.924 Y174.81
G0 X79.924 Y173.76
G0 X79.924 Y140.82
G0 X79.924 Y141.57
M204 S1800
M205 X8 Y8
G1 F1200 X79.924 Y172.31 E52.47223
G1 X82.824 Y172.31 E52.70011
G1 X82.824 Y141.57 E55.11557
G1 X79.924 Y141.57 E55.34344
M204 S3000
M205 X10 Y10
G0 F4800 X79.924 Y141.87
G0 X79.924 Y140.82
G0 X79.957 Y140.344
M204 S1800
M205 X8 Y8
;TYPE:SKIN
G1 F1200 X80.207 Y140.594 E55.37122
M204 S3000
M205 X10 Y10
G0 F4800 X80.947 Y140.344
M204 S1800
M205 X8 Y8
G1 F1200 X81.197 Y140.594 E55.399
M204 S3000
M205 X10 Y10
G0 F4800 X81.937 Y140.344
M204 S1800
M205 X8 Y8
G1 F1200 X82.187 Y140.594 E55.42678
M204 S3000
M205 X10 Y10
G0 F4800 X82.927 Y140.344
M204 S1800
M205 X8 Y8
G1 F1200 X83.048 Y140.466 E55.44028
M204 S3000
M205 X10 Y10
G0 F4800 X82.852 Y172.338
G0 X82.459 Y173.534
M204 S1800
M205 X8 Y8
G1 F1200 X82.208 Y173.284 E55.46812
M204 S3000
M205 X10 Y10
G0 F4800 X81.469 Y173.534
M204 S1800
M205 X8 Y8
G1 F1200 X81.218 Y173.284 E55.49596
M204 S3000
M205 X10 Y10
G0 F4800 X80.479 Y173.534
M204 S1800
M205 X8 Y8
G1 F1200 X80.229 Y173.284 E55.52374
M204 S3000
M205 X10 Y10
G0 F4800 X79.323 Y172.308
M204 S1800
M205 X8 Y8
;TYPE:SKIN
G1 F1200 X79.179 Y172.517 E55.5386
G1 X79.323 Y171.601 E55.5929
G1 X79.323 Y141.549 E57.35264
G1 X79.478 Y141.349 E57.36746
M204 S3000
M205 X10 Y10
G0 F4800 X79.584 Y140.82
G0 X79.323 Y139.427
M204 S1800
M205 X8 Y8
G1 F1200 X79.323 Y139.074 E57.38965
G1 X79.323 Y131.649 E57.85638
G1 X79.389 Y131.362 E57.87489
M204 S3000
M205 X10 Y10
G0 F4800 X79.584 Y131.556
G0 X79.896 Y139.398
G0 X82.852 Y139.398
G0 X83.164 Y131.601
G0 X83.424 Y131.861
M204 S1800
M205 X8 Y8
G1 F1200 X83.424 Y131.507 E57.8945
G1 X83.561 Y131.291 E57.90867
G1 X83.424 Y132.568 E57.97981
G1 X83.424 Y139.285 E58.35189
G1 X83.321 Y139.536 E58.36692
M204 S3000
M205 X10 Y10
G0 F4800 X83.164 Y140.12
G0 X83.472 Y141.455
M204 S1800
M205 X8 Y8
G1 F1200 X83.649 Y141.278 E58.38146
G1 X83.423 Y141.76 E58.41237
G1 X83.423 Y172.165 E60.17819
G1 X83.351 Y172.446 E60.19504
M204 S3000
M205 X10 Y10
G0 F4800 X83.164 Y173.06
G0 X83.502 Y174.365
M204 S1800
M205 X8 Y8
G1 F1200 X83.423 Y174.64 E60.21248
G1 X83.423 Y182.418 E60.68651
G1 X83.262 Y182.611 E60.70183
M204 S3000
M205 X10 Y10
G0 F4800 X83.361 Y182.71
G0 X82.852 Y174.482
G0 X79.896 Y174.482
G0 X79.583 Y182.467
G0 X79.323 Y182.207
M204 S1800
M205 X8 Y8
G1 F1200 X79.323 Y181.853 E60.72375
G1 X79.33 Y174.436 E61.18293
G1 X79.507 Y174.259 E61.19842
M204 S3000
M205 X10 Y10
G0 F4800 X79.583 Y173.76
G0 X79.063 Y182.301
G0 X79.267 Y182.505
M204 S1800
M205 X8 Y8
G1 F1200 X79.09 Y182.681 E61.21679
M204 S3000
M205 X10 Y10
G0 F4800 X79.063 Y182.654
G0 X79.444 Y140.09
G0 X79.236 Y139.693
M204 S1800
M205 X8 Y8
G1 F1200 X79.063 Y139.521 E61.22364
M204 S3000
M205 X10 Y10
G0 F4800 X79.868 Y140.22
;MESH:NONMESH
G0 F600 X79.868 Y140.22 Z0.6
G0 F4800 X79.574 Y141.22
;TIME_ELAPSED:36.471041
;LAYER:1
M106 S127.5
M204 S1800
M205 X8 Y8
;TYPE:WALL-INNER
;MESH:Stand_Link.stl
G1 F1500 X79.574 Y172.66 E62.98826
G1 X83.174 Y172.66 E63.19031
G1 X83.174 Y141.22 E64.95493
G1 X79.574 Y141.22 E65.15698
M204 S3000
M205 X10 Y10
G0 F6000 X79.504 Y141.15
G0 X79.504 Y174.09
G0 X79.574 Y174.16
M204 S1800
M205 X8 Y8
G1 F1500 X79.574 Y183.742 E65.69479
G1 X79.074 Y183.743 E65.72285
G1 X79.074 Y174.16 E66.26071
G1 X79.074 Y172.66 E66.3449
G1 X79.074 Y141.22 E68.10952
G1 X79.074 Y139.72 E68.19371
G1 X79.074 Y130.138 E68.73151
G1 X79.574 Y130.138 E68.75957
G1 X79.574 Y139.72 E69.29738
G1 X83.174 Y139.72 E69.49943
G1 X83.174 Y130.139 E70.03718
G1 X83.674 Y130.138 E70.06524
G1 X83.674 Y139.72 E70.60305
G1 X83.674 Y141.22 E70.68724
G1 X83.674 Y172.66 E72.45185
G1 X83.674 Y174.16 E72.53604
G1 X83.674 Y183.743 E73.0739
G1 X83.174 Y183.743 E73.10197
G1 X83.174 Y174.16 E73.63983
G1 X79.574 Y174.16 E73.84188
M204 S3000
M205 X10 Y10
G0 F6000 X80.024 Y174.61
M204 S1800
M205 X8 Y8
;TYPE:WALL-OUTER
G1 F1500 X80.024 Y184.192 E74.37969
G1 X78.874 Y184.193 E74.44423
G1 X78.624 Y184.193 E74.45826
G1 X78.624 Y183.943 E74.46734
G1 X78.624 Y129.688 E77.51248
G1 X80.024 Y129.688 E77.59106
G1 X80.024 Y139.27 E78.12886
G1 X82.724 Y139.27 E78.28041
G1 X82.724 Y129.689 E78.81815
G1 X83.874 Y129.688 E78.8827
G1 X84.124 Y129.688 E78.89673
G1 X84.124 Y129.938 E78.90581
G1 X84.124 Y184.193 E81.95095
G1 X82.724 Y184.193 E82.02953
G1 X82.724 Y174.61 E82.56739
G1 X80.024 Y174.61 E82.71893
M204 S3000
M205 X10 Y10
G0 F6000 X80.024 Y174.91
G0 X79.474 Y174.91
G0 X79.546 Y141.192
G0 X80.024 Y141.67
M204 S1800
M205 X8 Y8
G1 F1500 X80.024 Y172.21 E84.43303
G1 X82.724 Y172.21 E84.58457
G1 X82.724 Y141.67 E86.29868
G1 X80.024 Y141.67 E86.45022
M204 S3000
M205 X10 Y10
G0 F6000 X80.024 Y141.97
G0 X79.474 Y141.97
G0 X79.564 Y140.73
M204 S1800
M205 X8 Y8
;TYPE:SKIN
G1 F1800 X79.564 Y140.21 E86.4794
G1 X83.184 Y140.21 E86.68258
G1 X83.184 Y140.73 E86.71177
G1 X79.564 Y140.73 E86.91495
M204 S3000
M205 X10 Y10
G0 F6000 X79.564 Y173.15
M204 S1800
M205 X8 Y8
G1 F1800 X83.184 Y173.15 E87.11812
G1 X83.184 Y173.67 E87.14731
G1 X79.564 Y173.67 E87.35049
G1 X79.564 Y173.15 E87.37967
M204 S3000
M205 X10 Y10
G0 F6000 X80.406 Y173.444
M204 S1800
M205 X8 Y8
G1 F1800 X80.477 Y173.374 E87.38527
M204 S3000
M205 X10 Y10
G0 F6000 X81.113 Y173.444
M204 S1800
M205 X8 Y8
G1 F1800 X81.184 Y173.374 E87.39086
M204 S3000
M205 X10 Y10
G0 F6000 X81.82 Y173.444
M204 S1800
M205 X8 Y8
G1 F1800 X81.891 Y173.374 E87.39646
M204 S3000
M205 X10 Y10
G0 F6000 X82.527 Y173.444
M204 S1800
M205 X8 Y8
G1 F1800 X82.598 Y173.374 E87.40206
M204 S3000
M205 X10 Y10
;MESH:NONMESH
G0 F600 X82.598 Y173.374 Z0.9
G0 F6000 X83.202 Y141.192
G0 X82.256 Y140.144
;TIME_ELAPSED:57.236002
;LAYER:2
M204 S1800
M205 X8 Y8
;TYPE:FILL
;MESH:Stand_Link.stl
G1 F1800 X82.906 Y140.794 E87.45365
M204 S3000
M205 X10 Y10
G0 F7200 X79.546 Y141.192
G0 X79.546 Y172.688
G0 X79.84 Y173.084
M204 S1800
M205 X8 Y8
G1 F1800 X80.49 Y173.734 E87.50524
M204 S3000
M205 X10 Y10
G0 F7200 X79.504 Y174.09
G0 X79.574 Y174.16
M204 S1800
M205 X8 Y8
;TYPE:WALL-INNER
G1 F1800 X79.574 Y184.42 E88.0811
G1 X79.074 Y184.421 E88.10916
G1 X79.074 Y174.16 E88.68508
G1 X79.074 Y172.66 E88.76927
G1 X79.074 Y141.22 E90.53388
G1 X79.074 Y139.72 E90.61807
G1 X79.074 Y129.459 E91.19399
G1 X79.574 Y129.459 E91.22205
G1 X79.574 Y139.72 E91.79797
G1 X83.174 Y139.72 E92.00002
G1 X83.174 Y129.46 E92.57588
G1 X83.674 Y129.459 E92.60394
G1 X83.674 Y139.72 E93.17986
G1 X83.674 Y141.22 E93.26405
G1 X83.674 Y172.66 E95.02866
G1 X83.674 Y174.16 E95.11285
G1 X83.674 Y184.421 E95.68877
G1 X83.174 Y184.421 E95.71683
G1 X83.174 Y174.16 E96.29274
G1 X79.574 Y174.16 E96.4948
M204 S3000
M205 X10 Y10
G0 F7200 X79.504 Y174.09
G0 X79.504 Y141.15
G0 X79.574 Y141.22
M204 S1800
M205 X8 Y8
G1 F1800 X79.574 Y172.66 E98.25941
G1 X83.174 Y172.66 E98.46147
G1 X83.174 Y141.22 E100.22609
G1 X79.574 Y141.22 E100.42814
M204 S3000
M205 X10 Y10
G0 F7200 X80.024 Y141.67
M204 S1800
M205 X8 Y8
;TYPE:WALL-OUTER
G1 F1800 X80.024 Y172.21 E102.14224
G1 X82.724 Y172.21 E102.29379
G1 X82.724 Y141.67 E104.00789
G1 X80.024 Y141.67 E104.15943
M204 S3000
M205 X10 Y10
G0 F7200 X80.024 Y141.97
G0 X79.474 Y141.97
G0 X79.474 Y174.61
G0 X80.024 Y174.61
M204 S1800
M205 X8 Y8
G1 F1800 X80.024 Y184.87 E104.73529
G1 X78.874 Y184.871 E104.79983
G1 X78.624 Y184.871 E104.81386
G1 X78.624 Y184.621 E104.82294
G1 X78.624 Y129.009 E107.94425
G1 X80.024 Y129.009 E108.02283
G1 X80.024 Y139.27 E108.59874
G1 X82.724 Y139.27 E108.75028
G1 X82.724 Y129.01 E109.32614
G1 X83.874 Y129.009 E109.39068
G1 X84.124 Y129.009 E109.40472
G1 X84.124 Y129.259 E109.41379
G1 X84.124 Y184.871 E112.5351
G1 X82.724 Y184.871 E112.61368
G1 X82.724 Y174.61 E113.18959
G1 X80.024 Y174.61 E113.34113
M204 S3000
M205 X10 Y10
G0 F7200 X80.024 Y174.91
;MESH:NONMESH
G0 F600 X80.024 Y174.91 Z1.2
