;FLAVOR:Marlin
;TIME:678
;Filament used: 0.614115m
;Layer height: 0.3
;MINX:56.582
;MINY:134.442
;MINZ:0.3
;MAXX:89.683
;MAXY:199.295
;MAXZ:5.1
;Generated with Cura_SteamEngine 4.10.0
M104 S205
M105
M109 S205
M82 ;absolute extrusion mode
G21 ;metric values
G90 ;absolute positioning
M82 ;set extruder to absolute mode
M107 ;start with the fan off
G28 X0 Y0 ;move X/Y to min endstops
G28 Z0 ;move Z to min endstops
M501
M420 S1 ;Marlin Bed-leveling on
G1 Z15.0 F120 ;move the platform down 15mm
G92 E0 ;zero the extruded length
G1 F200 E3 ;extrude 3mm of feed stock
G92 E0 ;zero the extruded length again
G1 F120
M117 Printing...
G5
G92 E0
G92 E0
G1 F2400 E-6
;LAYER_COUNT:17
;LAYER:0
M107
M204 S3000
M205 X10 Y10
G1 F600 Z0.375
G0 F1200 X64.575 Y135.101 Z0.375
M204 S1800
M205 X8 Y8
;TYPE:SKIRT
G1 F600 Z0.3
G1 F2400 E0
G1 F600 X65.256 Y134.824 E0.05777
G1 X65.962 Y134.622 E0.11547
G1 X66.686 Y134.499 E0.17317
G1 X67.194 Y134.458 E0.21322
G1 X67.488 Y134.448 E0.23634
G1 X67.993 Y134.442 E0.27602
G1 X78.118 Y134.442 E1.07161
G1 X78.916 Y134.453 E1.13432
G1 X79.649 Y134.503 E1.19206
G1 X80.372 Y134.633 E1.24978
G1 X81.077 Y134.84 E1.30751
G1 X81.755 Y135.123 E1.36524
G1 X82.398 Y135.478 E1.42296
G1 X82.831 Y135.773 E1.46413
G1 X83.565 Y136.356 E1.53778
G1 X84.145 Y136.871 E1.59873
G1 X84.683 Y137.396 E1.6578
G1 X85.229 Y137.985 E1.72091
G1 X85.715 Y138.563 E1.78024
G1 X86.177 Y139.167 E1.84
G1 X86.619 Y139.803 E1.90086
G1 X87.04 Y140.48 E1.9635
G1 X87.404 Y141.131 E2.02211
G1 X87.745 Y141.818 E2.08237
G1 X88.062 Y142.541 E2.1444
G1 X88.331 Y143.241 E2.20333
G1 X88.58 Y143.996 E2.2658
G1 X88.784 Y144.739 E2.32634
G1 X88.952 Y145.474 E2.38559
G1 X89.086 Y146.233 E2.44615
G1 X89.187 Y147.026 E2.50896
G1 X89.245 Y147.756 E2.56651
G1 X89.269 Y148.548 E2.62877
G1 X89.257 Y149.324 E2.68975
G1 X89.206 Y150.105 E2.75125
G1 X89.174 Y150.425 E2.77652
G1 X89.082 Y151.158 E2.83457
G1 X89 Y151.717 E2.87896
G1 X88.681 Y153.995 E3.05971
G1 X88.387 Y156.615 E3.26687
G1 X88.17 Y159.209 E3.47141
G1 X88.024 Y161.86 E3.68004
G1 X87.952 Y164.517 E3.88889
G1 X87.956 Y167.14 E4.095
G1 X88.034 Y169.763 E4.3012
G1 X88.188 Y172.414 E4.50986
G1 X88.415 Y175.035 E4.71658
G1 X88.718 Y177.669 E4.92492
G1 X89.096 Y180.299 E5.1337
G1 X89.314 Y181.613 E5.23836
G1 X89.445 Y182.372 E5.29888
G1 X89.556 Y183.068 E5.35426
G1 X89.633 Y183.821 E5.41374
G1 X89.679 Y184.821 E5.4924
G1 X89.683 Y185.461 E5.54269
G1 X89.648 Y186.221 E5.60247
G1 X89.574 Y187.011 E5.66482
G1 X89.47 Y187.753 E5.72369
G1 X89.322 Y188.539 E5.78654
G1 X89.133 Y189.324 E5.84999
G1 X88.926 Y190.033 E5.90802
G1 X88.684 Y190.75 E5.96748
G1 X88.394 Y191.489 E6.02986
G1 X88.071 Y192.206 E6.09166
G1 X87.718 Y192.9 E6.15284
G1 X87.338 Y193.574 E6.21364
G1 X86.934 Y194.215 E6.27317
G1 X86.479 Y194.867 E6.33565
G1 X86.004 Y195.483 E6.39677
G1 X85.514 Y196.06 E6.45625
G1 X84.956 Y196.659 E6.52058
G1 X84.737 Y196.876 E6.5448
G1 X84.188 Y197.364 E6.60252
G1 X83.589 Y197.789 E6.66023
G1 X82.947 Y198.147 E6.71799
G1 X82.271 Y198.433 E6.77567
G1 X81.608 Y198.633 E6.83008
G1 X81.206 Y198.726 E6.86251
G1 X80.462 Y198.875 E6.92213
G1 X80.229 Y198.917 E6.94073
G1 X79.619 Y199.017 E6.9893
G1 X79.001 Y199.102 E7.03832
G1 X78.784 Y199.127 E7.05549
G1 X78.022 Y199.202 E7.11565
G1 X77.376 Y199.247 E7.16653
G1 X77.162 Y199.257 E7.18337
G1 X76.18 Y199.289 E7.26057
G1 X75.699 Y199.295 E7.29837
G1 X70.567 Y199.295 E7.70163
G1 X70.06 Y199.289 E7.74147
G1 X69.161 Y199.259 E7.81215
G1 X68.953 Y199.249 E7.82851
G1 X68.424 Y199.215 E7.87017
G1 X68.178 Y199.195 E7.88956
G1 X67.416 Y199.118 E7.94974
G1 X66.884 Y199.051 E7.99187
G1 X66.662 Y199.018 E8.00951
G1 X66.024 Y198.913 E8.06032
G1 X65.819 Y198.876 E8.07668
G1 X65.152 Y198.745 E8.1301
G1 X64.44 Y198.565 E8.1878
G1 X63.752 Y198.308 E8.24551
G1 X63.3 Y198.09 E8.28495
G1 X63.018 Y197.941 E8.31001
G1 X62.388 Y197.563 E8.36774
G1 X61.803 Y197.119 E8.42545
G1 X61.287 Y196.633 E8.48114
G1 X60.765 Y196.072 E8.54136
G1 X60.26 Y195.476 E8.60274
G1 X59.784 Y194.859 E8.66397
G1 X59.345 Y194.229 E8.72431
G1 X58.947 Y193.597 E8.783
G1 X58.691 Y193.155 E8.82313
G1 X58.357 Y192.531 E8.87875
G1 X57.999 Y191.773 E8.94462
G1 X57.719 Y191.104 E9.0016
G1 X57.444 Y190.346 E9.06496
G1 X57.221 Y189.628 E9.12404
G1 X57.028 Y188.891 E9.1839
G1 X56.867 Y188.133 E9.24479
G1 X56.738 Y187.332 E9.30855
G1 X56.653 Y186.607 E9.3659
G1 X56.599 Y185.819 E9.42797
G1 X56.582 Y185.038 E9.48935
G1 X56.6 Y184.285 E9.54854
G1 X56.648 Y183.617 E9.60116
G1 X56.716 Y183.078 E9.64385
G1 X56.87 Y182.159 E9.71707
G1 X57.035 Y181.258 E9.78905
G1 X57.441 Y178.632 E9.99784
G1 X57.769 Y176.024 E10.20438
G1 X58.024 Y173.405 E10.41115
G1 X58.204 Y170.791 E10.61704
G1 X58.311 Y168.135 E10.82591
G1 X58.343 Y165.477 E11.03478
G1 X58.3 Y162.855 E11.24084
G1 X58.184 Y160.235 E11.44691
G1 X57.99 Y157.585 E11.6557
G1 X57.726 Y154.99 E11.86066
G1 X57.384 Y152.355 E12.06944
G1 X57.281 Y151.683 E12.12286
G1 X57.137 Y150.642 E12.20544
G1 X57.063 Y149.929 E12.26177
G1 X57.021 Y149.111 E12.32613
G1 X57.016 Y148.395 E12.38239
G1 X57.05 Y147.58 E12.44649
G1 X57.116 Y146.847 E12.50432
G1 X57.228 Y146.05 E12.56756
G1 X57.364 Y145.319 E12.62598
G1 X57.552 Y144.534 E12.68941
G1 X57.766 Y143.796 E12.74979
G1 X57.995 Y143.121 E12.8058
G1 X58.279 Y142.398 E12.86684
G1 X58.613 Y141.661 E12.93042
G1 X58.938 Y141.022 E12.98675
G1 X59.349 Y140.305 E13.05169
G1 X59.762 Y139.658 E13.112
G1 X60.217 Y139.018 E13.17371
G1 X60.662 Y138.448 E13.23053
G1 X61.173 Y137.853 E13.29216
G1 X61.699 Y137.297 E13.3523
G1 X62.262 Y136.758 E13.41354
G1 X62.839 Y136.255 E13.47369
G1 X63.325 Y135.869 E13.52246
G1 X63.929 Y135.451 E13.58018
G1 X64.575 Y135.101 E13.63791
M204 S3000
M205 X10 Y10
G0 F1200 X64.942 Y135.703
M204 S1800
M205 X8 Y8
G1 F600 X65.59 Y135.45 E13.69257
G1 X66.262 Y135.274 E13.74715
G1 X67.124 Y135.163 E13.81545
G1 X67.496 Y135.148 E13.8447
G1 X68.001 Y135.142 E13.88439
G1 X78.118 Y135.142 E14.67935
G1 X78.906 Y135.153 E14.74127
G1 X79.6 Y135.202 E14.79594
G1 X80.283 Y135.332 E14.85057
G1 X80.947 Y135.538 E14.9052
G1 X81.583 Y135.82 E14.95987
G1 X82.415 Y136.336 E15.0368
G1 X83.119 Y136.896 E15.10748
G1 X83.675 Y137.39 E15.16593
G1 X84.189 Y137.892 E15.22238
G1 X84.71 Y138.455 E15.28266
G1 X85.175 Y139.009 E15.33949
G1 X85.617 Y139.587 E15.39666
G1 X86.04 Y140.197 E15.45499
G1 X86.441 Y140.842 E15.51467
G1 X86.79 Y141.468 E15.57099
G1 X87.116 Y142.123 E15.62848
G1 X87.417 Y142.814 E15.6877
G1 X87.676 Y143.487 E15.74437
G1 X87.913 Y144.208 E15.804
G1 X88.108 Y144.918 E15.86186
G1 X88.268 Y145.625 E15.91882
G1 X88.396 Y146.346 E15.97636
G1 X88.492 Y147.108 E16.03671
G1 X88.547 Y147.804 E16.09157
G1 X88.57 Y148.563 E16.15123
G1 X88.557 Y149.306 E16.20963
G1 X88.508 Y150.052 E16.26837
G1 X88.479 Y150.339 E16.29104
G1 X88.389 Y151.056 E16.34782
G1 X88.307 Y151.615 E16.39221
G1 X87.988 Y153.889 E16.57265
G1 X87.693 Y156.52 E16.78068
G1 X87.471 Y159.179 E16.99034
G1 X87.324 Y161.838 E17.1996
G1 X87.252 Y164.5 E17.40885
G1 X87.256 Y167.162 E17.61802
G1 X87.334 Y169.788 E17.82445
G1 X87.49 Y172.48 E18.03634
G1 X87.718 Y175.105 E18.24338
G1 X88.021 Y177.74 E18.45179
G1 X88.4 Y180.374 E18.6609
G1 X88.624 Y181.732 E18.76905
G1 X88.753 Y182.482 E18.82885
G1 X88.864 Y183.178 E18.88423
G1 X88.934 Y183.853 E18.93755
G1 X88.98 Y184.853 E19.01621
G1 X88.983 Y185.436 E19.06202
G1 X88.95 Y186.163 E19.11921
G1 X88.88 Y186.92 E19.17894
G1 X88.781 Y187.63 E19.23527
G1 X88.639 Y188.383 E19.29548
G1 X88.459 Y189.133 E19.35609
G1 X88.261 Y189.815 E19.41189
G1 X88.029 Y190.502 E19.46887
G1 X87.753 Y191.208 E19.52843
G1 X87.445 Y191.894 E19.58752
G1 X87.106 Y192.562 E19.64638
G1 X86.742 Y193.207 E19.70458
G1 X86.356 Y193.819 E19.76143
G1 X85.92 Y194.445 E19.82138
G1 X85.466 Y195.035 E19.87988
G1 X84.997 Y195.588 E19.93685
G1 X84.463 Y196.162 E19.99846
G1 X84.244 Y196.379 E20.02268
G1 X83.723 Y196.839 E20.07729
G1 X83.152 Y197.236 E20.13194
G1 X82.54 Y197.566 E20.18657
G1 X81.894 Y197.822 E20.24117
G1 X81.335 Y197.98 E20.28682
G1 X81.069 Y198.039 E20.30823
G1 X80.325 Y198.188 E20.36785
G1 X80.116 Y198.226 E20.38454
G1 X79.506 Y198.326 E20.43312
G1 X78.91 Y198.408 E20.48039
G1 X78.716 Y198.43 E20.49573
G1 X77.954 Y198.505 E20.5559
G1 X77.331 Y198.548 E20.60497
G1 X77.139 Y198.558 E20.62007
G1 X76.157 Y198.59 E20.69728
G1 X75.695 Y198.595 E20.73358
G1 X70.572 Y198.595 E21.13613
G1 X70.083 Y198.59 E21.17456
G1 X69.184 Y198.56 E21.24524
G1 X68.998 Y198.551 E21.25987
G1 X68.469 Y198.517 E21.30152
G1 X68.249 Y198.498 E21.31887
G1 X67.487 Y198.421 E21.37906
G1 X66.975 Y198.357 E21.4196
G1 X66.776 Y198.328 E21.4354
G1 X66.138 Y198.223 E21.48621
G1 X65.954 Y198.19 E21.5009
G1 X65.287 Y198.059 E21.55431
G1 X64.613 Y197.886 E21.60899
G1 X63.964 Y197.636 E21.66364
G1 X63.345 Y197.322 E21.71818
G1 X62.749 Y196.963 E21.77285
G1 X62.199 Y196.537 E21.82751
G1 X61.794 Y196.149 E21.87158
G1 X61.295 Y195.616 E21.92895
G1 X60.81 Y195.043 E21.98794
G1 X60.354 Y194.453 E22.04654
G1 X59.934 Y193.85 E22.10428
G1 X59.553 Y193.246 E22.16039
G1 X59.297 Y192.804 E22.20053
G1 X58.976 Y192.206 E22.25386
G1 X58.635 Y191.482 E22.31674
G1 X58.367 Y190.839 E22.37148
G1 X58.105 Y190.114 E22.43206
G1 X57.892 Y189.426 E22.48865
G1 X57.706 Y188.719 E22.54609
G1 X57.553 Y187.995 E22.60424
G1 X57.43 Y187.227 E22.66535
G1 X57.349 Y186.532 E22.72034
G1 X57.297 Y185.778 E22.77972
G1 X57.281 Y185.029 E22.83859
G1 X57.3 Y184.309 E22.89519
G1 X57.346 Y183.677 E22.94498
G1 X57.406 Y183.193 E22.9833
G1 X57.558 Y182.285 E23.05564
G1 X57.73 Y181.348 E23.1305
G1 X58.131 Y178.752 E23.3369
G1 X58.464 Y176.11 E23.54615
G1 X58.722 Y173.452 E23.75599
G1 X58.905 Y170.797 E23.9651
G1 X59.011 Y168.172 E24.17154
G1 X59.043 Y165.474 E24.38355
G1 X59.001 Y162.847 E24.59
G1 X58.882 Y160.189 E24.79907
G1 X58.688 Y157.533 E25.00832
G1 X58.421 Y154.902 E25.21612
G1 X58.074 Y152.228 E25.428
G1 X57.974 Y151.587 E25.47898
G1 X57.83 Y150.546 E25.56155
G1 X57.76 Y149.863 E25.6155
G1 X57.72 Y149.082 E25.67695
G1 X57.716 Y148.397 E25.73078
G1 X57.749 Y147.616 E25.7922
G1 X57.813 Y146.917 E25.84736
G1 X57.92 Y146.154 E25.9079
G1 X58.051 Y145.454 E25.96386
G1 X58.231 Y144.704 E26.02446
G1 X58.436 Y143.999 E26.08215
G1 X58.656 Y143.352 E26.13585
G1 X58.928 Y142.661 E26.1942
G1 X59.248 Y141.957 E26.25497
G1 X59.559 Y141.345 E26.30891
G1 X59.952 Y140.66 E26.37097
G1 X60.349 Y140.04 E26.42882
G1 X60.783 Y139.43 E26.48764
G1 X61.21 Y138.883 E26.54217
G1 X61.7 Y138.314 E26.60117
G1 X62.202 Y137.784 E26.65853
G1 X62.741 Y137.268 E26.71717
G1 X63.293 Y136.788 E26.77465
G1 X63.754 Y136.422 E26.8209
G1 X64.327 Y136.028 E26.87554
G1 X64.942 Y135.703 E26.9302
M204 S3000
M205 X10 Y10
G0 F1200 X65.304 Y136.307
M204 S1800
M205 X8 Y8
G1 F600 X65.918 Y136.081 E26.98161
G1 X66.554 Y135.931 E27.03295
G1 X67.163 Y135.862 E27.08111
G1 X67.504 Y135.848 E27.10793
G1 X68.009 Y135.842 E27.14762
G1 X78.118 Y135.842 E27.94195
G1 X78.896 Y135.853 E28.00309
G1 X79.548 Y135.902 E28.05447
G1 X80.189 Y136.03 E28.10583
G1 X80.81 Y136.236 E28.15724
G1 X81.401 Y136.516 E28.20863
G1 X81.999 Y136.899 E28.26443
G1 X82.674 Y137.436 E28.3322
G1 X83.205 Y137.909 E28.38808
G1 X83.695 Y138.388 E28.44193
G1 X84.191 Y138.925 E28.49937
G1 X84.636 Y139.455 E28.55375
G1 X85.058 Y140.007 E28.60834
G1 X85.462 Y140.591 E28.66414
G1 X85.842 Y141.204 E28.72081
G1 X86.176 Y141.804 E28.77477
G1 X86.486 Y142.428 E28.82952
G1 X86.773 Y143.088 E28.88607
G1 X87.02 Y143.733 E28.94035
G1 X87.245 Y144.419 E28.99708
G1 X87.431 Y145.096 E29.05224
G1 X87.585 Y145.775 E29.10695
G1 X87.705 Y146.46 E29.1616
G1 X87.796 Y147.19 E29.2194
G1 X87.848 Y147.852 E29.27158
G1 X87.87 Y148.577 E29.32857
G1 X87.857 Y149.287 E29.38437
G1 X87.81 Y149.999 E29.44044
G1 X87.785 Y150.253 E29.4605
G1 X87.713 Y150.835 E29.50658
G1 X87.614 Y151.513 E29.56042
G1 X87.296 Y153.783 E29.74053
G1 X86.993 Y156.489 E29.95449
G1 X86.773 Y159.12 E30.16195
G1 X86.624 Y161.816 E30.37411
G1 X86.552 Y164.482 E30.58368
G1 X86.556 Y167.149 E30.79324
G1 X86.636 Y169.85 E31.00557
G1 X86.791 Y172.511 E31.21502
G1 X87.021 Y175.173 E31.42497
G1 X87.329 Y177.85 E31.63671
G1 X87.709 Y180.489 E31.84621
G1 X87.934 Y181.852 E31.95476
G1 X88.062 Y182.592 E32.01377
G1 X88.173 Y183.288 E32.06915
G1 X88.234 Y183.885 E32.11631
G1 X88.28 Y184.885 E32.19497
G1 X88.284 Y185.411 E32.2363
G1 X88.253 Y186.105 E32.29089
G1 X88.186 Y186.829 E32.34802
G1 X88.092 Y187.508 E32.40188
G1 X87.957 Y188.226 E32.45929
G1 X87.786 Y188.943 E32.51721
G1 X87.596 Y189.597 E32.57072
G1 X87.374 Y190.254 E32.62522
G1 X87.112 Y190.927 E32.68197
G1 X86.818 Y191.581 E32.73831
G1 X86.493 Y192.223 E32.79485
G1 X86.145 Y192.84 E32.85051
G1 X85.779 Y193.423 E32.9046
G1 X85.361 Y194.023 E32.96206
G1 X84.928 Y194.587 E33.01793
G1 X84.48 Y195.116 E33.0724
G1 X83.971 Y195.664 E33.13117
G1 X83.752 Y195.881 E33.1554
G1 X83.26 Y196.312 E33.2068
G1 X82.719 Y196.68 E33.25821
G1 X82.138 Y196.979 E33.30955
G1 X81.272 Y197.274 E33.38144
G1 X80.932 Y197.353 E33.40887
G1 X80.188 Y197.502 E33.46849
G1 X80.002 Y197.536 E33.48335
G1 X79.392 Y197.636 E33.53192
G1 X78.819 Y197.714 E33.57736
G1 X78.647 Y197.733 E33.59096
G1 X77.885 Y197.808 E33.65112
G1 X77.286 Y197.85 E33.6983
G1 X77.116 Y197.858 E33.71168
G1 X75.995 Y197.893 E33.79981
G1 X75.69 Y197.895 E33.82377
G1 X70.576 Y197.895 E34.22562
G1 X70.107 Y197.89 E34.26247
G1 X69.208 Y197.86 E34.33315
G1 X69.043 Y197.852 E34.34613
G1 X68.514 Y197.818 E34.38778
G1 X68.319 Y197.802 E34.40316
G1 X67.557 Y197.725 E34.46334
G1 X66.889 Y197.637 E34.51628
G1 X66.251 Y197.532 E34.56709
G1 X66.089 Y197.503 E34.58002
G1 X65.422 Y197.372 E34.63343
G1 X64.789 Y197.207 E34.68483
G1 X63.954 Y196.852 E34.75613
G1 X63.672 Y196.703 E34.78119
G1 X63.113 Y196.363 E34.8326
G1 X62.6 Y195.957 E34.88401
G1 X62.009 Y195.361 E34.94996
G1 X61.51 Y194.792 E35.00943
G1 X61.079 Y194.253 E35.06366
G1 X60.663 Y193.679 E35.11936
G1 X60.289 Y193.11 E35.17286
G1 X60.158 Y192.895 E35.19265
G1 X59.902 Y192.453 E35.23278
G1 X59.596 Y191.88 E35.28383
G1 X59.272 Y191.19 E35.34372
G1 X59.015 Y190.574 E35.39617
G1 X58.766 Y189.883 E35.45389
G1 X58.562 Y189.225 E35.50802
G1 X58.384 Y188.546 E35.56317
G1 X58.239 Y187.858 E35.61842
G1 X58.122 Y187.123 E35.6769
G1 X58.045 Y186.456 E35.72966
G1 X57.996 Y185.737 E35.78629
G1 X57.981 Y185.02 E35.84264
G1 X57.999 Y184.333 E35.89664
G1 X58.043 Y183.736 E35.94368
G1 X58.097 Y183.308 E35.97758
G1 X58.247 Y182.412 E36.04896
G1 X58.419 Y181.478 E36.12359
G1 X58.826 Y178.842 E36.33317
G1 X59.159 Y176.191 E36.54312
G1 X59.421 Y173.498 E36.75572
G1 X59.602 Y170.873 E36.96248
G1 X59.711 Y168.173 E37.17481
G1 X59.743 Y165.471 E37.38714
G1 X59.701 Y162.839 E37.59398
G1 X59.58 Y160.142 E37.80612
G1 X59.386 Y157.481 E38.01577
G1 X59.114 Y154.81 E38.22673
G1 X58.769 Y152.15 E38.4375
G1 X58.667 Y151.491 E38.4899
G1 X58.523 Y150.45 E38.57247
G1 X58.457 Y149.798 E38.62397
G1 X58.419 Y149.053 E38.68258
G1 X58.416 Y148.398 E38.73405
G1 X58.448 Y147.653 E38.79265
G1 X58.509 Y146.987 E38.8452
G1 X58.612 Y146.258 E38.90305
G1 X58.738 Y145.588 E38.95662
G1 X58.91 Y144.873 E39.0144
G1 X59.106 Y144.201 E39.06941
G1 X59.317 Y143.583 E39.12072
G1 X59.577 Y142.924 E39.17639
G1 X59.882 Y142.252 E39.23437
G1 X60.18 Y141.668 E39.28589
G1 X60.556 Y141.015 E39.3451
G1 X60.935 Y140.423 E39.40034
G1 X61.349 Y139.842 E39.45639
G1 X61.759 Y139.319 E39.50861
G1 X62.226 Y138.775 E39.56495
G1 X62.705 Y138.271 E39.61958
G1 X63.221 Y137.778 E39.67566
G1 X63.747 Y137.32 E39.73046
G1 X64.183 Y136.975 E39.77415
G1 X64.723 Y136.607 E39.8255
G1 X65.304 Y136.307 E39.87688
M204 S3000
M205 X10 Y10
G1 F2400 E33.87688
;MESH:Mount_Bracket.stl
G0 F1200 X66.822 Y140.85
G0 X67.75 Y142.01
G0 X78.289 Y155.254
M204 S1800
M205 X8 Y8
;TYPE:WALL-INNER
G1 F2400 E39.87688
G1 F600 X78.289 Y161.872 E40.3969
G1 X67.98 Y161.872 E41.20695
G1 X67.98 Y155.244 E41.72776
G1 X67.336 Y154.645 E41.79687
G1 X66.79 Y154.062 E41.85964
G1 X66.304 Y153.43 E41.92228
G1 X65.874 Y152.745 E41.98583
G1 X65.518 Y152.034 E42.04831
G1 X65.234 Y151.3 E42.11016
G1 X65.015 Y150.517 E42.17404
G1 X64.878 Y149.751 E42.23519
G1 X64.811 Y148.954 E42.29804
G1 X64.823 Y148.13 E42.36279
G1 X64.908 Y147.359 E42.42374
G1 X65.073 Y146.568 E42.48723
