;FLAVOR:Marlin
;TIME:804
;Filament used: 0.940054m
;Layer height: 0.3
;MINX:71.674
;MINY:123.779
;MINZ:0.3
;MAXX:91.074
;MAXY:190.101
;MAXZ:14.1
;Generated with Cura_SteamEngine 4.10.0
M104 S205
M105
M109 S205
M82 ;absolute extrusion mode
G21 ;metric values
G90 ;absolute positioning
M82 ;set extruder to absolute mode
M107 ;start with the fan off
G28 X0 Y0 ;move X/Y to min endstops
G28 Z0 ;move Z to min endstops
M501
M420 S1 ;Marlin Bed-leveling on
G1 Z15.0 F120 ;move the platform down 15mm
G92 E0 ;zero the extruded length
G1 F200 E3 ;extrude 3mm of feed stock
G92 E0 ;zero the extruded length again
G1 F120
M117 Printing...
G5
G92 E0
G92 E0
G1 F2400 E-6
;LAYER_COUNT:47
;LAYER:0
M107
M204 S3000
M205 X10 Y10
G1 F600 Z0.375
G0 F4800 X74.66 Y124.879 Z0.375
M204 S1800
M205 X8 Y8
;TYPE:SKIRT
G1 F600 Z0.3
G1 F2400 E0
G1 X75.29 Y124.512 E0.05729
G1 X75.956 Y124.215 E0.11459
G1 X76.65 Y123.993 E0.17185
G1 X77.365 Y123.849 E0.22916
G1 X78.324 Y123.779 E0.30471
G1 X80.324 Y123.779 E0.46187
G1 X81.052 Y123.819 E0.51916
G1 X81.363 Y123.871 E0.54393
G1 X81.465 Y123.85 E0.55212
G1 X82.421 Y123.78 E0.62744
G1 X84.421 Y123.779 E0.78459
G1 X85.149 Y123.819 E0.84188
G1 X85.868 Y123.938 E0.89915
G1 X86.57 Y124.135 E0.95644
G1 X87.246 Y124.408 E1.01373
G1 X87.888 Y124.753 E1.07099
G1 X88.489 Y125.166 E1.12829
G1 X89.041 Y125.643 E1.18562
G1 X89.537 Y126.177 E1.24289
G1 X89.972 Y126.762 E1.30017
G1 X90.34 Y127.392 E1.3575
G1 X90.637 Y128.057 E1.41473
G1 X90.859 Y128.752 E1.47206
G1 X91.004 Y129.466 E1.52931
G1 X91.074 Y130.429 E1.60518
G1 X91.074 Y183.451 E5.77149
G1 X91.034 Y184.179 E5.82878
G1 X90.915 Y184.898 E5.88605
G1 X90.717 Y185.6 E5.94336
G1 X90.444 Y186.276 E6.00065
G1 X90.099 Y186.918 E6.05792
G1 X89.685 Y187.519 E6.11526
G1 X89.208 Y188.07 E6.17253
G1 X88.674 Y188.566 E6.22979
G1 X88.088 Y189.001 E6.28714
G1 X87.458 Y189.368 E6.34443
G1 X86.792 Y189.665 E6.40173
G1 X86.098 Y189.887 E6.45899
G1 X85.383 Y190.031 E6.5163
G1 X84.424 Y190.101 E6.59185
G1 X82.424 Y190.101 E6.74901
G1 X81.696 Y190.061 E6.8063
G1 X81.385 Y190.009 E6.83107
G1 X81.283 Y190.03 E6.83926
G1 X80.327 Y190.1 E6.91458
G1 X78.327 Y190.101 E7.07173
G1 X77.599 Y190.061 E7.12902
G1 X76.88 Y189.942 E7.18629
G1 X76.178 Y189.745 E7.24358
G1 X75.502 Y189.472 E7.30087
G1 X74.86 Y189.127 E7.35814
G1 X74.259 Y188.714 E7.41544
G1 X73.707 Y188.237 E7.47276
G1 X73.211 Y187.703 E7.53003
G1 X72.776 Y187.118 E7.58731
G1 X72.408 Y186.488 E7.64464
G1 X72.111 Y185.823 E7.70187
G1 X71.889 Y185.128 E7.7592
G1 X71.744 Y184.414 E7.81645
G1 X71.674 Y183.451 E7.89232
G1 X71.674 Y130.429 E12.05863
G1 X71.714 Y129.701 E12.11592
G1 X71.833 Y128.982 E12.17319
G1 X72.031 Y128.28 E12.2305
G1 X72.304 Y127.604 E12.28779
G1 X72.649 Y126.962 E12.34506
G1 X73.063 Y126.361 E12.4024
G1 X73.54 Y125.81 E12.45967
G1 X74.074 Y125.314 E12.51694
G1 X74.66 Y124.879 E12.57428
M204 S3000
M205 X10 Y10
G0 F4800 X75.331 Y125.286
M204 S1800
M205 X8 Y8
G1 F2400 X75.946 Y124.975 E12.62843
G1 X76.593 Y124.736 E12.68263
G1 X77.264 Y124.574 E12.73687
G1 X77.948 Y124.491 E12.79101
G1 X78.324 Y124.479 E12.82057
G1 X80.324 Y124.479 E12.97773
G1 X81.012 Y124.519 E13.03188
G1 X81.364 Y124.575 E13.05989
G1 X82.048 Y124.492 E13.11403
G1 X82.421 Y124.48 E13.14335
G1 X84.421 Y124.479 E13.30051
G1 X85.11 Y124.519 E13.35474
G1 X85.789 Y124.638 E13.4089
G1 X86.45 Y124.834 E13.46308
G1 X87.084 Y125.106 E13.51729
G1 X87.682 Y125.45 E13.5715
G1 X88.236 Y125.86 E13.62565
G1 X88.739 Y126.332 E13.67985
G1 X89.184 Y126.859 E13.73405
G1 X89.565 Y127.434 E13.78825
G1 X89.877 Y128.049 E13.84244
G1 X90.116 Y128.696 E13.89664
G1 X90.278 Y129.366 E13.9508
G1 X90.362 Y130.05 E14.00495
G1 X90.374 Y130.429 E14.03475
G1 X90.374 Y183.451 E18.20106
G1 X90.334 Y184.139 E18.25521
G1 X90.215 Y184.819 E18.30946
G1 X90.018 Y185.48 E18.36365
G1 X89.745 Y186.113 E18.41782
G1 X89.401 Y186.711 E18.47203
G1 X88.991 Y187.265 E18.52619
G1 X88.519 Y187.768 E18.58039
G1 X87.992 Y188.213 E18.63459
G1 X87.417 Y188.594 E18.68879
G1 X86.802 Y188.905 E18.74294
G1 X86.155 Y189.144 E18.79714
G1 X85.484 Y189.306 E18.85138
G1 X84.8 Y189.389 E18.90552
G1 X84.424 Y189.401 E18.93508
G1 X82.424 Y189.401 E19.09223
G1 X81.736 Y189.361 E19.14638
G1 X81.384 Y189.305 E19.17439
G1 X80.7 Y189.388 E19.22853
G1 X80.327 Y189.4 E19.25786
G1 X78.327 Y189.401 E19.41501
G1 X77.638 Y189.361 E19.46924
G1 X76.959 Y189.242 E19.52341
G1 X76.298 Y189.046 E19.57758
G1 X75.664 Y188.774 E19.63179
G1 X75.066 Y188.43 E19.686
G1 X74.512 Y188.02 E19.74016
G1 X74.009 Y187.548 E19.79436
G1 X73.564 Y187.021 E19.84856
G1 X73.183 Y186.446 E19.90276
G1 X72.871 Y185.831 E19.95695
G1 X72.632 Y185.184 E20.01114
G1 X72.47 Y184.514 E20.06531
G1 X72.386 Y183.83 E20.11946
G1 X72.374 Y183.451 E20.14925
G1 X72.374 Y130.429 E24.31557
G1 X72.414 Y129.741 E24.36972
G1 X72.533 Y129.061 E24.42396
G1 X72.73 Y128.4 E24.47816
G1 X73.003 Y127.767 E24.53233
G1 X73.347 Y127.169 E24.58654
G1 X73.757 Y126.615 E24.64069
G1 X74.229 Y126.112 E24.69489
G1 X74.756 Y125.667 E24.74909
G1 X75.331 Y125.286 E24.80329
M204 S3000
M205 X10 Y10
G0 F4800 X75.433 Y126.047
M204 S1800
M205 X8 Y8
G1 F2400 X75.995 Y125.724 E24.85423
G1 X76.592 Y125.473 E24.90511
G1 X77.216 Y125.297 E24.95606
G1 X77.856 Y125.2 E25.00692
G1 X78.324 Y125.179 E25.04373
G1 X80.324 Y125.179 E25.20089
G1 X80.971 Y125.219 E25.25182
G1 X81.359 Y125.292 E25.28285
G1 X81.956 Y125.201 E25.3303
G1 X82.421 Y125.18 E25.36688
G1 X84.421 Y125.179 E25.52403
G1 X85.068 Y125.219 E25.57497
G1 X85.705 Y125.338 E25.62589
G1 X86.322 Y125.534 E25.67676
G1 X86.91 Y125.805 E25.72763
G1 X87.461 Y126.146 E25.77855
G1 X87.965 Y126.553 E25.82945
G1 X88.415 Y127.019 E25.88035
G1 X88.805 Y127.536 E25.93124
G1 X89.128 Y128.098 E25.98217
G1 X89.379 Y128.695 E26.03306
G1 X89.555 Y129.318 E26.08393
G1 X89.653 Y129.958 E26.13481
G1 X89.674 Y130.429 E26.17185
G1 X89.674 Y183.451 E30.33817
G1 X89.634 Y184.098 E30.3891
G1 X89.515 Y184.734 E30.43994
G1 X89.318 Y185.351 E30.49084
G1 X89.047 Y185.94 E30.54178
G1 X88.705 Y186.49 E30.59268
G1 X88.298 Y186.994 E30.64358
G1 X87.832 Y187.444 E30.69448
G1 X87.315 Y187.833 E30.74532
G1 X86.753 Y188.156 E30.79626
G1 X86.156 Y188.407 E30.84714
G1 X85.532 Y188.583 E30.89809
G1 X84.892 Y188.68 E30.94895
G1 X84.424 Y188.701 E30.98576
G1 X82.424 Y188.701 E31.14292
G1 X81.777 Y188.661 E31.19385
G1 X81.389 Y188.588 E31.22488
G1 X80.792 Y188.679 E31.27233
G1 X80.327 Y188.7 E31.3089
G1 X78.327 Y188.701 E31.46606
G1 X77.68 Y188.661 E31.51699
G1 X77.043 Y188.542 E31.56791
G1 X76.426 Y188.346 E31.61878
G1 X75.838 Y188.075 E31.66966
G1 X75.287 Y187.734 E31.72057
G1 X74.783 Y187.327 E31.77148
G1 X74.333 Y186.861 E31.82238
G1 X73.943 Y186.344 E31.87327
G1 X73.62 Y185.782 E31.9242
G1 X73.369 Y185.185 E31.97509
G1 X73.193 Y184.562 E32.02596
G1 X73.095 Y183.922 E32.07684
G1 X73.074 Y183.451 E32.11388
G1 X73.074 Y130.429 E36.28019
G1 X73.114 Y129.782 E36.33113
G1 X73.233 Y129.146 E36.38197
G1 X73.43 Y128.529 E36.43287
G1 X73.701 Y127.94 E36.48381
G1 X74.043 Y127.39 E36.5347
G1 X74.45 Y126.886 E36.58561
G1 X74.916 Y126.436 E36.63651
G1 X75.433 Y126.047 E36.68735
M204 S3000
M205 X10 Y10
G0 F4800 X75.598 Y126.786
M204 S1800
M205 X8 Y8
G1 F2400 X76.104 Y126.458 E36.73473
G1 X76.648 Y126.199 E36.78208
G1 X77.222 Y126.014 E36.82946
G1 X77.816 Y125.907 E36.87689
G1 X78.324 Y125.879 E36.91687
G1 X80.324 Y125.879 E37.07402
G1 X80.926 Y125.919 E37.12143
G1 X81.365 Y126.007 E37.15661
G1 X81.916 Y125.908 E37.2006
G1 X82.422 Y125.88 E37.24042
G1 X84.422 Y125.879 E37.39758
G1 X85.023 Y125.919 E37.4449
G1 X85.615 Y126.038 E37.49235
G1 X86.185 Y126.234 E37.53972
G1 X86.724 Y126.503 E37.58705
G1 X87.223 Y126.842 E37.63445
G1 X87.673 Y127.243 E37.68181
G1 X88.066 Y127.701 E37.72924
G1 X88.394 Y128.207 E37.77662
G1 X88.653 Y128.751 E37.82396
G1 X88.838 Y129.325 E37.87135
G1 X88.945 Y129.918 E37.9187
G1 X88.974 Y130.429 E37.95892
G1 X88.974 Y183.451 E42.12523
G1 X88.934 Y184.053 E42.17264
G1 X88.815 Y184.644 E42.22001
G1 X88.619 Y185.214 E42.26737
G1 X88.349 Y185.753 E42.31474
G1 X88.01 Y186.252 E42.36214
G1 X87.608 Y186.701 E42.4095
G1 X87.15 Y187.094 E42.45692
G1 X86.644 Y187.422 E42.5043
G1 X86.1 Y187.681 E42.55165
G1 X85.526 Y187.866 E42.59903
G1 X84.932 Y187.973 E42.64646
G1 X84.424 Y188.001 E42.68644
G1 X82.424 Y188.001 E42.84359
G1 X81.822 Y187.961 E42.891
G1 X81.383 Y187.873 E42.92618
G1 X80.832 Y187.972 E42.97017
G1 X80.326 Y188 E43.00999
G1 X78.326 Y188.001 E43.16715
G1 X77.725 Y187.961 E43.21447
G1 X77.133 Y187.842 E43.26192
G1 X76.563 Y187.646 E43.30929
G1 X76.024 Y187.377 E43.35662
G1 X75.525 Y187.038 E43.40402
G1 X75.075 Y186.637 E43.45138
G1 X74.682 Y186.179 E43.49881
G1 X74.354 Y185.673 E43.54619
G1 X74.095 Y185.129 E43.59353
G1 X73.91 Y184.555 E43.64092
G1 X73.803 Y183.962 E43.68827
G1 X73.774 Y183.451 E43.72849
G1 X73.774 Y130.429 E47.8948
G1 X73.814 Y129.827 E47.94221
G1 X73.933 Y129.236 E47.98958
G1 X74.129 Y128.666 E48.03694
G1 X74.399 Y128.127 E48.08431
G1 X74.738 Y127.628 E48.13171
G1 X75.14 Y127.179 E48.17907
G1 X75.598 Y126.786 E48.22649
M204 S3000
M205 X10 Y10
G0 F4800 X76.274 Y127.17
M204 S1800
M205 X8 Y8
G1 F2400 X76.763 Y126.909 E48.27004
G1 X77.285 Y126.722 E48.31361
G1 X77.829 Y126.611 E48.35724
G1 X78.324 Y126.579 E48.39622
G1 X80.324 Y126.579 E48.55337
G1 X80.877 Y126.619 E48.59694
G1 X81.372 Y126.728 E48.63677
G1 X81.385 Y126.723 E48.63786
G1 X81.929 Y126.612 E48.68149
G1 X82.422 Y126.58 E48.72031
G1 X84.422 Y126.579 E48.87746
G1 X84.975 Y126.619 E48.92103
G1 X85.517 Y126.737 E48.96461
G1 X86.036 Y126.933 E49.00821
G1 X86.522 Y127.201 E49.05182
G1 X86.964 Y127.536 E49.0954
G1 X87.353 Y127.931 E49.13896
G1 X87.682 Y128.377 E49.18251
G1 X87.943 Y128.867 E49.22613
G1 X88.131 Y129.388 E49.26965
G1 X88.242 Y129.932 E49.31328
G1 X88.274 Y130.429 E49.35241
G1 X88.274 Y183.451 E53.51873
G1 X88.234 Y184.004 E53.56229
G1 X88.115 Y184.546 E53.6059
G1 X87.919 Y185.065 E53.64949
G1 X87.651 Y185.55 E53.69303
G1 X87.316 Y185.992 E53.73661
G1 X86.921 Y186.381 E53.78017
G1 X86.474 Y186.71 E53.82379
G1 X85.985 Y186.971 E53.86734
G1 X85.463 Y187.158 E53.91091
G1 X84.919 Y187.269 E53.95454
G1 X84.424 Y187.301 E53.99351
G1 X82.424 Y187.301 E54.15067
G1 X81.871 Y187.261 E54.19423
G1 X81.376 Y187.152 E54.23406
G1 X81.363 Y187.157 E54.23516
G1 X80.819 Y187.268 E54.27878
G1 X80.326 Y187.3 E54.3176
G1 X78.326 Y187.301 E54.47476
G1 X77.773 Y187.261 E54.51832
G1 X77.231 Y187.143 E54.56191
G1 X76.712 Y186.947 E54.6055
G1 X76.226 Y186.679 E54.64911
G1 X75.784 Y186.344 E54.69269
G1 X75.395 Y185.949 E54.73625
G1 X75.066 Y185.503 E54.7798
G1 X74.805 Y185.013 E54.82343
G1 X74.617 Y184.492 E54.86695
G1 X74.506 Y183.948 E54.91058
G1 X74.474 Y183.451 E54.94971
G1 X74.474 Y130.429 E59.11602
G1 X74.514 Y129.876 E59.15959
G1 X74.633 Y129.334 E59.20319
G1 X74.829 Y128.815 E59.24679
G1 X75.097 Y128.33 E59.29033
G1 X75.432 Y127.888 E59.33391
G1 X75.827 Y127.499 E59.37747
G1 X76.274 Y127.17 E59.42108
M204 S3000
M205 X10 Y10
G0 F4800 X76.508 Y127.855
M204 S1800
M205 X8 Y8
G1 F2400 X76.94 Y127.599 E59.46054
G1 X77.407 Y127.416 E59.49995
G1 X77.896 Y127.308 E59.5393
G1 X78.324 Y127.279 E59.57301
G1 X80.324 Y127.279 E59.73016
G1 X80.824 Y127.319 E59.76958
G1 X81.311 Y127.438 E59.80897
G1 X81.38 Y127.467 E59.81485
G1 X81.507 Y127.417 E59.82558
G1 X81.996 Y127.309 E59.86493
G1 X82.422 Y127.28 E59.89848
G1 X84.422 Y127.279 E60.05563
G1 X84.922 Y127.319 E60.09505
G1 X85.41 Y127.437 E60.1345
G1 X85.872 Y127.632 E60.1739
G1 X86.298 Y127.897 E60.21332
G1 X86.676 Y128.227 E60.25275
G1 X86.997 Y128.612 E60.29214
G1 X87.253 Y129.043 E60.33153
G1 X87.437 Y129.51 E60.37097
G1 X87.545 Y130 E60.4104
G1 X87.574 Y130.429 E60.44418
G1 X87.574 Y183.451 E64.6105
G1 X87.534 Y183.951 E64.64991
G1 X87.415 Y184.438 E64.6893
G1 X87.221 Y184.901 E64.72875
G1 X86.955 Y185.326 E64.76815
G1 X86.625 Y185.704 E64.80758
G1 X86.24 Y186.025 E64.84696
G1 X85.808 Y186.281 E64.88642
G1 X85.341 Y186.464 E64.92583
G1 X84.852 Y186.572 E64.96518
G1 X84.424 Y186.601 E64.99889
G1 X82.424 Y186.601 E65.15605
G1 X81.924 Y186.561 E65.19546
G1 X81.437 Y186.442 E65.23485
G1 X81.368 Y186.413 E65.24073
G1 X81.241 Y186.463 E65.25146
G1 X80.752 Y186.571 E65.29081
G1 X80.326 Y186.6 E65.32436
G1 X78.326 Y186.601 E65.48151
G1 X77.826 Y186.561 E65.52093
G1 X77.338 Y186.443 E65.56038
G1 X76.876 Y186.248 E65.59978
G1 X76.45 Y185.983 E65.6392
G1 X76.072 Y185.653 E65.67863
G1 X75.751 Y185.268 E65.71802
G1 X75.495 Y184.837 E65.75741
G1 X75.311 Y184.37 E65.79685
G1 X75.203 Y183.88 E65.83628
G1 X75.174 Y183.451 E65.87007
G1 X75.174 Y130.429 E70.03638
G1 X75.214 Y129.929 E70.07579
G1 X75.333 Y129.442 E70.11519
G1 X75.527 Y128.979 E70.15463
G1 X75.793 Y128.554 E70.19403
G1 X76.123 Y128.176 E70.23346
G1 X76.508 Y127.855 E70.27285
M204 S3000
M205 X10 Y10
G0 F4800 X76.808 Y128.504
M204 S1800
M205 X8 Y8
G1 F2400 X77.179 Y128.263 E70.30761
G1 X77.587 Y128.092 E70.34237
G1 X78.019 Y127.998 E70.37711
G1 X78.324 Y127.979 E70.40112
G1 X80.324 Y127.979 E70.55828
G1 X80.764 Y128.019 E70.59299
G1 X81.191 Y128.137 E70.6278
G1 X81.372 Y128.225 E70.64362
G1 X81.687 Y128.093 E70.67045
G1 X82.119 Y127.999 E70.70519
G1 X82.423 Y127.98 E70.72913
G1 X84.423 Y127.979 E70.88628
G1 X84.863 Y128.019 E70.921
G1 X85.289 Y128.137 E70.95573
G1 X85.687 Y128.33 E70.99049
G1 X86.044 Y128.591 E71.02524
G1 X86.348 Y128.912 E71.05998
G1 X86.589 Y129.283 E71.09474
G1 X86.76 Y129.691 E71.1295
G1 X86.855 Y130.123 E71.16426
G1 X86.874 Y130.429 E71.18835
G1 X86.874 Y183.451 E75.35466
G1 X86.834 Y183.891 E75.38938
G1 X86.716 Y184.318 E75.42419
G1 X86.522 Y184.715 E75.45891
G1 X86.261 Y185.072 E75.49366
G1 X85.94 Y185.376 E75.5284
G1 X85.569 Y185.617 E75.56316
G1 X85.161 Y185.788 E75.59792
G1 X84.729 Y185.882 E75.63266
G1 X84.424 Y185.901 E75.65667
G1 X82.424 Y185.901 E75.81383
G1 X81.984 Y185.861 E75.84854
G1 X81.557 Y185.743 E75.88335
G1 X81.376 Y185.655 E75.89917
G1 X81.061 Y185.787 E75.92601
G1 X80.629 Y185.881 E75.96075
G1 X80.325 Y185.9 E75.98468
G1 X78.325 Y185.901 E76.14183
G1 X77.885 Y185.861 E76.17655
G1 X77.459 Y185.743 E76.21128
G1 X77.061 Y185.55 E76.24604
G1 X76.704 Y185.289 E76.28079
G1 X76.4 Y184.968 E76.31553
G1 X76.159 Y184.597 E76.35029
G1 X75.988 Y184.189 E76.38505
G1 X75.893 Y183.757 E76.41981
G1 X75.874 Y183.451 E76.4439
G1 X75.874 Y130.429 E80.61022
G1 X75.914 Y129.989 E80.64493
G1 X76.032 Y129.562 E80.67974
G1 X76.226 Y129.165 E80.71446
G1 X76.487 Y128.808 E80.74921
G1 X76.808 Y128.504 E80.78395
M204 S3000
M205 X10 Y10
G0 F4800 X77.483 Y128.894
M204 S1800
M205 X8 Y8
G1 F2400 X77.828 Y128.751 E80.8133
G1 X78.324 Y128.679 E80.85268
G1 X80.324 Y128.679 E81.00983
G1 X80.695 Y128.719 E81.03915
G1 X81.05 Y128.837 E81.06855
G1 X81.381 Y129.036 E81.0989
G1 X81.583 Y128.895 E81.11825
G1 X81.928 Y128.752 E81.1476
G1 X82.423 Y128.68 E81.1869
G1 X84.423 Y128.679 E81.34406
G1 X84.795 Y128.719 E81.37346
G1 X85.149 Y128.836 E81.40275
G1 X85.471 Y129.027 E81.43217
G1 X85.745 Y129.281 E81.46153
G1 X85.958 Y129.587 E81.49083
G1 X86.102 Y129.932 E81.5202
G1 X86.174 Y130.429 E81.55966
G1 X86.174 Y183.451 E85.72598
G1 X86.134 Y183.822 E85.7553
G1 X86.016 Y184.177 E85.78469
G1 X85.826 Y184.499 E85.81407
G1 X85.572 Y184.772 E85.84337
G1 X85.265 Y184.986 E85.87278
G1 X84.92 Y185.129 E85.90212
G1 X84.424 Y185.201 E85.94151
G1 X82.424 Y185.201 E86.09866
G1 X82.053 Y185.161 E86.12798
G1 X81.698 Y185.043 E86.15738
G1 X81.367 Y184.844 E86.18772
G1 X81.165 Y184.985 E86.20708
G1 X80.82 Y185.128 E86.23643
G1 X80.325 Y185.2 E86.27573
G1 X78.325 Y185.201 E86.43289
G1 X77.953 Y185.161 E86.46228
G1 X77.599 Y185.044 E86.49158
G1 X77.277 Y184.853 E86.521
G1 X77.003 Y184.599 E86.55036
G1 X76.79 Y184.293 E86.57965
G1 X76.646 Y183.948 E86.60903
G1 X76.574 Y183.451 E86.64849
G1 X76.574 Y130.429 E90.8148
G1 X76.614 Y130.058 E90.84412
G1 X76.732 Y129.703 E90.87352
G1 X76.922 Y129.381 E90.9029
G1 X77.176 Y129.108 E90.9322
G1 X77.483 Y128.894 E90.9616
M204 S3000
M205 X10 Y10
G0 F4800 X77.852 Y129.491
M204 S1800
M205 X8 Y8
G1 F2400 X78.126 Y129.398 E90.98434
G1 X78.324 Y129.379 E90.99997
G1 X80.324 Y129.379 E91.15712
G1 X80.61 Y129.419 E91.17982
G1 X80.875 Y129.535 E91.20255
G1 X81.098 Y129.719 E91.22526
