;FLAVOR:Marlin
;TIME:867
;Filament used: 1.35972m
;Layer height: 0.3
;MINX:14.708
;MINY:98.109
;MINZ:0.3
;MAXX:66.208
;MAXY:174.126
;MAXZ:12.9
;Generated with Cura_SteamEngine 4.10.0
M104 S205
M105
M109 S205
M82 ;absolute extrusion mode
G21 ;metric values
G90 ;absolute positioning
M82 ;set extruder to absolute mode
M107 ;start with the fan off
G28 X0 Y0 ;move X/Y to min endstops
G28 Z0 ;move Z to min endstops
M501
M420 S1 ;Marlin Bed-leveling on
G1 Z15.0 F120 ;move the platform down 15mm
G92 E0 ;zero the extruded length
G1 F200 E3 ;extrude 3mm of feed stock
G92 E0 ;zero the extruded length again
G1 F120
M117 Printing...
G5
G92 E0
G92 E0
G1 F2400 E-6
;LAYER_COUNT:43
;LAYER:0
M107
M204 S3000
M205 X10 Y10
G1 F600 Z0.375
G0 F1200 X22.584 Y98.407 Z0.375
M204 S1800
M205 X8 Y8
;TYPE:SKIRT
G1 F600 Z0.3
G1 F2400 E0
G1 F600 X23.254 Y98.274 E0.05666
G1 X23.771 Y98.198 E0.1
G1 X24.522 Y98.13 E0.16254
G1 X25.051 Y98.113 E0.20644
G1 X25.465 Y98.109 E0.24078
G1 X53.614 Y98.111 E2.57553
G1 X54.998 Y98.138 E2.69034
G1 X55.62 Y98.179 E2.74205
G1 X56.181 Y98.25 E2.78895
G1 X56.786 Y98.355 E2.83988
G1 X57.391 Y98.498 E2.89144
G1 X58.005 Y98.683 E2.94463
G1 X58.611 Y98.893 E2.99782
G1 X59.27 Y99.161 E3.05683
G1 X59.837 Y99.435 E3.10906
G1 X60.498 Y99.808 E3.17201
G1 X61.06 Y100.169 E3.22742
G1 X61.552 Y100.527 E3.27788
G1 X62.036 Y100.926 E3.32991
G1 X62.508 Y101.35 E3.38253
G1 X62.907 Y101.739 E3.42875
G1 X63.381 Y102.266 E3.48754
G1 X63.767 Y102.745 E3.53857
G1 X64.112 Y103.223 E3.58746
G1 X64.409 Y103.68 E3.63267
G1 X64.719 Y104.208 E3.68345
G1 X64.983 Y104.713 E3.73072
G1 X65.325 Y105.48 E3.80037
G1 X65.595 Y106.214 E3.86524
G1 X65.771 Y106.799 E3.91591
G1 X65.875 Y107.203 E3.95051
G1 X65.995 Y107.771 E3.99866
G1 X66.123 Y108.621 E4.06996
G1 X66.149 Y108.879 E4.09146
G1 X66.182 Y109.428 E4.13708
G1 X66.208 Y110.869 E4.25662
G1 X66.208 Y166.732 E8.89004
G1 X66.198 Y167.46 E8.95042
G1 X66.148 Y168.193 E9.01136
G1 X66.019 Y168.916 E9.07228
G1 X65.812 Y169.62 E9.13314
G1 X65.529 Y170.298 E9.19408
G1 X65.175 Y170.942 E9.25503
G1 X64.752 Y171.543 E9.31599
G1 X64.267 Y172.094 E9.37687
G1 X63.725 Y172.59 E9.43781
G1 X63.132 Y173.024 E9.49876
G1 X62.496 Y173.39 E9.55962
G1 X61.823 Y173.686 E9.6206
G1 X61.122 Y173.906 E9.68154
G1 X60.402 Y174.049 E9.74243
G1 X59.642 Y174.114 E9.80569
G1 X59.131 Y174.126 E9.84809
G1 X57.23 Y174.124 E10.00576
G1 X56.562 Y174.114 E10.06117
G1 X55.829 Y174.063 E10.12212
G1 X55.106 Y173.933 E10.18305
G1 X54.402 Y173.725 E10.24393
G1 X53.724 Y173.442 E10.30487
G1 X53.081 Y173.086 E10.36583
G1 X52.481 Y172.663 E10.42672
G1 X51.93 Y172.177 E10.48766
G1 X51.35 Y171.528 E10.55985
G1 X49.703 Y169.426 E10.78134
G1 X48.55 Y168.039 E10.93094
G1 X48.213 Y167.621 E10.97548
G1 X47.784 Y167.024 E11.03645
G1 X47.422 Y166.385 E11.09736
G1 X47.132 Y165.71 E11.1583
G1 X46.913 Y164.994 E11.2204
G1 X46.25 Y162.296 E11.45084
G1 X45.553 Y159.773 E11.66794
G1 X44.776 Y157.24 E11.8877
G1 X43.927 Y154.73 E12.10747
G1 X43.026 Y152.293 E12.32297
G1 X42.022 Y149.799 E12.54596
G1 X40.982 Y147.414 E12.76177
G1 X39.861 Y145.027 E12.9805
G1 X38.659 Y142.645 E13.2018
G1 X37.425 Y140.365 E13.41683
G1 X36.097 Y138.065 E13.63711
G1 X34.704 Y135.805 E13.85731
G1 X33.262 Y133.605 E14.07549
G1 X31.763 Y131.456 E14.29281
G1 X30.174 Y129.311 E14.51422
G1 X28.561 Y127.255 E14.73096
G1 X26.874 Y125.227 E14.94976
G1 X25.122 Y123.238 E15.16961
G1 X23.334 Y121.319 E15.38716
G1 X21.458 Y119.419 E15.60862
G1 X19.6 Y117.638 E15.82209
G1 X17.668 Y115.911 E16.03703
G1 X16.933 Y115.244 E16.11935
G1 X16.417 Y114.721 E16.18029
G1 X15.96 Y114.146 E16.24121
G1 X15.569 Y113.524 E16.30214
G1 X15.247 Y112.863 E16.36313
G1 X15 Y112.172 E16.42399
G1 X14.829 Y111.457 E16.48497
G1 X14.745 Y110.838 E16.53678
G1 X14.717 Y110.294 E16.58196
G1 X14.708 Y109.557 E16.6431
G1 X14.709 Y109.006 E16.6888
G1 X14.72 Y108.229 E16.75325
G1 X14.761 Y107.514 E16.81265
G1 X14.825 Y106.952 E16.85957
G1 X14.953 Y106.248 E16.91891
G1 X15.113 Y105.6 E16.97428
G1 X15.373 Y104.81 E17.04326
G1 X15.498 Y104.491 E17.07167
G1 X15.705 Y104.018 E17.1145
G1 X15.805 Y103.811 E17.13357
G1 X16.109 Y103.252 E17.18634
G1 X16.336 Y102.877 E17.2227
G1 X16.694 Y102.343 E17.27603
G1 X16.787 Y102.218 E17.28895
G1 X17.126 Y101.799 E17.33365
G1 X17.458 Y101.42 E17.37544
G1 X17.949 Y100.915 E17.43386
G1 X18.151 Y100.728 E17.45669
G1 X18.607 Y100.342 E17.50625
G1 X18.735 Y100.243 E17.51967
G1 X19.154 Y99.944 E17.56236
G1 X19.587 Y99.659 E17.60536
G1 X20.279 Y99.26 E17.67161
G1 X20.987 Y98.936 E17.73619
G1 X21.8 Y98.633 E17.80815
G1 X22.378 Y98.459 E17.85822
G1 X22.584 Y98.407 E17.87584
M204 S3000
M205 X10 Y10
G0 F1200 X22.755 Y99.086
M204 S1800
M205 X8 Y8
G1 F600 X23.356 Y98.966 E17.92668
G1 X23.873 Y98.89 E17.97002
G1 X24.546 Y98.83 E18.02606
G1 X25.059 Y98.813 E18.06863
G1 X25.465 Y98.809 E18.10231
G1 X53.6 Y98.811 E20.43589
G1 X54.984 Y98.838 E20.55071
G1 X55.542 Y98.875 E20.59709
G1 X56.087 Y98.943 E20.64265
G1 X56.639 Y99.039 E20.68912
G1 X57.202 Y99.172 E20.7371
G1 X57.776 Y99.345 E20.78682
G1 X58.382 Y99.555 E20.84002
G1 X58.973 Y99.795 E20.89293
G1 X59.511 Y100.054 E20.94245
G1 X60.141 Y100.411 E21.00251
G1 X60.657 Y100.742 E21.05336
G1 X61.119 Y101.077 E21.10069
G1 X61.568 Y101.446 E21.1489
G1 X62.04 Y101.87 E21.20152
G1 X62.498 Y102.325 E21.25507
G1 X62.854 Y102.726 E21.29954
G1 X63.205 Y103.163 E21.34603
G1 X63.536 Y103.621 E21.3929
G1 X63.818 Y104.056 E21.4359
G1 X64.102 Y104.539 E21.48237
G1 X64.352 Y105.017 E21.52712
G1 X64.68 Y105.754 E21.59403
G1 X64.933 Y106.442 E21.65483
G1 X65.093 Y106.974 E21.7009
G1 X65.197 Y107.378 E21.7355
G1 X65.305 Y107.887 E21.77866
G1 X65.427 Y108.691 E21.84611
G1 X65.482 Y109.441 E21.90849
G1 X65.508 Y110.869 E22.02695
G1 X65.508 Y166.722 E26.65953
G1 X65.498 Y167.45 E26.71992
G1 X65.449 Y168.144 E26.77763
G1 X65.32 Y168.827 E26.83528
G1 X65.114 Y169.491 E26.89294
G1 X64.833 Y170.127 E26.95061
G1 X64.48 Y170.727 E27.00835
G1 X64.062 Y171.282 E27.06598
G1 X63.582 Y171.785 E27.12365
G1 X63.047 Y172.231 E27.18142
G1 X62.466 Y172.611 E27.239
G1 X61.844 Y172.923 E27.29672
G1 X61.19 Y173.161 E27.35444
G1 X60.514 Y173.323 E27.4121
G1 X59.622 Y173.415 E27.48647
G1 X59.132 Y173.426 E27.52713
G1 X57.24 Y173.424 E27.68405
G1 X56.572 Y173.414 E27.73947
G1 X55.879 Y173.364 E27.79709
G1 X55.196 Y173.234 E27.85476
G1 X54.532 Y173.027 E27.91245
G1 X53.896 Y172.745 E27.97015
G1 X53.297 Y172.392 E28.02782
G1 X52.742 Y171.973 E28.0855
G1 X52.239 Y171.492 E28.14322
G1 X51.901 Y171.096 E28.18641
G1 X50.246 Y168.984 E28.40896
G1 X49.095 Y167.599 E28.55832
G1 X48.758 Y167.181 E28.60286
G1 X48.353 Y166.616 E28.66052
G1 X48.016 Y166.007 E28.71825
G1 X47.751 Y165.364 E28.77593
G1 X47.593 Y164.827 E28.82236
G1 X46.936 Y162.153 E29.05074
G1 X46.22 Y159.56 E29.27386
G1 X45.441 Y157.022 E29.49406
G1 X44.594 Y154.517 E29.71339
G1 X43.659 Y151.989 E29.93695
G1 X42.686 Y149.572 E30.15306
G1 X41.617 Y147.121 E30.37484
G1 X40.479 Y144.698 E30.59687
G1 X39.295 Y142.352 E30.81483
G1 X38.02 Y139.994 E31.03717
G1 X36.705 Y137.718 E31.25519
G1 X35.298 Y135.435 E31.47762
G1 X33.844 Y133.217 E31.69759
G1 X32.311 Y131.019 E31.91986
G1 X30.758 Y128.922 E32.1363
G1 X29.089 Y126.795 E32.36054
G1 X27.406 Y124.772 E32.57881
G1 X25.649 Y122.777 E32.7993
G1 X23.832 Y120.827 E33.02037
G1 X21.964 Y118.934 E33.24096
G1 X20.07 Y117.119 E33.45854
G1 X18.138 Y115.392 E33.67347
G1 X17.403 Y114.725 E33.75579
G1 X16.916 Y114.229 E33.81345
G1 X16.489 Y113.68 E33.87114
G1 X16.128 Y113.086 E33.92879
G1 X15.837 Y112.454 E33.9865
G1 X15.621 Y111.793 E34.04418
G1 X15.442 Y110.777 E34.12974
G1 X15.416 Y110.285 E34.17061
G1 X15.408 Y109.631 E34.22486
G1 X15.409 Y109.016 E34.27587
G1 X15.42 Y108.239 E34.34032
G1 X15.459 Y107.566 E34.39623
G1 X15.518 Y107.047 E34.43956
G1 X15.639 Y106.386 E34.49529
G1 X15.789 Y105.782 E34.54691
G1 X16.025 Y105.066 E34.60944
G1 X16.335 Y104.322 E34.67629
G1 X16.435 Y104.115 E34.69536
G1 X16.707 Y103.614 E34.74264
G1 X16.934 Y103.239 E34.779
G1 X17.256 Y102.761 E34.82681
G1 X17.652 Y102.26 E34.87977
G1 X17.984 Y101.881 E34.92156
G1 X18.425 Y101.428 E34.974
G1 X18.627 Y101.241 E34.99683
G1 X19.036 Y100.895 E35.04127
G1 X19.539 Y100.528 E35.09291
G1 X19.972 Y100.243 E35.13591
G1 X20.592 Y99.886 E35.19525
G1 X21.266 Y99.578 E35.25671
G1 X22.031 Y99.294 E35.32439
G1 X22.549 Y99.138 E35.36926
G1 X22.755 Y99.086 E35.38688
M204 S3000
M205 X10 Y10
G0 F1200 X22.927 Y99.765
M204 S1800
M205 X8 Y8
G1 F600 X23.458 Y99.659 E35.4318
G1 X23.975 Y99.583 E35.47514
G1 X24.57 Y99.529 E35.52469
G1 X25.401 Y99.509 E35.59364
G1 X53.586 Y99.511 E37.93137
G1 X54.97 Y99.538 E38.04618
G1 X55.641 Y99.59 E38.10201
G1 X56.161 Y99.662 E38.14555
G1 X56.692 Y99.767 E38.19044
G1 X57.241 Y99.91 E38.2375
G1 X57.547 Y100.006 E38.2641
G1 X58.153 Y100.216 E38.31729
G1 X58.675 Y100.428 E38.36402
G1 X59.185 Y100.674 E38.41099
G1 X59.785 Y101.013 E38.46815
G1 X60.255 Y101.314 E38.51444
G1 X60.687 Y101.627 E38.55869
G1 X61.1 Y101.967 E38.60306
G1 X61.572 Y102.391 E38.65568
G1 X61.989 Y102.806 E38.70448
G1 X62.327 Y103.187 E38.74672
G1 X62.643 Y103.581 E38.78861
G1 X62.96 Y104.019 E38.83346
G1 X63.314 Y104.572 E38.88792
G1 X63.614 Y105.109 E38.93894
G1 X63.893 Y105.69 E38.9924
G1 X64.169 Y106.374 E39.05357
G1 X64.331 Y106.855 E39.09567
G1 X64.519 Y107.552 E39.15555
G1 X64.684 Y108.414 E39.22834
G1 X64.756 Y109.02 E39.27896
G1 X64.782 Y109.454 E39.31502
G1 X64.808 Y110.869 E39.4324
G1 X64.808 Y166.712 E44.06416
G1 X64.798 Y167.44 E44.12455
G1 X64.75 Y168.093 E44.17885
G1 X64.621 Y168.734 E44.23309
G1 X64.416 Y169.355 E44.28733
G1 X64.136 Y169.946 E44.34157
G1 X63.787 Y170.498 E44.39574
G1 X63.372 Y171.004 E44.45002
G1 X62.899 Y171.456 E44.50428
G1 X62.375 Y171.846 E44.55846
G1 X61.807 Y172.17 E44.6127
G1 X61.203 Y172.421 E44.66695
G1 X60.573 Y172.598 E44.72122
G1 X59.602 Y172.715 E44.80234
G1 X59.132 Y172.726 E44.84134
G1 X57.251 Y172.724 E44.99735
G1 X56.583 Y172.714 E45.05276
G1 X55.931 Y172.665 E45.10699
G1 X55.29 Y172.536 E45.16123
G1 X54.669 Y172.33 E45.21549
G1 X54.078 Y172.049 E45.26977
G1 X53.526 Y171.699 E45.32398
G1 X53.021 Y171.284 E45.3782
G1 X52.452 Y170.665 E45.44794
G1 X50.779 Y168.53 E45.67291
G1 X49.64 Y167.16 E45.82068
G1 X49.303 Y166.742 E45.86522
G1 X48.924 Y166.209 E45.91946
G1 X48.614 Y165.633 E45.97372
G1 X48.376 Y165.024 E46.02795
G1 X48.272 Y164.66 E46.05935
G1 X47.603 Y161.936 E46.292
G1 X46.896 Y159.378 E46.51212
G1 X46.109 Y156.813 E46.73465
G1 X45.246 Y154.261 E46.9581
G1 X44.325 Y151.769 E47.17846
G1 X43.32 Y149.272 E47.40171
G1 X42.254 Y146.827 E47.62294
G1 X41.119 Y144.412 E47.84426
G1 X39.91 Y142.016 E48.06686
G1 X38.638 Y139.666 E48.2885
G1 X37.304 Y137.356 E48.50975
G1 X35.876 Y135.039 E48.73549
G1 X34.432 Y132.836 E48.95397
G1 X32.899 Y130.639 E49.17617
G1 X31.294 Y128.471 E49.3999
G1 X29.635 Y126.357 E49.62279
G1 X27.941 Y124.32 E49.84253
G1 X26.157 Y122.295 E50.06637
G1 X24.347 Y120.353 E50.28656
G1 X22.469 Y118.45 E50.50832
G1 X20.526 Y116.588 E50.73153
G1 X18.609 Y114.874 E50.94482
G1 X17.874 Y114.207 E51.02714
G1 X17.417 Y113.739 E51.0814
G1 X17.021 Y113.218 E51.13567
G1 X16.692 Y112.653 E51.1899
G1 X16.434 Y112.053 E51.24407
G1 X16.251 Y111.425 E51.29833
G1 X16.14 Y110.715 E51.35793
G1 X16.116 Y110.276 E51.3944
G1 X16.108 Y109.622 E51.44865
G1 X16.109 Y109.026 E51.49808
G1 X16.12 Y108.249 E51.56253
G1 X16.157 Y107.618 E51.61496
G1 X16.268 Y106.808 E51.68277
G1 X16.406 Y106.183 E51.73586
G1 X16.566 Y105.632 E51.78345
G1 X16.802 Y105.002 E51.83925
G1 X17.066 Y104.42 E51.89225
G1 X17.306 Y103.977 E51.93404
G1 X17.533 Y103.602 E51.9704
G1 X17.818 Y103.179 E52.01271
G1 X18.179 Y102.722 E52.06101
G1 X18.511 Y102.343 E52.1028
G1 X18.901 Y101.942 E52.1492
G1 X19.464 Y101.449 E52.21127
G1 X19.924 Y101.113 E52.25852
G1 X20.357 Y100.828 E52.30151
G1 X20.905 Y100.512 E52.35398
G1 X21.544 Y100.221 E52.41222
G1 X22.263 Y99.954 E52.47583
G1 X22.927 Y99.765 E52.53309
M204 S3000
M205 X10 Y10
G1 F2400 E46.53309
;MESH:ArmL_Note9_AkkuPack+8mm.stl
G0 F1200 X24.16 Y104.275
G0 X24.488 Y105.723
G0 X24.433 Y107.514
M204 S1800
M205 X8 Y8
;TYPE:WALL-INNER
G1 F2400 E52.53309
G1 F600 X24.34 Y107.604 E52.54383
G1 X24.053 Y107.881 E52.57691
G1 X24.302 Y107.566 E52.57833
G1 X24.426 Y107.502 E52.57935
G1 X24.618 Y107.401 E52.58662
G1 X24.433 Y107.514 E52.58675
M204 S3000
M205 X10 Y10
G0 F1200 X54.819 Y108.01
M204 S1800
M205 X8 Y8
G1 F600 X54.513 Y107.733 E52.62098
G1 X54.045 Y107.31 E52.6733
G1 X54.857 Y107.351 E52.70502
G1 X54.975 Y107.38 E52.71142
G1 X55.039 Y107.396 E52.71689
G1 X55.246 Y107.448 E52.73459
G1 X55.599 Y107.597 E52.76637
G1 X55.941 Y107.811 E52.79983
G1 X56.233 Y108.067 E52.83204
G1 X56.509 Y108.399 E52.86785
G1 X56.71 Y108.732 E52.90011
G1 X56.873 Y109.131 E52.93586
G1 X56.972 Y109.551 E52.97165
G1 X57.008 Y110.04 E53.01232
G1 X57.008 Y111.162 E53.10538
G1 X55.908 Y111.162 E53.19662
G1 X55.908 Y110.83 E53.22416
G1 X55.795 Y109.906 E53.30137
G1 X55.421 Y108.901 E53.39031
G1 X54.855 Y108.064 E53.47411
G1 X54.819 Y108.01 E53.47917
M204 S3000
M205 X10 Y10
G0 F1200 X57.286 Y112.784
G0 X57.287 Y157.472
G0 X57.009 Y160.941
M204 S1800
M205 X8 Y8
G1 F600 X56.659 Y160.941 E53.5082
G1 X55.909 Y160.94 E53.5704
G1 X55.909 Y159.443 E53.69457
G1 X55.909 Y159.093 E53.7236
G1 X56.259 Y159.093 E53.74238
G1 X57.009 Y159.094 E53.80459
G1 X57.009 Y160.591 E53.92875
G1 X57.009 Y160.941 E53.94754
M204 S3000
M205 X10 Y10
G0 F1200 X57.709 Y161.641
M204 S1800
M205 X8 Y8
G1 F600 X57.359 Y161.641 E53.97657
G1 X55.209 Y161.64 E54.1549
G1 X55.209 Y158.743 E54.39518
G1 X55.209 Y158.393 E54.42421
G1 X55.559 Y158.393 E54.443
G1 X57.709 Y158.394 E54.62132
G1 X57.709 Y161.291 E54.86161
G1 X57.709 Y161.641 E54.8804
M204 S3000
M205 X10 Y10
G0 F1200 X57.286 Y112.784
G0 X53.078 Y108.608
G0 X51.814 Y108.119
G0 X27.418 Y108.1
G0 X26.346 Y108.309
G0 X23.684 Y109.491
M204 S1800
M205 X8 Y8
G1 F600 X23.648 Y109.585 E54.88874
G1 X23.627 Y109.569
G1 X23.208 Y109.259 E54.92965
G1 X23.208 Y108.975 E54.9532
G1 X23.208 Y108.506 E54.9921
G1 X23.242 Y108.099 E55.02598
G1 X23.321 Y107.799 E55.05171
G1 X23.453 Y107.511 E55.07798
G1 X23.638 Y107.242 E55.10506
G1 X23.85 Y107.028 E55.13005
G1 X24.125 Y106.836 E55.15787
G1 X24.655 Y106.642 E55.20468
G1 X25.038 Y106.609 E55.23656
G1 X26.45 Y106.609 E55.35368
G1 X26.532 Y106.609 E55.36048
G1 X27.368 Y106.609 E55.42982
G1 X51.511 Y106.609 E57.4323
G1 X51.957 Y106.609 E57.46929
G1 X52.333 Y106.609 E57.50048
G1 X54.392 Y106.61 E57.67126
G1 X54.969 Y106.657 E57.71927
G1 X55.468 Y106.782 E57.76194
G1 X55.924 Y106.974 E57.80298
G1 X56.359 Y107.246 E57.84553
G1 X56.737 Y107.577 E57.8872
G1 X57.08 Y107.991 E57.9318
G1 X57.338 Y108.418 E57.97318
G1 X57.541 Y108.915 E58.0177
G1 X57.666 Y109.445 E58.06287
G1 X57.708 Y110.016 E58.11036
G1 X57.708 Y111.862 E58.26347
G1 X55.208 Y111.862 E58.47083
G1 X55.208 Y110.873 E58.55286
G1 X55.11 Y110.073 E58.61971
G1 X54.794 Y109.224 E58.69484
G1 X54.286 Y108.472 E58.77011
G1 X53.61 Y107.86 E58.84575
G1 X52.814 Y107.433 E58.92067
G1 X52.321 Y107.307 E58.96287
G1 X51.957 Y107.215 E58.99194
G1 X51.511 Y107.188 E59.02331
G1 X27.368 Y107.189 E60.68107
G1 X26.532 Y107.281 E60.74349
G1 X26.455 Y107.307 E60.7501
G1 X25.655 Y107.586 E60.82037
G1 X24.864 Y108.071 E60.89733
G1 X24.197 Y108.716 E60.97429
G1 X23.84 Y109.255 E61.02791
G1 X23.684 Y109.491 E61.03938
M204 S3000
M205 X10 Y10
G0 F1200 X26.048 Y108.413
G0 X27.418 Y108.1
G0 X51.814 Y108.119
G0 X52.964 Y108.547
G0 X57.508 Y112.562
M204 S1800
M205 X8 Y8
G1 F600 X54.508 Y112.562 E61.28821
G1 X54.508 Y110.916 E61.42473
G1 X54.425 Y110.24 E61.48122
G1 X54.167 Y109.547 E61.54255
G1 X53.753 Y108.934 E61.6039
G1 X53.203 Y108.436 E61.66544
G1 X52.559 Y108.09 E61.72608
G1 X51.849 Y107.91 E61.78683
G1 X51.49 Y107.888 E61.81667
G1 X27.406 Y107.889 E63.81425
G1 X26.687 Y107.968 E63.87425
G1 X25.956 Y108.222 E63.93843
G1 X25.296 Y108.627 E64.00266
G1 X24.739 Y109.166 E64.06695
G1 X24.31 Y109.814 E64.13141
G1 X24.064 Y110.452 E64.18812
G1 X24.035 Y110.527 E64.19479
G1 X24.008 Y110.657 E64.2058
G1 X24.003 Y110.677 E64.20751
G1 X23.969 Y110.66
G1 X23.933 Y110.642
G1 X23.49 Y110.34 E64.23871
G1 X23.425 Y110.292 E64.24541
G1 X22.704 Y109.757 E64.31987
