;FLAVOR:Marlin
;TIME:1340
;Filament used: 0.877523m
;Layer height: 0.2
;MINX:-22.394
;MINY:-21.398
;MINZ:0.3
;MAXX:22.394
;MAXY:21.403
;MAXZ:5.9
;Generated with Cura_SteamEngine 4.10.0
M104 S190
M105
M109 S190
M82 ;absolute extrusion mode
G21        ;metric values
G90        ;absolute positioning
M107       ;start with the fan off
G28   ;move to endstops

;Z-Offset Reset und dann Z +0,1 für PLA
;MacroZOffset0
;MacroZOffsetPlus0100

G92 E0                  ;zero the extruded length
G1 F200 E3              ;extrude 3mm of feed stock
G92 E0                  ;zero the extruded length again
G1 F150.0
;Put printing message on LCD screen
M117 Printing...
G92 E0
G92 E0
G1 F2400 E-6
;LAYER_COUNT:30
;LAYER:0
M107
M204 S3000
G0 F750 X9.011 Y-12.31 Z0.3
M204 S1500
;TYPE:SKIRT
G1 F2400 E0
G1 F300 X11.379 Y-10.966 E0.12226
G1 X14.517 Y-9.318 E0.28141
G1 X15.512 Y-8.818 E0.33141
G1 X16.162 Y-8.419 E0.36565
G1 X16.64 Y-8.066 E0.39233
G1 X17.962 Y-7.064 E0.46682
G1 X20.338 Y-5.368 E0.59789
G1 X20.484 Y-5.267 E0.60586
G1 X20.947 Y-4.897 E0.63248
G1 X21.357 Y-4.468 E0.65912
G1 X21.705 Y-3.989 E0.68571
G1 X21.986 Y-3.466 E0.71236
G1 X22.193 Y-2.911 E0.73896
G1 X22.325 Y-2.333 E0.76558
G1 X22.38 Y-1.746 E0.79205
G1 X22.394 Y-1.045 E0.82354
G1 X22.387 Y-.47 E0.84936
G1 X22.375 Y-.16 E0.86329
G1 X22.284 Y0.576 E0.89659
G1 X22.03 Y1.779 E0.95179
G1 X21.904 Y2.335 E0.97739
G1 X21.381 Y5.006 E1.0996
G1 X21.231 Y5.864 E1.13871
G1 X21.179 Y6.129 E1.15083
G1 X20.999 Y6.776 E1.18099
G1 X20.739 Y7.458 E1.21376
G1 X20.515 Y7.983 E1.23939
G1 X20.358 Y8.331 E1.25653
G1 X19.979 Y8.999 E1.29102
G1 X19.277 Y10.02 E1.34665
G1 X18.987 Y10.432 E1.36928
G1 X17.473 Y12.71 E1.49209
G1 X17.082 Y13.328 E1.52493
G1 X16.854 Y13.674 E1.54353
G1 X16.502 Y14.138 E1.56968
G1 X16.225 Y14.445 E1.58825
G1 X15.727 Y14.952 E1.62016
G1 X15.233 Y15.419 E1.65068
G1 X14.648 Y15.875 E1.68399
G1 X13.706 Y16.489 E1.73448
G1 X13.119 Y16.86 E1.76566
G1 X10.883 Y18.386 E1.88721
G1 X9.949 Y19.014 E1.93774
G1 X9.432 Y19.313 E1.96456
G1 X8.62 Y19.677 E2.00452
G1 X8.083 Y19.893 E2.03051
G1 X7.481 Y20.102 E2.05912
G1 X7.069 Y20.2 E2.07813
G1 X5.961 Y20.407 E2.12875
G1 X5.302 Y20.521 E2.15877
G1 X2.605 Y21.066 E2.28232
G1 X1.936 Y21.217 E2.31312
G1 X1.546 Y21.297 E2.33099
G1 X0.89 Y21.381 E2.36069
G1 X0.049 Y21.403 E2.39846
G1 X-.552 Y21.394 E2.42545
G1 X-.846 Y21.382 E2.43866
G1 X-1.578 Y21.291 E2.47178
G1 X-2.838 Y21.024 E2.52962
G1 X-3.4 Y20.898 E2.55548
G1 X-6.006 Y20.389 E2.6747
G1 X-6.822 Y20.247 E2.71189
G1 X-7.113 Y20.19 E2.7252
G1 X-7.711 Y20.028 E2.75302
G1 X-8.515 Y19.722 E2.79165
G1 X-9.08 Y19.478 E2.81928
G1 X-9.35 Y19.353 E2.83264
G1 X-9.992 Y18.987 E2.86583
G1 X-10.942 Y18.334 E2.91759
G1 X-11.308 Y18.074 E2.93774
G1 X-13.561 Y16.572 E3.05933
G1 X-14.468 Y15.997 E3.10755
G1 X-15.106 Y15.523 E3.14323
G1 X-15.73 Y14.948 E3.18133
G1 X-16.181 Y14.488 E3.21026
G1 X-16.412 Y14.241 E3.22544
G1 X-16.874 Y13.646 E3.25927
G1 X-17.507 Y12.669 E3.31154
G1 X-17.69 Y12.377 E3.32701
G1 X-19.217 Y10.094 E3.45034
G1 X-19.708 Y9.396 E3.48866
G1 X-19.995 Y8.974 E3.51157
G1 X-20.329 Y8.394 E3.54162
G1 X-20.487 Y8.051 E3.55858
G1 X-20.731 Y7.477 E3.58659
G1 X-20.994 Y6.789 E3.61966
G1 X-21.19 Y6.078 E3.65277
G1 X-21.39 Y5.006 E3.70174
G1 X-21.499 Y4.374 E3.73054
G1 X-22.043 Y1.669 E3.85443
G1 X-22.234 Y0.818 E3.89359
G1 X-22.289 Y0.548 E3.90596
G1 X-22.37 Y-0.069 E3.9339
G1 X-22.394 Y-.936 E3.97284
G1 X-22.386 Y-1.52 E3.99907
G1 X-22.376 Y-1.8 E4.01165
G1 X-22.284 Y-2.55 E4.04558
G1 X-22.023 Y-3.788 E4.10239
G1 X-21.906 Y-4.307 E4.12628
G1 X-21.377 Y-7.009 E4.2499
G1 X-21.229 Y-7.851 E4.28829
G1 X-21.176 Y-8.119 E4.30056
G1 X-21 Y-8.755 E4.33019
G1 X-20.735 Y-9.45 E4.36358
G1 X-20.513 Y-9.969 E4.38893
G1 X-20.354 Y-10.319 E4.40619
G1 X-20.07 Y-10.84 E4.43283
G1 X-19.72 Y-11.318 E4.45944
G1 X-19.425 Y-11.635 E4.47888
G1 X-18.5 Y-12.535 E4.53683
G1 X-18.321 Y-12.704 E4.54788
G1 X-16.394 Y-14.633 E4.67031
G1 X-14.532 Y-16.604 E4.79206
G1 X-13.385 Y-17.875 E4.86893
G1 X-12.585 Y-18.778 E4.9231
G1 X-12.234 Y-19.143 E4.94583
G1 X-11.796 Y-19.542 E4.97244
G1 X-11.4 Y-19.855 E4.9951
G1 X-11 Y-20.125 E5.01677
G1 X-10.492 Y-20.428 E5.04333
G1 X-10.014 Y-20.675 E5.06749
G1 X-9.521 Y-20.882 E5.0915
G1 X-8.869 Y-21.097 E5.12232
G1 X-8.199 Y-21.257 E5.15325
G1 X-7.689 Y-21.337 E5.17643
G1 X-7.132 Y-21.387 E5.20154
G1 X-6.783 Y-21.398 E5.21722
G1 X-6.183 Y-21.38 E5.24418
G1 X-5.581 Y-21.316 E5.27136
G1 X-5.049 Y-21.22 E5.29563
G1 X-4.516 Y-21.088 E5.32029
G1 X-4.039 Y-20.932 E5.34282
G1 X-3.469 Y-20.7 E5.37045
G1 X-2.945 Y-20.44 E5.39672
G1 X-2.437 Y-20.14 E5.42321
G1 X-1.957 Y-19.806 E5.44947
G1 X-1.054 Y-19.122 E5.50033
G1 X0.018 Y-18.294 E5.56115
G1 X2.189 Y-16.713 E5.68174
G1 X4.447 Y-15.164 E5.80469
G1 X6.702 Y-13.709 E5.92519
G1 X9.011 Y-12.31 E6.04641
M204 S3000
G0 F750 X8.828 Y-11.954
M204 S1500
G1 F300 X11.174 Y-10.622 E6.16755
G1 X14.364 Y-8.946 E6.32935
G1 X15.332 Y-8.46 E6.37798
G1 X15.925 Y-8.096 E6.40922
G1 X16.399 Y-7.747 E6.43565
G1 X17.75 Y-6.723 E6.51177
G1 X20.077 Y-5.062 E6.64014
G1 X20.256 Y-4.938 E6.64992
G1 X20.697 Y-4.584 E6.67531
G1 X21.083 Y-4.172 E6.70066
G1 X21.408 Y-3.709 E6.72606
G1 X21.664 Y-3.205 E6.75144
G1 X21.846 Y-2.669 E6.77686
G1 X21.971 Y-1.889 E6.81233
G1 X21.994 Y-1.04 E6.85047
G1 X21.987 Y-.485 E6.87539
G1 X21.975 Y-.175 E6.88932
G1 X21.892 Y0.494 E6.91959
G1 X21.64 Y1.691 E6.97451
G1 X21.508 Y2.276 E7.00144
G1 X20.995 Y4.891 E7.12109
G1 X20.838 Y5.787 E7.16194
G1 X20.786 Y6.052 E7.17406
G1 X20.623 Y6.641 E7.2015
G1 X20.368 Y7.31 E7.23365
G1 X20.148 Y7.825 E7.2588
G1 X19.994 Y8.165 E7.27556
G1 X19.65 Y8.773 E7.30692
G1 X18.95 Y9.79 E7.36236
G1 X18.642 Y10.227 E7.38636
G1 X17.169 Y12.443 E7.50584
G1 X16.748 Y13.108 E7.54118
G1 X16.52 Y13.454 E7.55979
G1 X16.2 Y13.876 E7.58357
G1 X15.939 Y14.165 E7.60105
G1 X15.448 Y14.665 E7.63252
G1 X14.962 Y15.125 E7.66257
G1 X14.43 Y15.54 E7.69286
G1 X13.492 Y16.151 E7.74313
G1 X12.915 Y16.516 E7.77378
G1 X10.66 Y18.054 E7.89634
G1 X9.726 Y18.682 E7.94688
G1 X9.256 Y18.954 E7.97126
G1 X8.463 Y19.31 E8.01029
G1 X7.942 Y19.518 E8.03548
G1 X7.373 Y19.717 E8.06255
G1 X6.995 Y19.806 E8.07998
G1 X5.893 Y20.013 E8.13033
G1 X5.22 Y20.129 E8.16099
G1 X2.524 Y20.675 E8.2845
G1 X1.856 Y20.825 E8.31525
G1 X1.466 Y20.905 E8.33312
G1 X0.869 Y20.982 E8.36015
G1 X0.044 Y21.003 E8.39721
G1 X-.536 Y20.995 E8.42325
G1 X-.83 Y20.983 E8.43646
G1 X-1.496 Y20.899 E8.4666
G1 X-2.751 Y20.633 E8.52421
G1 X-3.274 Y20.516 E8.54827
G1 X-5.957 Y19.992 E8.67102
G1 X-6.657 Y19.871 E8.70291
G1 X-7.036 Y19.797 E8.72025
G1 X-7.58 Y19.651 E8.74554
G1 X-8.366 Y19.35 E8.78333
G1 X-8.911 Y19.115 E8.80998
G1 X-9.181 Y18.99 E8.82334
G1 X-9.765 Y18.657 E8.85353
G1 X-10.71 Y18.008 E8.905
G1 X-11.084 Y17.743 E8.92558
G1 X-13.337 Y16.241 E9.04717
G1 X-14.254 Y15.659 E9.09593
G1 X-14.859 Y15.208 E9.12982
G1 X-15.45 Y14.662 E9.16594
G1 X-15.895 Y14.208 E9.19449
G1 X-16.118 Y13.969 E9.20917
G1 X-16.538 Y13.429 E9.23988
G1 X-17.168 Y12.457 E9.29189
G1 X-17.372 Y12.132 E9.30912
G1 X-18.878 Y9.88 E9.43077
G1 X-19.378 Y9.171 E9.46972
G1 X-19.665 Y8.749 E9.49264
G1 X-19.968 Y8.221 E9.51997
G1 X-20.119 Y7.895 E9.5361
G1 X-20.36 Y7.328 E9.56377
G1 X-20.619 Y6.651 E9.59631
G1 X-20.797 Y6.004 E9.62644
G1 X-20.996 Y4.938 E9.67513
G1 X-21.112 Y4.264 E9.70584
G1 X-21.642 Y1.63 E9.82648
G1 X-21.843 Y0.738 E9.86754
G1 X-21.898 Y0.468 E9.87991
G1 X-21.971 Y-0.092 E9.90527
G1 X-21.994 Y-.941 E9.9434
G1 X-21.986 Y-1.506 E9.96878
G1 X-21.976 Y-1.786 E9.98136
G1 X-21.893 Y-2.468 E10.0122
G1 X-21.633 Y-3.7 E10.06874
G1 X-21.51 Y-4.248 E10.09396
G1 X-20.991 Y-6.892 E10.21494
G1 X-20.837 Y-7.773 E10.2551
G1 X-20.784 Y-8.041 E10.26737
G1 X-20.624 Y-8.62 E10.29434
G1 X-20.364 Y-9.301 E10.32707
G1 X-20.146 Y-9.81 E10.35193
G1 X-19.99 Y-10.152 E10.36881
G1 X-19.719 Y-10.648 E10.39419
G1 X-19.38 Y-11.1 E10.41956
G1 X-19.146 Y-11.349 E10.4349
G1 X-18.225 Y-12.244 E10.49257
G1 X-18.046 Y-12.413 E10.50362
G1 X-16.103 Y-14.358 E10.62706
G1 X-14.248 Y-16.321 E10.74833
G1 X-13.112 Y-17.581 E10.82451
G1 X-12.286 Y-18.513 E10.88042
G1 X-11.73 Y-19.069 E10.91573
G1 X-11.315 Y-19.418 E10.94008
G1 X-10.795 Y-19.781 E10.96855
G1 X-10.287 Y-20.084 E10.99511
G1 X-9.623 Y-20.41 E11.02833
G1 X-9.004 Y-20.638 E11.05795
G1 X-8.497 Y-20.784 E11.08164
G1 X-7.871 Y-20.908 E11.11029
G1 X-7.368 Y-20.969 E11.13304
G1 X-6.786 Y-20.998 E11.15921
G1 X-6.217 Y-20.982 E11.18476
G1 X-5.645 Y-20.922 E11.21059
G1 X-5.139 Y-20.831 E11.23367
G1 X-4.623 Y-20.703 E11.25754
G1 X-3.87 Y-20.438 E11.29339
G1 X-3.373 Y-20.212 E11.3179
G1 X-2.868 Y-19.937 E11.34372
G1 X-2.426 Y-19.652 E11.36734
G1 X-2.199 Y-19.488 E11.37991
G1 X-1.299 Y-18.805 E11.43064
G1 X-.233 Y-17.982 E11.49111
G1 X1.966 Y-16.38 E11.61327
G1 X4.209 Y-14.842 E11.73539
G1 X6.483 Y-13.374 E11.85692
G1 X8.828 Y-11.954 E11.98001
M204 S3000
G0 F750 X8.603 Y-11.622
M204 S1500
G1 F300 X10.982 Y-10.271 E12.10286
G1 X14.178 Y-8.593 E12.26494
G1 X15.152 Y-8.103 E12.31389
G1 X15.688 Y-7.774 E12.34213
G1 X16.157 Y-7.429 E12.36827
G1 X17.527 Y-6.39 E12.44548
G1 X20.067 Y-4.577 E12.5856
G1 X20.445 Y-4.272 E12.60741
G1 X20.807 Y-3.876 E12.6315
G1 X21.106 Y-3.431 E12.65557
G1 X21.336 Y-2.947 E12.67963
G1 X21.492 Y-2.434 E12.70371
G1 X21.572 Y-1.865 E12.72951
G1 X21.594 Y-1.035 E12.76679
G1 X21.587 Y-.501 E12.79077
G1 X21.575 Y-.191 E12.8047
G1 X21.501 Y0.412 E12.83198
G1 X21.25 Y1.603 E12.88663
G1 X21.119 Y2.183 E12.91333
G1 X20.596 Y4.855 E13.03558
G1 X20.446 Y5.71 E13.07456
G1 X20.394 Y5.975 E13.08668
G1 X20.247 Y6.505 E13.11138
G1 X19.997 Y7.161 E13.1429
G1 X19.749 Y7.738 E13.1711
G1 X19.63 Y7.999 E13.18398
G1 X19.32 Y8.546 E13.21221
G1 X18.623 Y9.559 E13.26742
G1 X18.336 Y9.966 E13.28978
G1 X16.795 Y12.284 E13.41477
G1 X16.414 Y12.888 E13.44683
G1 X15.898 Y13.613 E13.48679
G1 X15.653 Y13.885 E13.50323
G1 X15.169 Y14.378 E13.53425
G1 X14.69 Y14.832 E13.56388
G1 X14.211 Y15.205 E13.59114
G1 X13.279 Y15.813 E13.6411
G1 X12.685 Y16.189 E13.67267
G1 X10.437 Y17.722 E13.79484
G1 X9.503 Y18.35 E13.84538
G1 X8.921 Y18.673 E13.87527
G1 X8.305 Y18.942 E13.90545
G1 X7.802 Y19.144 E13.92979
G1 X7.265 Y19.332 E13.95533
G1 X6.922 Y19.413 E13.97116
G1 X5.825 Y19.619 E14.02128
G1 X5.111 Y19.742 E14.05381
G1 X2.484 Y20.274 E14.17416
G1 X1.775 Y20.434 E14.20679
G1 X1.385 Y20.514 E14.22467
G1 X0.849 Y20.582 E14.24893
G1 X0.04 Y20.603 E14.28527
G1 X-.52 Y20.595 E14.31041
G1 X-.814 Y20.583 E14.32363
G1 X-1.413 Y20.508 E14.35073
G1 X-2.663 Y20.243 E14.40811
G1 X-3.215 Y20.119 E14.43351
G1 X-5.9 Y19.595 E14.55634
G1 X-6.668 Y19.462 E14.59134
G1 X-6.959 Y19.405 E14.60465
G1 X-7.448 Y19.273 E14.6274
G1 X-8.217 Y18.979 E14.66436
G1 X-8.743 Y18.752 E14.69009
G1 X-9.013 Y18.627 E14.70345
G1 X-9.539 Y18.328 E14.73061
G1 X-10.479 Y17.681 E14.78185
G1 X-10.853 Y17.416 E14.80243
G1 X-13.132 Y15.896 E14.92544
G1 X-14.039 Y15.321 E14.97366
G1 X-14.611 Y14.894 E15.00571
G1 X-15.171 Y14.376 E15.03996
G1 X-15.609 Y13.929 E15.06806
G1 X-15.825 Y13.698 E15.08226
G1 X-16.203 Y13.211 E15.10994
G1 X-16.83 Y12.244 E15.16169
G1 X-17.035 Y11.918 E15.17898
G1 X-18.557 Y9.641 E15.30196
G1 X-19.047 Y8.947 E15.3401
G1 X-19.334 Y8.525 E15.36302
G1 X-19.607 Y8.049 E15.38766
G1 X-19.751 Y7.738 E15.40304
G1 X-19.989 Y7.179 E15.43032
G1 X-20.244 Y6.513 E15.46235
G1 X-20.404 Y5.931 E15.48945
G1 X-20.602 Y4.87 E15.53791
G1 X-20.72 Y4.188 E15.56899
G1 X-21.246 Y1.57 E15.68889
G1 X-21.451 Y0.659 E15.73082
G1 X-21.506 Y0.389 E15.74319
G1 X-21.572 Y-.116 E15.76606
G1 X-21.594 Y-.946 E15.80334
G1 X-21.587 Y-1.491 E15.82781
G1 X-21.577 Y-1.771 E15.84039
G1 X-21.502 Y-2.385 E15.86816
G1 X-21.243 Y-3.612 E15.92447
G1 X-21.121 Y-4.154 E15.94942
G1 X-20.596 Y-6.835 E16.07208
G1 X-20.445 Y-7.695 E16.11129
G1 X-20.392 Y-7.963 E16.12356
G1 X-20.247 Y-8.484 E16.14784
G1 X-19.992 Y-9.153 E16.17999
G1 X-19.779 Y-9.652 E16.20435
G1 X-19.627 Y-9.985 E16.22078
G1 X-19.367 Y-10.454 E16.24486
G1 X-18.866 Y-11.062 E16.28024
G1 X-17.951 Y-11.954 E16.33761
G1 X-17.737 Y-12.156 E16.35083
G1 X-15.829 Y-14.066 E16.47205
G1 X-13.928 Y-16.078 E16.59633
G1 X-12.812 Y-17.316 E16.67117
G1 X-11.986 Y-18.248 E16.72709
G1 X-11.467 Y-18.768 E16.76008
G1 X-11.074 Y-19.099 E16.78315
G1 X-10.59 Y-19.438 E16.80968
G1 X-10.082 Y-19.741 E16.83624
G1 X-9.462 Y-20.044 E16.86723
G1 X-8.888 Y-20.256 E16.8947
G1 X-8.399 Y-20.396 E16.91754
G1 X-7.815 Y-20.512 E16.94428
G1 X-7.074 Y-20.589 E16.97773
G1 X-6.79 Y-20.598 E16.99049
G1 X-6.251 Y-20.583 E17.0147
G1 X-5.709 Y-20.527 E17.03916
G1 X-4.979 Y-20.383 E17.07257
G1 X-4.297 Y-20.175 E17.10459
G1 X-3.787 Y-19.967 E17.12932
G1 X-3.314 Y-19.73 E17.15307
G1 X-2.858 Y-19.46 E17.17687
G1 X-2.44 Y-19.169 E17.19974
G1 X-1.543 Y-18.489 E17.25028
G1 X-.451 Y-17.645 E17.31225
G1 X1.733 Y-16.055 E17.43355
G1 X3.988 Y-14.508 E17.55634
G1 X6.29 Y-13.022 E17.67936
G1 X8.603 Y-11.622 E17.80076
M204 S3000
G0 F750 X8.419 Y-11.266
M204 S1500
G1 F300 X10.777 Y-9.927 E17.92252
G1 X14.013 Y-8.228 E18.08663
G1 X14.973 Y-7.745 E18.13488
G1 X15.451 Y-7.452 E18.16006
G1 X15.915 Y-7.11 E18.18594
G1 X17.26 Y-6.09 E18.26173
G1 X19.823 Y-4.261 E18.40311
G1 X20.192 Y-3.961 E18.42447
G1 X20.528 Y-3.583 E18.44718
G1 X20.801 Y-3.157 E18.46989
G1 X21.003 Y-2.694 E18.49258
G1 X21.13 Y-2.205 E18.51526
G1 X21.182 Y-1.674 E18.53922
G1 X21.194 Y-1.03 E18.56814
G1 X21.188 Y-.516 E18.59122
G1 X21.176 Y-.206 E18.60515
G1 X21.109 Y0.329 E18.62936
G1 X20.859 Y1.515 E18.68378
G1 X20.729 Y2.089 E18.71021
G1 X20.207 Y4.754 E18.83214
G1 X20.053 Y5.633 E18.87221
G1 X19.871 Y6.369 E18.90626
G1 X19.625 Y7.012 E18.93717
G1 X19.413 Y7.509 E18.96143
G1 X19.266 Y7.834 E18.97745
G1 X18.991 Y8.319 E19.00248
G1 X18.296 Y9.329 E19.05753
G1 X17.987 Y9.767 E19.0816
G1 X16.483 Y12.031 E19.20364
G1 X16.08 Y12.668 E19.23749
G1 X15.596 Y13.351 E19.27507
G1 X15.368 Y13.606 E19.29043
G1 X14.891 Y14.091 E19.32098
G1 X14.418 Y14.538 E19.3502
G1 X13.993 Y14.87 E19.37441
G1 X13.065 Y15.475 E19.42415
G1 X12.461 Y15.857 E19.45624
G1 X10.214 Y17.391 E19.57841
G1 X9.28 Y18.019 E19.62894
G1 X8.744 Y18.314 E19.65641
G1 X8.148 Y18.574 E19.68561
G1 X7.662 Y18.769 E19.70912
G1 X7.156 Y18.946 E19.73319
G1 X6.848 Y19.02 E19.74742
G1 X5.757 Y19.224 E19.79725
G1 X5.068 Y19.343 E19.82865
G1 X2.394 Y19.884 E19.95115
G1 X1.695 Y20.042 E19.98332
G1 X0.828 Y20.183 E20.02276
G1 X0.036 Y20.203 E20.05834
G1 X-.504 Y20.195 E20.08259
G1 X-.798 Y20.183 E20.0958
G1 X-1.33 Y20.117 E20.11987
G1 X-2.576 Y19.853 E20.17706
G1 X-3.13 Y19.729 E20.20255
G1 X-5.843 Y19.199 E20.32667
G1 X-6.591 Y19.069 E20.36076
G1 X-7.317 Y18.895 E20.39428
G1 X-8.069 Y18.608 E20.43042
G1 X-8.575 Y18.389 E20.45518
G1 X-8.845 Y18.264 E20.46854
G1 X-9.313 Y17.998 E20.49271
G1 X-10.248 Y17.355 E20.54366
G1 X-10.646 Y17.073 E20.56556
G1 X-12.908 Y15.565 E20.68763
G1 X-13.825 Y14.983 E20.7364
G1 X-14.364 Y14.58 E20.76662
G1 X-14.891 Y14.09 E20.79893
G1 X-15.323 Y13.649 E20.82665
G1 X-15.531 Y13.426 E20.84034
G1 X-15.867 Y12.994 E20.86491
G1 X-16.491 Y12.031 E20.91644
G1 X-16.696 Y11.705 E20.93373
G1 X-18.213 Y9.436 E21.05628
G1 X-18.716 Y8.722 E21.0955
G1 X-19.003 Y8.3 E21.11841
G1 X-19.328 Y7.705 E21.14885
G1 X-19.383 Y7.581 E21.15494
G1 X-19.617 Y7.03 E21.18182
G1 X-19.868 Y6.375 E21.21332
G1 X-20.011 Y5.857 E21.23745
G1 X-20.207 Y4.802 E21.28563
G1 X-20.32 Y4.148 E21.31543
G1 X-20.856 Y1.482 E21.43753
G1 X-21.059 Y0.579 E21.47909
G1 X-21.172 Y-.14 E21.51177
G1 X-21.194 Y-.951 E21.5482
G1 X-21.187 Y-1.477 E21.57182
G1 X-21.177 Y-1.757 E21.5844
G1 X-21.11 Y-2.303 E21.6091
G1 X-20.853 Y-3.524 E21.66512
G1 X-20.724 Y-4.095 E21.69141
G1 X-20.206 Y-6.74 E21.81243
G1 X-20.052 Y-7.618 E21.85245
G1 X-19.871 Y-8.349 E21.88627
G1 X-19.621 Y-9.005 E21.91779
G1 X-19.381 Y-9.561 E21.94498
G1 X-19.263 Y-9.818 E21.95768
G1 X-19.017 Y-10.26 E21.98039
G1 X-18.587 Y-10.776 E22.01055
G1 X-17.676 Y-11.663 E22.06764
G1 X-17.479 Y-11.849 E22.07981
G1 X-15.539 Y-13.791 E22.20306
G1 X-13.63 Y-15.811 E22.32786
G1 X-12.494 Y-17.071 E22.40403
G1 X-11.687 Y-17.982 E22.45868
G1 X-11.204 Y-18.467 E22.48941
G1 X-10.676 Y-18.898 E22.52001
G1 X-10.385 Y-19.094 E22.53577
G1 X-9.877 Y-19.397 E22.56233
G1 X-9.3 Y-19.678 E22.59114
G1 X-8.772 Y-19.873 E22.61642
