;FLAVOR:Marlin
;TIME:1339
;Filament used: 0.882338m
;Layer height: 0.2
;MINX:-22.394
;MINY:-21.398
;MINZ:0.3
;MAXX:22.394
;MAXY:21.403
;MAXZ:5.9
;Generated with Cura_SteamEngine 4.10.0
M104 S190
M105
M109 S190
M82 ;absolute extrusion mode
G21        ;metric values
G90        ;absolute positioning
M107       ;start with the fan off
G28   ;move to endstops

;Z-Offset Reset und dann Z +0,1 für PLA
;MacroZOffset0
;MacroZOffsetPlus0100

G92 E0                  ;zero the extruded length
G1 F200 E3              ;extrude 3mm of feed stock
G92 E0                  ;zero the extruded length again
G1 F150.0
;Put printing message on LCD screen
M117 Printing...
G92 E0
G92 E0
G1 F2400 E-6
;LAYER_COUNT:30
;LAYER:0
M107
M204 S3000
G0 F750 X-8.412 Y-12.658 Z0.3
M204 S1500
;TYPE:SKIRT
G1 F2400 E0
G1 F300 X-6.097 Y-14.083 E0.12206
G1 X-3.85 Y-15.556 E0.2427
G1 X-1.614 Y-17.114 E0.36507
G1 X0.548 Y-18.713 E0.48581
G1 X1.902 Y-19.764 E0.56277
G1 X2.579 Y-20.228 E0.59962
G1 X3.042 Y-20.493 E0.62358
G1 X3.665 Y-20.786 E0.65449
G1 X4.23 Y-20.998 E0.68159
G1 X4.791 Y-21.161 E0.70782
G1 X5.305 Y-21.272 E0.73143
G1 X5.918 Y-21.359 E0.75923
G1 X6.485 Y-21.395 E0.78474
G1 X6.744 Y-21.398 E0.79637
G1 X7.308 Y-21.375 E0.82172
G1 X7.882 Y-21.311 E0.84765
G1 X8.517 Y-21.189 E0.87668
G1 X9.224 Y-20.989 E0.90967
G1 X9.724 Y-20.801 E0.93366
G1 X10.307 Y-20.533 E0.96247
G1 X10.699 Y-20.311 E0.9827
G1 X11.187 Y-20 E1.00868
G1 X11.616 Y-19.688 E1.0325
G1 X12.066 Y-19.303 E1.05909
G1 X12.429 Y-18.945 E1.08198
G1 X12.8 Y-18.533 E1.10688
G1 X14.649 Y-16.469 E1.2313
G1 X16.508 Y-14.506 E1.35269
G1 X18.403 Y-12.618 E1.4728
G1 X19.107 Y-11.948 E1.51644
G1 X19.444 Y-11.616 E1.53768
G1 X19.837 Y-11.173 E1.56427
G1 X20.168 Y-10.68 E1.59094
G1 X20.399 Y-10.228 E1.61373
G1 X20.483 Y-10.042 E1.62289
G1 X20.734 Y-9.449 E1.65181
G1 X20.976 Y-8.822 E1.68198
G1 X21.188 Y-8.066 E1.71724
G1 X21.407 Y-6.896 E1.77068
G1 X21.528 Y-6.2 E1.8024
G1 X22.061 Y-3.571 E1.92285
G1 X22.234 Y-2.801 E1.95829
G1 X22.287 Y-2.544 E1.97007
G1 X22.371 Y-1.91 E1.99879
G1 X22.394 Y-1.045 E2.03764
G1 X22.386 Y-.444 E2.06463
G1 X22.373 Y-.138 E2.07838
G1 X22.282 Y0.582 E2.11096
G1 X22.03 Y1.778 E2.16585
G1 X21.904 Y2.334 E2.19144
G1 X21.388 Y4.967 E2.31192
G1 X21.231 Y5.86 E2.35263
G1 X21.179 Y6.126 E2.3648
G1 X20.999 Y6.776 E2.39508
G1 X20.739 Y7.458 E2.42786
G1 X20.515 Y7.983 E2.45348
G1 X20.358 Y8.331 E2.47063
G1 X19.979 Y8.999 E2.50511
G1 X19.277 Y10.02 E2.56075
G1 X18.987 Y10.432 E2.58337
G1 X17.473 Y12.71 E2.70618
G1 X17.082 Y13.328 E2.73902
G1 X16.854 Y13.674 E2.75763
G1 X16.502 Y14.138 E2.78378
G1 X16.225 Y14.445 E2.80234
G1 X15.727 Y14.952 E2.83425
G1 X15.233 Y15.419 E2.86478
G1 X14.648 Y15.875 E2.89808
G1 X13.706 Y16.489 E2.94857
G1 X13.119 Y16.86 E2.97975
G1 X10.883 Y18.386 E3.1013
G1 X9.949 Y19.014 E3.15184
G1 X9.432 Y19.313 E3.17866
G1 X8.62 Y19.677 E3.21861
G1 X8.083 Y19.893 E3.2446
G1 X7.481 Y20.102 E3.27321
G1 X7.069 Y20.2 E3.29223
G1 X5.961 Y20.407 E3.34284
G1 X5.302 Y20.521 E3.37287
G1 X2.605 Y21.066 E3.49642
G1 X1.936 Y21.217 E3.52721
G1 X1.546 Y21.297 E3.54509
G1 X0.89 Y21.381 E3.57478
G1 X0.049 Y21.403 E3.61256
G1 X-.552 Y21.394 E3.63955
G1 X-.846 Y21.382 E3.65276
G1 X-1.578 Y21.291 E3.68588
G1 X-2.838 Y21.024 E3.74371
G1 X-3.4 Y20.898 E3.76957
G1 X-6.006 Y20.389 E3.88879
G1 X-6.822 Y20.247 E3.92598
G1 X-7.113 Y20.19 E3.9393
G1 X-7.711 Y20.028 E3.96712
G1 X-8.515 Y19.722 E4.00574
G1 X-9.08 Y19.478 E4.03338
G1 X-9.35 Y19.353 E4.04674
G1 X-9.992 Y18.987 E4.07992
G1 X-10.942 Y18.334 E4.13168
G1 X-11.308 Y18.074 E4.15184
G1 X-13.561 Y16.572 E4.27342
G1 X-14.468 Y15.997 E4.32164
G1 X-15.106 Y15.523 E4.35733
G1 X-15.73 Y14.948 E4.39543
G1 X-16.181 Y14.488 E4.42435
G1 X-16.412 Y14.241 E4.43954
G1 X-16.874 Y13.646 E4.47336
G1 X-17.507 Y12.669 E4.52563
G1 X-17.69 Y12.377 E4.54111
G1 X-19.217 Y10.094 E4.66443
G1 X-19.708 Y9.396 E4.70275
G1 X-19.995 Y8.974 E4.72567
G1 X-20.329 Y8.394 E4.75572
G1 X-20.487 Y8.051 E4.77268
G1 X-20.731 Y7.477 E4.80068
G1 X-20.994 Y6.789 E4.83375
G1 X-21.19 Y6.077 E4.86691
G1 X-21.407 Y4.915 E4.91999
G1 X-21.531 Y4.205 E4.95235
G1 X-22.061 Y1.59 E5.07216
G1 X-22.235 Y0.816 E5.10778
G1 X-22.288 Y0.558 E5.1196
G1 X-22.37 Y-0.07 E5.14804
G1 X-22.394 Y-.936 E5.18694
G1 X-22.386 Y-1.531 E5.21366
G1 X-22.375 Y-1.819 E5.2266
G1 X-22.312 Y-2.409 E5.25324
G1 X-22.171 Y-2.984 E5.27982
G1 X-21.954 Y-3.536 E5.30646
G1 X-21.664 Y-4.054 E5.33311
G1 X-21.308 Y-4.527 E5.35969
G1 X-20.891 Y-4.949 E5.38633
G1 X-20.269 Y-5.424 E5.42147
G1 X-18.565 Y-6.623 E5.51503
G1 X-16.698 Y-8.01 E5.61946
G1 X-16.199 Y-8.389 E5.6476
G1 X-15.594 Y-8.775 E5.67982
G1 X-15.45 Y-8.85 E5.68711
G1 X-13.125 Y-10.023 E5.80404
G1 X-10.761 Y-11.3 E5.92468
G1 X-8.412 Y-12.658 E6.04651
M204 S3000
G0 F750 X-8.181 Y-12.329
M204 S1500
G1 F300 X-5.889 Y-13.74 E6.16736
G1 X-3.632 Y-15.22 E6.28855
G1 X-1.393 Y-16.781 E6.4111
G1 X0.819 Y-18.417 E6.53464
G1 X2.148 Y-19.448 E6.61016
G1 X2.783 Y-19.884 E6.64475
G1 X3.231 Y-20.14 E6.66792
G1 X3.814 Y-20.415 E6.69686
G1 X4.349 Y-20.616 E6.72252
G1 X4.882 Y-20.772 E6.74746
G1 X5.371 Y-20.877 E6.76992
G1 X5.952 Y-20.96 E6.79627
G1 X6.49 Y-20.995 E6.82048
G1 X6.749 Y-20.998 E6.83211
G1 X7.285 Y-20.976 E6.8562
G1 X7.829 Y-20.914 E6.88078
G1 X8.434 Y-20.798 E6.90844
G1 X9.103 Y-20.607 E6.93968
G1 X9.575 Y-20.43 E6.96231
G1 X10.124 Y-20.177 E6.98946
G1 X10.484 Y-19.973 E7.00804
G1 X10.972 Y-19.662 E7.03402
G1 X11.57 Y-19.208 E7.06773
G1 X11.961 Y-18.85 E7.09153
G1 X12.379 Y-18.407 E7.11888
G1 X12.502 Y-18.267 E7.12725
G1 X14.36 Y-16.193 E7.25228
G1 X16.219 Y-14.23 E7.37367
G1 X18.15 Y-12.307 E7.49604
G1 X18.826 Y-11.663 E7.53796
G1 X19.163 Y-11.331 E7.5592
G1 X19.537 Y-10.907 E7.58459
G1 X19.96 Y-10.218 E7.62089
G1 X20.115 Y-9.886 E7.63734
G1 X20.363 Y-9.301 E7.66587
G1 X20.602 Y-8.682 E7.69566
G1 X20.794 Y-7.993 E7.72778
G1 X21.013 Y-6.827 E7.78105
G1 X21.134 Y-6.13 E7.81281
G1 X21.67 Y-3.49 E7.93377
G1 X21.843 Y-2.72 E7.96921
G1 X21.896 Y-2.463 E7.98099
G1 X21.971 Y-1.887 E8.00707
G1 X21.994 Y-1.04 E8.04512
G1 X21.986 Y-.461 E8.07112
G1 X21.973 Y-.155 E8.08487
G1 X21.891 Y0.5 E8.11451
G1 X21.64 Y1.69 E8.16912
G1 X21.508 Y2.275 E8.19604
G1 X20.991 Y4.911 E8.31666
G1 X20.839 Y5.783 E8.3564
G1 X20.787 Y6.049 E8.36857
G1 X20.623 Y6.641 E8.39616
G1 X20.368 Y7.31 E8.4283
G1 X20.148 Y7.825 E8.45345
G1 X19.994 Y8.165 E8.47021
G1 X19.65 Y8.773 E8.50157
G1 X18.95 Y9.79 E8.55701
G1 X18.642 Y10.227 E8.58102
G1 X17.169 Y12.443 E8.70049
G1 X16.748 Y13.108 E8.73583
G1 X16.52 Y13.454 E8.75444
G1 X16.2 Y13.876 E8.77822
G1 X15.939 Y14.165 E8.7957
G1 X15.448 Y14.665 E8.82717
G1 X14.962 Y15.125 E8.85722
G1 X14.43 Y15.54 E8.88751
G1 X13.492 Y16.151 E8.93778
G1 X12.915 Y16.516 E8.96843
G1 X10.66 Y18.054 E9.09099
G1 X9.726 Y18.682 E9.14153
G1 X9.256 Y18.954 E9.16591
G1 X8.463 Y19.31 E9.20494
G1 X7.942 Y19.518 E9.23013
G1 X7.373 Y19.717 E9.2572
G1 X6.995 Y19.806 E9.27463
G1 X5.893 Y20.013 E9.32498
G1 X5.22 Y20.129 E9.35565
G1 X2.524 Y20.675 E9.47916
G1 X1.856 Y20.825 E9.5099
G1 X1.466 Y20.905 E9.52777
G1 X0.869 Y20.982 E9.5548
G1 X0.044 Y21.003 E9.59186
G1 X-.536 Y20.995 E9.6179
G1 X-.83 Y20.983 E9.63111
G1 X-1.496 Y20.899 E9.66126
G1 X-2.751 Y20.633 E9.71886
G1 X-3.274 Y20.516 E9.74292
G1 X-5.957 Y19.992 E9.86567
G1 X-6.657 Y19.871 E9.89756
G1 X-7.036 Y19.797 E9.9149
G1 X-7.58 Y19.651 E9.94019
G1 X-8.366 Y19.35 E9.97799
G1 X-8.911 Y19.115 E10.00463
G1 X-9.181 Y18.99 E10.01799
G1 X-9.765 Y18.657 E10.04818
G1 X-10.71 Y18.008 E10.09965
G1 X-11.084 Y17.743 E10.12024
G1 X-13.337 Y16.241 E10.24182
G1 X-14.254 Y15.659 E10.29059
G1 X-14.859 Y15.208 E10.32447
G1 X-15.45 Y14.662 E10.3606
G1 X-15.895 Y14.208 E10.38914
G1 X-16.118 Y13.969 E10.40382
G1 X-16.538 Y13.429 E10.43453
G1 X-17.168 Y12.457 E10.48654
G1 X-17.372 Y12.132 E10.50377
G1 X-18.878 Y9.88 E10.62542
G1 X-19.378 Y9.171 E10.66437
G1 X-19.665 Y8.749 E10.68729
G1 X-19.968 Y8.221 E10.71462
G1 X-20.119 Y7.895 E10.73075
G1 X-20.36 Y7.328 E10.75842
G1 X-20.619 Y6.651 E10.79096
G1 X-20.797 Y6.003 E10.82114
G1 X-21.013 Y4.846 E10.87399
G1 X-21.134 Y4.149 E10.90575
G1 X-21.67 Y1.509 E11.02671
G1 X-21.843 Y0.736 E11.06228
G1 X-21.896 Y0.478 E11.0741
G1 X-21.971 Y-0.093 E11.09996
G1 X-21.994 Y-.941 E11.13805
G1 X-21.986 Y-1.516 E11.16387
G1 X-21.975 Y-1.804 E11.17681
G1 X-21.914 Y-2.366 E11.20219
G1 X-21.774 Y-2.913 E11.22755
G1 X-21.558 Y-3.436 E11.25295
G1 X-21.27 Y-3.923 E11.27836
G1 X-20.917 Y-4.364 E11.30372
G1 X-20.319 Y-4.894 E11.3396
G1 X-19.994 Y-5.128 E11.35758
G1 X-18.361 Y-6.276 E11.44721
G1 X-16.493 Y-7.664 E11.55171
G1 X-15.957 Y-8.071 E11.58193
G1 X-15.407 Y-8.421 E11.6112
G1 X-15.27 Y-8.493 E11.61815
G1 X-12.934 Y-9.672 E11.73564
G1 X-10.577 Y-10.945 E11.85592
G1 X-8.181 Y-12.329 E11.98016
M204 S3000
G0 F750 X-8.003 Y-11.969
M204 S1500
G1 F300 X-5.682 Y-13.399 E12.10257
G1 X-3.365 Y-14.917 E12.22695
G1 X-1.172 Y-16.446 E12.34698
G1 X1.042 Y-18.083 E12.47062
G1 X2.393 Y-19.132 E12.54742
G1 X2.987 Y-19.54 E12.57978
G1 X3.563 Y-19.86 E12.60936
G1 X4.2 Y-20.139 E12.64059
G1 X4.715 Y-20.312 E12.66498
G1 X5.209 Y-20.437 E12.68786
G1 X5.985 Y-20.561 E12.72315
G1 X6.494 Y-20.595 E12.74605
G1 X6.753 Y-20.598 E12.75768
G1 X7.262 Y-20.577 E12.78056
G1 X7.776 Y-20.518 E12.80379
G1 X8.351 Y-20.406 E12.83009
G1 X8.982 Y-20.226 E12.85955
G1 X9.592 Y-19.986 E12.88899
G1 X10.269 Y-19.636 E12.92321
G1 X10.757 Y-19.325 E12.94919
G1 X11.316 Y-18.899 E12.98075
G1 X11.685 Y-18.561 E13.00322
G1 X12.078 Y-18.144 E13.02895
G1 X12.204 Y-18 E13.03754
G1 X14.072 Y-15.914 E13.16327
G1 X15.928 Y-13.955 E13.28444
G1 X17.854 Y-12.037 E13.40648
G1 X18.545 Y-11.379 E13.44933
G1 X18.882 Y-11.047 E13.47057
G1 X19.235 Y-10.643 E13.49466
G1 X19.599 Y-10.044 E13.52613
G1 X19.747 Y-9.729 E13.54176
G1 X19.991 Y-9.153 E13.56985
G1 X20.227 Y-8.542 E13.59926
G1 X20.401 Y-7.919 E13.6283
G1 X20.619 Y-6.759 E13.6813
G1 X20.743 Y-6.047 E13.71375
G1 X21.274 Y-3.427 E13.83378
G1 X21.451 Y-2.639 E13.87004
G1 X21.504 Y-2.382 E13.88183
G1 X21.572 Y-1.864 E13.90529
G1 X21.594 Y-1.035 E13.94252
G1 X21.587 Y-.478 E13.96753
G1 X21.574 Y-.172 E13.98129
G1 X21.5 Y0.417 E14.00794
G1 X21.25 Y1.602 E14.06232
G1 X21.119 Y2.182 E14.08902
G1 X20.596 Y4.854 E14.21127
G1 X20.446 Y5.707 E14.25016
G1 X20.394 Y5.973 E14.26233
G1 X20.247 Y6.505 E14.28711
G1 X19.997 Y7.161 E14.31863
G1 X19.749 Y7.738 E14.34683
G1 X19.63 Y7.999 E14.35971
G1 X19.32 Y8.546 E14.38794
G1 X18.623 Y9.559 E14.44316
G1 X18.336 Y9.966 E14.46552
G1 X16.795 Y12.284 E14.5905
G1 X16.414 Y12.888 E14.62256
G1 X15.898 Y13.613 E14.66252
G1 X15.653 Y13.885 E14.67896
G1 X15.169 Y14.378 E14.70998
G1 X14.69 Y14.832 E14.73961
G1 X14.211 Y15.205 E14.76687
G1 X13.279 Y15.813 E14.81684
G1 X12.685 Y16.189 E14.8484
G1 X10.437 Y17.722 E14.97058
G1 X9.503 Y18.35 E15.02111
G1 X8.921 Y18.673 E15.051
G1 X8.305 Y18.942 E15.08118
G1 X7.802 Y19.144 E15.10552
G1 X7.265 Y19.332 E15.13107
G1 X6.922 Y19.413 E15.14689
G1 X5.825 Y19.619 E15.19701
G1 X5.111 Y19.742 E15.22954
G1 X2.484 Y20.274 E15.34989
G1 X1.775 Y20.434 E15.38253
G1 X1.385 Y20.514 E15.4004
G1 X0.849 Y20.582 E15.42466
G1 X0.04 Y20.603 E15.461
G1 X-.52 Y20.595 E15.48615
G1 X-.814 Y20.583 E15.49936
G1 X-1.413 Y20.508 E15.52646
G1 X-2.663 Y20.243 E15.58384
G1 X-3.215 Y20.119 E15.60924
G1 X-5.9 Y19.595 E15.73208
G1 X-6.668 Y19.462 E15.76707
G1 X-6.959 Y19.405 E15.78039
G1 X-7.448 Y19.273 E15.80313
G1 X-8.217 Y18.979 E15.8401
G1 X-8.743 Y18.752 E15.86582
G1 X-9.013 Y18.627 E15.87918
G1 X-9.539 Y18.328 E15.90635
G1 X-10.479 Y17.681 E15.95758
G1 X-10.853 Y17.416 E15.97817
G1 X-13.132 Y15.896 E16.10117
G1 X-14.039 Y15.321 E16.14939
G1 X-14.611 Y14.894 E16.18144
G1 X-15.171 Y14.376 E16.21569
G1 X-15.609 Y13.929 E16.24379
G1 X-15.825 Y13.698 E16.25799
G1 X-16.203 Y13.211 E16.28567
G1 X-16.83 Y12.244 E16.33742
G1 X-17.035 Y11.918 E16.35471
G1 X-18.557 Y9.641 E16.47769
G1 X-19.047 Y8.947 E16.51583
G1 X-19.334 Y8.525 E16.53875
G1 X-19.607 Y8.049 E16.56339
G1 X-19.751 Y7.738 E16.57878
G1 X-19.989 Y7.179 E16.60606
G1 X-20.244 Y6.513 E16.63808
G1 X-20.404 Y5.93 E16.66522
G1 X-20.619 Y4.778 E16.71784
G1 X-20.743 Y4.066 E16.75029
G1 X-21.274 Y1.446 E16.87033
G1 X-21.451 Y0.655 E16.90672
G1 X-21.504 Y0.397 E16.91855
G1 X-21.572 Y-.117 E16.94183
G1 X-21.594 Y-.946 E16.97906
G1 X-21.586 Y-1.5 E17.00394
G1 X-21.575 Y-1.788 E17.01688
G1 X-21.515 Y-2.321 E17.04097
G1 X-21.376 Y-2.839 E17.06505
G1 X-21.162 Y-3.331 E17.08914
G1 X-20.877 Y-3.785 E17.11321
G1 X-20.528 Y-4.192 E17.13728
G1 X-20.085 Y-4.57 E17.16343
G1 X-19.764 Y-4.801 E17.18119
G1 X-18.132 Y-5.948 E17.27075
G1 X-16.221 Y-7.368 E17.37765
G1 X-15.715 Y-7.752 E17.40618
G1 X-15.22 Y-8.068 E17.43255
G1 X-15.09 Y-8.136 E17.43913
G1 X-12.742 Y-9.321 E17.55723
G1 X-10.366 Y-10.604 E17.67847
G1 X-8.003 Y-11.969 E17.801
M204 S3000
G0 F750 X-7.789 Y-11.632
M204 S1500
G1 F300 X-5.443 Y-13.076 E17.9247
G1 X-3.18 Y-14.56 E18.04621
G1 X-.935 Y-16.124 E18.16906
G1 X1.291 Y-17.771 E18.29339
G1 X2.638 Y-18.816 E18.36994
G1 X3.191 Y-19.196 E18.40007
G1 X3.735 Y-19.499 E18.42803
G1 X4.349 Y-19.768 E18.45813
G1 X4.834 Y-19.93 E18.48109
G1 X5.502 Y-20.088 E18.51191
G1 X6.018 Y-20.163 E18.53532
G1 X6.758 Y-20.198 E18.56859
G1 X7.476 Y-20.155 E18.60088
G1 X8.268 Y-20.015 E18.637
G1 X8.861 Y-19.845 E18.6647
G1 X9.424 Y-19.624 E18.69185
G1 X10.054 Y-19.299 E18.72368
G1 X10.542 Y-18.988 E18.74967
G1 X11.062 Y-18.59 E18.77907
G1 X11.548 Y-18.13 E18.80912
G1 X11.906 Y-17.733 E18.83312
G1 X13.767 Y-15.655 E18.95837
G1 X15.656 Y-13.661 E19.0817
G1 X17.578 Y-11.747 E19.2035
G1 X18.265 Y-11.094 E19.24605
G1 X18.602 Y-10.762 E19.2673
G1 X18.933 Y-10.379 E19.29002
G1 X19.239 Y-9.871 E19.31665
G1 X19.379 Y-9.572 E19.33148
G1 X19.62 Y-9.004 E19.35918
G1 X19.853 Y-8.401 E19.38821
G1 X20.008 Y-7.845 E19.41413
G1 X20.225 Y-6.69 E19.46689
G1 X20.349 Y-5.977 E19.49939
G1 X20.893 Y-3.295 E19.62227
G1 X21.059 Y-2.558 E19.65619
G1 X21.173 Y-1.841 E19.68879
G1 X21.194 Y-1.03 E19.72521
G1 X21.187 Y-.495 E19.74924
G1 X21.174 Y-.189 E19.76299
G1 X21.108 Y0.335 E19.7867
G1 X20.859 Y1.514 E19.84081
G1 X20.729 Y2.088 E19.86724
G1 X20.207 Y4.753 E19.98917
G1 X20.054 Y5.63 E20.02914
G1 X19.871 Y6.369 E20.06333
G1 X19.625 Y7.012 E20.09424
G1 X19.413 Y7.509 E20.1185
G1 X19.266 Y7.834 E20.13452
G1 X18.991 Y8.319 E20.15955
G1 X18.296 Y9.329 E20.2146
G1 X17.987 Y9.767 E20.23867
G1 X16.483 Y12.031 E20.36071
G1 X16.08 Y12.668 E20.39456
G1 X15.596 Y13.351 E20.43215
G1 X15.368 Y13.606 E20.4475
G1 X14.891 Y14.091 E20.47805
G1 X14.418 Y14.538 E20.50727
G1 X13.993 Y14.87 E20.53149
G1 X13.065 Y15.475 E20.58123
G1 X12.461 Y15.857 E20.61332
G1 X10.214 Y17.391 E20.73548
G1 X9.28 Y18.019 E20.78601
G1 X8.744 Y18.314 E20.81349
G1 X8.148 Y18.574 E20.84268
G1 X7.662 Y18.769 E20.8662
G1 X7.156 Y18.946 E20.89027
G1 X6.848 Y19.02 E20.90449
G1 X5.757 Y19.224 E20.95433
G1 X5.068 Y19.343 E20.98572
G1 X2.394 Y19.884 E21.10822
G1 X1.695 Y20.042 E21.1404
G1 X0.828 Y20.183 E21.17984
G1 X0.036 Y20.203 E21.21541
G1 X-.504 Y20.195 E21.23966
G1 X-.798 Y20.183 E21.25287
G1 X-1.33 Y20.117 E21.27694
G1 X-2.576 Y19.853 E21.33413
G1 X-3.13 Y19.729 E21.35962
G1 X-5.843 Y19.199 E21.48374
G1 X-6.591 Y19.069 E21.51783
G1 X-7.317 Y18.895 E21.55135
G1 X-8.069 Y18.608 E21.58749
G1 X-8.575 Y18.389 E21.61225
G1 X-8.845 Y18.264 E21.62561
G1 X-9.313 Y17.998 E21.64978
G1 X-10.248 Y17.355 E21.70073
G1 X-10.646 Y17.073 E21.72263
G1 X-12.908 Y15.565 E21.8447
G1 X-13.825 Y14.983 E21.89347
G1 X-14.364 Y14.58 E21.92369
G1 X-14.891 Y14.09 E21.956
G1 X-15.323 Y13.649 E21.98372
G1 X-15.531 Y13.426 E21.99741
G1 X-15.867 Y12.994 E22.02198
G1 X-16.491 Y12.031 E22.07351
G1 X-16.696 Y11.705 E22.0908
G1 X-18.213 Y9.436 E22.21335
G1 X-18.716 Y8.722 E22.25257
G1 X-19.003 Y8.3 E22.27548
G1 X-19.328 Y7.705 E22.30593
G1 X-19.383 Y7.581 E22.31202
G1 X-19.617 Y7.03 E22.3389
G1 X-19.868 Y6.375 E22.37039
G1 X-20.011 Y5.857 E22.39452
G1 X-20.225 Y4.709 E22.44696
G1 X-20.349 Y3.996 E22.47945
G1 X-20.893 Y1.314 E22.60233
G1 X-21.06 Y0.575 E22.63635
G1 X-21.173 Y-.14 E22.66885
G1 X-21.194 Y-.951 E22.70528
G1 X-21.187 Y-1.485 E22.72926
G1 X-21.176 Y-1.773 E22.7422
G1 X-21.117 Y-2.275 E22.76489
G1 X-20.979 Y-2.762 E22.78762
G1 X-20.767 Y-3.221 E22.81032
