;FLAVOR:Marlin
;TIME:5485
;Filament used: 4.707m
;Layer height: 0.2
;MINX:-25.35
;MINY:-22.925
;MINZ:0.3
;MAXX:25.35
;MAXY:32.275
;MAXZ:29.9
;Generated with Cura_SteamEngine 4.10.0
M140 S90
M105
M190 S90
M104 S230
M105
M109 S230
M82 ;absolute extrusion mode
G21        ;metric values
G90        ;absolute positioning
M107       ;start with the fan off
G28   ;move to endstops

;Z-Offset Reset und dann Z +0,1 für PLA
;MacroZOffset0
;MacroZOffsetPlus0100

G92 E0                  ;zero the extruded length
G1 F200 E3              ;extrude 3mm of feed stock
G92 E0                  ;zero the extruded length again
G1 F120
;Put printing message on LCD screen
M117 Printing...
G92 E0
G92 E0
G1 F2400 E-2
;LAYER_COUNT:150
;LAYER:0
M107
G0 F1800 X-14.258 Y-22.925 Z0.3
;TYPE:SKIRT
G1 F2400 E0
G1 F600 X14.61 Y-22.925 E1.50504
G1 X15.472 Y-22.913 E1.54999
G1 X15.998 Y-22.886 E1.57744
G1 X16.813 Y-22.792 E1.62022
G1 X17.59 Y-22.64 E1.66149
G1 X18.335 Y-22.432 E1.70182
G1 X18.816 Y-22.264 E1.72838
G1 X19.33 Y-22.055 E1.75731
G1 X19.821 Y-21.819 E1.78571
G1 X20.576 Y-21.395 E1.83086
G1 X21.131 Y-21.022 E1.86572
G1 X21.729 Y-20.558 E1.90518
G1 X22.311 Y-20.031 E1.94611
G1 X22.826 Y-19.487 E1.98517
G1 X23.165 Y-19.082 E2.0127
G1 X23.49 Y-18.648 E2.04097
G1 X23.853 Y-18.098 E2.07533
G1 X24.159 Y-17.563 E2.10746
G1 X24.384 Y-17.115 E2.1336
G1 X24.617 Y-16.575 E2.16426
G1 X24.845 Y-15.949 E2.19899
G1 X25.02 Y-15.348 E2.23163
G1 X25.134 Y-14.859 E2.25781
G1 X25.247 Y-14.187 E2.29333
G1 X25.32 Y-13.38 E2.33558
G1 X25.35 Y-11.833 E2.41625
G1 X25.35 Y21.498 E4.15397
G1 X25.338 Y22.393 E4.20063
G1 X25.313 Y22.907 E4.22746
G1 X25.212 Y23.776 E4.27307
G1 X25.069 Y24.506 E4.31185
G1 X24.853 Y25.275 E4.3535
G1 X24.584 Y26.01 E4.3943
G1 X24.264 Y26.71 E4.43443
G1 X24.028 Y27.153 E4.4606
G1 X23.727 Y27.649 E4.49085
G1 X23.43 Y28.08 E4.51814
G1 X22.997 Y28.639 E4.555
G1 X22.652 Y29.031 E4.58223
G1 X22.25 Y29.442 E4.6122
G1 X21.809 Y29.843 E4.64327
G1 X21.285 Y30.262 E4.67825
G1 X20.566 Y30.752 E4.72362
G1 X19.975 Y31.091 E4.75914
G1 X19.255 Y31.437 E4.80078
G1 X18.541 Y31.715 E4.84073
G1 X18.031 Y31.875 E4.8686
G1 X17.468 Y32.019 E4.89889
G1 X16.842 Y32.139 E4.93212
G1 X16.12 Y32.227 E4.97004
G1 X15.78 Y32.247 E4.9878
G1 X14.266 Y32.275 E5.06675
G1 X-14.331 Y32.274 E6.55766
G1 X-15.858 Y32.242 E6.63729
G1 X-16.388 Y32.2 E6.66501
G1 X-16.989 Y32.115 E6.69665
G1 X-17.591 Y31.991 E6.7287
G1 X-18.343 Y31.781 E6.7694
G1 X-18.817 Y31.615 E6.79558
G1 X-19.343 Y31.4 E6.82521
G1 X-19.827 Y31.167 E6.85322
G1 X-20.576 Y30.746 E6.89801
G1 X-21.144 Y30.363 E6.93373
G1 X-21.732 Y29.907 E6.97252
G1 X-22.311 Y29.382 E7.01327
G1 X-22.836 Y28.827 E7.0531
G1 X-23.17 Y28.427 E7.08027
G1 X-23.486 Y28.005 E7.10775
G1 X-23.782 Y27.56 E7.13562
G1 X-24.167 Y26.897 E7.17559
G1 X-24.509 Y26.187 E7.21667
G1 X-24.8 Y25.433 E7.25881
G1 X-25.025 Y24.68 E7.29978
G1 X-25.144 Y24.153 E7.32795
G1 X-25.264 Y23.414 E7.36698
G1 X-25.32 Y22.725 E7.40302
G1 X-25.35 Y21.164 E7.48442
G1 X-25.349 Y-11.887 E9.20754
G1 X-25.317 Y-13.42 E9.28748
G1 X-25.262 Y-14.068 E9.32139
G1 X-25.189 Y-14.567 E9.34768
G1 X-25.065 Y-15.163 E9.37942
G1 X-24.854 Y-15.923 E9.42054
G1 X-24.585 Y-16.659 E9.46139
G1 X-24.373 Y-17.135 E9.48856
G1 X-24.112 Y-17.651 E9.51871
G1 X-23.818 Y-18.154 E9.54908
G1 X-23.427 Y-18.734 E9.58555
G1 X-22.998 Y-19.287 E9.62204
G1 X-22.653 Y-19.681 E9.64934
G1 X-22.235 Y-20.106 E9.68042
G1 X-21.794 Y-20.504 E9.71139
G1 X-21.268 Y-20.923 E9.74645
G1 X-20.634 Y-21.358 E9.78654
G1 X-19.956 Y-21.75 E9.82737
G1 X-19.248 Y-22.089 E9.86829
G1 X-18.546 Y-22.363 E9.90758
G1 X-18.025 Y-22.526 E9.93604
G1 X-17.492 Y-22.663 E9.96473
G1 X-16.99 Y-22.763 E9.99142
G1 X-16.476 Y-22.839 E10.01851
G1 X-15.798 Y-22.895 E10.05398
G1 X-14.258 Y-22.925 E10.13428
G0 F1800 X-14.258 Y-22.485
G1 F600 X14.604 Y-22.485 E11.63901
G1 X15.466 Y-22.473 E11.68395
G1 X15.973 Y-22.447 E11.71042
G1 X16.754 Y-22.356 E11.75141
G1 X17.496 Y-22.21 E11.79084
G1 X18.209 Y-22.011 E11.82943
G1 X18.93 Y-21.747 E11.86946
G1 X19.627 Y-21.424 E11.90951
G1 X20.353 Y-21.016 E11.95293
G1 X20.879 Y-20.661 E11.98602
G1 X21.452 Y-20.216 E12.02384
G1 X22.007 Y-19.713 E12.06289
G1 X22.499 Y-19.193 E12.10021
G1 X22.993 Y-18.582 E12.14118
G1 X23.399 Y-17.992 E12.17851
G1 X23.774 Y-17.349 E12.21732
G1 X24.093 Y-16.687 E12.25563
G1 X24.372 Y-15.973 E12.2956
G1 X24.596 Y-15.231 E12.33601
G1 X24.757 Y-14.485 E12.3758
G1 X24.86 Y-13.689 E12.41764
G1 X24.88 Y-13.371 E12.43425
G1 X24.91 Y-11.833 E12.51445
G1 X24.91 Y21.492 E14.25186
G1 X24.898 Y22.387 E14.29853
G1 X24.867 Y22.977 E14.32933
G1 X24.776 Y23.715 E14.3681
G1 X24.639 Y24.411 E14.40508
G1 X24.433 Y25.146 E14.44487
G1 X24.175 Y25.848 E14.48387
G1 X23.868 Y26.517 E14.52224
G1 X23.503 Y27.177 E14.56156
G1 X23.07 Y27.827 E14.60228
G1 X22.656 Y28.362 E14.63755
G1 X22.141 Y28.929 E14.67748
G1 X21.611 Y29.431 E14.71554
G1 X21.017 Y29.913 E14.75542
G1 X20.327 Y30.383 E14.79895
G1 X19.763 Y30.705 E14.83281
G1 X19.074 Y31.036 E14.87266
G1 X18.393 Y31.301 E14.91076
G1 X17.634 Y31.526 E14.95203
G1 X16.914 Y31.681 E14.99043
G1 X16.075 Y31.789 E15.03453
G1 X15.772 Y31.807 E15.05036
G1 X14.266 Y31.835 E15.12888
G1 X-14.322 Y31.834 E16.61933
G1 X-15.849 Y31.802 E16.69896
G1 X-16.449 Y31.75 E16.73035
G1 X-17.027 Y31.661 E16.76084
G1 X-17.629 Y31.529 E16.79297
G1 X-18.215 Y31.36 E16.82477
G1 X-18.931 Y31.098 E16.86452
G1 X-19.633 Y30.772 E16.90487
G1 X-20.353 Y30.367 E16.94794
G1 X-20.892 Y30.003 E16.98185
G1 X-21.455 Y29.565 E17.01904
G1 X-22.007 Y29.064 E17.0579
G1 X-22.51 Y28.533 E17.09604
G1 X-23.002 Y27.921 E17.13697
G1 X-23.414 Y27.319 E17.17501
G1 X-23.781 Y26.686 E17.21315
G1 X-24.108 Y26.006 E17.25249
G1 X-24.386 Y25.285 E17.29278
G1 X-24.601 Y24.563 E17.33205
G1 X-24.711 Y24.073 E17.35824
G1 X-24.826 Y23.369 E17.39543
G1 X-24.88 Y22.717 E17.42953
G1 X-24.91 Y21.164 E17.51052
G1 X-24.909 Y-11.877 E19.23312
G1 X-24.877 Y-13.41 E19.31306
G1 X-24.826 Y-14.007 E19.3443
G1 X-24.743 Y-14.565 E19.37371
G1 X-24.636 Y-15.068 E19.40052
G1 X-24.433 Y-15.794 E19.43982
G1 X-24.175 Y-16.499 E19.47896
G1 X-23.844 Y-17.212 E19.51994
G1 X-23.498 Y-17.834 E19.55705
G1 X-23.067 Y-18.48 E19.59754
G1 X-22.656 Y-19.01 E19.6325
G1 X-22.143 Y-19.578 E19.67241
G1 X-21.591 Y-20.097 E19.71191
G1 X-21 Y-20.574 E19.7515
G1 X-20.393 Y-20.99 E19.78987
G1 X-19.745 Y-21.364 E19.82887
G1 X-19.068 Y-21.687 E19.86798
G1 X-18.397 Y-21.949 E19.90554
G1 X-17.911 Y-22.101 E19.93208
G1 X-17.388 Y-22.235 E19.96023
G1 X-16.771 Y-22.354 E19.99299
G1 X-16.093 Y-22.437 E20.0286
G1 X-15.789 Y-22.455 E20.04448
G1 X-14.258 Y-22.485 E20.12432
G0 F1800 X-14.258 Y-22.045
G1 F600 X14.598 Y-22.045 E21.62873
G1 X15.46 Y-22.033 E21.67368
G1 X16.09 Y-21.996 E21.70658
G1 X16.694 Y-21.92 E21.73832
G1 X17.402 Y-21.78 E21.77594
G1 X18.082 Y-21.589 E21.81277
G1 X18.769 Y-21.337 E21.85092
G1 X19.433 Y-21.029 E21.88908
G1 X20.129 Y-20.637 E21.93072
G1 X20.627 Y-20.301 E21.96204
G1 X21.175 Y-19.874 E21.99826
G1 X21.703 Y-19.395 E22.03543
G1 X22.173 Y-18.898 E22.07109
G1 X22.644 Y-18.315 E22.11017
G1 X23.032 Y-17.75 E22.1459
G1 X23.389 Y-17.136 E22.18293
G1 X23.692 Y-16.507 E22.21933
G1 X23.959 Y-15.822 E22.25766
G1 X24.172 Y-15.115 E22.29615
G1 X24.324 Y-14.404 E22.33406
G1 X24.423 Y-13.642 E22.37412
G1 X24.44 Y-13.363 E22.38869
G1 X24.47 Y-11.833 E22.46848
G1 X24.47 Y21.486 E24.20557
G1 X24.458 Y22.381 E24.25224
G1 X24.428 Y22.941 E24.28147
G1 X24.341 Y23.654 E24.31892
G1 X24.209 Y24.317 E24.35417
G1 X24.012 Y25.017 E24.39208
G1 X23.766 Y25.686 E24.42924
G1 X23.473 Y26.324 E24.46584
G1 X23.124 Y26.954 E24.50339
G1 X22.71 Y27.574 E24.54226
G1 X22.314 Y28.084 E24.57592
G1 X21.823 Y28.625 E24.61401
G1 X21.316 Y29.105 E24.65041
G1 X20.748 Y29.564 E24.68848
G1 X20.087 Y30.014 E24.73017
G1 X19.55 Y30.32 E24.7624
G1 X18.893 Y30.635 E24.80038
G1 X18.244 Y30.887 E24.83668
G1 X17.52 Y31.101 E24.87604
G1 X16.831 Y31.249 E24.91278
G1 X16.031 Y31.351 E24.95483
G1 X15.763 Y31.367 E24.96882
G1 X14.266 Y31.395 E25.04688
G1 X-14.312 Y31.394 E26.5368
G1 X-15.839 Y31.362 E26.61643
G1 X-16.389 Y31.314 E26.64522
G1 X-16.949 Y31.228 E26.67475
G1 X-17.519 Y31.103 E26.70518
G1 X-18.088 Y30.939 E26.73605
G1 X-18.77 Y30.688 E26.77394
G1 X-19.439 Y30.377 E26.8124
G1 X-20.129 Y29.988 E26.8537
G1 X-20.64 Y29.642 E26.88587
G1 X-21.177 Y29.224 E26.92135
G1 X-21.703 Y28.746 E26.9584
G1 X-22.183 Y28.238 E26.99484
G1 X-22.652 Y27.655 E27.03385
G1 X-23.046 Y27.078 E27.07028
G1 X-23.395 Y26.474 E27.10665
G1 X-23.706 Y25.825 E27.14417
G1 X-23.971 Y25.137 E27.1826
G1 X-24.177 Y24.446 E27.2202
G1 X-24.33 Y23.712 E27.25929
G1 X-24.424 Y22.972 E27.29818
G1 X-24.44 Y22.708 E27.31196
G1 X-24.47 Y21.164 E27.39248
G1 X-24.469 Y-11.868 E29.11461
G1 X-24.437 Y-13.401 E29.19455
G1 X-24.391 Y-13.945 E29.22301
G1 X-24.309 Y-14.489 E29.25169
G1 X-24.185 Y-15.063 E29.28231
G1 X-24.012 Y-15.665 E29.31497
G1 X-23.766 Y-16.339 E29.35237
G1 X-23.45 Y-17.018 E29.39142
G1 X-23.119 Y-17.61 E29.42678
G1 X-22.707 Y-18.227 E29.46546
G1 X-22.314 Y-18.733 E29.49886
G1 X-21.824 Y-19.274 E29.53692
G1 X-21.297 Y-19.77 E29.57465
G1 X-20.732 Y-20.225 E29.61247
G1 X-20.151 Y-20.623 E29.64918
G1 X-19.534 Y-20.978 E29.68629
G1 X-18.887 Y-21.286 E29.72365
G1 X-18.248 Y-21.535 E29.75941
G1 X-17.513 Y-21.752 E29.79936
G1 X-16.826 Y-21.899 E29.83599
G1 X-16.048 Y-21.999 E29.87688
G1 X-15.78 Y-22.015 E29.89088
G1 X-14.258 Y-22.045 E29.97025
G1 F2400 E27.97025
;MESH:GoPro-ZipTie-Mount3.stl
G0 F1800 X-14.258 Y-19.49
G0 X-14.258 Y-18.145
G0 X20.084 Y-13.612
;TYPE:WALL-INNER
G1 F2400 E29.97025
G1 F600 X20.15 Y-12.756 E30.01501
G1 X20.15 Y22.136 E31.83411
G1 X20.082 Y22.981 E31.87831
G1 X19.896 Y23.727 E31.91839
G1 X19.599 Y24.429 E31.95813
G1 X19.2 Y25.069 E31.99745
G1 X18.702 Y25.648 E32.03727
G1 X18.122 Y26.143 E32.07702
G1 X17.495 Y26.53 E32.11543
G1 X16.8 Y26.823 E32.15476
G1 X16.038 Y27.009 E32.19565
G1 X15.182 Y27.075 E32.24041
G1 X-15.212 Y27.075 E33.82501
G1 X-16.059 Y27.007 E33.86931
G1 X-16.8 Y26.824 E33.9091
G1 X-17.499 Y26.527 E33.9487
G1 X-18.151 Y26.121 E33.98874
G1 X-18.726 Y25.624 E34.02837
G1 X-19.205 Y25.064 E34.06679
G1 X-19.602 Y24.422 E34.10614
G1 X-19.901 Y23.712 E34.1463
G1 X-20.084 Y22.961 E34.1866
G1 X-20.15 Y22.106 E34.23131
G1 X-20.15 Y-12.777 E36.04995
G1 X-20.081 Y-13.634 E36.09477
G1 X-19.894 Y-14.386 E36.13517
G1 X-19.601 Y-15.074 E36.17416
G1 X-19.196 Y-15.725 E36.21413
G1 X-18.706 Y-16.294 E36.25328
G1 X-18.122 Y-16.792 E36.29329
G1 X-17.495 Y-17.179 E36.33171
G1 X-16.799 Y-17.473 E36.3711
G1 X-16.038 Y-17.658 E36.41193
G1 X-15.181 Y-17.725 E36.45674
G1 X15.21 Y-17.725 E38.04119
G1 X16.06 Y-17.655 E38.08565
G1 X16.8 Y-17.473 E38.12538
G1 X17.5 Y-17.176 E38.16502
G1 X18.148 Y-16.772 E38.20484
G1 X18.723 Y-16.276 E38.24443
G1 X19.204 Y-15.714 E38.28299
G1 X19.604 Y-15.068 E38.3226
G1 X19.9 Y-14.365 E38.36237
G1 X20.084 Y-13.612 E38.40278
G0 F1800 X20.521 Y-13.678
G1 F600 X20.59 Y-12.777 E38.4499
G1 X20.59 Y22.159 E40.27129
G1 X20.518 Y23.05 E40.3179
G1 X20.315 Y23.867 E40.36179
G1 X19.99 Y24.633 E40.40517
G1 X19.555 Y25.332 E40.44809
G1 X19.013 Y25.962 E40.49142
G1 X18.387 Y26.496 E40.53432
G1 X17.697 Y26.922 E40.57659
G1 X16.938 Y27.242 E40.61954
G1 X16.104 Y27.446 E40.6643
G1 X15.203 Y27.515 E40.71141
G1 X-15.235 Y27.515 E42.29831
G1 X-16.126 Y27.443 E42.34491
G1 X-16.941 Y27.242 E42.38867
G1 X-17.706 Y26.917 E42.43201
G1 X-18.411 Y26.478 E42.4753
G1 X-19.036 Y25.938 E42.51837
G1 X-19.563 Y25.322 E42.56063
G1 X-19.995 Y24.624 E42.60343
G1 X-20.321 Y23.848 E42.64731
G1 X-20.52 Y23.031 E42.69115
G1 X-20.59 Y22.127 E42.73842
G1 X-20.59 Y-12.799 E44.5593
G1 X-20.517 Y-13.703 E44.60658
G1 X-20.312 Y-14.527 E44.65085
G1 X-19.992 Y-15.278 E44.69341
G1 X-19.553 Y-15.984 E44.73675
G1 X-19.013 Y-16.611 E44.77989
G1 X-18.387 Y-17.145 E44.82279
G1 X-17.697 Y-17.571 E44.86507
G1 X-16.938 Y-17.891 E44.90801
G1 X-16.103 Y-18.095 E44.95283
G1 X-15.202 Y-18.165 E44.99994
G1 X15.234 Y-18.165 E46.58673
G1 X16.126 Y-18.092 E46.63339
G1 X16.941 Y-17.891 E46.67715
G1 X17.704 Y-17.567 E46.72037
G1 X18.411 Y-17.127 E46.76379
G1 X19.036 Y-16.587 E46.80685
G1 X19.562 Y-15.972 E46.84904
G1 X19.998 Y-15.268 E46.89221
G1 X20.318 Y-14.508 E46.9352
G1 X20.521 Y-13.678 E46.97975
G0 F1800 X20.778 Y-13.723
;TYPE:WALL-OUTER
G1 F600 X20.85 Y-12.784 E47.02885
G1 X20.85 Y22.168 E48.85108
G1 X20.775 Y23.091 E48.89936
G1 X20.562 Y23.951 E48.94555
G1 X20.221 Y24.754 E48.99103
G1 X19.765 Y25.487 E49.03604
G1 X19.197 Y26.147 E49.08144
G1 X18.545 Y26.704 E49.12615
G1 X17.811 Y27.156 E49.17109
G1 X17.019 Y27.49 E49.2159
G1 X16.149 Y27.703 E49.2626
G1 X15.21 Y27.775 E49.3117
G1 X-15.244 Y27.775 E50.89942
G1 X-16.166 Y27.7 E50.94765
G1 X-17.025 Y27.489 E50.99377
G1 X-17.827 Y27.148 E51.0392
G1 X-18.567 Y26.687 E51.08465
G1 X-19.222 Y26.122 E51.12975
G1 X-19.773 Y25.477 E51.17398
G1 X-20.228 Y24.741 E51.21909
G1 X-20.569 Y23.929 E51.26501
G1 X-20.777 Y23.076 E51.31078
G1 X-20.85 Y22.134 E51.36004
G1 X-20.85 Y-12.808 E53.18175
G1 X-20.774 Y-13.744 E53.23071
G1 X-20.56 Y-14.607 E53.27706
G1 X-20.223 Y-15.399 E53.32194
G1 X-19.762 Y-16.139 E53.36739
G1 X-19.197 Y-16.796 E53.41257
G1 X-18.545 Y-17.353 E53.45728
G1 X-17.811 Y-17.805 E53.50222
G1 X-17.019 Y-18.139 E53.54703
G1 X-16.149 Y-18.352 E53.59373
G1 X-15.209 Y-18.425 E53.64288
G1 X15.243 Y-18.425 E55.23051
G1 X16.166 Y-18.349 E55.27879
G1 X17.025 Y-18.138 E55.3249
G1 X17.825 Y-17.798 E55.37022
G1 X18.567 Y-17.336 E55.41579
G1 X19.222 Y-16.771 E55.46089
G1 X19.772 Y-16.127 E55.50504
G1 X20.231 Y-15.386 E55.55049
G1 X20.566 Y-14.589 E55.59556
G1 X20.778 Y-13.723 E55.64204
G0 F1800 X20.808 Y-13.324
G0 X20.45 Y-13.298
G0 X19.66 Y-13.538
;TYPE:SKIN
G1 F600 X19.72 Y-12.756 E55.68293
G1 X19.72 Y22.136 E57.50204
G1 X19.658 Y22.906 E57.54231
G1 X19.488 Y23.588 E57.57895
G1 X19.216 Y24.233 E57.61545
G1 X18.852 Y24.814 E57.65119
G1 X18.398 Y25.342 E57.6875
G1 X17.869 Y25.793 E57.72374
G1 X17.3 Y26.145 E57.75862
G1 X16.662 Y26.414 E57.79472
G1 X15.964 Y26.585 E57.83219
G1 X15.175 Y26.645 E57.87344
G1 X-15.202 Y26.645 E59.45715
G1 X-15.983 Y26.583 E59.498
G1 X-16.671 Y26.413 E59.53495
G1 X-17.296 Y26.147 E59.57036
G1 X-17.897 Y25.773 E59.60726
G1 X-18.416 Y25.324 E59.64304
G1 X-18.855 Y24.81 E59.67828
G1 X-19.221 Y24.219 E59.71453
G1 X-19.492 Y23.574 E59.751
G1 X-19.66 Y22.887 E59.78787
G1 X-19.72 Y22.106 E59.82871
G1 X-19.72 Y-12.777 E61.64735
G1 X-19.656 Y-13.562 E61.68841
G1 X-19.484 Y-14.253 E61.72553
G1 X-19.221 Y-14.872 E61.7606
G1 X-18.851 Y-15.467 E61.79713
G1 X-18.399 Y-15.99 E61.83316
G1 X-17.87 Y-16.442 E61.86944
G1 X-17.297 Y-16.795 E61.90453
G1 X-16.664 Y-17.063 E61.94036
G1 X-15.964 Y-17.234 E61.97793
G1 X-15.174 Y-17.295 E62.01924
G1 X15.199 Y-17.295 E63.60275
G1 X15.984 Y-17.231 E63.64381
G1 X16.666 Y-17.063 E63.68043
G1 X17.303 Y-16.793 E63.7165
G1 X17.89 Y-16.427 E63.75256
G1 X18.42 Y-15.969 E63.78908
G1 X18.852 Y-15.464 E63.82373
G1 X19.22 Y-14.87 E63.86016
G1 X19.49 Y-14.23 E63.89637
G1 X19.66 Y-13.538 E63.93352
G0 F1800 X19.204 Y-14.397
G1 F600 X16.821 Y-16.78 E64.10922
G1 X16.744 Y-16.857
G0 F1800 X15.943 Y-17.035
G1 F600 X19.46 Y-13.519 E64.3685
G0 F1800 X19.514 Y-12.842
G1 F600 X15.267 Y-17.09 E64.68167
G0 F1800 X14.639 Y-17.095
G1 F600 X19.521 Y-12.213 E65.04162
G0 F1800 X19.521 Y-11.59
G1 F600 X14.016 Y-17.095 E65.4475
G0 F1800 X13.394 Y-17.095
G1 F600 X19.521 Y-10.968 E65.89925
G0 F1800 X19.521 Y-10.346
G1 F600 X12.772 Y-17.095 E66.39686
G0 F1800 X12.15 Y-17.095
G1 F600 X19.521 Y-9.724 E66.94032
G0 F1800 X19.521 Y-9.101
G1 F600 X11.527 Y-17.095 E67.52972
G0 F1800 X10.905 Y-17.095
G1 F600 X19.521 Y-8.479 E68.16499
G0 F1800 X19.521 Y-7.857
G1 F600 X10.283 Y-17.095 E68.84611
G0 F1800 X9.661 Y-17.095
G1 F600 X19.521 Y-7.235 E69.57309
G0 F1800 X19.521 Y-6.612
G1 F600 X9.038 Y-17.095 E70.346
G0 F1800 X8.416 Y-17.095
G1 F600 X19.521 Y-5.99 E71.16478
G0 F1800 X19.521 Y-5.368
G1 F600 X7.794 Y-17.095 E72.02942
G0 F1800 X7.172 Y-17.095
G1 F600 X19.521 Y-4.746 E72.93991
G0 F1800 X19.521 Y-4.123
G1 F600 X6.549 Y-17.095 E73.89634
G0 F1800 X5.927 Y-17.095
G1 F600 X19.521 Y-3.501 E74.89863
G0 F1800 X19.521 Y-2.879
G1 F600 X5.305 Y-17.095 E75.94679
G0 F1800 X4.683 Y-17.095
