;FLAVOR:Marlin
;TIME:5802
;Filament used: 4.87018m
;Layer height: 0.2
;MINX:-29.39
;MINY:2.311
;MINZ:0.3
;MAXX:29.39
;MAXY:65.591
;MAXZ:29.9
;Generated with Cura_SteamEngine 4.10.0
M140 S60
M105
M190 S60
M104 S230
M105
M109 S230
M82 ;absolute extrusion mode
G21        ;metric values
G90        ;absolute positioning
M107       ;start with the fan off
G28   ;move to endstops

;Z-Offset Reset und dann Z +0,1 für PLA
;MacroZOffset0
;MacroZOffsetPlus0100

G92 E0                  ;zero the extruded length
G1 F200 E3              ;extrude 3mm of feed stock
G92 E0                  ;zero the extruded length again
G1 F120
;Put printing message on LCD screen
M117 Printing...
G92 E0
G92 E0
G1 F2400 E-2
;LAYER_COUNT:150
;LAYER:0
M107
G0 F1800 X-15.225 Y2.311 Z0.3
;TYPE:SKIRT
G1 F2400 E0
G1 F600 X15.259 Y2.311 E1.58929
G1 X16.098 Y2.339 E1.63306
G1 X16.762 Y2.395 E1.6678
G1 X17.242 Y2.455 E1.69302
G1 X17.89 Y2.563 E1.72727
G1 X18.361 Y2.661 E1.75235
G1 X18.953 Y2.807 E1.78414
G1 X19.405 Y2.937 E1.80866
G1 X20.053 Y3.153 E1.84427
G1 X20.494 Y3.321 E1.86887
G1 X21.074 Y3.568 E1.90174
G1 X21.493 Y3.766 E1.9259
G1 X22.029 Y4.045 E1.9574
G1 X22.433 Y4.274 E1.98161
G1 X22.999 Y4.626 E2.01636
G1 X23.381 Y4.886 E2.04046
G1 X23.875 Y5.25 E2.07245
G1 X24.235 Y5.537 E2.09645
G1 X24.71 Y5.947 E2.12916
G1 X25.047 Y6.261 E2.15318
G1 X25.47 Y6.685 E2.1844
G1 X25.784 Y7.024 E2.20849
G1 X26.203 Y7.513 E2.24207
G1 X26.487 Y7.873 E2.26597
G1 X26.836 Y8.351 E2.29683
G1 X27.096 Y8.735 E2.32101
G1 X27.441 Y9.291 E2.35512
G1 X27.669 Y9.694 E2.37926
G1 X27.967 Y10.273 E2.41321
G1 X28.163 Y10.695 E2.43747
G1 X28.39 Y11.236 E2.46805
G1 X28.557 Y11.676 E2.49259
G1 X28.773 Y12.323 E2.52815
G1 X28.903 Y12.777 E2.55277
G1 X29.052 Y13.386 E2.58546
G1 X29.148 Y13.855 E2.61042
G1 X29.256 Y14.529 E2.64601
G1 X29.313 Y15.01 E2.67126
G1 X29.364 Y15.648 E2.70463
G1 X29.384 Y16.156 E2.73113
G1 X29.39 Y16.476 E2.74782
G1 X29.39 Y51.46 E4.57172
G1 X29.362 Y52.299 E4.61548
G1 X29.308 Y52.944 E4.64923
G1 X29.249 Y53.425 E4.67449
G1 X29.139 Y54.096 E4.70994
G1 X29.041 Y54.566 E4.73497
G1 X28.89 Y55.17 E4.76743
G1 X28.759 Y55.622 E4.79197
G1 X28.549 Y56.25 E4.82649
G1 X28.382 Y56.689 E4.85098
G1 X28.136 Y57.267 E4.88373
G1 X27.937 Y57.689 E4.90805
G1 X27.652 Y58.239 E4.94035
G1 X27.423 Y58.642 E4.96451
G1 X27.075 Y59.2 E4.9988
G1 X26.815 Y59.582 E5.02289
G1 X26.46 Y60.065 E5.05414
G1 X26.174 Y60.425 E5.07811
G1 X25.755 Y60.911 E5.11157
G1 X25.441 Y61.248 E5.13558
G1 X25.017 Y61.671 E5.16681
G1 X24.678 Y61.985 E5.1909
G1 X24.2 Y62.395 E5.22373
G1 X23.84 Y62.68 E5.24767
G1 X23.339 Y63.046 E5.28001
G1 X22.955 Y63.305 E5.30416
G1 X22.417 Y63.638 E5.33715
G1 X22.013 Y63.867 E5.36136
G1 X21.435 Y64.165 E5.39526
G1 X21.014 Y64.361 E5.41947
G1 X20.44 Y64.602 E5.45193
G1 X19.998 Y64.768 E5.47655
G1 X19.381 Y64.972 E5.51043
G1 X18.928 Y65.102 E5.535
G1 X18.309 Y65.254 E5.56823
G1 X17.838 Y65.35 E5.59329
G1 X17.172 Y65.457 E5.62846
G1 X16.692 Y65.514 E5.65366
G1 X16.053 Y65.565 E5.68708
G1 X15.546 Y65.585 E5.71353
G1 X15.225 Y65.591 E5.73027
G1 X-15.259 Y65.591 E7.31956
G1 X-16.098 Y65.563 E7.36333
G1 X-16.745 Y65.509 E7.39717
G1 X-17.225 Y65.45 E7.42239
G1 X-17.89 Y65.34 E7.45753
G1 X-18.361 Y65.242 E7.48261
G1 X-18.969 Y65.091 E7.51527
G1 X-19.421 Y64.96 E7.53981
G1 X-20.038 Y64.754 E7.57372
G1 X-20.479 Y64.587 E7.5983
G1 X-21.074 Y64.335 E7.63199
G1 X-21.493 Y64.137 E7.65615
G1 X-22.042 Y63.851 E7.68843
G1 X-22.446 Y63.621 E7.71266
G1 X-22.991 Y63.282 E7.74612
G1 X-23.374 Y63.022 E7.77026
G1 X-23.874 Y62.654 E7.80263
G1 X-24.233 Y62.368 E7.82656
G1 X-24.711 Y61.956 E7.85946
G1 X-25.049 Y61.641 E7.88354
G1 X-25.471 Y61.217 E7.91473
G1 X-25.784 Y60.879 E7.93875
G1 X-26.201 Y60.392 E7.97217
G1 X-26.486 Y60.031 E7.99615
G1 X-26.84 Y59.547 E8.02742
G1 X-27.099 Y59.164 E8.05152
G1 X-27.442 Y58.61 E8.08549
G1 X-27.671 Y58.205 E8.10975
G1 X-27.961 Y57.641 E8.14281
G1 X-28.157 Y57.221 E8.16698
G1 X-28.401 Y56.641 E8.19978
G1 X-28.567 Y56.199 E8.2244
G1 X-28.771 Y55.582 E8.25828
G1 X-28.901 Y55.129 E8.28285
G1 X-29.056 Y54.497 E8.31677
G1 X-29.151 Y54.027 E8.34177
G1 X-29.253 Y53.388 E8.37551
G1 X-29.311 Y52.907 E8.40077
G1 X-29.364 Y52.254 E8.43492
G1 X-29.384 Y51.747 E8.46138
G1 X-29.39 Y51.426 E8.47811
G1 X-29.39 Y16.452 E10.30149
G1 X-29.383 Y16.112 E10.31922
G1 X-29.362 Y15.609 E10.34547
G1 X-29.306 Y14.939 E10.38052
G1 X-29.246 Y14.459 E10.40574
G1 X-29.141 Y13.824 E10.4393
G1 X-29.044 Y13.354 E10.46432
G1 X-28.89 Y12.733 E10.49767
G1 X-28.759 Y12.281 E10.52221
G1 X-28.555 Y11.668 E10.55589
G1 X-28.389 Y11.229 E10.58036
G1 X-28.131 Y10.622 E10.61475
G1 X-27.931 Y10.2 E10.63909
G1 X-27.652 Y9.664 E10.6706
G1 X-27.423 Y9.261 E10.69476
G1 X-27.081 Y8.711 E10.72853
G1 X-26.821 Y8.328 E10.75266
G1 X-26.46 Y7.837 E10.78444
G1 X-26.174 Y7.477 E10.80841
G1 X-25.747 Y6.982 E10.84249
G1 X-25.433 Y6.646 E10.86646
G1 X-25.017 Y6.232 E10.89706
G1 X-24.678 Y5.918 E10.92115
G1 X-24.2 Y5.508 E10.95398
G1 X-23.84 Y5.223 E10.97792
G1 X-23.351 Y4.865 E11.00952
G1 X-22.967 Y4.605 E11.0337
G1 X-22.404 Y4.256 E11.06823
G1 X-22 Y4.028 E11.09242
G1 X-21.435 Y3.738 E11.12553
G1 X-21.014 Y3.542 E11.14974
G1 X-20.47 Y3.312 E11.18053
G1 X-20.028 Y3.144 E11.20518
G1 X-19.349 Y2.92 E11.24246
G1 X-18.896 Y2.792 E11.267
G1 X-18.309 Y2.649 E11.2985
G1 X-17.838 Y2.553 E11.32356
G1 X-17.188 Y2.448 E11.35789
G1 X-16.708 Y2.39 E11.38309
G1 X-16.053 Y2.337 E11.41735
G1 X-15.546 Y2.317 E11.44381
G1 X-15.225 Y2.311 E11.46055
G0 F1800 X-15.225 Y2.751
G1 F600 X15.259 Y2.751 E13.04984
G1 X16.08 Y2.779 E13.09266
G1 X16.707 Y2.831 E13.12547
G1 X17.187 Y2.891 E13.15068
G1 X17.801 Y2.993 E13.18313
G1 X18.272 Y3.091 E13.20822
G1 X18.831 Y3.23 E13.23825
G1 X19.283 Y3.36 E13.26277
G1 X19.896 Y3.564 E13.29645
G1 X20.337 Y3.732 E13.32105
G1 X20.886 Y3.966 E13.35217
G1 X21.305 Y4.164 E13.37633
G1 X21.812 Y4.427 E13.40611
G1 X22.216 Y4.656 E13.43032
G1 X22.752 Y4.99 E13.46324
G1 X23.134 Y5.25 E13.48733
G1 X23.601 Y5.594 E13.51757
G1 X23.961 Y5.881 E13.54158
G1 X24.41 Y6.268 E13.57248
G1 X24.747 Y6.582 E13.59649
G1 X25.147 Y6.984 E13.62606
G1 X25.461 Y7.323 E13.65015
G1 X25.857 Y7.786 E13.68191
G1 X26.141 Y8.146 E13.70582
G1 X26.472 Y8.598 E13.73503
G1 X26.732 Y8.982 E13.75921
G1 X27.058 Y9.507 E13.79142
G1 X27.286 Y9.91 E13.81556
G1 X27.568 Y10.458 E13.8477
G1 X27.764 Y10.88 E13.87195
G1 X27.979 Y11.392 E13.9009
G1 X28.146 Y11.832 E13.92544
G1 X28.35 Y12.444 E13.95907
G1 X28.48 Y12.898 E13.98369
G1 X28.621 Y13.474 E14.01461
G1 X28.717 Y13.943 E14.03957
G1 X28.819 Y14.581 E14.07325
G1 X28.876 Y15.062 E14.09851
G1 X28.924 Y15.665 E14.13004
G1 X28.944 Y16.173 E14.15655
G1 X28.95 Y16.476 E14.17235
G1 X28.95 Y51.46 E15.99625
G1 X28.922 Y52.281 E16.03908
G1 X28.872 Y52.89 E16.07093
G1 X28.813 Y53.371 E16.0962
G1 X28.708 Y54.006 E16.12975
G1 X28.61 Y54.476 E16.15478
G1 X28.468 Y55.047 E16.18546
G1 X28.337 Y55.499 E16.21
G1 X28.138 Y56.094 E16.24271
G1 X27.971 Y56.533 E16.26719
G1 X27.738 Y57.079 E16.29814
G1 X27.539 Y57.501 E16.32247
G1 X27.27 Y58.021 E16.35299
G1 X27.041 Y58.424 E16.37716
G1 X26.711 Y58.953 E16.40966
G1 X26.451 Y59.335 E16.43375
G1 X26.115 Y59.792 E16.46332
G1 X25.829 Y60.152 E16.4873
G1 X25.434 Y60.611 E16.51887
G1 X25.12 Y60.948 E16.54288
G1 X24.718 Y61.348 E16.57245
G1 X24.379 Y61.662 E16.59654
G1 X23.926 Y62.05 E16.62763
G1 X23.566 Y62.335 E16.65157
G1 X23.093 Y62.682 E16.68216
G1 X22.709 Y62.941 E16.7063
G1 X22.2 Y63.256 E16.73751
G1 X21.796 Y63.485 E16.76172
G1 X21.249 Y63.767 E16.79381
G1 X20.828 Y63.963 E16.81802
G1 X20.285 Y64.19 E16.8487
G1 X19.843 Y64.356 E16.87332
G1 X19.26 Y64.549 E16.90533
G1 X18.807 Y64.679 E16.9299
G1 X18.221 Y64.823 E16.96137
G1 X17.75 Y64.919 E16.98643
G1 X17.12 Y65.02 E17.01969
G1 X16.64 Y65.077 E17.04489
G1 X16.036 Y65.125 E17.07648
G1 X15.529 Y65.145 E17.10293
G1 X15.225 Y65.151 E17.11879
G1 X-15.259 Y65.151 E18.70808
G1 X-16.08 Y65.123 E18.7509
G1 X-16.691 Y65.072 E18.78287
G1 X-17.171 Y65.013 E18.80808
G1 X-17.801 Y64.91 E18.84136
G1 X-18.272 Y64.812 E18.86645
G1 X-18.846 Y64.669 E18.89729
G1 X-19.298 Y64.538 E18.92182
G1 X-19.882 Y64.343 E18.95392
G1 X-20.323 Y64.176 E18.97851
G1 X-20.886 Y63.937 E19.01039
G1 X-21.305 Y63.739 E19.03455
G1 X-21.825 Y63.469 E19.0651
G1 X-22.229 Y63.239 E19.08934
G1 X-22.744 Y62.918 E19.12098
G1 X-23.127 Y62.658 E19.14511
G1 X-23.6 Y62.309 E19.17576
G1 X-23.959 Y62.023 E19.19969
G1 X-24.411 Y61.634 E19.23078
G1 X-24.749 Y61.319 E19.25486
G1 X-25.149 Y60.918 E19.28439
G1 X-25.462 Y60.58 E19.30841
G1 X-25.856 Y60.119 E19.34003
G1 X-26.141 Y59.758 E19.36401
G1 X-26.475 Y59.3 E19.39356
G1 X-26.734 Y58.917 E19.41766
G1 X-27.059 Y58.394 E19.44977
G1 X-27.288 Y57.989 E19.47402
G1 X-27.563 Y57.455 E19.50534
G1 X-27.759 Y57.035 E19.5295
G1 X-27.989 Y56.486 E19.56053
G1 X-28.155 Y56.044 E19.58515
G1 X-28.348 Y55.461 E19.61717
G1 X-28.478 Y55.008 E19.64174
G1 X-28.624 Y54.41 E19.67383
G1 X-28.719 Y53.94 E19.69883
G1 X-28.817 Y53.336 E19.73073
G1 X-28.875 Y52.855 E19.75599
G1 X-28.924 Y52.237 E19.78831
G1 X-28.944 Y51.73 E19.81476
G1 X-28.95 Y51.426 E19.83062
G1 X-28.95 Y16.452 E21.65399
G1 X-28.943 Y16.131 E21.67073
G1 X-28.922 Y15.628 E21.69698
G1 X-28.87 Y14.994 E21.73015
G1 X-28.81 Y14.514 E21.75536
G1 X-28.71 Y13.913 E21.78713
G1 X-28.613 Y13.443 E21.81215
G1 X-28.468 Y12.856 E21.84367
G1 X-28.337 Y12.404 E21.86821
G1 X-28.143 Y11.824 E21.90009
G1 X-27.977 Y11.385 E21.92456
G1 X-27.733 Y10.81 E21.95713
G1 X-27.533 Y10.388 E21.98147
G1 X-27.27 Y9.882 E22.0112
G1 X-27.041 Y9.479 E22.03537
G1 X-26.717 Y8.958 E22.06736
G1 X-26.457 Y8.575 E22.09149
G1 X-26.115 Y8.11 E22.12158
G1 X-25.829 Y7.75 E22.14555
G1 X-25.426 Y7.283 E22.17771
G1 X-25.112 Y6.947 E22.20169
G1 X-24.718 Y6.555 E22.23067
G1 X-24.379 Y6.241 E22.25476
G1 X-23.926 Y5.853 E22.28585
G1 X-23.566 Y5.568 E22.30979
G1 X-23.104 Y5.229 E22.33967
G1 X-22.72 Y4.969 E22.36384
G1 X-22.187 Y4.639 E22.39653
G1 X-21.783 Y4.411 E22.42071
G1 X-21.249 Y4.136 E22.45203
G1 X-20.828 Y3.94 E22.47624
G1 X-20.314 Y3.723 E22.50533
G1 X-19.872 Y3.555 E22.52998
G1 X-19.23 Y3.343 E22.56523
G1 X-18.777 Y3.215 E22.58977
G1 X-18.221 Y3.08 E22.6196
G1 X-17.75 Y2.984 E22.64466
G1 X-17.136 Y2.885 E22.67708
G1 X-16.656 Y2.827 E22.70229
G1 X-16.036 Y2.777 E22.73472
G1 X-15.529 Y2.757 E22.76117
G1 X-15.225 Y2.751 E22.77702
G0 F1800 X-15.225 Y3.191
G1 F600 X15.259 Y3.191 E24.36632
G1 X16.061 Y3.219 E24.40815
G1 X16.652 Y3.268 E24.43907
G1 X17.132 Y3.328 E24.46429
G1 X17.711 Y3.424 E24.49489
G1 X18.182 Y3.522 E24.51997
G1 X18.71 Y3.653 E24.54833
G1 X19.162 Y3.783 E24.57285
G1 X19.74 Y3.976 E24.60462
G1 X20.181 Y4.144 E24.62923
G1 X20.698 Y4.364 E24.65852
G1 X21.117 Y4.562 E24.68268
G1 X21.595 Y4.81 E24.71076
G1 X21.999 Y5.039 E24.73497
G1 X22.504 Y5.353 E24.76597
G1 X22.886 Y5.613 E24.79006
G1 X23.327 Y5.938 E24.81862
G1 X23.687 Y6.225 E24.84262
G1 X24.11 Y6.59 E24.87175
G1 X24.447 Y6.904 E24.89577
G1 X24.824 Y7.283 E24.92364
G1 X25.138 Y7.622 E24.94773
G1 X25.512 Y8.058 E24.97768
G1 X25.796 Y8.418 E25.00158
G1 X26.108 Y8.845 E25.02915
G1 X26.368 Y9.229 E25.05333
G1 X26.675 Y9.724 E25.0837
G1 X26.903 Y10.127 E25.10784
G1 X27.168 Y10.644 E25.13813
G1 X27.364 Y11.066 E25.16238
G1 X27.568 Y11.548 E25.18967
G1 X27.735 Y11.988 E25.21421
G1 X27.927 Y12.565 E25.24591
G1 X28.057 Y13.019 E25.27053
G1 X28.19 Y13.562 E25.29968
G1 X28.286 Y14.031 E25.32464
G1 X28.383 Y14.633 E25.35643
G1 X28.44 Y15.114 E25.38168
G1 X28.484 Y15.682 E25.41138
G1 X28.504 Y16.19 E25.43789
G1 X28.51 Y16.476 E25.4528
G1 X28.51 Y51.46 E27.2767
G1 X28.482 Y52.262 E27.31854
G1 X28.435 Y52.837 E27.34862
G1 X28.376 Y53.318 E27.37388
G1 X28.277 Y53.916 E27.40548
G1 X28.179 Y54.386 E27.43051
G1 X28.045 Y54.925 E27.45947
G1 X27.914 Y55.377 E27.484
G1 X27.727 Y55.937 E27.51478
G1 X27.56 Y56.376 E27.53927
G1 X27.341 Y56.892 E27.5685
G1 X27.142 Y57.314 E27.59282
G1 X26.887 Y57.804 E27.62162
G1 X26.658 Y58.207 E27.64579
G1 X26.348 Y58.705 E27.67637
G1 X26.088 Y59.087 E27.70046
G1 X25.77 Y59.518 E27.72838
G1 X25.484 Y59.878 E27.75235
G1 X25.112 Y60.311 E27.78212
G1 X24.798 Y60.648 E27.80613
G1 X24.419 Y61.025 E27.834
G1 X24.08 Y61.339 E27.85809
G1 X23.653 Y61.705 E27.88741
G1 X23.293 Y61.99 E27.91135
G1 X22.847 Y62.317 E27.94018
G1 X22.463 Y62.576 E27.96433
G1 X21.983 Y62.873 E27.99376
G1 X21.579 Y63.102 E28.01797
G1 X21.063 Y63.368 E28.04824
G1 X20.642 Y63.564 E28.07245
G1 X20.131 Y63.778 E28.10133
G1 X19.689 Y63.944 E28.12594
G1 X19.139 Y64.126 E28.15615
G1 X18.686 Y64.256 E28.18072
G1 X18.133 Y64.392 E28.21041
G1 X17.662 Y64.488 E28.23547
G1 X17.068 Y64.583 E28.26683
G1 X16.588 Y64.64 E28.29203
G1 X16.018 Y64.685 E28.32184
G1 X15.511 Y64.705 E28.34829
G1 X15.225 Y64.711 E28.36321
G1 X-15.259 Y64.711 E29.9525
G1 X-16.061 Y64.683 E29.99434
G1 X-16.638 Y64.636 E30.02452
G1 X-17.118 Y64.577 E30.04973
G1 X-17.711 Y64.479 E30.08107
G1 X-18.182 Y64.381 E30.10615
G1 X-18.724 Y64.246 E30.13527
G1 X-19.176 Y64.115 E30.15981
G1 X-19.726 Y63.931 E30.19004
G1 X-20.167 Y63.764 E30.21463
G1 X-20.698 Y63.539 E30.24469
G1 X-21.117 Y63.341 E30.26885
G1 X-21.607 Y63.086 E30.29765
G1 X-22.011 Y62.856 E30.32189
G1 X-22.497 Y62.554 E30.35172
G1 X-22.88 Y62.294 E30.37585
G1 X-23.326 Y61.965 E30.40475
G1 X-23.685 Y61.679 E30.42868
G1 X-24.111 Y61.312 E30.45799
G1 X-24.449 Y60.997 E30.48208
G1 X-24.826 Y60.619 E30.50992
G1 X-25.139 Y60.281 E30.53393
G1 X-25.51 Y59.847 E30.5637
G1 X-25.795 Y59.486 E30.58768
G1 X-26.111 Y59.054 E30.61558
G1 X-26.37 Y58.671 E30.63969
G1 X-26.676 Y58.177 E30.66998
G1 X-26.905 Y57.772 E30.69424
G1 X-27.164 Y57.269 E30.72374
G1 X-27.36 Y56.849 E30.7479
G1 X-27.577 Y56.332 E30.77713
G1 X-27.743 Y55.89 E30.80175
G1 X-27.925 Y55.34 E30.83195
G1 X-28.055 Y54.887 E30.85652
G1 X-28.193 Y54.322 E30.88684
G1 X-28.288 Y53.852 E30.91184
G1 X-28.38 Y53.283 E30.94189
G1 X-28.438 Y52.802 E30.96715
G1 X-28.484 Y52.219 E30.99764
G1 X-28.504 Y51.712 E31.02409
G1 X-28.51 Y51.426 E31.03901
G1 X-28.51 Y16.452 E32.86239
G1 X-28.504 Y16.149 E32.87819
G1 X-28.483 Y15.646 E32.90443
G1 X-28.433 Y15.049 E32.93567
G1 X-28.373 Y14.569 E32.96089
G1 X-28.279 Y14.002 E32.99085
G1 X-28.182 Y13.532 E33.01587
G1 X-28.045 Y12.978 E33.04562
G1 X-27.914 Y12.526 E33.07016
G1 X-27.732 Y11.979 E33.10021
G1 X-27.566 Y11.54 E33.12468
G1 X-27.336 Y10.999 E33.15533
G1 X-27.136 Y10.577 E33.17968
G1 X-26.887 Y10.099 E33.20778
G1 X-26.658 Y9.696 E33.23194
G1 X-26.353 Y9.205 E33.26208
G1 X-26.093 Y8.822 E33.28621
G1 X-25.77 Y8.384 E33.31459
G1 X-25.484 Y8.024 E33.33856
G1 X-25.104 Y7.583 E33.36891
G1 X-24.79 Y7.247 E33.39288
G1 X-24.419 Y6.878 E33.42016
G1 X-24.08 Y6.564 E33.44425
G1 X-23.653 Y6.198 E33.47357
G1 X-23.293 Y5.913 E33.49751
G1 X-22.857 Y5.593 E33.52571
G1 X-22.473 Y5.333 E33.54989
G1 X-21.971 Y5.022 E33.58067
G1 X-21.567 Y4.794 E33.60486
G1 X-21.063 Y4.535 E33.6344
G1 X-20.642 Y4.339 E33.65861
G1 X-20.157 Y4.135 E33.68604
G1 X-19.715 Y3.967 E33.7107
G1 X-19.11 Y3.767 E33.74392
G1 X-18.657 Y3.639 E33.76846
G1 X-18.133 Y3.511 E33.79658
G1 X-17.662 Y3.415 E33.82164
G1 X-17.083 Y3.321 E33.85222
G1 X-16.603 Y3.263 E33.87743
G1 X-16.018 Y3.217 E33.90802
G1 X-15.511 Y3.197 E33.93448
G1 X-15.225 Y3.191 E33.94939
G0 F1800 X-15.225 Y3.631
G1 F600 X15.259 Y3.631 E35.53868
G1 X16.042 Y3.658 E35.57953
G1 X16.598 Y3.705 E35.60862
G1 X17.078 Y3.765 E35.63384
G1 X17.621 Y3.855 E35.66253
G1 X18.092 Y3.953 E35.68761
G1 X18.588 Y4.076 E35.71426
G1 X19.04 Y4.206 E35.73878
G1 X19.583 Y4.387 E35.76862
G1 X20.024 Y4.555 E35.79322
G1 X20.51 Y4.762 E35.82076
G1 X20.929 Y4.96 E35.84492
G1 X21.378 Y5.193 E35.8713
G1 X21.782 Y5.422 E35.89551
G1 X22.256 Y5.717 E35.92461
G1 X22.638 Y5.977 E35.94871
G1 X23.052 Y6.282 E35.97551
G1 X23.412 Y6.569 E35.99952
G1 X23.81 Y6.912 E36.02691
G1 X24.147 Y7.226 E36.05092
G1 X24.501 Y7.582 E36.0771
G1 X24.815 Y7.921 E36.10119
G1 X25.166 Y8.331 E36.12933
G1 X25.743 Y9.091 E36.17908
G1 X26.003 Y9.475 E36.20325
G1 X26.292 Y9.941 E36.23184
G1 X26.52 Y10.344 E36.25598
G1 X26.769 Y10.829 E36.2844
G1 X27.156 Y11.704 E36.33429
G1 X27.323 Y12.144 E36.35882
G1 X27.504 Y12.687 E36.38866
G1 X27.634 Y13.141 E36.41328
G1 X27.758 Y13.65 E36.4406
G1 X27.854 Y14.119 E36.46555
