;FLAVOR:Marlin
;TIME:2778
;Filament used: 6.4094m
;Layer height: 0.35
;MINX:115.155
;MINY:115.03
;MINZ:0.35
;MAXX:184.845
;MAXY:184.97
;MAXZ:30.1
;Generated with Cura_SteamEngine 4.10.0
M140 S95
M105
M190 S95
M104 S240
M105
M109 S240
M82 ;absolute extrusion mode
G28 ; home all axes
 M117 Purge extruder
 G92 E0 ; reset extruder
 G1 Z1.0 F3000 ; move z up little to prevent scratching of surface
 G1 X2 Y20 Z0.3 F5000.0 ; move to start-line position
 G1 X2 Y200.0 Z0.3 F1500.0 E15 ; draw 1st line
 G1 X2 Y200.0 Z0.4 F5000.0 ; move to side a little
 G1 X2 Y20 Z0.4 F1500.0 E30 ; draw 2nd line
 G92 E0 ; reset extruder
 G1 Z1.0 F3000 ; move z up little to prevent scratching of surface
G92 E0
G92 E0
G1 F2100 E-2
;LAYER_COUNT:86
;LAYER:0
M107
G0 F6000 X120.045 Y120.556 Z0.35
;TYPE:SKIRT
G1 F2100 E0
G1 F1200 X120.41 Y120.192 E0.06983
G1 X120.667 Y119.947 E0.11794
G1 X120.989 Y119.651 E0.17719
G1 X121.083 Y119.568 E0.19418
G1 X121.429 Y119.275 E0.2556
G1 X121.71 Y119.046 E0.30471
G1 X122.072 Y118.762 E0.36704
G1 X122.525 Y118.43 E0.44313
G1 X122.81 Y118.232 E0.49014
G1 X123.138 Y118.012 E0.54364
G1 X123.601 Y117.721 E0.61773
G1 X123.921 Y117.531 E0.66814
G1 X124.217 Y117.361 E0.71439
G1 X124.791 Y117.057 E0.80238
G1 X125.143 Y116.883 E0.85558
G1 X125.498 Y116.715 E0.90878
G1 X125.624 Y116.658 E0.92752
G1 X125.981 Y116.503 E0.98024
G1 X126.294 Y116.374 E1.0261
G1 X126.623 Y116.245 E1.07398
G1 X126.785 Y116.184 E1.09743
G1 X127.298 Y116.004 E1.17108
G1 X127.632 Y115.896 E1.21864
G1 X127.989 Y115.787 E1.2692
G1 X128.128 Y115.747 E1.2888
G1 X128.546 Y115.636 E1.34739
G1 X128.926 Y115.542 E1.40042
G1 X129.364 Y115.442 E1.46128
G1 X129.892 Y115.34 E1.53414
G1 X130.235 Y115.282 E1.58126
G1 X130.571 Y115.23 E1.62732
G1 X130.78 Y115.201 E1.65591
G1 X131.325 Y115.138 E1.73023
G1 X131.735 Y115.101 E1.786
G1 X132.56 Y115.057 E1.89793
G1 X133.952 Y115.032 E2.08653
G1 X134.158 Y115.03 E2.11444
G1 X165.838 Y115.03 E6.40622
G1 X166.072 Y115.032 E6.43792
G1 X167.542 Y115.062 E6.63711
G1 X168.202 Y115.095 E6.72663
G1 X168.381 Y115.109 E6.75095
G1 X168.948 Y115.167 E6.82817
G1 X169.314 Y115.214 E6.87816
G1 X169.622 Y115.258 E6.92031
G1 X169.795 Y115.285 E6.94403
G1 X170.287 Y115.373 E7.01174
G1 X170.66 Y115.448 E7.06328
G1 X171.084 Y115.541 E7.12209
G1 X171.631 Y115.681 E7.19858
G1 X171.992 Y115.783 E7.2494
G1 X172.418 Y115.911 E7.30966
G1 X172.92 Y116.079 E7.38137
G1 X173.22 Y116.187 E7.42457
G1 X173.527 Y116.302 E7.46898
G1 X173.69 Y116.366 E7.4927
G1 X174.174 Y116.569 E7.56381
G1 X174.51 Y116.719 E7.61366
G1 X174.858 Y116.881 E7.66566
G1 X175.378 Y117.145 E7.74466
G1 X175.723 Y117.331 E7.79776
G1 X176.131 Y117.561 E7.86121
G1 X176.511 Y117.792 E7.92146
G1 X176.842 Y118.002 E7.97456
G1 X177.161 Y118.212 E8.0263
G1 X177.268 Y118.285 E8.04385
G1 X177.638 Y118.548 E8.10535
G1 X177.882 Y118.729 E8.1465
G1 X178.245 Y119.008 E8.20853
G1 X178.714 Y119.395 E8.2909
G1 X178.991 Y119.636 E8.34064
G1 X179.273 Y119.889 E8.39197
G1 X179.72 Y120.319 E8.47599
G1 X179.958 Y120.561 E8.52198
G1 X180.251 Y120.87 E8.57966
G1 X180.643 Y121.309 E8.6594
G1 X180.89 Y121.601 E8.71121
G1 X181.309 Y122.127 E8.80231
G1 X181.52 Y122.413 E8.85046
G1 X181.842 Y122.866 E8.92575
G1 X181.916 Y122.974 E8.94349
G1 X182.289 Y123.556 E9.03714
G1 X182.596 Y124.071 E9.11836
G1 X182.648 Y124.162 E9.13256
G1 X182.942 Y124.711 E9.21693
G1 X183.101 Y125.028 E9.26497
G1 X183.398 Y125.668 E9.36056
G1 X183.497 Y125.9 E9.39473
G1 X183.674 Y126.335 E9.45835
G1 X183.909 Y126.98 E9.55135
G1 X184.008 Y127.279 E9.59402
G1 X184.108 Y127.599 E9.63944
G1 X184.166 Y127.793 E9.66687
G1 X184.349 Y128.481 E9.76331
G1 X184.425 Y128.808 E9.80879
G1 X184.601 Y129.736 E9.93675
G1 X184.69 Y130.341 E10.0196
G1 X184.793 Y131.346 E10.15646
G1 X184.81 Y131.639 E10.19622
G1 X184.824 Y131.978 E10.24218
G1 X184.84 Y132.542 E10.31862
G1 X184.845 Y132.867 E10.36266
G1 X184.844 Y166.966 E14.98214
G1 X184.832 Y167.821 E15.09798
G1 X184.812 Y168.349 E15.16956
G1 X184.794 Y168.648 E15.21014
G1 X184.732 Y169.335 E15.30359
G1 X184.688 Y169.699 E15.35326
G1 X184.632 Y170.107 E15.40905
G1 X184.51 Y170.784 E15.50224
G1 X184.425 Y171.187 E15.55804
G1 X184.334 Y171.583 E15.61308
G1 X184.299 Y171.724 E15.63277
G1 X184.142 Y172.295 E15.71299
G1 X184.07 Y172.532 E15.74655
G1 X183.934 Y172.954 E15.80661
G1 X183.692 Y173.615 E15.90197
G1 X183.563 Y173.937 E15.94897
G1 X183.418 Y174.282 E15.99966
G1 X183.328 Y174.487 E16.02999
G1 X183.07 Y175.035 E16.11205
G1 X182.858 Y175.448 E16.17494
G1 X182.723 Y175.699 E16.21355
G1 X182.54 Y176.025 E16.2642
G1 X182.468 Y176.149 E16.28362
G1 X182.182 Y176.617 E16.35792
G1 X182.001 Y176.897 E16.40309
G1 X181.796 Y177.203 E16.45299
G1 X181.717 Y177.317 E16.47178
G1 X181.376 Y177.783 E16.55001
G1 X181.195 Y178.018 E16.59019
G1 X180.985 Y178.282 E16.63589
G1 X180.859 Y178.436 E16.66285
G1 X180.497 Y178.858 E16.73817
G1 X180.284 Y179.094 E16.78124
G1 X179.955 Y179.444 E16.84631
G1 X179.59 Y179.808 E16.91615
G1 X179.333 Y180.053 E16.96425
G1 X179.051 Y180.314 E17.0163
G1 X178.959 Y180.396 E17.033
G1 X178.576 Y180.722 E17.10114
G1 X178.294 Y180.952 E17.15043
G1 X178.019 Y181.17 E17.19797
G1 X177.908 Y181.255 E17.21691
G1 X177.466 Y181.576 E17.29092
G1 X176.996 Y181.899 E17.36818
G1 X176.886 Y181.972 E17.38606
G1 X176.417 Y182.267 E17.46112
G1 X176.105 Y182.453 E17.51033
G1 X175.776 Y182.643 E17.5618
G1 X175.218 Y182.939 E17.64737
G1 X174.887 Y183.103 E17.69741
G1 X174.564 Y183.257 E17.74589
G1 X174.424 Y183.321 E17.76675
G1 X174.034 Y183.49 E17.82433
G1 X173.712 Y183.623 E17.87152
G1 X173.301 Y183.784 E17.93132
G1 X173.141 Y183.843 E17.95443
G1 X172.738 Y183.983 E18.01222
G1 X172.42 Y184.087 E18.05755
G1 X172.069 Y184.195 E18.1073
G1 X171.908 Y184.242 E18.13002
G1 X171.44 Y184.368 E18.19568
G1 X171.071 Y184.459 E18.24717
G1 X170.652 Y184.555 E18.3054
G1 X170.077 Y184.667 E18.38476
G1 X169.743 Y184.723 E18.43064
G1 X169.279 Y184.792 E18.49419
G1 X168.756 Y184.854 E18.56554
G1 X168.407 Y184.887 E18.61303
G1 X167.956 Y184.921 E18.6743
G1 X167.407 Y184.944 E18.74874
G1 X165.842 Y184.97 E18.96078
G1 X134.162 Y184.97 E23.25256
G1 X133.928 Y184.968 E23.28426
G1 X132.457 Y184.938 E23.48358
G1 X131.784 Y184.904 E23.57487
G1 X131.595 Y184.889 E23.60056
G1 X131.072 Y184.835 E23.67179
G1 X130.706 Y184.789 E23.72176
G1 X130.376 Y184.743 E23.7669
G1 X130.215 Y184.718 E23.78897
G1 X129.686 Y184.623 E23.86178
G1 X129.104 Y184.502 E23.94231
G1 X128.924 Y184.461 E23.96732
G1 X128.341 Y184.312 E24.04884
G1 X127.992 Y184.213 E24.09799
G1 X127.61 Y184.097 E24.15207
G1 X127.439 Y184.042 E24.17641
G1 X126.663 Y183.761 E24.28821
G1 X125.874 Y183.443 E24.40346
G1 X125.252 Y183.171 E24.49542
G1 X125.157 Y183.126 E24.50966
G1 X124.626 Y182.857 E24.5903
G1 X124.279 Y182.67 E24.64371
G1 X123.881 Y182.446 E24.70558
G1 X123.482 Y182.204 E24.7688
G1 X123.153 Y181.995 E24.8216
G1 X122.772 Y181.743 E24.88348
G1 X122.33 Y181.429 E24.95693
G1 X122.073 Y181.237 E25.00039
G1 X121.712 Y180.957 E25.06228
G1 X121.304 Y180.62 E25.13397
G1 X121.027 Y180.38 E25.18363
G1 X120.721 Y180.105 E25.23936
G1 X120.264 Y179.664 E25.3254
G1 X119.876 Y179.266 E25.4007
G1 X119.774 Y179.158 E25.42082
G1 X119.336 Y178.666 E25.51006
G1 X119.087 Y178.37 E25.56246
G1 X118.699 Y177.883 E25.64682
G1 X118.47 Y177.573 E25.69903
G1 X118.292 Y177.325 E25.74038
G1 X118.097 Y177.046 E25.7865
G1 X118.033 Y176.951 E25.80202
G1 X117.719 Y176.458 E25.8812
G1 X117.536 Y176.154 E25.92927
G1 X117.337 Y175.811 E25.98299
G1 X117.037 Y175.247 E26.06953
G1 X116.878 Y174.927 E26.11794
G1 X116.617 Y174.364 E26.20201
G1 X116.52 Y174.139 E26.2352
G1 X116.403 Y173.858 E26.27644
G1 X116.329 Y173.673 E26.30343
G1 X116.087 Y173.007 E26.39943
G1 X115.989 Y172.71 E26.4418
G1 X115.887 Y172.386 E26.48782
G1 X115.829 Y172.191 E26.51538
G1 X115.651 Y171.518 E26.60969
G1 X115.575 Y171.191 E26.65517
G1 X115.399 Y170.261 E26.78339
G1 X115.31 Y169.655 E26.86637
G1 X115.208 Y168.657 E27.00227
G1 X115.191 Y168.366 E27.04176
G1 X115.176 Y168.021 E27.08855
G1 X115.16 Y167.454 E27.16539
G1 X115.155 Y167.13 E27.20929
G1 X115.156 Y133.048 E31.82647
G1 X115.168 Y132.18 E31.94407
G1 X115.188 Y131.644 E32.01673
G1 X115.205 Y131.364 E32.05474
G1 X115.266 Y130.691 E32.14628
G1 X115.315 Y130.283 E32.20195
G1 X115.365 Y129.914 E32.2524
G1 X115.49 Y129.216 E32.34846
G1 X115.575 Y128.813 E32.40426
G1 X115.661 Y128.435 E32.45678
G1 X115.696 Y128.293 E32.47659
G1 X115.852 Y127.725 E32.55639
G1 X115.925 Y127.483 E32.59063
G1 X116.032 Y127.147 E32.6384
G1 X116.081 Y127.001 E32.65927
G1 X116.312 Y126.373 E32.74992
G1 X116.441 Y126.052 E32.79678
G1 X116.593 Y125.693 E32.8496
G1 X116.688 Y125.478 E32.88144
G1 X116.935 Y124.954 E32.95992
G1 X117.134 Y124.567 E33.01887
G1 X117.271 Y124.311 E33.05821
G1 X117.518 Y123.873 E33.12633
G1 X117.585 Y123.76 E33.14413
G1 X117.825 Y123.372 E33.20593
G1 X118.022 Y123.068 E33.25501
G1 X118.251 Y122.728 E33.31054
G1 X118.321 Y122.628 E33.32708
G1 X118.66 Y122.17 E33.40427
G1 X118.834 Y121.946 E33.4427
G1 X119.118 Y121.592 E33.50418
G1 X119.503 Y121.142 E33.58441
G1 X119.716 Y120.906 E33.62748
G1 X120.045 Y120.556 E33.69255
G0 F6000 X120.752 Y121.234
G1 F1200 X121.086 Y120.901 E33.75645
G1 X121.343 Y120.656 E33.80455
G1 X121.638 Y120.386 E33.85873
G1 X121.732 Y120.303 E33.87571
G1 X122.048 Y120.034 E33.93193
G1 X122.329 Y119.805 E33.98104
G1 X122.67 Y119.538 E34.03971
G1 X123.084 Y119.235 E34.10922
G1 X123.369 Y119.037 E34.15623
G1 X123.677 Y118.83 E34.2065
G1 X124.101 Y118.564 E34.27431
G1 X124.421 Y118.374 E34.32473
G1 X124.7 Y118.214 E34.3683
G1 X125.226 Y117.935 E34.44896
G1 X125.578 Y117.761 E34.50216
G1 X125.902 Y117.607 E34.55076
G1 X126.028 Y117.55 E34.56949
G1 X126.355 Y117.409 E34.61773
G1 X126.668 Y117.28 E34.6636
G1 X126.968 Y117.162 E34.70727
G1 X127.13 Y117.101 E34.73072
G1 X127.6 Y116.937 E34.79816
G1 X127.934 Y116.829 E34.84571
G1 X128.26 Y116.729 E34.89191
G1 X128.399 Y116.689 E34.9115
G1 X128.781 Y116.587 E34.96506
G1 X129.161 Y116.493 E35.0181
G1 X129.572 Y116.399 E35.07521
G1 X130.055 Y116.306 E35.14185
G1 X130.398 Y116.248 E35.18897
G1 X130.705 Y116.201 E35.23105
G1 X130.914 Y116.172 E35.25963
G1 X131.413 Y116.114 E35.32769
G1 X131.823 Y116.077 E35.38346
G1 X132.578 Y116.037 E35.48589
G1 X134.158 Y116.01 E35.69996
G1 X165.838 Y116.01 E39.99174
G1 X166.052 Y116.012 E40.02073
G1 X167.522 Y116.042 E40.21992
G1 X168.126 Y116.072 E40.30184
G1 X168.305 Y116.086 E40.32617
G1 X168.823 Y116.139 E40.39671
G1 X169.189 Y116.186 E40.4467
G1 X169.471 Y116.226 E40.48528
G1 X169.644 Y116.253 E40.509
G1 X170.094 Y116.334 E40.57095
G1 X170.467 Y116.409 E40.62249
G1 X170.864 Y116.496 E40.67755
G1 X171.364 Y116.624 E40.74747
G1 X171.725 Y116.726 E40.79829
G1 X172.129 Y116.848 E40.85546
G1 X172.588 Y117.001 E40.92101
G1 X172.888 Y117.109 E40.9642
G1 X173.169 Y117.215 E41.00489
G1 X173.332 Y117.279 E41.02861
G1 X173.774 Y117.464 E41.09352
G1 X174.11 Y117.614 E41.14337
G1 X174.438 Y117.767 E41.1924
G1 X174.913 Y118.007 E41.2645
G1 X175.258 Y118.193 E41.3176
G1 X175.638 Y118.408 E41.37675
G1 X175.986 Y118.619 E41.43188
G1 X176.317 Y118.829 E41.48499
G1 X176.716 Y119.095 E41.54995
G1 X177.054 Y119.335 E41.60611
G1 X177.298 Y119.516 E41.64727
G1 X177.642 Y119.781 E41.70609
G1 X178.07 Y120.134 E41.78125
G1 X178.347 Y120.375 E41.83099
G1 X178.613 Y120.613 E41.87935
G1 X179.021 Y121.007 E41.95619
G1 X179.431 Y121.427 E42.0357
G1 X179.537 Y121.54 E42.05669
G1 X179.895 Y121.942 E42.12962
G1 X180.142 Y122.234 E42.18143
G1 X180.525 Y122.715 E42.26472
G1 X180.724 Y122.984 E42.31005
G1 X181.034 Y123.42 E42.38253
G1 X181.108 Y123.528 E42.40026
G1 X181.449 Y124.06 E42.48587
G1 X181.632 Y124.365 E42.53406
G1 X181.797 Y124.649 E42.57855
G1 X182.066 Y125.15 E42.65559
G1 X182.225 Y125.467 E42.70363
G1 X182.496 Y126.053 E42.7911
G1 X182.595 Y126.285 E42.82527
G1 X182.763 Y126.698 E42.88567
G1 X182.978 Y127.288 E42.97074
G1 X183.077 Y127.587 E43.01341
G1 X183.169 Y127.879 E43.05489
G1 X183.227 Y128.073 E43.08232
G1 X183.395 Y128.703 E43.17065
G1 X183.471 Y129.03 E43.21613
G1 X183.631 Y129.878 E43.33304
G1 X183.72 Y130.483 E43.41588
G1 X183.814 Y131.402 E43.54103
G1 X183.831 Y131.695 E43.58079
G1 X183.845 Y132.006 E43.62296
G1 X183.861 Y132.57 E43.6994
G1 X183.865 Y132.867 E43.73964
G1 X183.864 Y166.952 E48.35723
G1 X183.852 Y167.807 E48.47307
G1 X183.834 Y168.29 E48.53855
G1 X183.816 Y168.589 E48.57913
G1 X183.759 Y169.218 E48.66469
G1 X183.715 Y169.582 E48.71436
G1 X183.663 Y169.962 E48.76632
G1 X183.551 Y170.582 E48.85167
G1 X183.466 Y170.985 E48.90747
G1 X183.383 Y171.347 E48.95778
G1 X183.348 Y171.488 E48.97746
G1 X183.204 Y172.01 E49.05082
G1 X183.132 Y172.247 E49.08438
G1 X183.003 Y172.646 E49.14118
G1 X182.783 Y173.25 E49.22827
G1 X182.654 Y173.572 E49.27526
G1 X182.521 Y173.888 E49.32171
G1 X182.431 Y174.093 E49.35204
G1 X182.195 Y174.594 E49.42706
G1 X181.995 Y174.984 E49.48644
G1 X181.86 Y175.235 E49.52505
G1 X181.693 Y175.533 E49.57133
G1 X181.621 Y175.657 E49.59075
G1 X181.359 Y176.085 E49.65874
G1 X181.178 Y176.365 E49.7039
G1 X180.99 Y176.645 E49.74959
G1 X180.911 Y176.759 E49.76838
G1 X180.6 Y177.185 E49.83984
G1 X180.419 Y177.42 E49.88002
G1 X180.227 Y177.662 E49.92187
G1 X180.101 Y177.816 E49.94883
G1 X179.769 Y178.201 E50.0177
G1 X179.556 Y178.437 E50.06077
G1 X179.341 Y178.669 E50.10362
G1 X179.248 Y178.766 E50.12182
G1 X178.914 Y179.099 E50.18572
G1 X178.657 Y179.344 E50.23382
G1 X178.399 Y179.582 E50.28137
G1 X178.307 Y179.664 E50.29807
G1 X177.957 Y179.962 E50.36034
G1 X177.675 Y180.192 E50.40964
G1 X177.423 Y180.392 E50.45322
G1 X177.312 Y180.477 E50.47216
G1 X176.908 Y180.771 E50.53985
G1 X176.628 Y180.965 E50.586
G1 X176.344 Y181.155 E50.63229
G1 X175.916 Y181.425 E50.70085
G1 X175.604 Y181.611 E50.75005
G1 X175.293 Y181.79 E50.79867
G1 X174.783 Y182.061 E50.87691
G1 X174.452 Y182.225 E50.92695
G1 X174.016 Y182.429 E50.99216
G1 X173.66 Y182.585 E51.04482
G1 X173.338 Y182.718 E51.09201
G1 X172.962 Y182.864 E51.14666
G1 X172.802 Y182.923 E51.16976
G1 X172.434 Y183.051 E51.22254
G1 X172.116 Y183.155 E51.26787
G1 X171.795 Y183.255 E51.31342
G1 X171.634 Y183.302 E51.33614
G1 X171.206 Y183.417 E51.39618
G1 X170.837 Y183.508 E51.44766
G1 X170.441 Y183.599 E51.50271
G1 X169.915 Y183.701 E51.5753
G1 X169.581 Y183.757 E51.62118
G1 X169.142 Y183.822 E51.6813
G1 X168.663 Y183.878 E51.74663
G1 X168.314 Y183.911 E51.79412
G1 X168.013 Y183.936 E51.83504
G1 X167.891 Y183.944 E51.8516
G1 X167.39 Y183.964 E51.91953
G1 X165.842 Y183.99 E52.12927
G1 X134.162 Y183.99 E56.42104
G1 X133.948 Y183.988 E56.45004
G1 X132.477 Y183.958 E56.64936
G1 X131.861 Y183.927 E56.73291
G1 X131.672 Y183.912 E56.7586
G1 X131.194 Y183.863 E56.82369
G1 X130.828 Y183.817 E56.87367
G1 X130.526 Y183.775 E56.91497
G1 X130.365 Y183.75 E56.93705
G1 X129.881 Y183.663 E57.00367
G1 X129.557 Y183.597 E57.04846
G1 X129.141 Y183.505 E57.10618
G1 X128.608 Y183.369 E57.1807
G1 X128.259 Y183.27 E57.22984
G1 X127.91 Y183.164 E57.27926
G1 X127.739 Y183.109 E57.30359
G1 X127.03 Y182.852 E57.40576
G1 X126.241 Y182.534 E57.521
G1 X125.671 Y182.285 E57.60527
G1 X125.576 Y182.24 E57.61951
G1 X125.091 Y181.994 E57.69318
G1 X124.744 Y181.807 E57.74658
G1 X124.372 Y181.598 E57.80439
G1 X124.007 Y181.376 E57.86226
G1 X123.678 Y181.167 E57.91506
G1 X123.321 Y180.931 E57.97304
G1 X122.917 Y180.644 E58.04018
G1 X122.66 Y180.452 E58.08364
G1 X122.319 Y180.188 E58.14206
G1 X121.946 Y179.879 E58.20768
G1 X121.669 Y179.639 E58.25733
G1 X121.382 Y179.382 E58.30952
G1 X120.964 Y178.978 E58.38827
G1 X120.589 Y178.593 E58.46108
G1 X120.487 Y178.485 E58.48121
G1 X120.086 Y178.035 E58.56286
G1 X119.837 Y177.739 E58.61526
G1 X119.482 Y177.293 E58.69249
G1 X119.266 Y177.002 E58.74158
G1 X119.088 Y176.754 E58.78294
G1 X118.846 Y176.403 E58.8407
G1 X118.559 Y175.952 E58.91312
G1 X118.376 Y175.648 E58.96119
G1 X118.189 Y175.327 E59.01152
G1 X117.915 Y174.811 E59.09066
G1 X117.756 Y174.491 E59.13907
G1 X117.517 Y173.976 E59.21599
G1 X117.42 Y173.751 E59.24918
G1 X117.313 Y173.494 E59.28689
G1 X117.239 Y173.309 E59.31389
G1 X117.017 Y172.7 E59.4017
G1 X116.919 Y172.403 E59.44407
G1 X116.826 Y172.107 E59.4861
G1 X116.768 Y171.912 E59.51366
