;FLAVOR:Marlin
;TIME:5057
;Filament used: 4.90158m
;Layer height: 0.2
;MINX:121.05
;MINY:118.8
;MINZ:0.3
;MAXX:178.95
;MAXY:181.2
;MAXZ:29.9
;Generated with Cura_SteamEngine 4.10.0
M140 S90
M105
M190 S90
M104 S230
M105
M109 S230
M82 ;absolute extrusion mode
G28 ; home all axes
 M117 Purge extruder
 G92 E0 ; reset extruder
 G1 Z1.0 F3000 ; move z up little to prevent scratching of surface
 G1 X2 Y20 Z0.3 F5000.0 ; move to start-line position
 G1 X2 Y200.0 Z0.3 F1500.0 E15 ; draw 1st line
 G1 X2 Y200.0 Z0.4 F5000.0 ; move to side a little
 G1 X2 Y20 Z0.4 F1500.0 E30 ; draw 2nd line
 G92 E0 ; reset extruder
 G1 Z1.0 F3000 ; move z up little to prevent scratching of surface
G92 E0
G92 E0
G1 F2100 E-2
;LAYER_COUNT:150
;LAYER:0
M107
G0 F6000 X124.9 Y122.983 Z0.3
;TYPE:SKIRT
G1 F2100 E0
G1 F1200 X125.286 Y122.599 E0.03974
G1 X125.623 Y122.287 E0.07326
G1 X126.09 Y121.888 E0.11809
G1 X126.457 Y121.599 E0.15219
G1 X126.922 Y121.26 E0.19419
G1 X127.298 Y121.007 E0.22727
G1 X127.809 Y120.691 E0.27112
G1 X128.209 Y120.465 E0.30466
G1 X128.726 Y120.198 E0.34713
G1 X129.165 Y119.992 E0.38252
G1 X129.74 Y119.75 E0.42806
G1 X130.168 Y119.59 E0.46141
G1 X130.727 Y119.405 E0.50438
G1 X131.184 Y119.273 E0.5391
G1 X131.817 Y119.119 E0.58665
G1 X132.274 Y119.028 E0.62067
G1 X132.853 Y118.936 E0.66346
G1 X133.349 Y118.876 E0.69992
G1 X133.969 Y118.826 E0.74532
G1 X134.474 Y118.806 E0.78221
G1 X134.779 Y118.8 E0.80448
G1 X165.257 Y118.8 E3.02905
G1 X165.595 Y118.807 E3.05372
G1 X166.095 Y118.829 E3.09025
G1 X166.724 Y118.883 E3.13633
G1 X167.206 Y118.944 E3.17179
G1 X167.799 Y119.043 E3.21568
G1 X168.268 Y119.14 E3.25063
G1 X168.86 Y119.287 E3.29515
G1 X169.317 Y119.42 E3.32989
G1 X169.879 Y119.607 E3.37313
G1 X170.317 Y119.772 E3.40729
G1 X170.917 Y120.028 E3.4549
G1 X171.328 Y120.224 E3.48814
G1 X171.827 Y120.484 E3.52921
G1 X172.234 Y120.716 E3.5634
G1 X172.752 Y121.039 E3.60796
G1 X173.146 Y121.307 E3.64274
G1 X173.598 Y121.639 E3.68367
G1 X173.945 Y121.914 E3.71599
G1 X174.421 Y122.325 E3.76189
G1 X174.76 Y122.642 E3.79577
G1 X175.16 Y123.044 E3.83716
G1 X175.471 Y123.381 E3.87063
G1 X175.86 Y123.837 E3.91438
G1 X176.15 Y124.205 E3.94858
G1 X176.49 Y124.672 E3.99074
G1 X176.743 Y125.048 E4.02382
G1 X177.053 Y125.548 E4.06676
G1 X177.281 Y125.95 E4.10049
G1 X177.57 Y126.514 E4.14674
G1 X177.77 Y126.946 E4.18149
G1 X177.983 Y127.452 E4.22156
G1 X178.146 Y127.882 E4.25513
G1 X178.34 Y128.461 E4.2997
G1 X178.472 Y128.915 E4.33421
G1 X178.625 Y129.539 E4.3811
G1 X178.719 Y130.004 E4.41573
G1 X178.818 Y130.621 E4.46134
G1 X178.876 Y131.109 E4.49721
G1 X178.924 Y131.708 E4.54107
G1 X178.944 Y132.205 E4.57737
G1 X178.95 Y132.515 E4.6
G1 X178.95 Y167.507 E7.15405
G1 X178.942 Y167.85 E7.17909
G1 X178.92 Y168.344 E7.21518
G1 X178.872 Y168.929 E7.25803
G1 X178.813 Y169.415 E7.29376
G1 X178.707 Y170.059 E7.3414
G1 X178.609 Y170.529 E7.37644
G1 X178.464 Y171.111 E7.42022
G1 X178.332 Y171.564 E7.45466
G1 X178.134 Y172.153 E7.50001
G1 X177.964 Y172.599 E7.53485
G1 X177.733 Y173.141 E7.57785
G1 X177.541 Y173.548 E7.6107
G1 X177.267 Y174.076 E7.65412
G1 X177.035 Y174.483 E7.68831
G1 X176.721 Y174.987 E7.73165
G1 X176.461 Y175.371 E7.7655
G1 X176.101 Y175.86 E7.80982
G1 X175.815 Y176.218 E7.84327
G1 X175.44 Y176.653 E7.88519
G1 X175.125 Y176.992 E7.91896
G1 X174.706 Y177.41 E7.96216
G1 X174.369 Y177.721 E7.99563
G1 X173.913 Y178.11 E8.03938
G1 X173.545 Y178.4 E8.07358
G1 X173.078 Y178.74 E8.11574
G1 X172.702 Y178.993 E8.14882
G1 X172.202 Y179.303 E8.19176
G1 X171.8 Y179.531 E8.22549
G1 X171.243 Y179.817 E8.27119
G1 X170.81 Y180.018 E8.30604
G1 X170.273 Y180.243 E8.34853
G1 X169.836 Y180.407 E8.3826
G1 X169.27 Y180.595 E8.42613
G1 X168.817 Y180.726 E8.46055
G1 X168.21 Y180.875 E8.50617
G1 X167.752 Y180.968 E8.54028
G1 X167.12 Y181.069 E8.587
G1 X166.627 Y181.127 E8.62323
G1 X166.031 Y181.174 E8.66687
G1 X165.525 Y181.194 E8.70383
G1 X165.221 Y181.2 E8.72602
G1 X134.743 Y181.2 E10.95059
G1 X134.405 Y181.193 E10.97527
G1 X133.904 Y181.171 E11.01187
G1 X133.303 Y181.12 E11.0559
G1 X132.823 Y181.061 E11.09119
G1 X132.178 Y180.954 E11.13892
G1 X131.707 Y180.855 E11.17404
G1 X131.143 Y180.714 E11.21648
G1 X130.692 Y180.583 E11.25076
G1 X130.097 Y180.384 E11.29655
G1 X129.651 Y180.214 E11.33139
G1 X129.107 Y179.982 E11.37455
G1 X128.696 Y179.788 E11.40773
G1 X128.172 Y179.516 E11.45082
G1 X127.777 Y179.291 E11.484
G1 X127.259 Y178.968 E11.52855
G1 X126.856 Y178.694 E11.56412
G1 X126.396 Y178.355 E11.60583
G1 X126.046 Y178.077 E11.63846
G1 X125.569 Y177.665 E11.68446
G1 X125.233 Y177.35 E11.71808
G1 X124.849 Y176.964 E11.75782
G1 X124.537 Y176.627 E11.79134
G1 X124.138 Y176.16 E11.83617
G1 X123.849 Y175.793 E11.87027
G1 X123.51 Y175.328 E11.91227
G1 X123.257 Y174.952 E11.94535
G1 X122.935 Y174.43 E11.99011
G1 X122.707 Y174.025 E12.02404
G1 X122.446 Y173.519 E12.06559
G1 X122.24 Y173.08 E12.10099
G1 X121.998 Y172.503 E12.14666
G1 X121.84 Y172.08 E12.17962
G1 X121.654 Y171.518 E12.22282
G1 X121.522 Y171.06 E12.25761
G1 X121.37 Y170.435 E12.30456
G1 X121.279 Y169.979 E12.3385
G1 X121.187 Y169.406 E12.38086
G1 X121.128 Y168.923 E12.41638
G1 X121.078 Y168.31 E12.46127
G1 X121.057 Y167.806 E12.49808
G1 X121.05 Y167.485 E12.52152
G1 X121.05 Y132.503 E15.07483
G1 X121.058 Y132.161 E15.0998
G1 X121.081 Y131.644 E15.13758
G1 X121.134 Y131.021 E15.18321
G1 X121.194 Y130.546 E15.21816
G1 X121.293 Y129.951 E15.26218
G1 X121.39 Y129.482 E15.29714
G1 X121.537 Y128.89 E15.34166
G1 X121.67 Y128.433 E15.3764
G1 X121.861 Y127.86 E15.42049
G1 X122.026 Y127.424 E15.45451
G1 X122.271 Y126.849 E15.50013
G1 X122.465 Y126.44 E15.53317
G1 X122.733 Y125.927 E15.57542
G1 X122.969 Y125.513 E15.6102
G1 X123.292 Y124.995 E15.65476
G1 X123.558 Y124.604 E15.68927
G1 X123.895 Y124.146 E15.73078
G1 X124.173 Y123.796 E15.7634
G1 X124.585 Y123.319 E15.80941
G1 X124.9 Y122.983 E15.84302
G0 F6000 X125.349 Y123.404
G1 F1200 X125.704 Y123.051 E15.87956
G1 X126.041 Y122.739 E15.91309
G1 X126.471 Y122.371 E15.9544
G1 X126.838 Y122.082 E15.98849
G1 X127.266 Y121.771 E16.02711
G1 X127.642 Y121.518 E16.06018
G1 X128.112 Y121.227 E16.10053
G1 X128.512 Y121.001 E16.13407
G1 X128.988 Y120.756 E16.17314
G1 X129.427 Y120.55 E16.20854
G1 X129.955 Y120.327 E16.25037
G1 X130.383 Y120.167 E16.28372
G1 X130.898 Y119.997 E16.32331
G1 X131.355 Y119.865 E16.35803
G1 X131.938 Y119.723 E16.40182
G1 X132.395 Y119.632 E16.43583
G1 X132.927 Y119.547 E16.47516
G1 X133.423 Y119.487 E16.51162
G1 X133.994 Y119.442 E16.55343
G1 X134.499 Y119.422 E16.59032
G1 X134.779 Y119.416 E16.61076
G1 X165.257 Y119.416 E18.83533
G1 X165.568 Y119.423 E18.85804
G1 X166.068 Y119.445 E18.89457
G1 X166.646 Y119.494 E18.9369
G1 X167.128 Y119.555 E18.97237
G1 X167.674 Y119.646 E19.01277
G1 X168.143 Y119.743 E19.04772
G1 X168.688 Y119.878 E19.08871
G1 X169.145 Y120.011 E19.12345
G1 X169.662 Y120.184 E19.16324
G1 X170.1 Y120.349 E19.1974
G1 X170.652 Y120.584 E19.24119
G1 X171.063 Y120.78 E19.27442
G1 X171.522 Y121.02 E19.31223
G1 X171.929 Y121.252 E19.34642
G1 X172.405 Y121.549 E19.38738
G1 X172.799 Y121.817 E19.42216
G1 X173.215 Y122.122 E19.45981
G1 X173.562 Y122.397 E19.49212
G1 X174 Y122.775 E19.53435
G1 X174.339 Y123.092 E19.56823
G1 X174.707 Y123.462 E19.60632
G1 X175.018 Y123.799 E19.63979
G1 X175.376 Y124.218 E19.68001
G1 X175.666 Y124.586 E19.71421
G1 X175.979 Y125.016 E19.75303
G1 X176.232 Y125.392 E19.78611
G1 X176.517 Y125.852 E19.82561
G1 X176.745 Y126.254 E19.85934
G1 X177.011 Y126.773 E19.9019
G1 X177.211 Y127.205 E19.93665
G1 X177.407 Y127.67 E19.97348
G1 X177.57 Y128.1 E20.00705
G1 X177.748 Y128.633 E20.04806
G1 X177.88 Y129.087 E20.08257
G1 X178.022 Y129.661 E20.12573
G1 X178.116 Y130.126 E20.16036
G1 X178.206 Y130.694 E20.20233
G1 X178.264 Y131.182 E20.2382
G1 X178.308 Y131.733 E20.27855
G1 X178.328 Y132.23 E20.31485
G1 X178.334 Y132.515 E20.33566
G1 X178.334 Y167.507 E22.8897
G1 X178.327 Y167.822 E22.9127
G1 X178.305 Y168.316 E22.94879
G1 X178.26 Y168.855 E22.98827
G1 X178.201 Y169.341 E23.024
G1 X178.104 Y169.933 E23.06779
G1 X178.006 Y170.403 E23.10283
G1 X177.872 Y170.939 E23.14316
G1 X177.74 Y171.392 E23.1776
G1 X177.558 Y171.933 E23.21926
G1 X177.388 Y172.379 E23.2541
G1 X177.176 Y172.878 E23.29367
G1 X176.984 Y173.285 E23.32652
G1 X176.731 Y173.771 E23.36651
G1 X176.499 Y174.178 E23.4007
G1 X176.211 Y174.642 E23.44056
G1 X175.951 Y175.026 E23.47441
G1 X175.62 Y175.476 E23.51519
G1 X175.334 Y175.834 E23.54863
G1 X174.988 Y176.234 E23.58723
G1 X174.673 Y176.573 E23.62101
G1 X174.288 Y176.957 E23.6607
G1 X173.951 Y177.268 E23.69417
G1 X173.532 Y177.626 E23.7344
G1 X173.164 Y177.916 E23.76859
G1 X172.734 Y178.229 E23.80741
G1 X172.358 Y178.482 E23.84049
G1 X171.898 Y178.767 E23.87999
G1 X171.496 Y178.995 E23.91372
G1 X170.984 Y179.258 E23.95573
G1 X170.551 Y179.459 E23.99058
G1 X170.057 Y179.666 E24.02967
G1 X169.62 Y179.83 E24.06374
G1 X169.099 Y180.003 E24.10381
G1 X168.646 Y180.134 E24.13823
G1 X168.088 Y180.271 E24.18017
G1 X167.63 Y180.364 E24.21428
G1 X167.048 Y180.457 E24.2573
G1 X166.555 Y180.515 E24.29353
G1 X166.007 Y180.558 E24.33365
G1 X165.501 Y180.578 E24.37061
G1 X165.221 Y180.584 E24.39105
G1 X134.743 Y180.584 E26.61562
G1 X134.432 Y180.577 E26.63833
G1 X133.931 Y180.555 E26.67493
G1 X133.378 Y180.509 E26.71543
G1 X132.898 Y180.45 E26.75073
G1 X132.305 Y180.352 E26.7946
G1 X131.834 Y180.253 E26.82973
G1 X131.315 Y180.123 E26.86878
G1 X130.864 Y179.992 E26.90306
G1 X130.317 Y179.808 E26.94518
G1 X129.871 Y179.638 E26.98002
G1 X129.37 Y179.425 E27.01976
G1 X128.959 Y179.231 E27.05293
G1 X128.477 Y178.98 E27.09259
G1 X128.082 Y178.755 E27.12577
G1 X127.605 Y178.458 E27.16679
G1 X127.202 Y178.184 E27.20236
G1 X126.779 Y177.873 E27.24068
G1 X126.429 Y177.595 E27.2733
G1 X125.99 Y177.216 E27.31563
G1 X125.654 Y176.901 E27.34925
G1 X125.301 Y176.546 E27.38579
G1 X124.989 Y176.209 E27.41931
G1 X124.621 Y175.779 E27.46062
G1 X124.332 Y175.412 E27.49472
G1 X124.021 Y174.984 E27.53333
G1 X123.768 Y174.608 E27.56641
G1 X123.472 Y174.128 E27.60757
G1 X123.244 Y173.723 E27.6415
G1 X123.004 Y173.257 E27.67975
G1 X122.798 Y172.818 E27.71515
G1 X122.575 Y172.288 E27.75712
G1 X122.417 Y171.865 E27.79008
G1 X122.246 Y171.348 E27.82982
G1 X122.114 Y170.89 E27.86461
G1 X121.974 Y170.314 E27.90788
G1 X121.883 Y169.858 E27.94182
G1 X121.798 Y169.331 E27.98078
G1 X121.739 Y168.848 E28.0163
G1 X121.693 Y168.284 E28.0576
G1 X121.672 Y167.78 E28.09442
G1 X121.666 Y167.485 E28.11595
G1 X121.666 Y132.503 E30.66927
G1 X121.673 Y132.188 E30.69226
G1 X121.696 Y131.671 E30.73004
G1 X121.745 Y131.098 E30.77201
G1 X121.805 Y130.623 E30.80696
G1 X121.896 Y130.076 E30.84743
G1 X121.993 Y129.607 E30.88239
G1 X122.128 Y129.062 E30.92337
G1 X122.261 Y128.605 E30.95811
G1 X122.438 Y128.078 E30.99869
G1 X122.603 Y127.642 E31.03271
G1 X122.828 Y127.113 E31.07467
G1 X123.022 Y126.704 E31.10771
G1 X123.268 Y126.232 E31.14656
G1 X123.504 Y125.818 E31.18134
G1 X123.801 Y125.341 E31.22236
G1 X124.067 Y124.95 E31.25687
G1 X124.377 Y124.529 E31.29504
G1 X124.655 Y124.179 E31.32766
G1 X125.034 Y123.74 E31.36999
G1 X125.349 Y123.404 E31.40361
G0 F6000 X125.798 Y123.825
G1 F1200 X126.123 Y123.503 E31.437
G1 X126.46 Y123.191 E31.47052
G1 X126.852 Y122.855 E31.5082
G1 X127.219 Y122.566 E31.5423
G1 X127.61 Y122.282 E31.57757
G1 X127.986 Y122.029 E31.61065
G1 X128.415 Y121.764 E31.64746
G1 X128.815 Y121.538 E31.68099
G1 X129.249 Y121.314 E31.71664
G1 X129.688 Y121.108 E31.75203
G1 X130.171 Y120.904 E31.7903
G1 X130.599 Y120.744 E31.82365
G1 X131.069 Y120.589 E31.85977
G1 X131.526 Y120.457 E31.89449
G1 X132.058 Y120.328 E31.93445
G1 X132.515 Y120.237 E31.96846
G1 X133.001 Y120.159 E32.00439
G1 X133.497 Y120.099 E32.04085
G1 X134.018 Y120.057 E32.079
G1 X134.523 Y120.037 E32.11589
G1 X134.779 Y120.032 E32.13458
G1 X165.257 Y120.032 E34.35915
G1 X165.541 Y120.038 E34.37989
G1 X166.041 Y120.06 E34.41642
G1 X166.569 Y120.105 E34.45509
G1 X167.051 Y120.166 E34.49056
G1 X167.549 Y120.249 E34.52741
G1 X168.018 Y120.346 E34.56236
G1 X168.515 Y120.47 E34.59975
G1 X168.972 Y120.603 E34.63449
G1 X169.445 Y120.76 E34.67087
G1 X169.883 Y120.925 E34.70503
G1 X170.387 Y121.14 E34.74502
G1 X170.798 Y121.336 E34.77826
G1 X171.217 Y121.555 E34.81277
G1 X171.624 Y121.787 E34.84696
G1 X172.059 Y122.058 E34.88437
G1 X172.453 Y122.326 E34.91915
G1 X172.832 Y122.605 E34.9535
G1 X173.179 Y122.88 E34.98581
G1 X173.58 Y123.225 E35.02442
G1 X173.919 Y123.542 E35.0583
G1 X174.254 Y123.879 E35.09298
G1 X174.565 Y124.216 E35.12645
G1 X174.892 Y124.6 E35.16327
G1 X175.182 Y124.968 E35.19747
G1 X175.468 Y125.36 E35.23288
G1 X175.721 Y125.736 E35.26596
G1 X175.981 Y126.156 E35.30202
G1 X176.209 Y126.558 E35.33575
G1 X176.452 Y127.032 E35.37463
G1 X176.652 Y127.464 E35.40937
G1 X176.831 Y127.888 E35.44297
G1 X176.994 Y128.318 E35.47653
G1 X177.157 Y128.805 E35.51401
G1 X177.289 Y129.259 E35.54852
G1 X177.418 Y129.783 E35.58791
G1 X177.512 Y130.248 E35.62254
G1 X177.595 Y130.767 E35.6609
G1 X177.653 Y131.255 E35.69677
G1 X177.693 Y131.758 E35.7336
G1 X177.713 Y132.255 E35.76991
G1 X177.718 Y132.515 E35.78889
G1 X177.718 Y167.507 E38.34293
G1 X177.712 Y167.795 E38.36396
G1 X177.69 Y168.289 E38.40005
G1 X177.649 Y168.78 E38.43601
G1 X177.59 Y169.266 E38.47174
G1 X177.501 Y169.807 E38.51176
G1 X177.403 Y170.277 E38.5468
G1 X177.281 Y170.766 E38.58359
G1 X177.149 Y171.219 E38.61803
G1 X176.983 Y171.714 E38.65614
G1 X176.813 Y172.16 E38.69098
G1 X176.619 Y172.616 E38.72715
G1 X176.427 Y173.023 E38.75999
G1 X176.196 Y173.466 E38.79646
G1 X175.964 Y173.873 E38.83065
G1 X175.701 Y174.296 E38.86701
G1 X175.441 Y174.68 E38.90086
G1 X175.138 Y175.091 E38.93812
G1 X174.852 Y175.449 E38.97157
G1 X174.537 Y175.815 E39.00682
G1 X174.222 Y176.154 E39.04059
G1 X173.871 Y176.504 E39.07677
G1 X173.534 Y176.815 E39.11024
G1 X173.15 Y177.142 E39.14706
G1 X172.782 Y177.432 E39.18125
G1 X172.39 Y177.718 E39.21667
G1 X172.014 Y177.971 E39.24975
G1 X171.594 Y178.231 E39.2858
G1 X171.192 Y178.459 E39.31954
G1 X170.724 Y178.7 E39.35796
G1 X170.291 Y178.901 E39.3928
G1 X169.841 Y179.09 E39.42843
G1 X169.404 Y179.254 E39.4625
G1 X168.928 Y179.411 E39.49908
G1 X168.475 Y179.542 E39.5335
G1 X167.965 Y179.668 E39.57184
G1 X167.507 Y179.761 E39.60595
G1 X166.976 Y179.846 E39.6452
G1 X166.483 Y179.904 E39.68144
G1 X165.982 Y179.943 E39.71811
G1 X165.476 Y179.963 E39.75508
G1 X165.221 Y179.968 E39.77369
G1 X134.743 Y179.968 E41.99826
G1 X134.459 Y179.962 E42.01899
G1 X133.958 Y179.94 E42.0556
G1 X133.453 Y179.898 E42.09258
G1 X132.973 Y179.839 E42.12788
G1 X132.432 Y179.749 E42.16791
G1 X131.961 Y179.65 E42.20304
G1 X131.487 Y179.531 E42.23871
G1 X131.036 Y179.4 E42.27299
G1 X130.536 Y179.233 E42.31147
G1 X130.09 Y179.063 E42.34631
G1 X129.633 Y178.868 E42.38257
G1 X129.222 Y178.674 E42.41574
G1 X128.782 Y178.445 E42.45195
G1 X128.387 Y178.22 E42.48513
G1 X127.951 Y177.949 E42.5226
G1 X127.548 Y177.675 E42.55817
G1 X127.162 Y177.391 E42.59315
G1 X126.812 Y177.113 E42.62577
G1 X126.411 Y176.767 E42.66443
G1 X126.075 Y176.452 E42.69805
G1 X125.753 Y176.127 E42.73144
G1 X125.441 Y175.79 E42.76496
G1 X125.105 Y175.398 E42.80264
G1 X124.816 Y175.031 E42.83674
G1 X124.532 Y174.64 E42.87201
G1 X124.279 Y174.264 E42.90509
G1 X124.009 Y173.826 E42.94264
G1 X123.781 Y173.421 E42.97657
G1 X123.562 Y172.996 E43.01146
G1 X123.356 Y172.557 E43.04686
G1 X123.152 Y172.072 E43.08526
G1 X122.994 Y171.649 E43.11822
G1 X122.838 Y171.177 E43.1545
G1 X122.706 Y170.719 E43.18929
G1 X122.578 Y170.194 E43.22874
G1 X122.487 Y169.738 E43.26268
G1 X122.41 Y169.256 E43.2983
G1 X122.351 Y168.773 E43.33382
G1 X122.309 Y168.258 E43.37153
G1 X122.288 Y167.754 E43.40835
G1 X122.282 Y167.485 E43.42799
G1 X122.282 Y132.503 E45.9813
G1 X122.288 Y132.216 E46.00226
G1 X122.311 Y131.699 E46.04003
G1 X122.356 Y131.175 E46.07842
G1 X122.416 Y130.7 E46.11336
G1 X122.499 Y130.201 E46.15028
G1 X122.596 Y129.732 E46.18524
G1 X122.72 Y129.235 E46.22263
G1 X122.853 Y128.778 E46.25737
G1 X123.014 Y128.296 E46.29446
G1 X123.179 Y127.86 E46.32849
G1 X123.384 Y127.377 E46.36678
G1 X123.578 Y126.968 E46.39982
G1 X123.803 Y126.537 E46.43531
