; generated by PrusaSlicer 2.6.1+win64 on 2023-11-09 at 06:38:23 UTC


;
;
; 

; external perimeters extrusion width = 0.42mm
; perimeters extrusion width = 0.45mm
; infill extrusion width = 0.45mm
; solid infill extrusion width = 0.45mm
; top infill extrusion width = 0.42mm
; first layer extrusion width = 0.50mm

;TYPE:Custom
G90 ; use absolute coordinates
M83 ; extruder relative mode
M140 S85 ; set bed temp
M190 S85 ; wait for bed temp
M104 S230 ; set extruder temp
M109 S230 ; wait for extruder temp
G28                                        ; move X/Y/Z to min endstops
G1 Z0.28                                   ; lift nozzle a bit 
G92 E0 
G1 Y3 F2400                                    ; zero the extruded length 
G1 X180  E40 F500                       ; Extrude 25mm of filament in a 5cm line. 
G92 E0                                     ; zero the extruded length again 
G1 E-0.2 F3000                                ; Retract a little 
G1 X181 F4000                              ; Quickly wipe away from the filament line
M117
G21 ; set units to millimeters
G90 ; use absolute coordinates
M82 ; use absolute distances for extrusion
G92 E0
; Filament gcode
M107
;LAYER_CHANGE
;Z:0.2
;HEIGHT:0.2
; BEFORE_LAYER_CHANGE 0 @ 0.2mm
G1 E-2.5 F4800
G92 E0
G1 Z-1.63 F18000
; AFTER_LAYER_CHANGE 0 @ 0.2mm
M204 S20000
G1 X91.951 Y91.922
G1 E2.5 F4800
M204 S5000
;TYPE:Skirt/Brim
;WIDTH:0.5
G1 X92.332 Y91.54 E2.51845
G1 X93.184 Y90.84 E2.55617
G1 X94.047 Y90.257 E2.59179
G1 X94.953 Y89.759 E2.62715
G1 X96.059 Y89.283 E2.66834
G1 X97.177 Y88.936 E2.70838
G1 X98.164 Y88.73 E2.74287
G1 X99.171 Y88.612 E2.77755
G1 X100.63 Y88.598 E2.82746
G1 X101.663 Y88.703 E2.86298
G1 X102.694 Y88.903 E2.8989
G1 X103.791 Y89.229 E2.93805
G1 X104.896 Y89.683 E2.97891
G1 X105.889 Y90.216 E3.01746
G1 X106.836 Y90.852 E3.05648
G1 X107.501 Y91.401 E3.08598
G1 X108.198 Y90.828 E3.11684
G1 X109.048 Y90.255 E3.1519
G1 X110.01 Y89.73 E3.18939
G1 X111.161 Y89.245 E3.23211
G1 X112.154 Y88.942 E3.26762
G1 X113.183 Y88.727 E3.30358
G1 X114.299 Y88.604 E3.34198
G1 X115.627 Y88.598 E3.38741
G1 X116.585 Y88.692 E3.42034
G1 X117.581 Y88.877 E3.45499
G1 X118.634 Y89.176 E3.49243
G1 X119.892 Y89.682 E3.53881
G1 X120.949 Y90.254 E3.57992
G1 X121.851 Y90.865 E3.61719
G1 X122.498 Y91.399 E3.64589
G1 X123.163 Y90.852 E3.67534
G1 X124.012 Y90.276 E3.71043
G1 X125.015 Y89.726 E3.74956
G1 X126.22 Y89.223 E3.79422
G1 X127.202 Y88.929 E3.82928
G1 X128.183 Y88.726 E3.86355
G1 X129.298 Y88.604 E3.90192
G1 X130.629 Y88.598 E3.94745
G1 X131.626 Y88.698 E3.98172
G1 X132.586 Y88.878 E4.01513
G1 X133.705 Y89.201 E4.05497
G1 X134.861 Y89.668 E4.09762
G1 X135.926 Y90.241 E4.13899
G1 X136.915 Y90.915 E4.17993
G1 X137.767 Y91.631 E4.218
G1 X138.536 Y92.417 E4.25561
G1 X139.228 Y93.278 E4.29339
G1 X139.862 Y94.248 E4.33303
G1 X140.363 Y95.209 E4.3701
G1 X140.77 Y96.211 E4.40709
G1 X141.104 Y97.344 E4.44749
G1 X141.314 Y98.469 E4.48664
G1 X141.408 Y99.525 E4.5229
G1 X141.403 Y100.571 E4.55868
G1 X141.297 Y101.655 E4.59594
G1 X141.066 Y102.812 E4.6363
G1 X140.727 Y103.912 E4.67567
G1 X140.284 Y104.962 E4.71465
G1 X139.744 Y105.951 E4.75319
G1 X139.122 Y106.868 E4.79109
G1 X138.597 Y107.503 E4.81927
G1 X139.237 Y108.289 E4.85394
G1 X139.839 Y109.207 E4.89149
G1 X140.365 Y110.211 E4.93026
G1 X140.778 Y111.23 E4.96787
G1 X141.085 Y112.267 E5.00486
G1 X141.302 Y113.382 E5.04371
G1 X141.405 Y114.463 E5.08085
G1 X141.404 Y115.563 E5.11848
G1 X141.286 Y116.728 E5.15853
G1 X141.052 Y117.865 E5.19824
G1 X140.718 Y118.935 E5.23658
G1 X140.28 Y119.968 E5.27496
G1 X139.777 Y120.896 E5.31107
G1 X139.111 Y121.881 E5.35174
G1 X138.407 Y122.727 E5.38939
G1 X137.615 Y123.508 E5.42744
G1 X136.773 Y124.193 E5.46457
G1 X135.97 Y124.734 E5.49769
G1 X135.11 Y125.211 E5.53133
G1 X133.933 Y125.72 E5.57519
G1 X132.75 Y126.083 E5.61752
G1 X131.696 Y126.292 E5.65427
G1 X130.547 Y126.406 E5.69377
G1 X129.358 Y126.402 E5.73444
G1 X128.337 Y126.298 E5.76954
G1 X127.309 Y126.099 E5.80536
G1 X126.182 Y125.763 E5.84559
G1 X125.476 Y125.475 E5.87167
G1 X125.778 Y126.223 E5.89926
G1 X126.099 Y127.314 E5.93816
G1 X126.313 Y128.439 E5.97733
G1 X126.409 Y129.496 E6.01363
G1 X126.404 Y130.593 E6.05115
G1 X126.287 Y131.735 E6.09042
G1 X126.059 Y132.846 E6.12921
G1 X125.711 Y133.96 E6.16913
G1 X125.266 Y135.001 E6.20786
G1 X124.733 Y135.971 E6.24572
G1 X124.106 Y136.889 E6.28375
G1 X123.412 Y137.722 E6.32084
G1 X122.647 Y138.48 E6.35768
G1 X121.864 Y139.125 E6.39238
G1 X121.04 Y139.69 E6.42655
G1 X119.999 Y140.265 E6.46723
G1 X118.813 Y140.764 E6.51124
G1 X117.799 Y141.07 E6.54747
G1 X116.766 Y141.28 E6.58353
G1 X115.597 Y141.402 E6.62373
G1 X114.391 Y141.402 E6.66498
G1 X113.326 Y141.295 E6.70159
G1 X112.293 Y141.092 E6.7376
G1 X111.144 Y140.748 E6.77863
G1 X110.097 Y140.312 E6.81742
G1 X109.115 Y139.785 E6.85554
G1 X108.215 Y139.184 E6.89256
G1 X107.502 Y138.601 E6.92406
G1 X106.853 Y139.135 E6.95281
G1 X105.972 Y139.733 E6.98923
G1 X104.988 Y140.271 E7.02759
G1 X103.829 Y140.758 E7.07059
G1 X102.776 Y141.076 E7.10822
G1 X101.703 Y141.29 E7.14565
G1 X100.577 Y141.403 E7.18436
G1 X99.348 Y141.4 E7.2264
G1 X98.356 Y141.299 E7.26051
G1 X97.39 Y141.116 E7.29414
G1 X96.135 Y140.743 E7.33892
G1 X94.959 Y140.245 E7.3826
G1 X94.118 Y139.785 E7.41539
G1 X93.318 Y139.258 E7.44816
G1 X92.362 Y138.486 E7.49019
G1 X91.444 Y137.56 E7.53479
G1 X90.855 Y136.836 E7.56672
G1 X90.327 Y136.066 E7.59866
G1 X89.719 Y134.963 E7.64174
G1 X89.224 Y133.776 E7.68573
G1 X88.925 Y132.775 E7.72146
G1 X88.717 Y131.746 E7.75737
G1 X88.597 Y130.571 E7.79777
G1 X88.598 Y129.386 E7.8383
G1 X88.708 Y128.305 E7.87547
G1 X88.913 Y127.272 E7.91149
G1 X89.252 Y126.144 E7.95178
G1 X89.679 Y125.114 E7.98992
G1 X90.206 Y124.128 E8.02816
G1 X90.811 Y123.221 E8.06545
G1 X91.4 Y122.5 E8.0973
G1 X90.873 Y121.862 E8.12561
G1 X90.269 Y120.973 E8.16237
G1 X89.734 Y119.997 E8.20044
G1 X89.273 Y118.913 E8.24073
G1 X88.94 Y117.835 E8.27932
G1 X88.714 Y116.73 E8.3179
G1 X88.596 Y115.553 E8.35836
G1 X88.597 Y114.42 E8.39712
G1 X88.704 Y113.334 E8.43445
G1 X88.911 Y112.279 E8.47123
G1 X89.243 Y111.172 E8.51076
G1 X89.69 Y110.093 E8.55071
G1 X90.185 Y109.164 E8.58672
G1 X90.786 Y108.257 E8.62394
G1 X91.399 Y107.501 E8.65723
G1 X90.854 Y106.838 E8.68659
G1 X90.265 Y105.969 E8.7225
G1 X89.728 Y104.986 E8.76081
G1 X89.25 Y103.851 E8.80294
G1 X88.931 Y102.802 E8.84044
G1 X88.714 Y101.73 E8.87785
G1 X88.598 Y100.602 E8.91664
G1 X88.6 Y99.347 E8.95957
G1 X88.704 Y98.339 E8.99423
G1 X88.895 Y97.348 E9.02875
G1 X89.282 Y96.065 E9.07459
G1 X89.708 Y95.055 E9.11209
G1 X90.232 Y94.089 E9.14968
G1 X90.797 Y93.243 E9.18448
G1 X91.543 Y92.33 E9.22481
G1 X91.908 Y91.964 E9.24249
M204 S20000
G1 X92.232 Y92.286 F18000
M204 S5000
G1 F4800
G1 X92.632 Y91.886 E9.26184
G1 X93.449 Y91.212 E9.29807
G1 X94.277 Y90.652 E9.33226
G1 X95.143 Y90.175 E9.36608
G1 X96.228 Y89.708 E9.40648
G1 X97.301 Y89.376 E9.4449
G1 X98.247 Y89.18 E9.47795
G1 X99.212 Y89.067 E9.51118
G1 X100.597 Y89.054 E9.55856
G1 X101.606 Y89.156 E9.59325
G1 X102.595 Y89.35 E9.62772
G1 X103.629 Y89.657 E9.66461
G1 X104.712 Y90.101 E9.70465
G1 X105.662 Y90.613 E9.74156
G1 X106.571 Y91.225 E9.77904
G1 X107.5 Y91.994 E9.82029
G1 X108.463 Y91.2 E9.86298
G1 X109.277 Y90.651 E9.89656
G1 X110.198 Y90.147 E9.93247
G1 X111.327 Y89.671 E9.97438
G1 X112.277 Y89.382 E10.00835
G1 X113.265 Y89.177 E10.04287
G1 X114.336 Y89.059 E10.07973
G1 X115.616 Y89.055 E10.12351
G1 X116.53 Y89.146 E10.15493
G1 X117.466 Y89.319 E10.18749
G1 X118.497 Y89.612 E10.22415
G1 X119.708 Y90.101 E10.26882
G1 X120.721 Y90.65 E10.30823
G1 X121.585 Y91.237 E10.34396
G1 X122.498 Y91.993 E10.38451
G1 X123.429 Y91.224 E10.42581
G1 X124.259 Y90.66 E10.46014
G1 X125.224 Y90.133 E10.49775
G1 X126.385 Y89.65 E10.54076
G1 X127.305 Y89.374 E10.57361
G1 X128.244 Y89.179 E10.60641
G1 X129.313 Y89.061 E10.6432
G1 X130.596 Y89.054 E10.68709
G1 X131.57 Y89.152 E10.72057
G1 X132.491 Y89.326 E10.75263
G1 X133.545 Y89.629 E10.79014
G1 X134.656 Y90.077 E10.83112
G1 X135.678 Y90.626 E10.8708
G1 X136.648 Y91.286 E10.91093
G1 X137.463 Y91.973 E10.94739
G1 X138.201 Y92.729 E10.98353
G1 X138.852 Y93.538 E11.01905
G1 X139.462 Y94.47 E11.05715
G1 X139.944 Y95.392 E11.09274
G1 X140.335 Y96.351 E11.12816
G1 X140.662 Y97.462 E11.16777
G1 X140.86 Y98.52 E11.20459
G1 X140.951 Y99.555 E11.24013
G1 X140.946 Y100.558 E11.27444
G1 X140.846 Y101.577 E11.30946
G1 X140.626 Y102.689 E11.34823
G1 X140.294 Y103.766 E11.38678
G1 X139.868 Y104.773 E11.42418
G1 X139.36 Y105.704 E11.46046
G1 X138.75 Y106.602 E11.49759
G1 X138.005 Y107.501 E11.53753
G1 X138.862 Y108.55 E11.58386
G1 X139.451 Y109.449 E11.62062
G1 X139.946 Y110.393 E11.65708
G1 X140.35 Y111.391 E11.69391
G1 X140.644 Y112.386 E11.7294
G1 X140.848 Y113.437 E11.76602
G1 X140.949 Y114.495 E11.80237
G1 X140.947 Y115.551 E11.83849
G1 X140.835 Y116.648 E11.87621
G1 X140.612 Y117.74 E11.91433
G1 X140.285 Y118.788 E11.95188
G1 X139.873 Y119.76 E11.98799
G1 X139.392 Y120.65 E12.02259
G1 X138.753 Y121.598 E12.0617
G1 X138.063 Y122.425 E12.09854
G1 X137.302 Y123.175 E12.13509
G1 X136.493 Y123.832 E12.17074
G1 X135.739 Y124.339 E12.20182
G1 X134.918 Y124.797 E12.23398
G1 X133.763 Y125.296 E12.27702
G1 X132.628 Y125.642 E12.31761
G1 X131.618 Y125.842 E12.35283
G1 X130.537 Y125.949 E12.38999
G1 X129.371 Y125.945 E12.42987
G1 X128.394 Y125.845 E12.46346
G1 X127.408 Y125.652 E12.49783
G1 X126.325 Y125.329 E12.53649
G1 X125.274 Y124.893 E12.57541
G1 X124.967 Y124.73 E12.5873
G1 X124.728 Y124.967 E12.59881
G1 X124.934 Y125.362 E12.61405
G1 X125.343 Y126.363 E12.65104
G1 X125.658 Y127.432 E12.68916
G1 X125.862 Y128.513 E12.72679
G1 X125.953 Y129.526 E12.76158
G1 X125.947 Y130.579 E12.7976
G1 X125.833 Y131.676 E12.83533
G1 X125.613 Y132.742 E12.87256
G1 X125.278 Y133.812 E12.91091
G1 X124.85 Y134.811 E12.94809
G1 X124.338 Y135.741 E12.9844
G1 X123.735 Y136.622 E13.02092
G1 X123.082 Y137.405 E13.05579
G1 X122.348 Y138.134 E13.09118
G1 X121.597 Y138.754 E13.12449
G1 X120.809 Y139.296 E13.1572
G1 X119.81 Y139.849 E13.19626
G1 X118.668 Y140.33 E13.23865
G1 X117.697 Y140.624 E13.27335
G1 X116.686 Y140.83 E13.30864
G1 X115.562 Y140.946 E13.34729
G1 X114.403 Y140.945 E13.38693
G1 X113.403 Y140.844 E13.42131
G1 X112.413 Y140.651 E13.45581
G1 X111.287 Y140.313 E13.49602
G1 X110.283 Y139.895 E13.53322
G1 X109.36 Y139.399 E13.56906
G1 X108.479 Y138.81 E13.60531
G1 X107.5 Y138.009 E13.64858
G1 X106.588 Y138.763 E13.68906
G1 X105.725 Y139.349 E13.72474
G1 X104.78 Y139.864 E13.76155
G1 X103.663 Y140.332 E13.80298
G1 X102.676 Y140.63 E13.83825
G1 X101.646 Y140.837 E13.87419
G1 X100.566 Y140.946 E13.91132
G1 X99.382 Y140.944 E13.95182
G1 X98.431 Y140.848 E13.98451
G1 X97.487 Y140.669 E14.01738
G1 X96.278 Y140.309 E14.06053
G1 X95.168 Y139.838 E14.10178
G1 X94.361 Y139.399 E14.1332
G1 X93.579 Y138.882 E14.16527
G1 X92.66 Y138.139 E14.20569
G1 X91.791 Y137.263 E14.2479
G1 X91.227 Y136.569 E14.27849
G1 X90.71 Y135.817 E14.30971
G1 X90.136 Y134.775 E14.3504
G1 X89.658 Y133.633 E14.39275
G1 X89.371 Y132.675 E14.42696
G1 X89.167 Y131.667 E14.46214
G1 X89.053 Y130.537 E14.50099
G1 X89.055 Y129.398 E14.53995
G1 X89.159 Y128.382 E14.57488
G1 X89.354 Y127.393 E14.60936
G1 X89.687 Y126.287 E14.64887
G1 X90.097 Y125.3 E14.68543
G1 X90.593 Y124.372 E14.72142
G1 X91.185 Y123.484 E14.75793
G1 X91.992 Y122.499 E14.80149
G1 X91.245 Y121.595 E14.8416
G1 X90.664 Y120.743 E14.87687
G1 X90.15 Y119.807 E14.9134
G1 X89.706 Y118.766 E14.95211
G1 X89.385 Y117.732 E14.98914
G1 X89.168 Y116.672 E15.02615
G1 X89.052 Y115.519 E15.06579
G1 X89.053 Y114.453 E15.10225
G1 X89.155 Y113.411 E15.13806
G1 X89.358 Y112.378 E15.17407
G1 X89.67 Y111.336 E15.21128
G1 X90.108 Y110.279 E15.25042
G1 X90.583 Y109.39 E15.2849
G1 X91.161 Y108.519 E15.32066
G1 X91.991 Y107.5 E15.36561
G1 X91.227 Y106.572 E15.40673
G1 X90.65 Y105.722 E15.44187
G1 X90.135 Y104.777 E15.47868
G1 X89.676 Y103.685 E15.5192
G1 X89.377 Y102.701 E15.55438
G1 X89.168 Y101.671 E15.59033
G1 X89.055 Y100.59 E15.62751
G1 X89.056 Y99.381 E15.66886
G1 X89.155 Y98.415 E15.70208
G1 X89.336 Y97.468 E15.73506
G1 X89.708 Y96.231 E15.77924
G1 X90.125 Y95.243 E15.81592
G1 X90.618 Y94.334 E15.85129
G1 X91.159 Y93.523 E15.88464
G1 X91.875 Y92.644 E15.92342
G1 X92.189 Y92.329 E15.93863
M204 S20000
G1 X92.512 Y92.652 F18000
M204 S5000
G1 F4800
G1 X92.947 Y92.217 E15.95967
G1 X93.731 Y91.572 E15.9944
G1 X94.507 Y91.047 E16.02645
G1 X95.335 Y90.59 E16.0588
G1 X96.376 Y90.141 E16.09758
G1 X97.405 Y89.822 E16.13443
G1 X98.33 Y89.629 E16.16675
G1 X99.252 Y89.523 E16.1985
G1 X100.588 Y89.511 E16.2442
G1 X101.549 Y89.61 E16.27725
G1 X102.476 Y89.791 E16.30956
G1 X103.487 Y90.091 E16.34563
G1 X104.527 Y90.519 E16.3841
G1 X105.435 Y91.01 E16.41941
G1 X106.306 Y91.597 E16.45534
G1 X107.109 Y92.264 E16.49105
G1 X107.503 Y92.659 E16.51013
G1 X108.014 Y92.154 E16.5347
G1 X108.743 Y91.562 E16.56682
G1 X109.506 Y91.046 E16.59833
G1 X110.387 Y90.563 E16.6327
G1 X111.472 Y90.105 E16.67298
G1 X112.4 Y89.822 E16.70617
G1 X113.347 Y89.626 E16.73925
G1 X114.373 Y89.515 E16.77455
G1 X115.606 Y89.512 E16.81673
G1 X116.474 Y89.599 E16.84657
G1 X117.352 Y89.762 E16.87712
G1 X118.361 Y90.048 E16.91299
G1 X119.525 Y90.519 E16.95594
G1 X120.473 Y91.034 E16.99284
G1 X121.319 Y91.608 E17.02781
G1 X122.084 Y92.243 E17.06182
G1 X122.5 Y92.658 E17.08192
G1 X122.997 Y92.168 E17.10579
G1 X123.71 Y91.585 E17.13729
G1 X124.488 Y91.056 E17.16947
G1 X125.411 Y90.55 E17.20547
G1 X126.528 Y90.084 E17.24687
G1 X127.408 Y89.82 E17.2783
G1 X128.306 Y89.632 E17.30968
G1 X129.328 Y89.518 E17.34486
G1 X130.562 Y89.51 E17.38707
G1 X131.515 Y89.605 E17.41983
G1 X132.395 Y89.773 E17.45047
G1 X133.386 Y90.058 E17.48574
G1 X134.451 Y90.486 E17.525
G1 X135.432 Y91.011 E17.56306
G1 X136.363 Y91.643 E17.60155
G1 X137.16 Y92.316 E17.63723
G1 X137.852 Y93.024 E17.67109
G1 X138.476 Y93.798 E17.7051
G1 X139.074 Y94.711 E17.74243
G1 X139.534 Y95.593 E17.77646
G1 X139.907 Y96.512 E17.81039
G1 X140.22 Y97.58 E17.84846
G1 X140.405 Y98.571 E17.88294
G1 X140.495 Y99.584 E17.91773
G1 X140.489 Y100.545 E17.9506
G1 X140.396 Y101.5 E17.98342
G1 X140.185 Y102.566 E18.02059
G1 X139.86 Y103.62 E18.05832
G1 X139.461 Y104.565 E18.09341
G1 X138.975 Y105.457 E18.12816
G1 X138.378 Y106.336 E18.16451
G1 X137.749 Y107.093 E18.19818
G1 X137.341 Y107.499 E18.21787
G1 X137.863 Y108.035 E18.24346
G1 X138.485 Y108.81 E18.27745
G1 X139.052 Y109.671 E18.31271
G1 X139.526 Y110.575 E18.34762
G1 X139.922 Y111.552 E18.38368
G1 X140.202 Y112.504 E18.41762
G1 X140.394 Y113.492 E18.45205
G1 X140.492 Y114.506 E18.4869
G1 X140.491 Y115.516 E18.52145
G1 X140.382 Y116.591 E18.55841
G1 X140.172 Y117.615 E18.59417
G1 X139.86 Y118.621 E18.6302
G1 X139.466 Y119.553 E18.66481
G1 X139.006 Y120.404 E18.6979
G1 X138.38 Y121.332 E18.73619
G1 X137.719 Y122.124 E18.77148
G1 X136.99 Y122.841 E18.80646
G1 X136.213 Y123.47 E18.84065
G1 X135.492 Y123.954 E18.87035
G1 X134.726 Y124.382 E18.90036
G1 X133.594 Y124.871 E18.94254
G1 X132.528 Y125.196 E18.98066
G1 X131.561 Y125.388 E19.01438
G1 X130.527 Y125.492 E19.04993
G1 X129.384 Y125.488 E19.08903
G1 X128.452 Y125.391 E19.12108
G1 X127.528 Y125.211 E19.15328
G1 X126.467 Y124.894 E19.19116
G1 X125.461 Y124.476 E19.22842
G1 X124.582 Y124.002 E19.26258
G1 X123.64 Y123.374 E19.30131
G1 X123.375 Y123.638 E19.3141
G1 X124.041 Y124.647 E19.35545
G1 X124.515 Y125.546 E19.39021
G1 X124.915 Y126.525 E19.42638
G1 X125.216 Y127.55 E19.46292
G1 X125.41 Y128.586 E19.49897
G1 X125.496 Y129.555 E19.53225
G1 X125.492 Y130.543 E19.56605
G1 X125.383 Y131.595 E19.60223
G1 X125.174 Y132.617 E19.63791
G1 X124.853 Y133.643 E19.67468
G1 X124.444 Y134.601 E19.71031
G1 X123.954 Y135.493 E19.74512
G1 X123.377 Y136.338 E19.78012
G1 X122.752 Y137.089 E19.81354
G1 X122.033 Y137.802 E19.84818
G1 X121.33 Y138.383 E19.87938
G1 X120.577 Y138.902 E19.91066
G1 X119.621 Y139.432 E19.94805
G1 X118.502 Y139.904 E19.98959
G1 X117.575 Y140.183 E20.0227
G1 X116.606 Y140.38 E20.05652
G1 X115.528 Y140.491 E20.09359
G1 X114.437 Y140.489 E20.13091
G1 X113.46 Y140.391 E20.1645
G1 X112.512 Y140.205 E20.19755
G1 X111.43 Y139.879 E20.2362
G1 X110.489 Y139.486 E20.27108
