;FLAVOR:Marlin
;TIME:930
;Filament used: 0.636671m
;Layer height: 0.2
;MINX:-13.889
;MINY:-21.207
;MINZ:0.3
;MAXX:17.894
;MAXY:17.208
;MAXZ:27.1
;Generated with Cura_SteamEngine 4.10.0
M104 S220
M105
M109 S220
M82 ;absolute extrusion mode
G21        ;metric values
G90        ;absolute positioning
M107       ;start with the fan off
G28   ;move to endstops
G92 E0                  ;zero the extruded length
G1 F200 E3              ;extrude 3mm of feed stock
G92 E0                  ;zero the extruded length again
G1 F150.0
;Put printing message on LCD screen
M117 Printing...
G92 E0
G92 E0
G1 F2700 E-7
;LAYER_COUNT:137
;LAYER:0
M107
M204 S3000
G0 F3000 X-6.981 Y0.761 Z0.3
M204 S1500
;TYPE:SKIRT
G1 F2700 E0
G1 F1200 X-7.62 Y-1.882 E0.16279
G1 X-8.343 Y-4.533 E0.3273
G1 X-9.124 Y-7.113 E0.48868
G1 X-10.449 Y-10.994 E0.7342
G1 X-10.632 Y-11.71 E0.77844
G1 X-10.745 Y-12.477 E0.82485
G1 X-10.794 Y-12.889 E0.84969
G1 X-10.819 Y-13.433 E0.8823
G1 X-10.796 Y-13.75 E0.90133
G1 X-10.716 Y-14.451 E0.94357
G1 X-10.649 Y-14.927 E0.97234
G1 X-10.532 Y-15.459 E1.00495
G1 X-10.427 Y-15.763 E1.02421
G1 X-10.142 Y-16.483 E1.07057
G1 X-9.977 Y-16.867 E1.09559
G1 X-9.725 Y-17.35 E1.12821
G1 X-9.548 Y-17.612 E1.14714
G1 X-9.056 Y-18.274 E1.19652
G1 X-8.83 Y-18.561 E1.21839
G1 X-8.462 Y-18.964 E1.25106
G1 X-8.221 Y-19.172 E1.27012
G1 X-7.601 Y-19.663 E1.31746
G1 X-7.269 Y-19.91 E1.34224
G1 X-6.809 Y-20.202 E1.37486
G1 X-6.534 Y-20.336 E1.39317
G1 X-5.93 Y-20.599 E1.43261
G1 X-5.439 Y-20.796 E1.46428
G1 X-4.919 Y-20.96 E1.49693
G1 X-4.618 Y-21.018 E1.51528
G1 X-3.906 Y-21.125 E1.55838
G1 X-3.401 Y-21.186 E1.58884
G1 X-2.766 Y-21.207 E1.62688
G1 X-1.529 Y-21.141 E1.70104
G1 X1.179 Y-21.036 E1.86328
G1 X3.939 Y-21.006 E2.02853
G1 X6.627 Y-21.053 E2.18948
G1 X9.399 Y-21.18 E2.35561
G1 X9.788 Y-21.203 E2.37894
G1 X10.425 Y-21.187 E2.41709
G1 X11.09 Y-21.112 E2.45715
G1 X11.613 Y-21.038 E2.48877
G1 X12.146 Y-20.92 E2.52146
G1 X12.446 Y-20.817 E2.54045
G1 X13.08 Y-20.567 E2.58125
G1 X13.554 Y-20.365 E2.61209
G1 X14.038 Y-20.114 E2.64473
G1 X14.303 Y-19.935 E2.66388
G1 X14.84 Y-19.537 E2.7039
G1 X15.238 Y-19.226 E2.73414
G1 X15.641 Y-18.859 E2.76677
G1 X15.852 Y-18.616 E2.78603
G1 X16.292 Y-18.063 E2.82834
G1 X16.602 Y-17.647 E2.8594
G1 X16.893 Y-17.186 E2.89204
G1 X17.02 Y-16.924 E2.90947
G1 X17.283 Y-16.321 E2.94886
G1 X17.481 Y-15.828 E2.98066
G1 X17.645 Y-15.308 E3.01331
G1 X17.703 Y-15.007 E3.03166
G1 X17.811 Y-14.289 E3.07513
G1 X17.869 Y-13.815 E3.10372
G1 X17.894 Y-13.27 E3.13638
G1 X17.871 Y-12.951 E3.15553
G1 X17.782 Y-12.187 E3.20157
G1 X17.721 Y-11.759 E3.22746
G1 X17.541 Y-11.033 E3.27224
G1 X17.279 Y-10.299 E3.3189
G1 X16.377 Y-7.655 E3.48615
G1 X15.577 Y-5.07 E3.64815
G1 X14.851 Y-2.467 E3.80993
G1 X14.188 Y0.193 E3.97405
G1 X13.744 Y2.245 E4.09975
G1 X13.712 Y2.352 E4.10643
G1 X13.441 Y3.614 E4.18371
G1 X13.295 Y4.141 E4.21645
G1 X13.238 Y4.315 E4.22741
G1 X13.038 Y4.879 E4.26323
G1 X12.818 Y5.397 E4.29693
G1 X12.742 Y5.554 E4.30737
G1 X12.467 Y6.092 E4.34354
G1 X12.205 Y6.538 E4.37451
G1 X12.109 Y6.686 E4.38507
G1 X11.752 Y7.205 E4.42278
G1 X11.38 Y7.679 E4.45886
G1 X11.276 Y7.8 E4.46841
G1 X10.912 Y8.205 E4.50101
G1 X10.463 Y8.646 E4.53869
G1 X10.335 Y8.759 E4.54891
G1 X9.894 Y9.133 E4.58353
G1 X9.425 Y9.484 E4.6186
G1 X9.294 Y9.573 E4.62808
G1 X8.839 Y9.869 E4.66058
G1 X8.306 Y10.172 E4.69728
G1 X8.148 Y10.252 E4.70789
G1 X7.648 Y10.49 E4.74104
G1 X7.049 Y10.73 E4.77967
G1 X6.877 Y10.79 E4.79058
G1 X6.366 Y10.955 E4.82272
G1 X5.83 Y11.094 E4.85588
G1 X5.652 Y11.131 E4.86676
G1 X5.048 Y11.242 E4.90353
G1 X4.491 Y11.309 E4.93711
G1 X4.332 Y11.321 E4.94666
G1 X3.725 Y11.353 E4.98305
G1 X3.125 Y11.345 E5.01897
G1 X2.964 Y11.336 E5.02863
G1 X2.374 Y11.288 E5.06407
G1 X1.827 Y11.21 E5.09715
G1 X1.672 Y11.18 E5.1066
G1 X1.078 Y11.054 E5.14295
G1 X0.518 Y10.897 E5.17777
G1 X0.363 Y10.846 E5.18754
G1 X-.209 Y10.642 E5.2239
G1 X-.715 Y10.426 E5.25683
G1 X-.87 Y10.351 E5.26714
G1 X-1.41 Y10.075 E5.30345
G1 X-1.923 Y9.77 E5.33918
G1 X-2.051 Y9.685 E5.34838
G1 X-2.525 Y9.358 E5.38285
G1 X-2.992 Y8.991 E5.41841
G1 X-3.122 Y8.879 E5.42869
G1 X-3.559 Y8.484 E5.46395
G1 X-3.989 Y8.04 E5.50096
G1 X-4.089 Y7.928 E5.50994
G1 X-4.441 Y7.514 E5.54248
G1 X-4.76 Y7.092 E5.57415
G1 X-4.866 Y6.937 E5.58539
G1 X-5.211 Y6.405 E5.62335
G1 X-5.504 Y5.884 E5.65914
G1 X-5.578 Y5.736 E5.66904
G1 X-5.823 Y5.219 E5.70329
G1 X-6.044 Y4.664 E5.73906
G1 X-6.095 Y4.515 E5.74849
G1 X-6.271 Y3.971 E5.78272
G1 X-6.413 Y3.421 E5.81672
G1 X-6.55 Y2.77 E5.85655
G1 X-6.981 Y0.761 E5.97956
M204 S3000
G0 F3000 X-6.517 Y0.635
M204 S1500
G1 F1200 X-7.152 Y-1.988 E6.14114
G1 X-7.879 Y-4.657 E6.30675
G1 X-8.669 Y-7.264 E6.46983
G1 X-9.995 Y-11.149 E6.71559
G1 X-10.158 Y-11.781 E6.75467
G1 X-10.256 Y-12.438 E6.79444
G1 X-10.317 Y-12.945 E6.82501
G1 X-10.319 Y-13.695 E6.86991
G1 X-10.227 Y-14.49 E6.91782
G1 X-10.174 Y-14.859 E6.94014
G1 X-9.981 Y-15.587 E6.98523
G1 X-9.701 Y-16.293 E7.0307
G1 X-9.536 Y-16.677 E7.05572
G1 X-9.162 Y-17.327 E7.10062
G1 X-8.679 Y-17.977 E7.1491
G1 X-8.453 Y-18.264 E7.17097
G1 X-7.923 Y-18.797 E7.21597
G1 X-7.397 Y-19.215 E7.25619
G1 X-6.983 Y-19.524 E7.28712
G1 X-6.342 Y-19.896 E7.33149
G1 X-5.738 Y-20.159 E7.37093
G1 X-5.261 Y-20.35 E7.40169
G1 X-4.547 Y-20.543 E7.44597
G1 X-3.733 Y-20.664 E7.49524
G1 X-3.344 Y-20.71 E7.51869
G1 X-2.791 Y-20.727 E7.55182
G1 X-1.601 Y-20.664 E7.62316
G1 X1.19 Y-20.555 E7.79038
G1 X3.906 Y-20.527 E7.95299
G1 X6.657 Y-20.574 E8.11771
G1 X9.884 Y-20.722 E8.31111
G1 X10.371 Y-20.71 E8.34027
G1 X11.137 Y-20.622 E8.38643
G1 X11.545 Y-20.563 E8.41111
G1 X12.27 Y-20.37 E8.45603
G1 X12.992 Y-20.084 E8.50252
G1 X13.365 Y-19.924 E8.52682
G1 X14.017 Y-19.549 E8.57185
G1 X14.625 Y-19.097 E8.61721
G1 X14.941 Y-18.849 E8.64126
G1 X15.476 Y-18.317 E8.68643
G1 X15.916 Y-17.764 E8.72873
G1 X16.216 Y-17.362 E8.75876
G1 X16.58 Y-16.732 E8.80232
G1 X16.843 Y-16.129 E8.84171
G1 X17.035 Y-15.65 E8.8726
G1 X17.228 Y-14.936 E8.91688
G1 X17.336 Y-14.218 E8.96035
G1 X17.392 Y-13.758 E8.9881
G1 X17.394 Y-13.006 E9.03312
G1 X17.307 Y-12.255 E9.07838
G1 X17.246 Y-11.827 E9.10426
G1 X17.089 Y-11.194 E9.14331
G1 X16.825 Y-10.454 E9.19034
G1 X15.923 Y-7.811 E9.35754
G1 X15.115 Y-5.2 E9.52117
G1 X14.382 Y-2.571 E9.68456
G1 X13.724 Y0.069 E9.84745
G1 X13.275 Y2.144 E9.97455
G1 X13.245 Y2.242 E9.98069
G1 X12.972 Y3.513 E10.05852
G1 X12.835 Y4.003 E10.08898
G1 X12.786 Y4.155 E10.09854
G1 X12.586 Y4.719 E10.13436
G1 X12.381 Y5.199 E10.16561
G1 X12.315 Y5.336 E10.17471
G1 X12.04 Y5.874 E10.21089
G1 X11.713 Y6.414 E10.24868
G1 X11.356 Y6.933 E10.28639
G1 X11.009 Y7.374 E10.31999
G1 X10.919 Y7.479 E10.32827
G1 X10.555 Y7.884 E10.36087
G1 X10.136 Y8.294 E10.39597
G1 X10.025 Y8.393 E10.40487
G1 X9.584 Y8.767 E10.43949
G1 X9.146 Y9.093 E10.47218
G1 X9.032 Y9.171 E10.48045
G1 X8.577 Y9.467 E10.51294
G1 X8.08 Y9.749 E10.54715
G1 X7.942 Y9.818 E10.55639
G1 X7.442 Y10.056 E10.58954
G1 X6.879 Y10.281 E10.62584
G1 X6.73 Y10.333 E10.63529
G1 X6.219 Y10.498 E10.66744
G1 X5.72 Y10.626 E10.69828
G1 X5.566 Y10.659 E10.70771
G1 X4.962 Y10.77 E10.74447
G1 X4.445 Y10.831 E10.77564
G1 X4.307 Y10.842 E10.78393
G1 X3.7 Y10.874 E10.82032
G1 X3.143 Y10.866 E10.85367
G1 X3.003 Y10.857 E10.86207
G1 X2.413 Y10.809 E10.89751
G1 X1.907 Y10.736 E10.92811
G1 X1.772 Y10.71 E10.93634
G1 X1.178 Y10.584 E10.9727
G1 X0.659 Y10.438 E11.00497
G1 X0.525 Y10.394 E11.01342
G1 X-0.047 Y10.19 E11.04978
G1 X-.517 Y9.989 E11.08038
G1 X-.652 Y9.924 E11.08935
G1 X-1.192 Y9.648 E11.12566
G1 X-1.667 Y9.364 E11.15879
G1 X-1.779 Y9.29 E11.16683
G1 X-2.253 Y8.963 E11.2013
G1 X-2.687 Y8.62 E11.23442
G1 X-2.801 Y8.523 E11.24338
G1 X-3.238 Y8.128 E11.27865
G1 X-3.637 Y7.715 E11.31303
G1 X-3.723 Y7.617 E11.32083
G1 X-4.075 Y7.203 E11.35336
G1 X-4.463 Y6.676 E11.39254
G1 X-4.808 Y6.144 E11.4305
G1 X-5.079 Y5.659 E11.46377
G1 X-5.144 Y5.53 E11.47241
G1 X-5.389 Y5.013 E11.50667
G1 X-5.594 Y4.497 E11.53991
G1 X-5.639 Y4.367 E11.54814
G1 X-5.815 Y3.823 E11.58237
G1 X-5.946 Y3.312 E11.61395
G1 X-6.077 Y2.688 E11.65213
G1 X-6.517 Y0.635 E11.77783
M204 S3000
G1 F2700 E4.77783
;MESH:Hotend_Cableholder_v2.0.stl
G0 F3000 X-4.517 Y-5.133
G0 X-3.504 Y-11.332
G0 X-3.479 Y-11.428
M204 S1500
;TYPE:WALL-OUTER
G1 F2700 E11.77783
G1 F1200 X-2.963 Y-11.36 E11.7987
G1 X-2.447 Y-11.428 E11.81958
G1 X-1.967 Y-11.627 E11.84042
G1 X-1.554 Y-11.944 E11.86131
G1 X-1.237 Y-12.356 E11.88216
G1 X-1.038 Y-12.836 E11.903
G1 X-.971 Y-13.352 E11.92387
G1 X-1.038 Y-13.868 E11.94474
G1 X-1.237 Y-14.348 E11.96559
G1 X-1.554 Y-14.761 E11.98647
G1 X-1.967 Y-15.078 E12.00735
G1 X-2.447 Y-15.277 E12.0282
G1 X-2.963 Y-15.344 E12.04907
G1 X-3.479 Y-15.277 E12.06994
G1 X-3.959 Y-15.078 E12.09078
G1 X-4.371 Y-14.761 E12.11163
G1 X-4.688 Y-14.348 E12.13252
G1 X-4.887 Y-13.868 E12.15336
G1 X-4.955 Y-13.352 E12.17424
G1 X-4.887 Y-12.836 E12.19511
G1 X-4.688 Y-12.356 E12.21596
G1 X-4.371 Y-11.944 E12.23681
G1 X-3.959 Y-11.627 E12.25766
G1 X-3.479 Y-11.428 E12.2785
M204 S3000
G0 F3000 X-3.281 Y-11.402
G0 X-3.295 Y-11.303
G0 X-1.081 Y2.385
G0 X-.604 Y3.538
G0 X0.156 Y4.529
G0 X1.147 Y5.289
G0 X2.3 Y5.766
G0 X3.537 Y5.93
G0 X4.775 Y5.766
G0 X5.927 Y5.289
G0 X6.918 Y4.529
G0 X7.678 Y3.539
G0 X8.156 Y2.385
G0 X9.496 Y-11.332
G0 X9.521 Y-11.428
M204 S1500
G1 F1200 X10.037 Y-11.36 E12.29938
G1 X10.553 Y-11.428 E12.32025
G1 X11.033 Y-11.627 E12.3411
G1 X11.446 Y-11.944 E12.36198
G1 X11.763 Y-12.356 E12.38283
G1 X11.962 Y-12.836 E12.40368
G1 X12.029 Y-13.352 E12.42455
G1 X11.962 Y-13.868 E12.44542
G1 X11.763 Y-14.348 E12.46626
G1 X11.446 Y-14.761 E12.48714
G1 X11.033 Y-15.078 E12.50803
G1 X10.553 Y-15.277 E12.52887
G1 X10.037 Y-15.344 E12.54974
G1 X9.521 Y-15.277 E12.57061
G1 X9.041 Y-15.078 E12.59146
G1 X8.629 Y-14.761 E12.61231
G1 X8.312 Y-14.348 E12.63319
G1 X8.113 Y-13.868 E12.65403
G1 X8.045 Y-13.352 E12.67491
G1 X8.113 Y-12.836 E12.69579
G1 X8.312 Y-12.356 E12.71663
G1 X8.629 Y-11.944 E12.73748
G1 X9.041 Y-11.627 E12.75833
G1 X9.521 Y-11.428 E12.77918
M204 S3000
G0 F3000 X9.719 Y-11.402
G0 X9.705 Y-11.303
G0 X8.379 Y1.146
G0 X8.279 Y1.146
M204 S1500
G1 F1200 X6.266 Y-12.313 E13.32504
G1 X6.129 Y-13.352 E13.36708
G1 X6.263 Y-14.363 E13.40799
G1 X6.654 Y-15.308 E13.44901
G1 X7.274 Y-16.116 E13.48986
G1 X8.081 Y-16.735 E13.53066
G1 X9.027 Y-17.127 E13.57173
G1 X10.037 Y-17.26 E13.6126
G1 X11.047 Y-17.127 E13.65346
G1 X11.99 Y-16.736 E13.69441
G1 X12.801 Y-16.116 E13.73535
G1 X13.421 Y-15.305 E13.7763
G1 X13.812 Y-14.363 E13.81721
G1 X13.945 Y-13.352 E13.85812
G1 X13.812 Y-12.342 E13.89898
G1 X13.415 Y-11.383 E13.94061
G1 X12.861 Y-10.458 E13.98386
G1 X12.34 Y-9.487 E14.02806
G1 X11.864 Y-8.491 E14.07234
G1 X11.435 Y-7.474 E14.11661
G1 X11.055 Y-6.438 E14.16088
G1 X10.723 Y-5.387 E14.20509
G1 X10.442 Y-4.32 E14.24935
G1 X10.21 Y-3.241 E14.29362
G1 X10.03 Y-2.152 E14.33789
G1 X9.901 Y-1.057 E14.38212
G1 X9.823 Y0.045 E14.42643
G1 X9.797 Y1.142 E14.47045
G1 X9.744 Y1.964 E14.50349
G1 X9.584 Y2.767 E14.53633
G1 X9.321 Y3.543 E14.56919
G1 X8.958 Y4.28 E14.60215
G1 X8.504 Y4.958 E14.63488
G1 X7.968 Y5.57 E14.66751
G1 X7.342 Y6.118 E14.70088
G1 X6.669 Y6.568 E14.73336
G1 X5.933 Y6.931 E14.76627
G1 X5.157 Y7.194 E14.79914
G1 X4.354 Y7.354 E14.83198
G1 X3.537 Y7.408 E14.86483
G1 X2.721 Y7.354 E14.89763
G1 X1.918 Y7.194 E14.93047
G1 X1.142 Y6.931 E14.96334
G1 X0.405 Y6.568 E14.99629
G1 X-.273 Y6.114 E15.02902
G1 X-.889 Y5.574 E15.06188
G1 X-1.429 Y4.958 E15.09474
G1 X-1.883 Y4.28 E15.12747
G1 X-2.246 Y3.543 E15.16042
G1 X-2.509 Y2.767 E15.19329
G1 X-2.669 Y1.964 E15.22613
G1 X-2.723 Y1.142 E15.25917
G1 X-2.748 Y0.045 E15.30319
G1 X-2.826 Y-1.057 E15.3475
G1 X-2.955 Y-2.152 E15.39173
G1 X-3.136 Y-3.241 E15.43601
G1 X-3.366 Y-4.32 E15.48026
G1 X-3.648 Y-5.387 E15.52453
G1 X-3.98 Y-6.439 E15.56878
G1 X-4.361 Y-7.474 E15.61302
G1 X-4.789 Y-8.491 E15.65728
G1 X-5.265 Y-9.487 E15.70156
G1 X-5.786 Y-10.459 E15.74579
G1 X-6.341 Y-11.383 E15.78903
G1 X-6.737 Y-12.342 E15.83064
G1 X-6.871 Y-13.352 E15.87151
G1 X-6.737 Y-14.363 E15.91242
G1 X-6.346 Y-15.308 E15.95344
G1 X-5.726 Y-16.116 E15.99429
G1 X-4.919 Y-16.735 E16.03509
G1 X-3.973 Y-17.127 E16.07616
G1 X-2.963 Y-17.26 E16.11703
G1 X-1.953 Y-17.127 E16.15789
G1 X-1.01 Y-16.736 E16.19884
G1 X-.199 Y-16.116 E16.23979
G1 X0.421 Y-15.305 E16.28073
G1 X0.812 Y-14.363 E16.32164
G1 X0.945 Y-13.352 E16.36255
G1 X0.809 Y-12.314 E16.40454
G1 X-1.205 Y1.146 E16.95045
G1 X-1.043 Y2.375 E17.00018
G1 X-.57 Y3.519 E17.04983
G1 X0.184 Y4.501 E17.09949
G1 X1.166 Y5.255 E17.14915
G1 X2.31 Y5.728 E17.19881
G1 X3.537 Y5.89 E17.24845
G1 X4.765 Y5.728 E17.29814
G1 X5.908 Y5.255 E17.34776
G1 X6.89 Y4.501 E17.39742
G1 X7.644 Y3.519 E17.44708
G1 X8.118 Y2.375 E17.49675
G1 X8.279 Y1.146 E17.54647
M204 S3000
G0 F3000 X8.25 Y0.949
G0 X8.753 Y1.142
M204 S1500
;TYPE:SKIN
G1 F1200 X6.731 Y-12.379 E18.09485
G1 X6.603 Y-13.352 E18.13422
G1 X6.721 Y-14.238 E18.17007
G1 X7.068 Y-15.076 E18.20645
G1 X7.607 Y-15.779 E18.24198
G1 X8.319 Y-16.325 E18.27797
G1 X9.149 Y-16.669 E18.31401
G1 X10.037 Y-16.786 E18.34994
G1 X10.925 Y-16.669 E18.38587
G1 X11.75 Y-16.327 E18.42169
G1 X12.465 Y-15.78 E18.4578
G1 X13.012 Y-15.065 E18.49391
G1 X13.354 Y-14.241 E18.5297
G1 X13.471 Y-13.352 E18.56566
G1 X13.354 Y-12.468 E18.60143
G1 X12.99 Y-11.588 E18.63963
G1 X12.452 Y-10.69 E18.68162
G1 X11.921 Y-9.7 E18.72668
G1 X11.435 Y-8.683 E18.77189
G1 X10.998 Y-7.646 E18.81703
G1 X10.61 Y-6.59 E18.86216
G1 X10.271 Y-5.518 E18.90726
G1 X9.985 Y-4.429 E18.95242
G1 X9.748 Y-3.329 E18.99756
G1 X9.564 Y-2.218 E19.04273
G1 X9.433 Y-1.102 E19.0878
G1 X9.353 Y0.023 E19.13304
G1 X9.327 Y1.112 E19.17673
G1 X9.276 Y1.909 E19.20877
G1 X9.129 Y2.646 E19.23891
G1 X8.885 Y3.365 E19.26937
G1 X8.552 Y4.042 E19.29963
G1 X8.131 Y4.671 E19.32999
G1 X7.635 Y5.237 E19.36018
G1 X7.057 Y5.743 E19.39099
G1 X6.43 Y6.163 E19.42126
G1 X5.755 Y6.495 E19.45144
G1 X5.036 Y6.739 E19.48189
G1 X4.285 Y6.888 E19.5126
G1 X3.537 Y6.938 E19.54267
G1 X2.79 Y6.888 E19.5727
G1 X2.039 Y6.739 E19.60341
G1 X1.32 Y6.495 E19.63387
G1 X0.643 Y6.162 E19.66413
G1 X0.014 Y5.741 E19.69449
G1 X-.556 Y5.241 E19.72491
G1 X-1.056 Y4.671 E19.75532
G1 X-1.477 Y4.042 E19.78568
G1 X-1.81 Y3.365 E19.81594
G1 X-2.054 Y2.646 E19.8464
G1 X-2.202 Y1.902 E19.87683
G1 X-2.253 Y1.121 E19.90822
G1 X-2.278 Y0.023 E19.95227
G1 X-2.358 Y-1.102 E19.99751
G1 X-2.489 Y-2.218 E20.04259
G1 X-2.674 Y-3.329 E20.08776
G1 X-2.908 Y-4.429 E20.13287
G1 X-3.196 Y-5.518 E20.17806
G1 X-3.535 Y-6.591 E20.22319
G1 X-3.924 Y-7.646 E20.2683
G1 X-4.36 Y-8.683 E20.31342
G1 X-4.846 Y-9.699 E20.3586
G1 X-5.377 Y-10.692 E20.40376
G1 X-5.917 Y-11.591 E20.44583
G1 X-6.279 Y-12.467 E20.48385
G1 X-6.397 Y-13.352 E20.51966
G1 X-6.279 Y-14.238 E20.55552
G1 X-5.932 Y-15.076 E20.5919
G1 X-5.393 Y-15.779 E20.62743
G1 X-4.681 Y-16.325 E20.66342
G1 X-3.851 Y-16.669 E20.69946
G1 X-2.963 Y-16.786 E20.73539
G1 X-2.075 Y-16.669 E20.77131
G1 X-1.25 Y-16.327 E20.80714
G1 X-.535 Y-15.78 E20.84325
G1 X0.012 Y-15.065 E20.87936
G1 X0.354 Y-14.241 E20.91514
G1 X0.471 Y-13.352 E20.95111
G1 X0.344 Y-12.38 E20.99043
G1 X-1.679 Y1.142 E21.53886
G1 X-1.501 Y2.498 E21.59372
G1 X-.981 Y3.756 E21.64832
G1 X-.151 Y4.836 E21.70295
G1 X0.929 Y5.666 E21.75759
G1 X2.187 Y6.186 E21.81219
G1 X3.537 Y6.364 E21.86681
G1 X4.888 Y6.186 E21.92147
G1 X6.145 Y5.666 E21.97603
G1 X7.225 Y4.836 E22.03067
G1 X8.055 Y3.756 E22.08531
G1 X8.576 Y2.498 E22.13992
G1 X8.753 Y1.142 E22.19477
M204 S3000
G0 F3000 X10.037 Y-10.886
M204 S1500
G1 F1200 X10.676 Y-10.97 E22.22063
G1 X11.27 Y-11.216 E22.24642
G1 X11.781 Y-11.609 E22.27227
G1 X12.174 Y-12.119 E22.2981
G1 X12.42 Y-12.714 E22.32393
G1 X12.503 Y-13.352 E22.34973
G1 X12.42 Y-13.99 E22.37554
G1 X12.174 Y-14.585 E22.40137
G1 X11.781 Y-15.096 E22.42722
G1 X11.27 Y-15.489 E22.45308
G1 X10.675 Y-15.735 E22.47891
G1 X10.037 Y-15.818 E22.50471
G1 X9.399 Y-15.735 E22.53052
G1 X8.804 Y-15.489 E22.55635
G1 X8.294 Y-15.096 E22.58217
G1 X7.901 Y-14.585 E22.60803
G1 X7.655 Y-13.991 E22.63382
G1 X7.571 Y-13.352 E22.65967
G1 X7.655 Y-12.713 E22.68552
G1 X7.901 Y-12.119 E22.71131
G1 X8.294 Y-11.609 E22.73714
G1 X8.804 Y-11.216 E22.76296
G1 X9.398 Y-10.97 E22.78875
