;FLAVOR:Marlin
;TIME:805
;Filament used: 0.371609m
;Layer height: 0.2
;MINX:-14.912
;MINY:-25.301
;MINZ:0.3
;MAXX:21.986
;MAXY:17.216
;MAXZ:27.208
;Generated with Cura_SteamEngine 4.10.0
M104 S220
M105
M109 S220
M82 ;absolute extrusion mode
G21        ;metric values
G90        ;absolute positioning
M107       ;start with the fan off
G28   ;move to endstops
G92 E0                  ;zero the extruded length
G1 F200 E3              ;extrude 3mm of feed stock
G92 E0                  ;zero the extruded length again
G1 F150.0
;Put printing message on LCD screen
M117 Printing...
G92 E0
G92 E0
G1 F2700 E-7
;LAYER_COUNT:137
;LAYER:0
M107
M204 S3000
G0 F3000 X-10.782 Y0.413 Z0.3
M204 S1500
;TYPE:SKIRT
G1 F2700 E0
G1 F1200 X-10.832 Y-.295 E0.03541
G1 X-10.918 Y-1.026 E0.07213
G1 X-11.035 Y-1.73 E0.10774
G1 X-11.194 Y-2.473 E0.14564
G1 X-11.376 Y-3.158 E0.181
G1 X-11.596 Y-3.859 E0.21766
G1 X-11.839 Y-4.518 E0.2527
G1 X-12.126 Y-5.197 E0.28948
G1 X-12.442 Y-5.858 E0.32603
G1 X-12.771 Y-6.474 E0.36087
G1 X-13.256 Y-7.284 E0.40797
G1 X-13.768 Y-8.303 E0.46487
G1 X-14.174 Y-9.283 E0.51779
G1 X-14.515 Y-10.299 E0.57126
G1 X-14.521 Y-10.322 E0.57244
G1 X-14.707 Y-11.272 E0.62074
G1 X-14.845 Y-12.319 E0.67342
G1 X-14.912 Y-13.338 E0.72437
G1 X-14.912 Y-13.363 E0.72562
G1 X-14.845 Y-14.38 E0.77647
G1 X-14.707 Y-15.429 E0.82925
G1 X-14.521 Y-16.381 E0.87765
G1 X-14.515 Y-16.404 E0.87883
G1 X-14.176 Y-17.417 E0.93213
G1 X-13.771 Y-18.396 E0.98498
G1 X-13.278 Y-19.382 E1.03998
G1 X-13.265 Y-19.404 E1.04126
G1 X-12.737 Y-20.185 E1.08829
G1 X-12.093 Y-21.024 E1.14106
G1 X-11.421 Y-21.79 E1.19189
G1 X-11.402 Y-21.809 E1.19323
G1 X-10.637 Y-22.481 E1.24404
G1 X-9.797 Y-23.126 E1.29687
G1 X-9.04 Y-23.639 E1.34249
G1 X-8.016 Y-24.156 E1.39972
G1 X-7.035 Y-24.563 E1.45271
G1 X-5.938 Y-24.925 E1.51034
G1 X-5.033 Y-25.098 E1.55631
G1 X-3.985 Y-25.235 E1.60904
G1 X-2.952 Y-25.301 E1.66068
G1 X-1.941 Y-25.235 E1.71123
G1 X-.893 Y-25.098 E1.76396
G1 X0.012 Y-24.925 E1.80993
G1 X1.108 Y-24.563 E1.86751
G1 X2.087 Y-24.157 E1.92039
G1 X3.067 Y-23.667 E1.97505
G1 X3.089 Y-23.654 E1.97633
G1 X3.536 Y-23.352 E2.00324
G1 X3.96 Y-23.639 E2.02878
G1 X4.984 Y-24.156 E2.08601
G1 X5.965 Y-24.563 E2.139
G1 X7.062 Y-24.925 E2.19663
G1 X7.967 Y-25.098 E2.2426
G1 X9.015 Y-25.235 E2.29533
G1 X10.048 Y-25.301 E2.34697
G1 X11.059 Y-25.235 E2.39752
G1 X12.107 Y-25.098 E2.45025
G1 X13.012 Y-24.925 E2.49622
G1 X14.108 Y-24.563 E2.5538
G1 X15.087 Y-24.157 E2.60668
G1 X16.067 Y-23.667 E2.66134
G1 X16.089 Y-23.654 E2.66262
G1 X16.868 Y-23.128 E2.70951
G1 X17.709 Y-22.483 E2.76239
G1 X18.477 Y-21.809 E2.81337
G1 X18.494 Y-21.792 E2.81457
G1 X19.168 Y-21.024 E2.86554
G1 X19.813 Y-20.183 E2.91842
G1 X20.324 Y-19.429 E2.96386
G1 X20.84 Y-18.407 E3.02098
G1 X21.246 Y-17.429 E3.07381
G1 X21.574 Y-16.466 E3.12457
G1 X21.581 Y-16.44 E3.12591
G1 X21.783 Y-15.425 E3.17754
G1 X21.92 Y-14.379 E3.23017
G1 X21.986 Y-13.366 E3.28082
G1 X21.986 Y-13.341 E3.28207
G1 X21.92 Y-12.33 E3.33261
G1 X21.783 Y-11.282 E3.38534
G1 X21.596 Y-10.324 E3.43404
G1 X21.59 Y-10.301 E3.43522
G1 X21.247 Y-9.279 E3.48901
G1 X20.838 Y-8.294 E3.54222
G1 X20.336 Y-7.295 E3.598
G1 X19.862 Y-6.499 E3.64422
G1 X19.506 Y-5.837 E3.68172
G1 X19.201 Y-5.199 E3.717
G1 X18.918 Y-4.528 E3.75333
G1 X18.668 Y-3.847 E3.78952
G1 X18.442 Y-3.13 E3.82703
G1 X18.27 Y-2.478 E3.86067
G1 X18.105 Y-1.716 E3.89957
G1 X17.994 Y-1.041 E3.93369
G1 X17.907 Y-.295 E3.97116
G1 X17.857 Y0.413 E4.00657
G1 X17.835 Y1.332 E4.05244
G1 X17.82 Y1.663 E4.06897
G1 X17.763 Y2.522 E4.11192
G1 X17.627 Y3.541 E4.16321
G1 X17.46 Y4.373 E4.20554
G1 X17.202 Y5.335 E4.25523
G1 X16.935 Y6.125 E4.29684
G1 X16.55 Y7.061 E4.34733
G1 X16.177 Y7.822 E4.38961
G1 X15.66 Y8.72 E4.44131
G1 X15.186 Y9.43 E4.4839
G1 X14.566 Y10.239 E4.53475
G1 X14.001 Y10.884 E4.57753
G1 X13.266 Y11.618 E4.62935
G1 X12.617 Y12.185 E4.67235
G1 X11.807 Y12.804 E4.72321
G1 X11.101 Y13.274 E4.76552
G1 X10.227 Y13.778 E4.81585
G1 X9.468 Y14.152 E4.85807
G1 X8.517 Y14.545 E4.90941
G1 X7.715 Y14.816 E4.95164
G1 X6.741 Y15.076 E5.00193
G1 X5.907 Y15.242 E5.04436
G1 X4.885 Y15.376 E5.09578
G1 X4.031 Y15.431 E5.13848
G1 X3.009 Y15.43 E5.18947
G1 X2.158 Y15.373 E5.23202
G1 X1.16 Y15.241 E5.28224
G1 X0.339 Y15.078 E5.324
G1 X-.655 Y14.811 E5.37535
G1 X-1.469 Y14.534 E5.41825
G1 X-2.392 Y14.152 E5.46808
G1 X-3.142 Y13.784 E5.50976
G1 X-4.047 Y13.262 E5.56189
G1 X-4.765 Y12.781 E5.605
G1 X-5.571 Y12.161 E5.65573
G1 X-6.212 Y11.598 E5.6983
G1 X-6.936 Y10.874 E5.74938
G1 X-7.495 Y10.235 E5.79174
G1 X-8.113 Y9.428 E5.84245
G1 X-8.586 Y8.719 E5.88497
G1 X-9.101 Y7.823 E5.93653
G1 X-9.475 Y7.06 E5.97892
G1 X-9.861 Y6.121 E6.02957
G1 X-10.131 Y5.321 E6.0717
G1 X-10.391 Y4.351 E6.1218
G1 X-10.557 Y3.518 E6.16417
G1 X-10.69 Y2.506 E6.2151
G1 X-10.746 Y1.654 E6.25769
G1 X-10.761 Y1.321 E6.27433
G1 X-10.782 Y0.413 E6.31964
M204 S3000
G0 F3000 X-10.382 Y0.405
M204 S1500
G1 F1200 X-10.434 Y-.328 E6.3563
G1 X-10.521 Y-1.073 E6.39372
G1 X-10.644 Y-1.817 E6.43134
G1 X-10.806 Y-2.572 E6.46987
G1 X-10.987 Y-3.253 E6.50502
G1 X-11.221 Y-3.998 E6.54398
G1 X-11.463 Y-4.652 E6.57877
G1 X-11.77 Y-5.381 E6.61823
G1 X-12.085 Y-6.041 E6.65472
G1 X-12.415 Y-6.656 E6.68954
G1 X-12.913 Y-7.489 E6.73796
G1 X-13.399 Y-8.456 E6.79195
G1 X-13.805 Y-9.436 E6.84487
G1 X-14.128 Y-10.4 E6.8956
G1 X-14.134 Y-10.423 E6.89678
G1 X-14.311 Y-11.324 E6.94259
G1 X-14.449 Y-12.371 E6.99528
G1 X-14.512 Y-13.338 E7.04363
G1 X-14.512 Y-13.363 E7.04487
G1 X-14.449 Y-14.328 E7.09312
G1 X-14.311 Y-15.377 E7.14591
G1 X-14.134 Y-16.28 E7.19181
G1 X-14.128 Y-16.303 E7.193
G1 X-13.806 Y-17.264 E7.24356
G1 X-13.401 Y-18.243 E7.29642
G1 X-12.934 Y-19.179 E7.34861
G1 X-12.921 Y-19.201 E7.34988
G1 X-12.42 Y-19.942 E7.39451
G1 X-11.776 Y-20.781 E7.44727
G1 X-11.139 Y-21.508 E7.4955
G1 X-11.12 Y-21.527 E7.49684
G1 X-10.394 Y-22.163 E7.54499
G1 X-9.554 Y-22.808 E7.59783
G1 X-8.834 Y-23.296 E7.64122
G1 X-7.863 Y-23.786 E7.69549
G1 X-6.882 Y-24.193 E7.74847
G1 X-5.841 Y-24.537 E7.80317
G1 X-4.981 Y-24.702 E7.84686
G1 X-3.933 Y-24.839 E7.89959
G1 X-2.952 Y-24.901 E7.94863
G1 X-1.993 Y-24.839 E7.99657
G1 X-.945 Y-24.702 E8.0493
G1 X-0.085 Y-24.537 E8.09299
G1 X0.955 Y-24.194 E8.14763
G1 X1.934 Y-23.788 E8.2005
G1 X2.864 Y-23.323 E8.25238
G1 X2.886 Y-23.31 E8.25365
G1 X3.537 Y-22.87 E8.29285
G1 X4.166 Y-23.296 E8.33075
G1 X5.137 Y-23.786 E8.38502
G1 X6.118 Y-24.193 E8.438
G1 X7.159 Y-24.537 E8.4927
G1 X8.019 Y-24.702 E8.53639
G1 X9.067 Y-24.839 E8.58912
G1 X10.048 Y-24.901 E8.63816
G1 X11.007 Y-24.839 E8.6861
G1 X12.055 Y-24.702 E8.73883
G1 X12.915 Y-24.537 E8.78252
G1 X13.955 Y-24.194 E8.83716
G1 X14.934 Y-23.788 E8.89003
G1 X15.864 Y-23.323 E8.94191
G1 X15.886 Y-23.31 E8.94318
G1 X16.624 Y-22.811 E8.98763
G1 X17.465 Y-22.166 E9.0405
G1 X18.195 Y-21.527 E9.0889
G1 X18.212 Y-21.51 E9.0901
G1 X18.851 Y-20.78 E9.13851
G1 X19.496 Y-19.939 E9.19138
G1 X19.981 Y-19.223 E9.23453
G1 X20.47 Y-18.253 E9.28872
G1 X20.876 Y-17.275 E9.34155
G1 X21.188 Y-16.362 E9.38969
G1 X21.195 Y-16.336 E9.39103
G1 X21.386 Y-15.373 E9.44001
G1 X21.523 Y-14.327 E9.49264
G1 X21.586 Y-13.366 E9.54069
G1 X21.586 Y-13.341 E9.54194
G1 X21.524 Y-12.382 E9.58988
G1 X21.387 Y-11.334 E9.64261
G1 X21.209 Y-10.425 E9.68882
G1 X21.203 Y-10.402 E9.69001
G1 X20.877 Y-9.432 E9.74106
G1 X20.468 Y-8.447 E9.79427
G1 X19.992 Y-7.499 E9.8472
G1 X19.508 Y-6.687 E9.89436
G1 X19.15 Y-6.02 E9.93212
G1 X18.842 Y-5.375 E9.96778
G1 X18.547 Y-4.677 E10.00559
G1 X18.283 Y-3.959 E10.04376
G1 X18.065 Y-3.266 E10.08
G1 X17.878 Y-2.557 E10.11658
G1 X17.715 Y-1.802 E10.15512
G1 X17.597 Y-1.088 E10.19122
G1 X17.508 Y-.328 E10.2294
G1 X17.457 Y0.404 E10.26601
G1 X17.435 Y1.323 E10.31187
G1 X17.421 Y1.637 E10.32755
G1 X17.364 Y2.496 E10.3705
G1 X17.235 Y3.462 E10.41912
G1 X17.068 Y4.294 E10.46146
G1 X16.823 Y5.207 E10.50862
G1 X16.556 Y5.997 E10.55022
G1 X16.191 Y6.885 E10.59812
G1 X15.818 Y7.646 E10.6404
G1 X15.328 Y8.498 E10.68944
G1 X14.854 Y9.208 E10.73203
G1 X14.265 Y9.975 E10.78027
G1 X13.7 Y10.62 E10.82305
G1 X13.003 Y11.317 E10.87223
G1 X12.354 Y11.884 E10.91523
G1 X11.586 Y12.471 E10.96345
G1 X10.88 Y12.941 E11.00577
G1 X10.05 Y13.419 E11.05355
G1 X9.291 Y13.793 E11.09576
G1 X8.389 Y14.166 E11.14446
G1 X7.587 Y14.437 E11.1867
G1 X6.663 Y14.684 E11.23441
G1 X5.829 Y14.85 E11.27684
G1 X4.86 Y14.977 E11.32559
G1 X4.006 Y15.032 E11.36829
G1 X3.035 Y15.03 E11.41673
G1 X2.184 Y14.973 E11.45928
G1 X1.238 Y14.848 E11.50689
G1 X0.417 Y14.685 E11.54865
G1 X-.526 Y14.432 E11.59736
G1 X-1.34 Y14.155 E11.64026
G1 X-2.216 Y13.793 E11.68755
G1 X-2.966 Y13.425 E11.72923
G1 X-3.825 Y12.93 E11.77869
G1 X-4.543 Y12.449 E11.8218
G1 X-5.307 Y11.861 E11.8699
G1 X-5.948 Y11.298 E11.91247
G1 X-6.635 Y10.61 E11.96097
G1 X-7.194 Y9.971 E12.00333
G1 X-7.78 Y9.206 E12.05141
G1 X-8.253 Y8.497 E12.09393
G1 X-8.742 Y7.647 E12.14285
G1 X-9.116 Y6.884 E12.18524
G1 X-9.482 Y5.993 E12.2333
G1 X-9.752 Y5.193 E12.27542
G1 X-9.998 Y4.273 E12.32294
G1 X-10.164 Y3.44 E12.36531
G1 X-10.291 Y2.479 E12.41367
G1 X-10.347 Y1.627 E12.45627
G1 X-10.361 Y1.312 E12.472
G1 X-10.382 Y0.405 E12.51726
M204 S3000
G0 F3000 X-9.982 Y0.39
M204 S1500
G1 F1200 X-10.035 Y-.366 E12.55507
G1 X-10.127 Y-1.144 E12.59416
G1 X-10.249 Y-1.879 E12.63133
G1 X-10.419 Y-2.676 E12.67199
G1 X-10.602 Y-3.363 E12.70746
G1 X-10.837 Y-4.111 E12.74657
G1 X-11.096 Y-4.812 E12.78386
G1 X-11.402 Y-5.538 E12.82316
G1 X-11.721 Y-6.206 E12.86009
G1 X-12.086 Y-6.888 E12.89869
G1 X-12.569 Y-7.695 E12.94561
G1 X-13.029 Y-8.609 E12.99666
G1 X-13.435 Y-9.589 E13.04958
G1 X-13.741 Y-10.501 E13.09757
G1 X-13.747 Y-10.524 E13.09876
G1 X-13.914 Y-11.376 E13.14207
G1 X-14.052 Y-12.423 E13.19476
G1 X-14.112 Y-13.338 E13.24051
G1 X-14.112 Y-13.363 E13.24175
G1 X-14.052 Y-14.276 E13.2874
G1 X-13.914 Y-15.325 E13.34019
G1 X-13.747 Y-16.179 E13.3836
G1 X-13.741 Y-16.202 E13.38479
G1 X-13.436 Y-17.111 E13.43262
G1 X-13.031 Y-18.09 E13.48548
G1 X-12.589 Y-18.975 E13.53483
G1 X-12.576 Y-18.997 E13.53611
G1 X-12.103 Y-19.698 E13.5783
G1 X-11.459 Y-20.537 E13.63106
G1 X-10.856 Y-21.225 E13.67671
G1 X-10.837 Y-21.244 E13.67805
G1 X-10.15 Y-21.846 E13.72362
G1 X-9.31 Y-22.491 E13.77646
G1 X-8.628 Y-22.953 E13.81755
G1 X-7.709 Y-23.417 E13.86891
G1 X-6.728 Y-23.824 E13.9219
G1 X-5.744 Y-24.149 E13.9736
G1 X-4.929 Y-24.305 E14.015
G1 X-3.881 Y-24.442 E14.06773
G1 X-2.952 Y-24.501 E14.11417
G1 X-2.045 Y-24.442 E14.15952
G1 X-.997 Y-24.305 E14.21225
G1 X-.182 Y-24.149 E14.25365
G1 X0.802 Y-23.824 E14.30535
G1 X1.781 Y-23.418 E14.35822
G1 X2.66 Y-22.978 E14.40726
G1 X2.682 Y-22.965 E14.40854
G1 X3.381 Y-22.494 E14.45059
G1 X3.538 Y-22.374 E14.46045
G1 X3.69 Y-22.491 E14.47002
G1 X4.372 Y-22.953 E14.51112
G1 X5.291 Y-23.417 E14.56248
G1 X6.272 Y-23.824 E14.61546
G1 X7.256 Y-24.149 E14.66716
G1 X8.071 Y-24.305 E14.70856
G1 X9.119 Y-24.442 E14.76129
G1 X10.048 Y-24.501 E14.80773
G1 X10.955 Y-24.442 E14.85308
G1 X12.003 Y-24.305 E14.90581
G1 X12.818 Y-24.149 E14.94721
G1 X13.802 Y-23.824 E14.99891
G1 X14.781 Y-23.418 E15.05179
G1 X15.66 Y-22.978 E15.10083
G1 X15.682 Y-22.965 E15.1021
G1 X16.381 Y-22.494 E15.14415
G1 X17.222 Y-21.849 E15.19703
G1 X17.912 Y-21.244 E15.24281
G1 X17.929 Y-21.227 E15.24401
G1 X18.534 Y-20.537 E15.28979
G1 X19.179 Y-19.696 E15.34267
G1 X19.638 Y-19.017 E15.38356
G1 X20.101 Y-18.1 E15.43481
G1 X20.507 Y-17.122 E15.48764
G1 X20.801 Y-16.258 E15.53317
G1 X20.808 Y-16.232 E15.53452
G1 X20.99 Y-15.321 E15.58086
G1 X21.127 Y-14.275 E15.6335
G1 X21.186 Y-13.366 E15.67894
G1 X21.186 Y-13.341 E15.68019
G1 X21.127 Y-12.434 E15.72553
G1 X20.99 Y-11.386 E15.77826
G1 X20.822 Y-10.526 E15.82198
G1 X20.816 Y-10.503 E15.82317
G1 X20.508 Y-9.586 E15.87143
G1 X20.099 Y-8.601 E15.92464
G1 X19.649 Y-7.704 E15.9747
G1 X19.161 Y-6.885 E16.02227
G1 X18.799 Y-6.211 E16.06044
G1 X18.466 Y-5.515 E16.09893
G1 X18.172 Y-4.818 E16.13667
G1 X17.912 Y-4.11 E16.1743
G1 X17.675 Y-3.355 E16.21378
G1 X17.491 Y-2.662 E16.24955
G1 X17.32 Y-1.869 E16.29002
G1 X17.203 Y-1.157 E16.32602
G1 X17.11 Y-.36 E16.36605
G1 X17.057 Y0.389 E16.40351
G1 X17.035 Y1.313 E16.44963
G1 X17.022 Y1.61 E16.46446
G1 X16.965 Y2.469 E16.50741
G1 X16.843 Y3.384 E16.55346
G1 X16.676 Y4.216 E16.5958
G1 X16.444 Y5.079 E16.64038
G1 X16.177 Y5.869 E16.68199
G1 X15.832 Y6.709 E16.72729
G1 X15.459 Y7.47 E16.76957
G1 X14.995 Y8.276 E16.81597
G1 X14.521 Y8.986 E16.85856
G1 X13.965 Y9.711 E16.90414
G1 X13.4 Y10.356 E16.94692
G1 X12.74 Y11.016 E16.99349
G1 X12.091 Y11.583 E17.03648
G1 X11.364 Y12.138 E17.08212
G1 X10.658 Y12.608 E17.12443
G1 X9.873 Y13.06 E17.16962
G1 X9.114 Y13.434 E17.21184
G1 X8.261 Y13.787 E17.25789
G1 X7.459 Y14.058 E17.30013
G1 X6.584 Y14.291 E17.3453
G1 X5.75 Y14.457 E17.38773
G1 X4.834 Y14.578 E17.43382
G1 X3.98 Y14.633 E17.47652
G1 X3.062 Y14.631 E17.52232
G1 X2.211 Y14.574 E17.56487
G1 X1.316 Y14.456 E17.60991
G1 X0.495 Y14.293 E17.65167
G1 X-.397 Y14.054 E17.69774
G1 X-1.211 Y13.777 E17.74063
G1 X-2.039 Y13.434 E17.78535
G1 X-2.789 Y13.066 E17.82703
G1 X-3.602 Y12.598 E17.87383
G1 X-4.32 Y12.117 E17.91694
G1 X-5.043 Y11.56 E17.96248
G1 X-5.684 Y10.997 E18.00504
G1 X-6.334 Y10.347 E18.0509
G1 X-6.893 Y9.708 E18.09326
G1 X-7.447 Y8.984 E18.13874
G1 X-7.92 Y8.275 E18.18126
G1 X-8.383 Y7.471 E18.22755
G1 X-8.757 Y6.708 E18.26994
G1 X-9.103 Y5.865 E18.31541
G1 X-9.373 Y5.065 E18.35753
G1 X-9.606 Y4.195 E18.40246
G1 X-9.772 Y3.362 E18.44484
G1 X-9.892 Y2.453 E18.49058
G1 X-9.948 Y1.601 E18.53318
G1 X-9.961 Y1.302 E18.54811
G1 X-9.982 Y0.39 E18.59362
M204 S3000
G0 F3000 X-9.582 Y0.373
M204 S1500
G1 F1200 X-9.636 Y-.394 E18.63198
G1 X-9.733 Y-1.211 E18.67303
G1 X-9.857 Y-1.962 E18.71101
G1 X-10.024 Y-2.746 E18.751
G1 X-10.217 Y-3.473 E18.78852
G1 X-10.462 Y-4.25 E18.82917
G1 X-10.722 Y-4.954 E18.86661
G1 X-11.031 Y-5.687 E18.9063
G1 X-11.378 Y-6.414 E18.94649
G1 X-11.73 Y-7.07 E18.98363
G1 X-12.226 Y-7.9 E19.03187
G1 X-12.659 Y-8.762 E19.08
G1 X-13.065 Y-9.742 E19.13292
G1 X-13.354 Y-10.602 E19.17818
G1 X-13.36 Y-10.625 E19.17937
G1 X-13.517 Y-11.429 E19.22024
G1 X-13.655 Y-12.476 E19.27292
G1 X-13.712 Y-13.338 E19.31602
G1 X-13.712 Y-13.363 E19.31727
G1 X-13.656 Y-14.224 E19.36032
G1 X-13.518 Y-15.273 E19.4131
G1 X-13.36 Y-16.078 E19.45403
G1 X-13.354 Y-16.101 E19.45522
G1 X-13.067 Y-16.958 E19.5003
G1 X-12.662 Y-17.937 E19.55316
G1 X-12.245 Y-18.772 E19.59973
G1 X-12.232 Y-18.794 E19.601
G1 X-11.785 Y-19.455 E19.64081
G1 X-11.141 Y-20.294 E19.69358
G1 X-10.573 Y-20.942 E19.73657
G1 X-10.554 Y-20.961 E19.73791
G1 X-9.907 Y-21.529 E19.78086
G1 X-9.067 Y-22.174 E19.8337
G1 X-8.423 Y-22.61 E19.8725
G1 X-7.556 Y-23.047 E19.92094
G1 X-6.575 Y-23.454 E19.97393
G1 X-5.647 Y-23.761 E20.02269
G1 X-4.878 Y-23.908 E20.06175
G1 X-3.83 Y-24.045 E20.11448
G1 X-2.952 Y-24.101 E20.15837
G1 X-2.096 Y-24.045 E20.20117
G1 X-1.048 Y-23.908 E20.2539
G1 X-.279 Y-23.761 E20.29296
G1 X0.648 Y-23.455 E20.34166
G1 X1.627 Y-23.049 E20.39454
G1 X2.457 Y-22.634 E20.44084
G1 X2.479 Y-22.621 E20.44211
G1 X3.138 Y-22.176 E20.48178
G1 X3.537 Y-21.87 E20.50687
G1 X3.933 Y-22.174 E20.53178
G1 X4.577 Y-22.61 E20.57058
G1 X5.444 Y-23.047 E20.61901
G1 X6.425 Y-23.454 E20.672
G1 X7.353 Y-23.761 E20.72077
G1 X8.122 Y-23.908 E20.75983
G1 X9.17 Y-24.045 E20.81256
G1 X10.048 Y-24.101 E20.85645
G1 X10.904 Y-24.045 E20.89925
G1 X11.952 Y-23.908 E20.95198
G1 X12.721 Y-23.761 E20.99104
G1 X13.648 Y-23.455 E21.03974
G1 X14.627 Y-23.049 E21.09262
G1 X15.457 Y-22.634 E21.13891
G1 X15.479 Y-22.621 E21.14019
G1 X16.138 Y-22.176 E21.17986
G1 X16.979 Y-21.531 E21.23274
G1 X17.629 Y-20.961 E21.27587
G1 X17.646 Y-20.944 E21.27707
G1 X18.216 Y-20.294 E21.3202
G1 X18.861 Y-19.453 E21.37307
G1 X19.295 Y-18.812 E21.41169
G1 X19.732 Y-17.946 E21.46009
G1 X20.138 Y-16.968 E21.51292
G1 X20.415 Y-16.154 E21.55582
G1 X20.422 Y-16.128 E21.55716
G1 X20.593 Y-15.269 E21.60086
G1 X20.73 Y-14.223 E21.65349
G1 X20.786 Y-13.366 E21.69633
G1 X20.786 Y-13.341 E21.69758
G1 X20.73 Y-12.485 E21.74038
G1 X20.593 Y-11.437 E21.79311
G1 X20.435 Y-10.627 E21.83428
G1 X20.429 Y-10.604 E21.83547
G1 X20.138 Y-9.739 E21.881
G1 X19.729 Y-8.754 E21.93421
G1 X19.305 Y-7.909 E21.98138
G1 X18.818 Y-7.091 E22.02887
