;FLAVOR:Marlin
;TIME:902
;Filament used: 0.648118m
;Layer height: 0.2
;MINX:-13.889
;MINY:-21.207
;MINZ:0.3
;MAXX:17.894
;MAXY:17.208
;MAXZ:27.1
;Generated with Cura_SteamEngine 4.10.0
M104 S220
M105
M109 S220
M82 ;absolute extrusion mode
G21        ;metric values
G90        ;absolute positioning
M107       ;start with the fan off
G28   ;move to endstops
G92 E0                  ;zero the extruded length
G1 F200 E3              ;extrude 3mm of feed stock
G92 E0                  ;zero the extruded length again
G1 F150.0
;Put printing message on LCD screen
M117 Printing...
G92 E0
G92 E0
G1 F2700 E-7
;LAYER_COUNT:137
;LAYER:0
M107
M204 S3000
G0 F3000 X-6.981 Y0.761 Z0.3
M204 S1500
;TYPE:SKIRT
G1 F2700 E0
G1 F1200 X-7.62 Y-1.882 E0.16279
G1 X-8.343 Y-4.533 E0.3273
G1 X-9.124 Y-7.113 E0.48868
G1 X-10.449 Y-10.994 E0.7342
G1 X-10.632 Y-11.71 E0.77844
G1 X-10.745 Y-12.477 E0.82485
G1 X-10.794 Y-12.889 E0.84969
G1 X-10.819 Y-13.433 E0.8823
G1 X-10.796 Y-13.75 E0.90133
G1 X-10.716 Y-14.451 E0.94357
G1 X-10.649 Y-14.927 E0.97234
G1 X-10.532 Y-15.459 E1.00495
G1 X-10.427 Y-15.763 E1.02421
G1 X-10.142 Y-16.483 E1.07057
G1 X-9.977 Y-16.867 E1.09559
G1 X-9.725 Y-17.35 E1.12821
G1 X-9.548 Y-17.612 E1.14714
G1 X-9.056 Y-18.274 E1.19652
G1 X-8.83 Y-18.561 E1.21839
G1 X-8.462 Y-18.964 E1.25106
G1 X-8.221 Y-19.172 E1.27012
G1 X-7.601 Y-19.663 E1.31746
G1 X-7.269 Y-19.91 E1.34224
G1 X-6.809 Y-20.202 E1.37486
G1 X-6.534 Y-20.336 E1.39317
G1 X-5.93 Y-20.599 E1.43261
G1 X-5.439 Y-20.796 E1.46428
G1 X-4.919 Y-20.96 E1.49693
G1 X-4.618 Y-21.018 E1.51528
G1 X-3.906 Y-21.125 E1.55838
G1 X-3.401 Y-21.186 E1.58884
G1 X-2.766 Y-21.207 E1.62688
G1 X-1.529 Y-21.141 E1.70104
G1 X1.179 Y-21.036 E1.86328
G1 X3.939 Y-21.006 E2.02853
G1 X6.627 Y-21.053 E2.18948
G1 X9.399 Y-21.18 E2.35561
G1 X9.788 Y-21.203 E2.37894
G1 X10.425 Y-21.187 E2.41709
G1 X11.09 Y-21.112 E2.45715
G1 X11.613 Y-21.038 E2.48877
G1 X12.146 Y-20.92 E2.52146
G1 X12.446 Y-20.817 E2.54045
G1 X13.08 Y-20.567 E2.58125
G1 X13.554 Y-20.365 E2.61209
G1 X14.038 Y-20.114 E2.64473
G1 X14.303 Y-19.935 E2.66388
G1 X14.84 Y-19.537 E2.7039
G1 X15.238 Y-19.226 E2.73414
G1 X15.641 Y-18.859 E2.76677
G1 X15.852 Y-18.616 E2.78603
G1 X16.292 Y-18.063 E2.82834
G1 X16.602 Y-17.647 E2.8594
G1 X16.893 Y-17.186 E2.89204
G1 X17.02 Y-16.924 E2.90947
G1 X17.283 Y-16.321 E2.94886
G1 X17.481 Y-15.828 E2.98066
G1 X17.645 Y-15.308 E3.01331
G1 X17.703 Y-15.007 E3.03166
G1 X17.811 Y-14.289 E3.07513
G1 X17.869 Y-13.815 E3.10372
G1 X17.894 Y-13.27 E3.13638
G1 X17.871 Y-12.951 E3.15553
G1 X17.782 Y-12.187 E3.20157
G1 X17.721 Y-11.759 E3.22746
G1 X17.541 Y-11.033 E3.27224
G1 X17.279 Y-10.299 E3.3189
G1 X16.377 Y-7.655 E3.48615
G1 X15.577 Y-5.07 E3.64815
G1 X14.851 Y-2.467 E3.80993
G1 X14.188 Y0.193 E3.97405
G1 X13.744 Y2.245 E4.09975
G1 X13.712 Y2.352 E4.10643
G1 X13.441 Y3.614 E4.18371
G1 X13.295 Y4.141 E4.21645
G1 X13.238 Y4.315 E4.22741
G1 X13.038 Y4.879 E4.26323
G1 X12.818 Y5.397 E4.29693
G1 X12.742 Y5.554 E4.30737
G1 X12.467 Y6.092 E4.34354
G1 X12.205 Y6.538 E4.37451
G1 X12.109 Y6.686 E4.38507
G1 X11.752 Y7.205 E4.42278
G1 X11.38 Y7.679 E4.45886
G1 X11.276 Y7.8 E4.46841
G1 X10.912 Y8.205 E4.50101
G1 X10.463 Y8.646 E4.53869
G1 X10.335 Y8.759 E4.54891
G1 X9.894 Y9.133 E4.58353
G1 X9.425 Y9.484 E4.6186
G1 X9.294 Y9.573 E4.62808
G1 X8.839 Y9.869 E4.66058
G1 X8.306 Y10.172 E4.69728
G1 X8.148 Y10.252 E4.70789
G1 X7.648 Y10.49 E4.74104
G1 X7.049 Y10.73 E4.77967
G1 X6.877 Y10.79 E4.79058
G1 X6.366 Y10.955 E4.82272
G1 X5.83 Y11.094 E4.85588
G1 X5.652 Y11.131 E4.86676
G1 X5.048 Y11.242 E4.90353
G1 X4.491 Y11.309 E4.93711
G1 X4.332 Y11.321 E4.94666
G1 X3.725 Y11.353 E4.98305
G1 X3.125 Y11.345 E5.01897
G1 X2.964 Y11.336 E5.02863
G1 X2.374 Y11.288 E5.06407
G1 X1.827 Y11.21 E5.09715
G1 X1.672 Y11.18 E5.1066
G1 X1.078 Y11.054 E5.14295
G1 X0.518 Y10.897 E5.17777
G1 X0.363 Y10.846 E5.18754
G1 X-.209 Y10.642 E5.2239
G1 X-.715 Y10.426 E5.25683
G1 X-.87 Y10.351 E5.26714
G1 X-1.41 Y10.075 E5.30345
G1 X-1.923 Y9.77 E5.33918
G1 X-2.051 Y9.685 E5.34838
G1 X-2.525 Y9.358 E5.38285
G1 X-2.992 Y8.991 E5.41841
G1 X-3.122 Y8.879 E5.42869
G1 X-3.559 Y8.484 E5.46395
G1 X-3.989 Y8.04 E5.50096
G1 X-4.089 Y7.928 E5.50994
G1 X-4.441 Y7.514 E5.54248
G1 X-4.76 Y7.092 E5.57415
G1 X-4.866 Y6.937 E5.58539
G1 X-5.211 Y6.405 E5.62335
G1 X-5.504 Y5.884 E5.65914
G1 X-5.578 Y5.736 E5.66904
G1 X-5.823 Y5.219 E5.70329
G1 X-6.044 Y4.664 E5.73906
G1 X-6.095 Y4.515 E5.74849
G1 X-6.271 Y3.971 E5.78272
G1 X-6.413 Y3.421 E5.81672
G1 X-6.55 Y2.77 E5.85655
G1 X-6.981 Y0.761 E5.97956
M204 S3000
G0 F3000 X-6.517 Y0.635
M204 S1500
G1 F1200 X-7.152 Y-1.988 E6.14114
G1 X-7.879 Y-4.657 E6.30675
G1 X-8.669 Y-7.264 E6.46983
G1 X-9.995 Y-11.149 E6.71559
G1 X-10.158 Y-11.781 E6.75467
G1 X-10.256 Y-12.438 E6.79444
G1 X-10.317 Y-12.945 E6.82501
G1 X-10.319 Y-13.695 E6.86991
G1 X-10.227 Y-14.49 E6.91782
G1 X-10.174 Y-14.859 E6.94014
G1 X-9.981 Y-15.587 E6.98523
G1 X-9.701 Y-16.293 E7.0307
G1 X-9.536 Y-16.677 E7.05572
G1 X-9.162 Y-17.327 E7.10062
G1 X-8.679 Y-17.977 E7.1491
G1 X-8.453 Y-18.264 E7.17097
G1 X-7.923 Y-18.797 E7.21597
G1 X-7.397 Y-19.215 E7.25619
G1 X-6.983 Y-19.524 E7.28712
G1 X-6.342 Y-19.896 E7.33149
G1 X-5.738 Y-20.159 E7.37093
G1 X-5.261 Y-20.35 E7.40169
G1 X-4.547 Y-20.543 E7.44597
G1 X-3.733 Y-20.664 E7.49524
G1 X-3.344 Y-20.71 E7.51869
G1 X-2.791 Y-20.727 E7.55182
G1 X-1.601 Y-20.664 E7.62316
G1 X1.19 Y-20.555 E7.79038
G1 X3.906 Y-20.527 E7.95299
G1 X6.657 Y-20.574 E8.11771
G1 X9.884 Y-20.722 E8.31111
G1 X10.371 Y-20.71 E8.34027
G1 X11.137 Y-20.622 E8.38643
G1 X11.545 Y-20.563 E8.41111
G1 X12.27 Y-20.37 E8.45603
G1 X12.992 Y-20.084 E8.50252
G1 X13.365 Y-19.924 E8.52682
G1 X14.017 Y-19.549 E8.57185
G1 X14.625 Y-19.097 E8.61721
G1 X14.941 Y-18.849 E8.64126
G1 X15.476 Y-18.317 E8.68643
G1 X15.916 Y-17.764 E8.72873
G1 X16.216 Y-17.362 E8.75876
G1 X16.58 Y-16.732 E8.80232
G1 X16.843 Y-16.129 E8.84171
G1 X17.035 Y-15.65 E8.8726
G1 X17.228 Y-14.936 E8.91688
G1 X17.336 Y-14.218 E8.96035
G1 X17.392 Y-13.758 E8.9881
G1 X17.394 Y-13.006 E9.03312
G1 X17.307 Y-12.255 E9.07838
G1 X17.246 Y-11.827 E9.10426
G1 X17.089 Y-11.194 E9.14331
G1 X16.825 Y-10.454 E9.19034
G1 X15.923 Y-7.811 E9.35754
G1 X15.115 Y-5.2 E9.52117
G1 X14.382 Y-2.571 E9.68456
G1 X13.724 Y0.069 E9.84745
G1 X13.275 Y2.144 E9.97455
G1 X13.245 Y2.242 E9.98069
G1 X12.972 Y3.513 E10.05852
G1 X12.835 Y4.003 E10.08898
G1 X12.786 Y4.155 E10.09854
G1 X12.586 Y4.719 E10.13436
G1 X12.381 Y5.199 E10.16561
G1 X12.315 Y5.336 E10.17471
G1 X12.04 Y5.874 E10.21089
G1 X11.713 Y6.414 E10.24868
G1 X11.356 Y6.933 E10.28639
G1 X11.009 Y7.374 E10.31999
G1 X10.919 Y7.479 E10.32827
G1 X10.555 Y7.884 E10.36087
G1 X10.136 Y8.294 E10.39597
G1 X10.025 Y8.393 E10.40487
G1 X9.584 Y8.767 E10.43949
G1 X9.146 Y9.093 E10.47218
G1 X9.032 Y9.171 E10.48045
G1 X8.577 Y9.467 E10.51294
G1 X8.08 Y9.749 E10.54715
G1 X7.942 Y9.818 E10.55639
G1 X7.442 Y10.056 E10.58954
G1 X6.879 Y10.281 E10.62584
G1 X6.73 Y10.333 E10.63529
G1 X6.219 Y10.498 E10.66744
G1 X5.72 Y10.626 E10.69828
G1 X5.566 Y10.659 E10.70771
G1 X4.962 Y10.77 E10.74447
G1 X4.445 Y10.831 E10.77564
G1 X4.307 Y10.842 E10.78393
G1 X3.7 Y10.874 E10.82032
G1 X3.143 Y10.866 E10.85367
G1 X3.003 Y10.857 E10.86207
G1 X2.413 Y10.809 E10.89751
G1 X1.907 Y10.736 E10.92811
G1 X1.772 Y10.71 E10.93634
G1 X1.178 Y10.584 E10.9727
G1 X0.659 Y10.438 E11.00497
G1 X0.525 Y10.394 E11.01342
G1 X-0.047 Y10.19 E11.04978
G1 X-.517 Y9.989 E11.08038
G1 X-.652 Y9.924 E11.08935
G1 X-1.192 Y9.648 E11.12566
G1 X-1.667 Y9.364 E11.15879
G1 X-1.779 Y9.29 E11.16683
G1 X-2.253 Y8.963 E11.2013
G1 X-2.687 Y8.62 E11.23442
G1 X-2.801 Y8.523 E11.24338
G1 X-3.238 Y8.128 E11.27865
G1 X-3.637 Y7.715 E11.31303
G1 X-3.723 Y7.617 E11.32083
G1 X-4.075 Y7.203 E11.35336
G1 X-4.463 Y6.676 E11.39254
G1 X-4.808 Y6.144 E11.4305
G1 X-5.079 Y5.659 E11.46377
G1 X-5.144 Y5.53 E11.47241
G1 X-5.389 Y5.013 E11.50667
G1 X-5.594 Y4.497 E11.53991
G1 X-5.639 Y4.367 E11.54814
G1 X-5.815 Y3.823 E11.58237
G1 X-5.946 Y3.312 E11.61395
G1 X-6.077 Y2.688 E11.65213
G1 X-6.517 Y0.635 E11.77783
M204 S3000
G1 F2700 E4.77783
;MESH:Hotend_Cableholder_v2.0.stl
G0 F3000 X-3.62 Y1.269
G0 X-1.71 Y1.142
G0 X-.399 Y-11.872
M204 S1500
;TYPE:WALL-INNER
G1 F2700 E11.77783
G1 F1200 X-.134 Y-12.509 E11.8055
G1 X-.232 Y-11.848 E11.81001
G1 X-.321 Y-11.252 E11.83418
G1 X-1.603 Y-2.679 E12.18188
G1 X-1.669 Y-2.236 E12.19985
G1 X-1.833 Y-1.142 E12.24422
G1 X-1.858 Y-.98 E12.2508
G1 X-1.87 Y-1.147 E12.25115
G1 X-2.005 Y-2.286 E12.26989
G1 X-2.077 Y-2.728 E12.28524
G1 X-2.192 Y-3.419 E12.31334
G1 X-2.432 Y-4.542 E12.3594
G1 X-2.726 Y-5.655 E12.40558
G1 X-3.072 Y-6.749 E12.4516
G1 X-3.467 Y-7.826 E12.49762
G1 X-3.913 Y-8.885 E12.54371
G1 X-4.409 Y-9.921 E12.58978
G1 X-4.711 Y-10.485 E12.61545
G1 X-4.778 Y-10.61 E12.62113
G1 X-4.951 Y-10.933 E12.63583
G1 X-5.123 Y-11.219 E12.64922
G1 X-5.477 Y-11.808 E12.67678
G1 X-5.055 Y-11.26 E12.67918
G1 X-4.832 Y-11.088 E12.6818
G1 X-4.444 Y-10.789 E12.69467
G1 X-4.313 Y-10.735 E12.69978
G1 X-3.729 Y-10.492 E12.72515
G1 X-2.963 Y-10.392 E12.75614
G1 X-2.197 Y-10.492 E12.78713
G1 X-1.483 Y-10.789 E12.81814
G1 X-.87 Y-11.258 E12.8491
G1 X-.766 Y-11.394 E12.85597
G1 X-.399 Y-11.872 E12.87254
M204 S3000
G0 F3000 X-1.73 Y1.142
G0 X-1.549 Y2.51
G0 X-1.023 Y3.781
G0 X-.186 Y4.871
G0 X0.904 Y5.708
G0 X2.175 Y6.234
G0 X3.537 Y6.414
G0 X4.9 Y6.234
G0 X6.17 Y5.708
G0 X7.26 Y4.871
G0 X8.097 Y3.781
G0 X8.624 Y2.51
G0 X9.793 Y-5.105
G0 X12.13 Y-11.258
M204 S1500
G1 F1200 X12.542 Y-11.796 E12.89972
G1 X12.197 Y-11.219 E12.90182
G1 X12.025 Y-10.932 E12.91525
G1 X11.853 Y-10.61 E12.92989
G1 X11.787 Y-10.487 E12.93549
G1 X11.484 Y-9.921 E12.96124
G1 X10.988 Y-8.885 E13.00731
G1 X10.541 Y-7.826 E13.05342
G1 X10.147 Y-6.748 E13.09946
G1 X9.801 Y-5.654 E13.14548
G1 X9.508 Y-4.544 E13.19153
G1 X9.266 Y-3.421 E13.23761
G1 X9.153 Y-2.733 E13.26558
G1 X9.08 Y-2.286 E13.28375
G1 X8.945 Y-1.147 E13.32975
G1 X8.933 Y-.976 E13.33663
G1 X8.909 Y-1.141 E13.3368
G1 X8.745 Y-2.235 E13.3547
G1 X8.679 Y-2.683 E13.37021
G1 X7.398 Y-11.249 E13.71762
G1 X7.309 Y-11.846 E13.74183
G1 X7.209 Y-12.51 E13.76877
G1 X7.474 Y-11.871 E13.77405
G1 X7.842 Y-11.393 E13.79058
G1 X7.945 Y-11.26 E13.79733
G1 X8.556 Y-10.789 E13.82827
G1 X9.271 Y-10.492 E13.85933
G1 X10.037 Y-10.392 E13.89032
G1 X10.803 Y-10.492 E13.9213
G1 X11.388 Y-10.736 E13.94673
G1 X11.517 Y-10.789 E13.95177
G1 X11.906 Y-11.086 E13.96466
G1 X12.13 Y-11.258 E13.96726
M204 S3000
G0 F3000 X10.688 Y-10.922
G0 X9.371 Y-10.864
G0 X9.396 Y-10.96
M204 S1500
G1 F1200 X10.037 Y-10.876 E13.99319
G1 X10.678 Y-10.96 E14.01912
G1 X11.275 Y-11.208 E14.04505
G1 X11.788 Y-11.601 E14.07097
G1 X12.182 Y-12.114 E14.09692
G1 X12.43 Y-12.711 E14.12285
G1 X12.513 Y-13.352 E14.14877
G1 X12.43 Y-13.993 E14.1747
G1 X12.182 Y-14.59 E14.20063
G1 X11.788 Y-15.103 E14.22658
G1 X11.275 Y-15.497 E14.25252
G1 X10.678 Y-15.745 E14.27845
G1 X10.037 Y-15.828 E14.30438
G1 X9.396 Y-15.745 E14.33031
G1 X8.799 Y-15.497 E14.35624
G1 X8.286 Y-15.103 E14.38218
G1 X7.893 Y-14.59 E14.4081
G1 X7.645 Y-13.993 E14.43403
G1 X7.561 Y-13.352 E14.45997
G1 X7.645 Y-12.711 E14.4859
G1 X7.893 Y-12.114 E14.51183
G1 X8.287 Y-11.602 E14.53774
G1 X8.799 Y-11.208 E14.56366
G1 X9.396 Y-10.96 E14.58959
M204 S3000
G0 F3000 X9.371 Y-10.864
G0 X8.864 Y1.142
G0 X8.764 Y1.142
M204 S1500
G1 F1200 X6.741 Y-12.384 E15.13817
G1 X6.613 Y-13.352 E15.17734
G1 X6.73 Y-14.236 E15.21311
G1 X7.075 Y-15.068 E15.24924
G1 X7.616 Y-15.774 E15.28491
G1 X8.324 Y-16.316 E15.32068
G1 X9.151 Y-16.659 E15.35659
G1 X10.037 Y-16.776 E15.39244
G1 X10.923 Y-16.659 E15.42829
G1 X11.747 Y-16.317 E15.46407
G1 X12.459 Y-15.774 E15.49999
G1 X13.002 Y-15.062 E15.53591
G1 X13.344 Y-14.239 E15.57165
G1 X13.461 Y-13.352 E15.60754
G1 X13.344 Y-12.466 E15.64339
G1 X12.987 Y-11.603 E15.68085
G1 X12.443 Y-10.695 E15.72331
G1 X11.912 Y-9.704 E15.76841
G1 X11.426 Y-8.688 E15.81358
G1 X10.988 Y-7.65 E15.85877
G1 X10.601 Y-6.593 E15.90392
G1 X10.262 Y-5.52 E15.94906
G1 X9.975 Y-4.432 E15.9942
G1 X9.738 Y-3.331 E16.03937
G1 X9.555 Y-2.219 E16.08457
G1 X9.423 Y-1.102 E16.12969
G1 X9.343 Y0.022 E16.17489
G1 X9.317 Y1.124 E16.21911
G1 X9.267 Y1.899 E16.25026
G1 X9.119 Y2.642 E16.28065
G1 X8.876 Y3.359 E16.31101
G1 X8.54 Y4.041 E16.34151
G1 X8.121 Y4.667 E16.37172
G1 X7.628 Y5.23 E16.40174
G1 X7.051 Y5.735 E16.4325
G1 X6.424 Y6.154 E16.46275
G1 X5.756 Y6.484 E16.49263
G1 X5.032 Y6.729 E16.52329
G1 X4.289 Y6.877 E16.55368
G1 X3.537 Y6.927 E16.58391
G1 X2.786 Y6.877 E16.6141
G1 X2.043 Y6.729 E16.64449
G1 X1.326 Y6.486 E16.67486
G1 X0.644 Y6.15 E16.70535
G1 X0.018 Y5.731 E16.73557
G1 X-.549 Y5.234 E16.76581
G1 X-1.046 Y4.667 E16.79606
G1 X-1.465 Y4.041 E16.82627
G1 X-1.801 Y3.359 E16.85677
G1 X-2.044 Y2.642 E16.88713
G1 X-2.192 Y1.899 E16.91752
G1 X-2.243 Y1.124 E16.94868
G1 X-2.268 Y0.023 E16.99285
G1 X-2.348 Y-1.102 E17.03809
G1 X-2.48 Y-2.219 E17.08321
G1 X-2.664 Y-3.33 E17.12838
G1 X-2.899 Y-4.431 E17.17354
G1 X-3.187 Y-5.521 E17.21876
G1 X-3.526 Y-6.594 E17.26389
G1 X-3.914 Y-7.65 E17.30902
G1 X-4.351 Y-8.688 E17.3542
G1 X-4.837 Y-9.704 E17.39937
G1 X-5.368 Y-10.696 E17.44451
G1 X-5.909 Y-11.595 E17.48659
G1 X-6.269 Y-12.468 E17.52447
G1 X-6.387 Y-13.352 E17.56024
G1 X-6.27 Y-14.236 E17.59601
G1 X-5.925 Y-15.068 E17.63214
G1 X-5.384 Y-15.774 E17.66782
G1 X-4.676 Y-16.316 E17.70358
G1 X-3.849 Y-16.659 E17.73949
G1 X-2.963 Y-16.776 E17.77534
G1 X-2.077 Y-16.659 E17.81119
G1 X-1.253 Y-16.317 E17.84698
G1 X-.541 Y-15.774 E17.88289
G1 X0.002 Y-15.062 E17.91881
G1 X0.344 Y-14.239 E17.95456
G1 X0.461 Y-13.352 E17.99045
G1 X0.334 Y-12.385 E18.02957
G1 X-1.69 Y1.142 E18.5782
G1 X-1.511 Y2.5 E18.63314
G1 X-.989 Y3.761 E18.68789
G1 X-.158 Y4.843 E18.74261
G1 X0.924 Y5.674 E18.79733
G1 X2.185 Y6.196 E18.85208
G1 X3.537 Y6.374 E18.90678
G1 X4.89 Y6.196 E18.96151
G1 X6.15 Y5.674 E19.01622
G1 X7.232 Y4.843 E19.07094
G1 X8.063 Y3.761 E19.12567
G1 X8.586 Y2.5 E19.18043
G1 X8.764 Y1.142 E19.23536
M204 S3000
G0 F3000 X8.864 Y1.142
G0 X8.624 Y2.51
G0 X8.097 Y3.781
G0 X7.26 Y4.871
G0 X6.17 Y5.708
G0 X4.9 Y6.234
G0 X3.537 Y6.414
G0 X2.175 Y6.234
G0 X0.904 Y5.708
G0 X-.186 Y4.871
G0 X-1.023 Y3.781
G0 X-1.496 Y2.638
G0 X-3.629 Y-10.864
G0 X-3.604 Y-10.96
M204 S1500
G1 F1200 X-2.963 Y-10.876 E19.2613
G1 X-2.322 Y-10.96 E19.28723
G1 X-1.725 Y-11.208 E19.31316
G1 X-1.212 Y-11.601 E19.33908
G1 X-.818 Y-12.114 E19.36503
G1 X-.57 Y-12.711 E19.39096
G1 X-.487 Y-13.352 E19.41688
G1 X-.57 Y-13.993 E19.44281
G1 X-.818 Y-14.59 E19.46874
G1 X-1.212 Y-15.103 E19.49469
G1 X-1.725 Y-15.497 E19.52063
G1 X-2.322 Y-15.745 E19.54656
G1 X-2.963 Y-15.828 E19.57249
G1 X-3.604 Y-15.745 E19.59842
G1 X-4.201 Y-15.497 E19.62435
G1 X-4.714 Y-15.103 E19.65029
G1 X-5.107 Y-14.59 E19.67621
G1 X-5.355 Y-13.993 E19.70214
G1 X-5.439 Y-13.352 E19.72808
G1 X-5.355 Y-12.711 E19.75401
G1 X-5.107 Y-12.114 E19.77994
G1 X-4.713 Y-11.602 E19.80585
G1 X-4.201 Y-11.208 E19.83177
G1 X-3.604 Y-10.96 E19.8577
M204 S3000
G0 F3000 X-3.479 Y-11.428
M204 S1500
;TYPE:WALL-OUTER
G1 F1200 X-2.963 Y-11.36 E19.87857
G1 X-2.447 Y-11.428 E19.89945
G1 X-1.967 Y-11.627 E19.92029
G1 X-1.554 Y-11.944 E19.94118
G1 X-1.237 Y-12.356 E19.96203
G1 X-1.038 Y-12.836 E19.98287
G1 X-.971 Y-13.352 E20.00374
G1 X-1.038 Y-13.868 E20.02461
G1 X-1.237 Y-14.348 E20.04546
G1 X-1.554 Y-14.761 E20.06634
G1 X-1.967 Y-15.078 E20.08722
G1 X-2.447 Y-15.277 E20.10807
G1 X-2.963 Y-15.344 E20.12894
G1 X-3.479 Y-15.277 E20.14981
G1 X-3.959 Y-15.078 E20.17065
G1 X-4.371 Y-14.761 E20.1915
G1 X-4.688 Y-14.348 E20.21239
G1 X-4.887 Y-13.868 E20.23323
G1 X-4.955 Y-13.352 E20.25411
G1 X-4.887 Y-12.836 E20.27498
G1 X-4.688 Y-12.356 E20.29582
G1 X-4.371 Y-11.944 E20.31668
G1 X-3.959 Y-11.627 E20.33753
G1 X-3.479 Y-11.428 E20.35837
M204 S3000
G0 F3000 X-3.281 Y-11.402
G0 X-3.357 Y-10.827
G0 X-1.549 Y2.51
G0 X-1.023 Y3.781
G0 X-.186 Y4.871
G0 X0.904 Y5.708
G0 X2.175 Y6.234
G0 X3.537 Y6.414
G0 X4.9 Y6.234
G0 X6.17 Y5.708
G0 X7.26 Y4.871
G0 X8.097 Y3.781
G0 X8.624 Y2.51
G0 X8.769 Y1.403
G0 X9.298 Y-10.893
G0 X9.521 Y-11.428
M204 S1500
G1 F1200 X10.037 Y-11.36 E20.37925
G1 X10.553 Y-11.428 E20.40012
G1 X11.033 Y-11.627 E20.42097
