;FLAVOR:Marlin
;TIME:923
;Filament used: 0.650645m
;Layer height: 0.2
;MINX:-17.773
;MINY:6.011
;MINZ:0.3
;MAXX:13.939
;MAXY:44.356
;MAXZ:27.1
;Generated with Cura_SteamEngine 4.10.0
M104 S220
M105
M109 S220
M82 ;absolute extrusion mode
G21        ;metric values
G90        ;absolute positioning
M107       ;start with the fan off
G28   ;move to endstops
G92 E0                  ;zero the extruded length
G1 F200 E3              ;extrude 3mm of feed stock
G92 E0                  ;zero the extruded length again
G1 F150.0
;Put printing message on LCD screen
M117 Printing...
G92 E0
G92 E0
G1 F2700 E-7
;LAYER_COUNT:137
;LAYER:0
M107
M204 S3000
G0 F3000 X-.44 Y6.165 Z0.3
M204 S1500
;TYPE:SKIRT
G1 F2700 E0
G1 F1200 X2.282 Y6.04 E0.13594
G1 X2.721 Y6.014 E0.15788
G1 X3.337 Y6.031 E0.18863
G1 X4.114 Y6.12 E0.22765
G1 X4.522 Y6.179 E0.24821
G1 X5.046 Y6.295 E0.27499
G1 X5.328 Y6.393 E0.28988
G1 X6.057 Y6.682 E0.32901
G1 X6.424 Y6.839 E0.34892
G1 X6.9 Y7.086 E0.37568
G1 X7.156 Y7.26 E0.39112
G1 X7.805 Y7.744 E0.43151
G1 X8.099 Y7.975 E0.45016
G1 X8.495 Y8.337 E0.47693
G1 X8.693 Y8.566 E0.49203
G1 X9.092 Y9.068 E0.52403
G1 X9.415 Y9.498 E0.55086
G1 X9.703 Y9.95 E0.5776
G1 X9.832 Y10.217 E0.59239
G1 X10.16 Y10.975 E0.6336
G1 X10.297 Y11.319 E0.65207
G1 X10.457 Y11.831 E0.67883
G1 X10.512 Y12.116 E0.69331
G1 X10.627 Y12.891 E0.7324
G1 X10.675 Y13.301 E0.753
G1 X10.697 Y13.837 E0.77976
G1 X10.676 Y14.123 E0.79407
G1 X10.582 Y14.945 E0.83534
G1 X10.524 Y15.34 E0.85526
G1 X10.351 Y16.031 E0.8908
G1 X10.1 Y16.732 E0.92795
G1 X9.226 Y19.29 E1.06281
G1 X8.411 Y21.909 E1.19965
G1 X7.675 Y24.538 E1.33586
G1 X7.008 Y27.211 E1.4733
G1 X6.55 Y29.32 E1.58097
G1 X6.524 Y29.406 E1.58546
G1 X6.249 Y30.688 E1.65087
G1 X6.103 Y31.212 E1.67801
G1 X6.048 Y31.379 E1.68678
G1 X5.842 Y31.957 E1.71739
G1 X5.622 Y32.472 E1.74533
G1 X5.548 Y32.623 E1.75372
G1 X5.286 Y33.134 E1.78237
G1 X5.006 Y33.608 E1.80984
G1 X4.917 Y33.744 E1.81795
G1 X4.575 Y34.24 E1.848
G1 X4.213 Y34.699 E1.87717
G1 X4.112 Y34.817 E1.88492
G1 X3.748 Y35.222 E1.91208
G1 X3.305 Y35.657 E1.94306
G1 X3.188 Y35.761 E1.95087
G1 X2.755 Y36.13 E1.97925
G1 X2.266 Y36.494 E2.00967
G1 X2.137 Y36.582 E2.01746
G1 X1.653 Y36.895 E2.04621
G1 X1.175 Y37.164 E2.07358
G1 X1.021 Y37.242 E2.08219
G1 X0.483 Y37.497 E2.11189
G1 X-0.042 Y37.708 E2.14012
G1 X-.197 Y37.762 E2.14831
G1 X-.736 Y37.937 E2.17658
G1 X-1.343 Y38.09 E2.20781
G1 X-1.489 Y38.12 E2.21525
G1 X-2.023 Y38.218 E2.24234
G1 X-2.593 Y38.287 E2.27098
G1 X-2.763 Y38.3 E2.27949
G1 X-3.352 Y38.331 E2.30891
G1 X-3.875 Y38.327 E2.33501
G1 X-4.042 Y38.318 E2.34335
G1 X-4.667 Y38.269 E2.37463
G1 X-5.247 Y38.186 E2.40386
G1 X-5.397 Y38.157 E2.41148
G1 X-5.969 Y38.035 E2.44066
G1 X-6.534 Y37.877 E2.46993
G1 X-6.698 Y37.823 E2.47854
G1 X-7.236 Y37.631 E2.50704
G1 X-7.757 Y37.407 E2.53533
G1 X-7.899 Y37.338 E2.54321
G1 X-8.421 Y37.071 E2.57246
G1 X-8.896 Y36.791 E2.59997
G1 X-9.039 Y36.697 E2.60851
G1 X-9.53 Y36.359 E2.63825
G1 X-9.95 Y36.032 E2.6648
G1 X-10.092 Y35.91 E2.67414
G1 X-10.554 Y35.491 E2.70526
G1 X-10.952 Y35.083 E2.7337
G1 X-11.064 Y34.958 E2.74207
G1 X-11.424 Y34.535 E2.76978
G1 X-11.74 Y34.116 E2.79596
G1 X-11.837 Y33.975 E2.8045
G1 X-12.184 Y33.441 E2.83627
G1 X-12.462 Y32.947 E2.86456
G1 X-12.535 Y32.8 E2.87274
G1 X-12.787 Y32.269 E2.90207
G1 X-13.002 Y31.732 E2.93093
G1 X-13.055 Y31.581 E2.93891
G1 X-13.233 Y31.03 E2.9678
G1 X-13.38 Y30.444 E2.99794
G1 X-13.498 Y29.884 E3.02649
G1 X-13.973 Y27.685 E3.13873
G1 X-14.613 Y25.056 E3.27372
G1 X-15.335 Y22.418 E3.41017
G1 X-16.136 Y19.788 E3.54733
G1 X-17.429 Y16.017 E3.74622
G1 X-17.584 Y15.384 E3.77874
G1 X-17.706 Y14.562 E3.82019
G1 X-17.75 Y14.193 E3.83873
G1 X-17.773 Y13.657 E3.8655
G1 X-17.752 Y13.357 E3.8805
G1 X-17.676 Y12.694 E3.9138
G1 X-17.604 Y12.188 E3.9393
G1 X-17.488 Y11.664 E3.96607
G1 X-17.391 Y11.384 E3.98086
G1 X-17.141 Y10.749 E4.0149
G1 X-16.941 Y10.279 E4.04039
G1 X-16.694 Y9.803 E4.06714
G1 X-16.524 Y9.553 E4.08222
G1 X-16.12 Y9.008 E4.11607
G1 X-15.807 Y8.609 E4.14137
G1 X-15.444 Y8.214 E4.16813
G1 X-15.221 Y8.021 E4.18285
G1 X-14.68 Y7.591 E4.21733
G1 X-14.272 Y7.285 E4.24277
G1 X-13.819 Y6.998 E4.26952
G1 X-13.563 Y6.874 E4.28372
G1 X-12.96 Y6.611 E4.31654
G1 X-12.47 Y6.414 E4.34288
G1 X-11.958 Y6.253 E4.36966
G1 X-11.674 Y6.199 E4.38408
G1 X-10.962 Y6.092 E4.42
G1 X-10.461 Y6.031 E4.44518
G1 X-9.846 Y6.011 E4.47588
G1 X-8.609 Y6.077 E4.53768
G1 X-5.902 Y6.182 E4.67284
G1 X-3.134 Y6.212 E4.81094
G1 X-.44 Y6.165 E4.94537
M204 S3000
G0 F3000 X-.416 Y6.564
M204 S1500
G1 F1200 X2.827 Y6.416 E5.10733
G1 X3.293 Y6.428 E5.13059
G1 X3.958 Y6.503 E5.16397
G1 X4.465 Y6.575 E5.18952
G1 X5.181 Y6.765 E5.22648
G1 X5.9 Y7.05 E5.26507
G1 X6.267 Y7.207 E5.28498
G1 X6.917 Y7.581 E5.32239
G1 X7.558 Y8.059 E5.36229
G1 X7.852 Y8.29 E5.38094
G1 X8.38 Y8.815 E5.41809
G1 X8.779 Y9.317 E5.45008
G1 X9.094 Y9.737 E5.47627
G1 X9.465 Y10.376 E5.51314
G1 X9.788 Y11.123 E5.55374
G1 X9.925 Y11.467 E5.57221
G1 X10.116 Y12.176 E5.60885
G1 X10.229 Y12.938 E5.64728
G1 X10.277 Y13.348 E5.66787
G1 X10.279 Y14.078 E5.70429
G1 X10.2 Y14.78 E5.73954
G1 X10.128 Y15.282 E5.76484
G1 X9.975 Y15.896 E5.79641
G1 X9.724 Y16.597 E5.83355
G1 X8.841 Y19.178 E5.96965
G1 X8.03 Y21.788 E6.106
G1 X7.288 Y24.439 E6.24334
G1 X6.617 Y27.126 E6.38152
G1 X6.159 Y29.235 E6.48919
G1 X6.135 Y29.315 E6.49335
G1 X5.858 Y30.604 E6.55913
G1 X5.72 Y31.097 E6.58467
G1 X5.671 Y31.244 E6.5924
G1 X5.465 Y31.822 E6.62302
G1 X5.258 Y32.306 E6.64928
G1 X5.193 Y32.441 E6.65675
G1 X4.931 Y32.952 E6.6854
G1 X4.667 Y33.396 E6.71117
G1 X4.587 Y33.516 E6.71837
G1 X4.245 Y34.012 E6.74843
G1 X3.905 Y34.445 E6.77589
G1 X3.814 Y34.55 E6.78283
G1 X3.45 Y34.955 E6.80999
G1 X3.033 Y35.364 E6.83913
G1 X2.929 Y35.457 E6.84609
G1 X2.496 Y35.826 E6.87448
G1 X2.035 Y36.168 E6.90311
G1 X1.92 Y36.246 E6.91005
G1 X1.436 Y36.559 E6.9388
G1 X0.987 Y36.811 E6.96449
G1 X0.85 Y36.881 E6.97217
G1 X0.312 Y37.136 E7.00187
G1 X-.183 Y37.333 E7.02845
G1 X-.321 Y37.382 E7.03575
G1 X-.86 Y37.557 E7.06403
G1 X-1.431 Y37.7 E7.09339
G1 X-1.561 Y37.726 E7.10001
G1 X-2.095 Y37.824 E7.12709
G1 X-2.632 Y37.889 E7.15408
G1 X-2.784 Y37.901 E7.16169
G1 X-3.373 Y37.932 E7.19111
G1 X-4.011 Y37.919 E7.22295
G1 X-4.636 Y37.87 E7.25423
G1 X-5.18 Y37.791 E7.28165
G1 X-5.314 Y37.766 E7.28845
G1 X-5.886 Y37.644 E7.31763
G1 X-6.418 Y37.494 E7.34521
G1 X-6.564 Y37.446 E7.35288
G1 X-7.102 Y37.254 E7.38138
G1 X-7.591 Y37.043 E7.40795
G1 X-7.717 Y36.982 E7.41493
G1 X-8.239 Y36.715 E7.44418
G1 X-8.685 Y36.451 E7.47004
G1 X-8.812 Y36.368 E7.47761
G1 X-9.303 Y36.03 E7.50735
G1 X-9.697 Y35.722 E7.5323
G1 X-9.824 Y35.613 E7.54065
G1 X-10.286 Y35.194 E7.57176
G1 X-10.66 Y34.81 E7.59851
G1 X-10.759 Y34.699 E7.60593
G1 X-11.119 Y34.276 E7.63364
G1 X-11.501 Y33.757 E7.66579
G1 X-11.848 Y33.223 E7.69756
G1 X-12.109 Y32.759 E7.72412
G1 X-12.174 Y32.629 E7.73137
G1 X-12.426 Y32.098 E7.7607
G1 X-12.627 Y31.592 E7.78786
G1 X-12.674 Y31.458 E7.79494
G1 X-12.852 Y30.907 E7.82383
G1 X-12.99 Y30.355 E7.85222
G1 X-13.111 Y29.78 E7.88153
G1 X-13.585 Y27.585 E7.99357
G1 X-14.224 Y24.961 E8.1283
G1 X-14.955 Y22.292 E8.26637
G1 X-15.746 Y19.694 E8.40185
G1 X-17.051 Y15.888 E8.60259
G1 X-17.189 Y15.324 E8.63156
G1 X-17.296 Y14.61 E8.66758
G1 X-17.352 Y14.146 E8.69089
G1 X-17.354 Y13.403 E8.72796
G1 X-17.266 Y12.646 E8.76598
G1 X-17.208 Y12.245 E8.7862
G1 X-17.019 Y11.531 E8.82305
G1 X-16.769 Y10.896 E8.85709
G1 X-16.573 Y10.436 E8.88204
G1 X-16.203 Y9.791 E8.91914
G1 X-15.799 Y9.246 E8.95298
G1 X-15.493 Y8.857 E8.97767
G1 X-14.972 Y8.334 E9.0145
G1 X-14.35 Y7.841 E9.0541
G1 X-14.034 Y7.606 E9.07375
G1 X-13.403 Y7.241 E9.11012
G1 X-12.8 Y6.978 E9.14294
G1 X-12.322 Y6.786 E9.16864
G1 X-11.615 Y6.595 E9.20517
G1 X-10.803 Y6.474 E9.24613
G1 X-10.414 Y6.428 E9.26567
G1 X-9.868 Y6.411 E9.29293
G1 X-8.677 Y6.474 E9.35243
G1 X-5.887 Y6.583 E9.49173
G1 X-3.167 Y6.611 E9.62744
G1 X-.416 Y6.564 E9.76471
M204 S3000
G1 F2700 E2.76471
;MESH:Hotend_Cableholder_v2.0.stl
G0 F3000 X0.71 Y9.507
G0 X1.202 Y10.692
G0 X0.649 Y13.127
G0 X0.649 Y14.365
G0 X1.102 Y15.224
G0 X2.252 Y16.401
M204 S1500
;TYPE:WALL-INNER
G1 F2700 E9.76471
G1 F1200 X2.963 Y16.495 E9.78868
G1 X3.674 Y16.401 E9.81265
G1 X4.337 Y16.128 E9.83662
G1 X4.906 Y15.69 E9.86062
G1 X5.343 Y15.122 E9.88458
G1 X5.344 Y15.12 E9.88465
G1 X5.618 Y14.458 E9.9086
G1 X5.712 Y13.746 E9.93261
G1 X5.618 Y13.034 E9.95661
G1 X5.343 Y12.371 E9.9806
G1 X4.906 Y11.803 E10.00456
G1 X4.338 Y11.366 E10.02852
G1 X3.675 Y11.091 E10.05251
G1 X2.963 Y10.997 E10.07651
G1 X2.251 Y11.091 E10.10052
G1 X1.589 Y11.365 E10.12447
G1 X1.019 Y11.803 E10.1485
G1 X0.582 Y12.371 E10.17245
G1 X0.307 Y13.035 E10.19648
G1 X0.215 Y13.746 E10.22044
G1 X0.307 Y14.456 E10.24437
G1 X0.309 Y14.462 E10.24458
G1 X0.581 Y15.12 E10.26838
G1 X1.019 Y15.69 E10.29241
G1 X1.59 Y16.128 E10.31647
G1 X2.252 Y16.401 E10.3404
M204 S3000
G0 F3000 X1.963 Y28.238
M204 S1500
G1 F1200 X1.799 Y27.137 E10.37761
G1 X1.667 Y26.249 E10.40762
G1 X-0.072 Y14.633 E10.80023
G1 X-0.088 Y14.514 E10.80424
G1 X-0.088 Y14.508 E10.80444
G1 X-.181 Y13.798 E10.82829
G1 X-.188 Y13.745 E10.83008
G1 X-0.088 Y12.983 E10.85576
G1 X-0.08 Y12.927 E10.85766
G1 X-0.062 Y12.883 E10.85924
G1 X0.213 Y12.219 E10.88321
G1 X0.231 Y12.175 E10.8848
G1 X0.266 Y12.13 E10.8867
G1 X0.701 Y11.561 E10.91052
G1 X0.734 Y11.518 E10.91234
G1 X1.346 Y11.049 E10.93811
G1 X1.392 Y11.014 E10.94004
G1 X1.436 Y10.996 E10.94163
G1 X2.098 Y10.722 E10.96552
G1 X2.144 Y10.703 E10.96718
G1 X2.198 Y10.696 E10.969
G1 X2.91 Y10.602 E10.99289
G1 X2.963 Y10.595 E10.99468
G1 X3.014 Y10.601 E10.99639
G1 X3.727 Y10.695 E11.02037
G1 X3.782 Y10.703 E11.02223
G1 X3.827 Y10.722 E11.02386
G1 X4.537 Y11.016 E11.04955
G1 X4.58 Y11.049 E11.05136
G1 X5.189 Y11.516 E11.07701
G1 X5.222 Y11.559 E11.07883
G1 X5.659 Y12.128 E11.10272
G1 X5.693 Y12.172 E11.10458
G1 X5.712 Y12.218 E11.10624
G1 X5.986 Y12.881 E11.13013
G1 X6.006 Y12.929 E11.13187
G1 X6.012 Y12.981 E11.13362
G1 X6.107 Y13.693 E11.15748
G1 X6.114 Y13.745 E11.15923
G1 X6.107 Y13.798 E11.16102
G1 X6.013 Y14.51 E11.18491
G1 X6.006 Y14.563 E11.18669
G1 X5.987 Y14.61 E11.18839
G1 X5.713 Y15.272 E11.21228
G1 X5.712 Y15.274 E11.21235
G1 X5.672 Y15.37 E11.21583
G1 X5.134 Y16.269 E11.25085
G1 X4.595 Y17.273 E11.28894
G1 X4.088 Y18.338 E11.32837
G1 X3.663 Y19.349 E11.36502
G1 X3.27 Y20.417 E11.40306
G1 X2.928 Y21.504 E11.44115
G1 X2.637 Y22.605 E11.47922
G1 X2.399 Y23.72 E11.51733
G1 X2.208 Y24.882 E11.55669
G1 X2.08 Y25.971 E11.59335
G1 X2.062 Y26.211 E11.60139
G1 X1.998 Y27.107 E11.62399
G1 X1.971 Y28.238 E11.63419
G1 X1.924 Y28.972 E11.65878
G1 X1.784 Y29.67 E11.68258
G1 X1.553 Y30.351 E11.70661
G1 X1.231 Y31.004 E11.73095
G1 X0.837 Y31.593 E11.75464
G1 X0.353 Y32.145 E11.77918
G1 X-.181 Y32.613 E11.80291
G1 X-.783 Y33.016 E11.82713
G1 X-1.429 Y33.334 E11.85119
G1 X-2.118 Y33.569 E11.87553
G1 X-2.81 Y33.707 E11.89911
G1 X-3.537 Y33.753 E11.92346
G1 X-4.265 Y33.707 E11.94785
G1 X-4.957 Y33.569 E11.97143
G1 X-5.643 Y33.335 E11.99566
G1 X-6.293 Y33.015 E12.01988
G1 X-6.889 Y32.616 E12.04385
G1 X-7.432 Y32.14 E12.06799
G1 X-7.912 Y31.593 E12.09232
G1 X-8.306 Y31.004 E12.116
G1 X-8.628 Y30.351 E12.14034
G1 X-8.859 Y29.67 E12.16438
G1 X-8.998 Y28.973 E12.18813
G1 X-9.045 Y28.237 E12.21279
G1 X-9.047 Y28.212 E12.21362
G1 X-9.073 Y27.107 E12.25057
G1 X-9.137 Y26.219 E12.28033
G1 X-9.155 Y25.971 E12.28864
G1 X-9.294 Y24.8 E12.32806
G1 X-9.481 Y23.677 E12.36611
G1 X-9.712 Y22.604 E12.4028
G1 X-10.003 Y21.503 E12.44087
G1 X-10.345 Y20.418 E12.4789
G1 X-10.737 Y19.348 E12.51699
G1 X-11.197 Y18.262 E12.55641
G1 X-11.671 Y17.273 E12.59307
G1 X-12.209 Y16.27 E12.63111
G1 X-12.743 Y15.376 E12.66592
G1 X-12.782 Y15.283 E12.66929
G1 X-12.786 Y15.273 E12.66965
G1 X-13.061 Y14.609 E12.69368
G1 X-13.081 Y14.561 E12.69542
G1 X-13.087 Y14.508 E12.6972
G1 X-13.181 Y13.798 E12.72114
G1 X-13.188 Y13.745 E12.72293
G1 X-13.088 Y12.983 E12.74861
G1 X-13.08 Y12.927 E12.75051
G1 X-13.062 Y12.883 E12.75209
G1 X-12.787 Y12.219 E12.77612
G1 X-12.769 Y12.175 E12.77771
G1 X-12.734 Y12.13 E12.77961
G1 X-12.299 Y11.561 E12.80355
G1 X-12.266 Y11.518 E12.80537
G1 X-11.654 Y11.049 E12.83114
G1 X-11.608 Y11.014 E12.83307
G1 X-11.564 Y10.996 E12.83466
G1 X-10.902 Y10.722 E12.85861
G1 X-10.856 Y10.703 E12.86027
G1 X-10.802 Y10.696 E12.86209
G1 X-10.09 Y10.602 E12.8861
G1 X-10.037 Y10.595 E12.88789
G1 X-9.986 Y10.601 E12.8896
G1 X-9.273 Y10.695 E12.91364
G1 X-9.218 Y10.703 E12.9155
G1 X-9.173 Y10.722 E12.91713
G1 X-8.463 Y11.016 E12.94282
G1 X-8.42 Y11.049 E12.94463
G1 X-7.811 Y11.516 E12.97028
G1 X-7.778 Y11.559 E12.9721
G1 X-7.341 Y12.128 E12.99608
G1 X-7.307 Y12.172 E12.99794
G1 X-7.288 Y12.218 E12.9996
G1 X-7.014 Y12.881 E13.02358
G1 X-6.994 Y12.929 E13.02532
G1 X-6.988 Y12.981 E13.02707
G1 X-6.893 Y13.693 E13.05108
G1 X-6.886 Y13.745 E13.05283
G1 X-6.893 Y13.798 E13.05462
G1 X-6.987 Y14.51 E13.07862
G1 X-6.987 Y14.516 E13.07883
G1 X-7.009 Y14.673 E13.08412
G1 X-8.741 Y26.257 E13.47564
G1 X-8.872 Y27.137 E13.49809
G1 X-9.033 Y28.213 E13.50782
G1 X-9.037 Y28.236
G1 X-8.942 Y28.965 E13.50977
G1 X-8.849 Y29.669 E13.51173
G1 X-8.576 Y30.329 E13.51364
G1 X-8.299 Y30.996 E13.51556
G1 X-7.868 Y31.558 E13.5176
G1 X-7.425 Y32.134 E13.51956
G1 X-6.856 Y32.571 E13.52142
G1 X-6.287 Y33.008 E13.52335
G1 X-5.622 Y33.283 E13.52523
G1 X-4.96 Y33.558 E13.52711
G1 X-4.258 Y33.649 E13.52929
G1 X-3.537 Y33.744 E13.53131
G1 X-2.818 Y33.65 E13.53328
G1 X-2.115 Y33.558 E13.53531
G1 X-1.451 Y33.283 E13.53712
G1 X-.787 Y33.008 E13.539
G1 X-.216 Y32.569 E13.54088
G1 X0.351 Y32.134 E13.5429
G1 X0.792 Y31.559 E13.54473
G1 X1.225 Y30.996 E13.54669
G1 X1.5 Y30.33 E13.54857
G1 X1.774 Y29.669 E13.55053
G1 X1.867 Y28.965 E13.55256
G1 X1.963 Y28.238 E13.55454
M204 S3000
G0 F3000 X0.918 Y30.818
G0 X0.101 Y31.884
G0 X-.964 Y32.701
G0 X-2.207 Y33.216
G0 X-3.537 Y33.391
G0 X-4.868 Y33.216
G0 X-6.11 Y32.701
G0 X-7.175 Y31.884
G0 X-7.992 Y30.819
G0 X-8.455 Y29.702
G0 X-10.748 Y16.401
M204 S1500
G1 F1200 X-10.037 Y16.495 E13.57851
G1 X-9.326 Y16.401 E13.60248
G1 X-8.663 Y16.128 E13.62645
G1 X-8.094 Y15.69 E13.65045
G1 X-7.656 Y15.12 E13.67448
G1 X-7.384 Y14.464 E13.69822
G1 X-7.382 Y14.458 E13.69843
G1 X-7.288 Y13.746 E13.72231
G1 X-7.382 Y13.034 E13.74617
G1 X-7.657 Y12.371 E13.77007
G1 X-8.094 Y11.803 E13.79394
G1 X-8.662 Y11.366 E13.81789
G1 X-9.325 Y11.091 E13.84189
G1 X-10.037 Y10.997 E13.86583
G1 X-10.749 Y11.091 E13.88972
G1 X-11.411 Y11.365 E13.91361
G1 X-11.981 Y11.803 E13.93764
G1 X-12.418 Y12.371 E13.96147
G1 X-12.693 Y13.035 E13.98543
G1 X-12.785 Y13.746 E14.0094
G1 X-12.693 Y14.456 E14.03321
G1 X-12.419 Y15.12 E14.05707
G1 X-12.413 Y15.128 E14.0574
G1 X-11.981 Y15.69 E14.0811
G1 X-11.41 Y16.128 E14.10515
G1 X-10.748 Y16.401 E14.12909
M204 S3000
G0 F3000 X-10.646 Y16.021
M204 S1500
G1 F1200 X-10.037 Y16.102 E14.14963
G1 X-9.428 Y16.021 E14.17016
G1 X-8.86 Y15.787 E14.1907
G1 X-8.372 Y15.412 E14.21127
G1 X-7.997 Y14.923 E14.23187
G1 X-7.762 Y14.356 E14.25238
G1 X-7.681 Y13.746 E14.27295
G1 X-7.762 Y13.136 E14.29352
G1 X-7.998 Y12.568 E14.31408
G1 X-8.372 Y12.081 E14.33461
G1 X-8.859 Y11.707 E14.35513
G1 X-9.427 Y11.471 E14.37569
G1 X-10.037 Y11.39 E14.39626
G1 X-10.647 Y11.471 E14.41683
G1 X-11.214 Y11.706 E14.43735
G1 X-11.703 Y12.081 E14.45794
G1 X-12.077 Y12.568 E14.47847
G1 X-12.313 Y13.137 E14.49906
G1 X-12.392 Y13.746 E14.51959
G1 X-12.313 Y14.355 E14.54011
G1 X-12.078 Y14.923 E14.56066
G1 X-11.703 Y15.412 E14.58126
G1 X-11.214 Y15.787 E14.60186
G1 X-10.646 Y16.021 E14.62239
M204 S3000
G0 F3000 X-10.671 Y16.117
G0 X-8.507 Y29.577
G0 X-7.992 Y30.819
G0 X-7.175 Y31.884
G0 X-6.11 Y32.701
G0 X-4.868 Y33.216
G0 X-3.537 Y33.391
G0 X-2.207 Y33.216
G0 X-.964 Y32.701
G0 X0.101 Y31.884
G0 X0.918 Y30.818
G0 X1.432 Y29.577
G0 X1.575 Y28.496
G0 X2.329 Y16.117
G0 X2.354 Y16.021
M204 S1500
G1 F1200 X2.963 Y16.102 E14.64293
G1 X3.572 Y16.021 E14.66346
G1 X4.14 Y15.787 E14.684
G1 X4.628 Y15.412 E14.70457
G1 X5.003 Y14.923 E14.72517
G1 X5.238 Y14.356 E14.74569
G1 X5.319 Y13.746 E14.76625
G1 X5.238 Y13.136 E14.78682
G1 X5.002 Y12.568 E14.80738
G1 X4.628 Y12.081 E14.82791
G1 X4.141 Y11.707 E14.84843
