; generated by PrusaSlicer 2.7.1+win64 on 2024-07-10 at 14:16:46 UTC


;
;
; 

; external perimeters extrusion width = 0.40mm
; perimeters extrusion width = 0.40mm
; infill extrusion width = 0.40mm
; solid infill extrusion width = 0.40mm
; top infill extrusion width = 0.40mm
; support material extrusion width = 0.40mm
; first layer extrusion width = 0.40mm

;TYPE:Custom
G90 ; use absolute coordinates
M83 ; extruder relative mode
M140 S0 ; set bed temp
M190 S0 ; wait for bed temp
M104 S205 ; set extruder temp
M109 S205 ; wait for extruder temp
G28                                        ; move X/Y/Z to min endstops
G1 Z0.28                                   ; lift nozzle a bit 
G92 E0 
G1 Y3 F2400                                    ; zero the extruded length 
G1 X180  E40 F500                       ; Extrude 25mm of filament in a 5cm line. 
G92 E0                                     ; zero the extruded length again 
G1 E-0.2 F3000                                ; Retract a little 
G1 X181 F4000                              ; Quickly wipe away from the filament line
M117
G21 ; set units to millimeters
G90 ; use absolute coordinates
M82 ; use absolute distances for extrusion
G92 E0
; Filament gcode
M107
;LAYER_CHANGE
;Z:0.3
;HEIGHT:0.3
; BEFORE_LAYER_CHANGE 0 @ 0.3mm
G1 E-2.5 F4800
G92 E0
G1 Z-1.38 F18000
; AFTER_LAYER_CHANGE 0 @ 0.3mm
G1 X72.649 Y175.006
G1 E2.5 F4800
M204 S5000
;TYPE:External perimeter
;WIDTH:0.4
G1 X72.649 Y214.782 E4.08178
G1 X64.649 Y214.782 E4.39992
G1 X64.649 Y4.151 E12.77613
G1 X72.649 Y4.151 E13.09427
G1 X72.649 Y8.151 E13.25334
G1 X72.649 Y174.946 E19.88632
M204 S20000
G1 X72.313 Y175.006 F18000
M204 S5000
;TYPE:Perimeter
G1 F4800
G1 X72.313 Y214.446 E21.45474
G1 X64.984 Y214.446 E21.74619
G1 X64.984 Y4.486 E30.09572
G1 X72.313 Y4.486 E30.38717
G1 X72.313 Y8.151 E30.53292
G1 X72.313 Y174.946 E37.1659
M204 S20000
;WIPE_START
G1 F14400
G1 X72.313 Y175.006 E37.1469
G1 X72.313 Y182.841 E34.6659
;WIPE_END
G92 E0
G1 Z-.98 F18000
G1 X71.499 Y4.621
G1 Z-1.38
G1 E2.5 F4800
M204 S5000
;TYPE:Solid infill
;WIDTH:0.400596
G1 X72.028 Y5.149 E2.52978
G1 X72.028 Y5.625 E2.54874
G1 X71.174 Y4.772 E2.59683
G1 X70.699 Y4.772 E2.61575
G1 X72.028 Y6.1 E2.6906
G1 X72.028 Y6.576 E2.70956
G1 X70.224 Y4.772 E2.8112
G1 X69.748 Y4.772 E2.83016
G1 X72.028 Y7.051 E2.95859
G1 X72.028 Y7.527 E2.97755
G1 X69.273 Y4.772 E3.13276
G1 X68.797 Y4.772 E3.15172
G1 X72.028 Y8.002 E3.33372
G1 X72.028 Y8.478 E3.35268
G1 X68.322 Y4.772 E3.56147
G1 X67.846 Y4.772 E3.58043
G1 X72.028 Y8.953 E3.81601
G1 X72.028 Y9.429 E3.83497
G1 X67.371 Y4.772 E4.09734
G1 X66.895 Y4.772 E4.1163
G1 X72.028 Y9.904 E4.40546
G1 X72.028 Y10.38 E4.42442
G1 X66.42 Y4.772 E4.74037
G1 X65.944 Y4.772 E4.75933
G1 X72.028 Y10.855 E5.10207
G1 X72.028 Y11.33 E5.12099
G1 X65.469 Y4.772 E5.49049
G1 X65.269 Y4.772 E5.49846
G1 X65.269 Y5.048 E5.50946
G1 X72.028 Y11.806 E5.89023
G1 X72.028 Y12.281 E5.90915
G1 X65.269 Y5.523 E6.28992
G1 X65.269 Y5.999 E6.30888
G1 X72.028 Y12.757 E6.68965
G1 X72.028 Y13.232 E6.70857
G1 X65.269 Y6.474 E7.08934
G1 X65.269 Y6.95 E7.1083
G1 X72.028 Y13.708 E7.48907
G1 X72.028 Y14.183 E7.50799
G1 X65.269 Y7.425 E7.88876
G1 X65.269 Y7.901 E7.90772
G1 X72.028 Y14.659 E8.28849
G1 X72.028 Y15.134 E8.30741
G1 X65.269 Y8.376 E8.68818
G1 X65.269 Y8.852 E8.70714
G1 X72.028 Y15.61 E9.08791
G1 X72.028 Y16.085 E9.10683
G1 X65.269 Y9.327 E9.4876
G1 X65.269 Y9.803 E9.50656
G1 X72.028 Y16.561 E9.88733
G1 X72.028 Y17.036 E9.90625
G1 X65.269 Y10.278 E10.28702
G1 X65.269 Y10.753 E10.30594
G1 X72.028 Y17.512 E10.68674
G1 X72.028 Y17.987 E10.70566
G1 X65.269 Y11.229 E11.08643
G1 X65.269 Y11.704 E11.10535
G1 X72.028 Y18.463 E11.48615
G1 X72.028 Y18.938 E11.50507
G1 X65.269 Y12.18 E11.88584
G1 X65.269 Y12.655 E11.90476
G1 X72.028 Y19.414 E12.28556
G1 X72.028 Y19.889 E12.30448
G1 X65.269 Y13.131 E12.68525
G1 X65.269 Y13.606 E12.70417
G1 X72.028 Y20.365 E13.08497
G1 X72.028 Y20.84 E13.10389
G1 X65.269 Y14.082 E13.48466
G1 X65.269 Y14.557 E13.50358
G1 X72.028 Y21.316 E13.88438
G1 X72.028 Y21.791 E13.9033
G1 X65.269 Y15.033 E14.28407
G1 X65.269 Y15.508 E14.30299
G1 X72.028 Y22.266 E14.68376
G1 X72.028 Y22.742 E14.70272
G1 X65.269 Y15.984 E15.08349
G1 X65.269 Y16.459 E15.10241
G1 X72.028 Y23.217 E15.48318
G1 X72.028 Y23.693 E15.50214
G1 X65.269 Y16.935 E15.88291
G1 X65.269 Y17.41 E15.90183
G1 X72.028 Y24.168 E16.2826
G1 X72.028 Y24.644 E16.30156
G1 X65.269 Y17.886 E16.68233
G1 X65.269 Y18.361 E16.70125
G1 X72.028 Y25.119 E17.08202
G1 X72.028 Y25.595 E17.10098
G1 X65.269 Y18.837 E17.48175
G1 X65.269 Y19.312 E17.50067
G1 X72.028 Y26.07 E17.88144
G1 X72.028 Y26.546 E17.9004
G1 X65.269 Y19.788 E18.28117
G1 X65.269 Y20.263 E18.30009
G1 X72.028 Y27.021 E18.68086
G1 X72.028 Y27.497 E18.69982
G1 X65.269 Y20.739 E19.08059
G1 X65.269 Y21.214 E19.09951
G1 X72.028 Y27.972 E19.48028
G1 X72.028 Y28.448 E19.49924
G1 X65.269 Y21.69 E19.88001
G1 X65.269 Y22.165 E19.89893
G1 X72.028 Y28.923 E20.2797
G1 X72.028 Y29.399 E20.29866
G1 X65.269 Y22.64 E20.67946
G1 X65.269 Y23.116 E20.69842
G1 X72.028 Y29.874 E21.07919
G1 X72.028 Y30.35 E21.09815
G1 X65.269 Y23.591 E21.47895
G1 X65.269 Y24.067 E21.49791
G1 X72.028 Y30.825 E21.87868
G1 X72.028 Y31.301 E21.89764
G1 X65.269 Y24.542 E22.27844
G1 X65.269 Y25.018 E22.2974
G1 X72.028 Y31.776 E22.67817
G1 X72.028 Y32.252 E22.69713
G1 X65.269 Y25.493 E23.07793
G1 X65.269 Y25.969 E23.09689
G1 X72.028 Y32.727 E23.47766
G1 X72.028 Y33.203 E23.49662
G1 X65.269 Y26.444 E23.87742
G1 X65.269 Y26.92 E23.89638
G1 X72.028 Y33.678 E24.27715
G1 X72.028 Y34.153 E24.29607
G1 X65.269 Y27.395 E24.67684
G1 X65.269 Y27.871 E24.6958
G1 X72.028 Y34.629 E25.07657
G1 X72.028 Y35.104 E25.09549
G1 X65.269 Y28.346 E25.47626
G1 X65.269 Y28.822 E25.49522
G1 X72.028 Y35.58 E25.87599
G1 X72.028 Y36.055 E25.89491
G1 X65.269 Y29.297 E26.27568
G1 X65.269 Y29.773 E26.29464
G1 X72.028 Y36.531 E26.67541
G1 X72.028 Y37.006 E26.69433
G1 X65.269 Y30.248 E27.0751
G1 X65.269 Y30.724 E27.09406
G1 X72.028 Y37.482 E27.47483
G1 X72.028 Y37.957 E27.49375
G1 X65.269 Y31.199 E27.87452
G1 X65.269 Y31.675 E27.89348
G1 X72.028 Y38.433 E28.27425
G1 X72.028 Y38.908 E28.29317
G1 X65.269 Y32.15 E28.67394
G1 X65.269 Y32.626 E28.6929
G1 X72.028 Y39.384 E29.07367
G1 X72.028 Y39.859 E29.09259
G1 X65.269 Y33.101 E29.47336
G1 X65.269 Y33.577 E29.49232
G1 X72.028 Y40.335 E29.87309
G1 X72.028 Y40.81 E29.89201
G1 X65.269 Y34.052 E30.27278
G1 X65.269 Y34.527 E30.2917
G1 X72.028 Y41.286 E30.6725
G1 X72.028 Y41.761 E30.69142
G1 X65.269 Y35.003 E31.07219
G1 X65.269 Y35.478 E31.09111
G1 X72.028 Y42.237 E31.47191
G1 X72.028 Y42.712 E31.49083
G1 X65.269 Y35.954 E31.8716
G1 X65.269 Y36.429 E31.89052
G1 X72.028 Y43.188 E32.27132
G1 X72.028 Y43.663 E32.29024
G1 X65.269 Y36.905 E32.67101
G1 X65.269 Y37.38 E32.68993
G1 X72.028 Y44.139 E33.07073
G1 X72.028 Y44.614 E33.08965
G1 X65.269 Y37.856 E33.47042
G1 X65.269 Y38.331 E33.48934
G1 X72.028 Y45.09 E33.87014
G1 X72.028 Y45.565 E33.88906
G1 X65.269 Y38.807 E34.26983
G1 X65.269 Y39.282 E34.28875
G1 X72.028 Y46.04 E34.66952
G1 X72.028 Y46.516 E34.68848
G1 X65.269 Y39.758 E35.06925
G1 X65.269 Y40.233 E35.08817
G1 X72.028 Y46.991 E35.46894
G1 X72.028 Y47.467 E35.4879
G1 X65.269 Y40.709 E35.86867
G1 X65.269 Y41.184 E35.88759
G1 X72.028 Y47.942 E36.26836
G1 X72.028 Y48.418 E36.28732
G1 X65.269 Y41.66 E36.66809
G1 X65.269 Y42.135 E36.68701
G1 X72.028 Y48.893 E37.06778
G1 X72.028 Y49.369 E37.08674
G1 X65.269 Y42.611 E37.46751
G1 X65.269 Y43.086 E37.48643
G1 X72.028 Y49.844 E37.8672
G1 X72.028 Y50.32 E37.88616
G1 X65.269 Y43.562 E38.26693
G1 X65.269 Y44.037 E38.28585
G1 X72.028 Y50.795 E38.66662
G1 X72.028 Y51.271 E38.68558
G1 X65.269 Y44.513 E39.06635
G1 X65.269 Y44.988 E39.08527
G1 X72.028 Y51.746 E39.46604
G1 X72.028 Y52.222 E39.485
G1 X65.269 Y45.464 E39.86577
G1 X65.269 Y45.939 E39.88469
G1 X72.028 Y52.697 E40.26546
G1 X72.028 Y53.173 E40.28442
G1 X65.269 Y46.414 E40.66522
G1 X65.269 Y46.89 E40.68418
G1 X72.028 Y53.648 E41.06495
G1 X72.028 Y54.124 E41.08391
G1 X65.269 Y47.365 E41.46471
G1 X65.269 Y47.841 E41.48367
G1 X72.028 Y54.599 E41.86444
G1 X72.028 Y55.075 E41.8834
G1 X65.269 Y48.316 E42.2642
G1 X65.269 Y48.792 E42.28316
G1 X72.028 Y55.55 E42.66393
G1 X72.028 Y56.026 E42.68289
G1 X65.269 Y49.267 E43.06369
G1 X65.269 Y49.743 E43.08265
G1 X72.028 Y56.501 E43.46342
G1 X72.028 Y56.977 E43.48238
G1 X65.269 Y50.218 E43.86318
G1 X65.269 Y50.694 E43.88214
G1 X72.028 Y57.452 E44.26291
G1 X72.028 Y57.927 E44.28183
G1 X65.269 Y51.169 E44.6626
G1 X65.269 Y51.645 E44.68156
G1 X72.028 Y58.403 E45.06233
G1 X72.028 Y58.878 E45.08125
G1 X65.269 Y52.12 E45.46202
G1 X65.269 Y52.596 E45.48098
G1 X72.028 Y59.354 E45.86175
G1 X72.028 Y59.829 E45.88067
G1 X65.269 Y53.071 E46.26144
G1 X65.269 Y53.547 E46.2804
G1 X72.028 Y60.305 E46.66117
G1 X72.028 Y60.78 E46.68009
G1 X65.269 Y54.022 E47.06086
G1 X65.269 Y54.498 E47.07982
G1 X72.028 Y61.256 E47.46059
G1 X72.028 Y61.731 E47.47951
G1 X65.269 Y54.973 E47.86028
G1 X65.269 Y55.449 E47.87924
G1 X72.028 Y62.207 E48.26001
G1 X72.028 Y62.682 E48.27893
G1 X65.269 Y55.924 E48.6597
G1 X65.269 Y56.4 E48.67866
G1 X72.028 Y63.158 E49.05943
G1 X72.028 Y63.633 E49.07835
G1 X65.269 Y56.875 E49.45912
G1 X65.269 Y57.351 E49.47808
G1 X72.028 Y64.109 E49.85885
G1 X72.028 Y64.584 E49.87777
G1 X65.269 Y57.826 E50.25854
G1 X65.269 Y58.301 E50.27746
G1 X72.028 Y65.06 E50.65826
G1 X72.028 Y65.535 E50.67718
G1 X65.269 Y58.777 E51.05795
G1 X65.269 Y59.252 E51.07687
G1 X72.028 Y66.011 E51.45767
G1 X72.028 Y66.486 E51.47659
G1 X65.269 Y59.728 E51.85736
G1 X65.269 Y60.203 E51.87628
G1 X72.028 Y66.962 E52.25708
G1 X72.028 Y67.437 E52.276
G1 X65.269 Y60.679 E52.65677
G1 X65.269 Y61.154 E52.67569
G1 X72.028 Y67.913 E53.05649
G1 X72.028 Y68.388 E53.07541
G1 X65.269 Y61.63 E53.45618
G1 X65.269 Y62.105 E53.4751
G1 X72.028 Y68.864 E53.8559
G1 X72.028 Y69.339 E53.87482
G1 X65.269 Y62.581 E54.25559
G1 X65.269 Y63.056 E54.27451
G1 X72.028 Y69.814 E54.65528
G1 X72.028 Y70.29 E54.67424
G1 X65.269 Y63.532 E55.05501
G1 X65.269 Y64.007 E55.07393
G1 X72.028 Y70.765 E55.4547
G1 X72.028 Y71.241 E55.47366
G1 X65.269 Y64.483 E55.85443
G1 X65.269 Y64.958 E55.87335
G1 X72.028 Y71.716 E56.25412
G1 X72.028 Y72.192 E56.27308
G1 X65.269 Y65.434 E56.65385
G1 X65.269 Y65.909 E56.67277
G1 X72.028 Y72.667 E57.05354
G1 X72.028 Y73.143 E57.0725
G1 X65.269 Y66.385 E57.45327
G1 X65.269 Y66.86 E57.47219
G1 X72.028 Y73.618 E57.85296
G1 X72.028 Y74.094 E57.87192
G1 X65.269 Y67.336 E58.25269
G1 X65.269 Y67.811 E58.27161
G1 X72.028 Y74.569 E58.65238
G1 X72.028 Y75.045 E58.67134
G1 X65.269 Y68.287 E59.05211
G1 X65.269 Y68.762 E59.07103
G1 X72.028 Y75.52 E59.4518
G1 X72.028 Y75.996 E59.47076
G1 X65.269 Y69.238 E59.85153
G1 X65.269 Y69.713 E59.87045
G1 X72.028 Y76.471 E60.25122
G1 X72.028 Y76.947 E60.27018
G1 X65.269 Y70.188 E60.65098
G1 X65.269 Y70.664 E60.66994
G1 X72.028 Y77.422 E61.05071
G1 X72.028 Y77.898 E61.06967
G1 X65.269 Y71.139 E61.45047
G1 X65.269 Y71.615 E61.46943
G1 X72.028 Y78.373 E61.8502
G1 X72.028 Y78.849 E61.86916
G1 X65.269 Y72.09 E62.24996
G1 X65.269 Y72.566 E62.26892
G1 X72.028 Y79.324 E62.64969
G1 X72.028 Y79.8 E62.66865
G1 X65.269 Y73.041 E63.04945
G1 X65.269 Y73.517 E63.06841
G1 X72.028 Y80.275 E63.44918
G1 X72.028 Y80.751 E63.46814
G1 X65.269 Y73.992 E63.84894
G1 X65.269 Y74.468 E63.8679
G1 X72.028 Y81.226 E64.24867
G1 X72.028 Y81.701 E64.26759
G1 X65.269 Y74.943 E64.64836
G1 X65.269 Y75.419 E64.66732
G1 X72.028 Y82.177 E65.04809
G1 X72.028 Y82.652 E65.06701
G1 X65.269 Y75.894 E65.44778
G1 X65.269 Y76.37 E65.46674
G1 X72.028 Y83.128 E65.84751
G1 X72.028 Y83.603 E65.86643
G1 X65.269 Y76.845 E66.2472
G1 X65.269 Y77.321 E66.26616
G1 X72.028 Y84.079 E66.64693
G1 X72.028 Y84.554 E66.66585
G1 X65.269 Y77.796 E67.04662
G1 X65.269 Y78.272 E67.06558
G1 X72.028 Y85.03 E67.44635
G1 X72.028 Y85.505 E67.46527
G1 X65.269 Y78.747 E67.84604
G1 X65.269 Y79.223 E67.865
G1 X72.028 Y85.981 E68.24577
G1 X72.028 Y86.456 E68.26469
G1 X65.269 Y79.698 E68.64546
G1 X65.269 Y80.174 E68.66442
G1 X72.028 Y86.932 E69.04519
G1 X72.028 Y87.407 E69.06411
G1 X65.269 Y80.649 E69.44488
G1 X65.269 Y81.125 E69.46384
G1 X72.028 Y87.883 E69.84461
G1 X72.028 Y88.358 E69.86353
G1 X65.269 Y81.6 E70.2443
G1 X65.269 Y82.075 E70.26322
G1 X72.028 Y88.834 E70.64402
G1 X72.028 Y89.309 E70.66294
G1 X65.269 Y82.551 E71.04371
G1 X65.269 Y83.026 E71.06263
G1 X72.028 Y89.785 E71.44343
G1 X72.028 Y90.26 E71.46235
G1 X65.269 Y83.502 E71.84312
G1 X65.269 Y83.977 E71.86204
G1 X72.028 Y90.736 E72.24284
G1 X72.028 Y91.211 E72.26176
G1 X65.269 Y84.453 E72.64253
G1 X65.269 Y84.928 E72.66145
G1 X72.028 Y91.687 E73.04225
G1 X72.028 Y92.162 E73.06117
G1 X65.269 Y85.404 E73.44194
G1 X65.269 Y85.879 E73.46086
G1 X72.028 Y92.638 E73.84166
G1 X72.028 Y93.113 E73.86058
G1 X65.269 Y86.355 E74.24135
G1 X65.269 Y86.83 E74.26027
G1 X72.028 Y93.588 E74.64104
G1 X72.028 Y94.064 E74.66
G1 X65.269 Y87.306 E75.04077
G1 X65.269 Y87.781 E75.05969
G1 X72.028 Y94.539 E75.44046
G1 X72.028 Y95.015 E75.45942
G1 X65.269 Y88.257 E75.84019
G1 X65.269 Y88.732 E75.85911
G1 X72.028 Y95.49 E76.23988
G1 X72.028 Y95.966 E76.25884
G1 X65.269 Y89.208 E76.63961
G1 X65.269 Y89.683 E76.65853
G1 X72.028 Y96.441 E77.0393
G1 X72.028 Y96.917 E77.05826
G1 X65.269 Y90.159 E77.43903
G1 X65.269 Y90.634 E77.45795
G1 X72.028 Y97.392 E77.83872
G1 X72.028 Y97.868 E77.85768
G1 X65.269 Y91.11 E78.23845
G1 X65.269 Y91.585 E78.25737
G1 X72.028 Y98.343 E78.63814
G1 X72.028 Y98.819 E78.6571
G1 X65.269 Y92.061 E79.03787
G1 X65.269 Y92.536 E79.05679
G1 X72.028 Y99.294 E79.43756
G1 X72.028 Y99.77 E79.45652
G1 X65.269 Y93.011 E79.83732
G1 X65.269 Y93.487 E79.85628
G1 X72.028 Y100.245 E80.23705
G1 X72.028 Y100.721 E80.25601
G1 X65.269 Y93.962 E80.63681
G1 X65.269 Y94.438 E80.65577
G1 X72.028 Y101.196 E81.03654
G1 X72.028 Y101.672 E81.0555
G1 X65.269 Y94.913 E81.4363
G1 X65.269 Y95.389 E81.45526
G1 X72.028 Y102.147 E81.83603
G1 X72.028 Y102.623 E81.85499
G1 X65.269 Y95.864 E82.23579
G1 X65.269 Y96.34 E82.25475
G1 X72.028 Y103.098 E82.63552
G1 X72.028 Y103.574 E82.65448
G1 X65.269 Y96.815 E83.03528
G1 X65.269 Y97.291 E83.05424
G1 X72.028 Y104.049 E83.43501
G1 X72.028 Y104.525 E83.45397
G1 X65.269 Y97.766 E83.83477
G1 X65.269 Y98.242 E83.85373
G1 X72.028 Y105 E84.2345
G1 X72.028 Y105.475 E84.25342
G1 X65.269 Y98.717 E84.63419
G1 X65.269 Y99.193 E84.65315
G1 X72.028 Y105.951 E85.03392
G1 X72.028 Y106.426 E85.05284
G1 X65.269 Y99.668 E85.43361
G1 X65.269 Y100.144 E85.45257
G1 X72.028 Y106.902 E85.83334
G1 X72.028 Y107.377 E85.85226
G1 X65.269 Y100.619 E86.23303
G1 X65.269 Y101.095 E86.25199
G1 X72.028 Y107.853 E86.63276
G1 X72.028 Y108.328 E86.65168
G1 X65.269 Y101.57 E87.03245
G1 X65.269 Y102.046 E87.05141
G1 X72.028 Y108.804 E87.43218
G1 X72.028 Y109.279 E87.4511
G1 X65.269 Y102.521 E87.83187
G1 X65.269 Y102.997 E87.85083
G1 X72.028 Y109.755 E88.2316
G1 X72.028 Y110.23 E88.25052
G1 X65.269 Y103.472 E88.63129
G1 X65.269 Y103.948 E88.65025
G1 X72.028 Y110.706 E89.03102
G1 X72.028 Y111.181 E89.04994
G1 X65.269 Y104.423 E89.43071
G1 X65.269 Y104.898 E89.44963
G1 X72.028 Y111.657 E89.83043
G1 X72.028 Y112.132 E89.84935
G1 X65.269 Y105.374 E90.23012
G1 X65.269 Y105.849 E90.24904
G1 X72.028 Y112.608 E90.62984
G1 X72.028 Y113.083 E90.64876
G1 X65.269 Y106.325 E91.02953
G1 X65.269 Y106.8 E91.04845
G1 X72.028 Y113.559 E91.42925
G1 X72.028 Y114.034 E91.44817
G1 X65.269 Y107.276 E91.82894
G1 X65.269 Y107.751 E91.84786
G1 X72.028 Y114.51 E92.22866
G1 X72.028 Y114.985 E92.24758
G1 X65.269 Y108.227 E92.62835
G1 X65.269 Y108.702 E92.64727
G1 X72.028 Y115.461 E93.02807
G1 X72.028 Y115.936 E93.04699
G1 X65.269 Y109.178 E93.42776
G1 X65.269 Y109.653 E93.44668
G1 X72.028 Y116.412 E93.82748
G1 X72.028 Y116.887 E93.8464
G1 X65.269 Y110.129 E94.22717
G1 X65.269 Y110.604 E94.24609
G1 X72.028 Y117.362 E94.62686
G1 X72.028 Y117.838 E94.64582
G1 X65.269 Y111.08 E95.02659
G1 X65.269 Y111.555 E95.04551
G1 X72.028 Y118.313 E95.42628
G1 X72.028 Y118.789 E95.44524
G1 X65.269 Y112.031 E95.82601
G1 X65.269 Y112.506 E95.84493
G1 X72.028 Y119.264 E96.2257
G1 X72.028 Y119.74 E96.24466
G1 X65.269 Y112.982 E96.62543
