; generated by PrusaSlicer 2.7.1+win64 on 2024-07-10 at 11:03:28 UTC


;
;
; 

; external perimeters extrusion width = 0.40mm
; perimeters extrusion width = 0.40mm
; infill extrusion width = 0.40mm
; solid infill extrusion width = 0.40mm
; top infill extrusion width = 0.40mm
; support material extrusion width = 0.40mm
; first layer extrusion width = 0.40mm

;TYPE:Custom
G90 ; use absolute coordinates
M83 ; extruder relative mode
M140 S0 ; set bed temp
M190 S0 ; wait for bed temp
M104 S205 ; set extruder temp
M109 S205 ; wait for extruder temp
G28                                        ; move X/Y/Z to min endstops
G1 Z0.28                                   ; lift nozzle a bit 
G92 E0 
G1 Y3 F2400                                    ; zero the extruded length 
G1 X180  E40 F500                       ; Extrude 25mm of filament in a 5cm line. 
G92 E0                                     ; zero the extruded length again 
G1 E-0.2 F3000                                ; Retract a little 
G1 X181 F4000                              ; Quickly wipe away from the filament line
M117
G21 ; set units to millimeters
G90 ; use absolute coordinates
M82 ; use absolute distances for extrusion
G92 E0
; Filament gcode
M107
;LAYER_CHANGE
;Z:0.3
;HEIGHT:0.3
; BEFORE_LAYER_CHANGE 0 @ 0.3mm
G1 E-2.5 F4800
G92 E0
G1 Z-1.38 F18000
; AFTER_LAYER_CHANGE 0 @ 0.3mm
G1 X62.984 Y83.876
G1 E2.5 F4800
M204 S5000
;TYPE:External perimeter
;WIDTH:0.4
G1 X62.984 Y2.731 E5.72691
G1 X71.284 Y2.731 E6.05698
G1 X71.284 Y6.881 E6.22201
G1 X71.284 Y208.363 E14.23439
G1 X62.984 Y208.363 E14.56446
G1 X62.984 Y83.936 E19.51258
M204 S20000
G1 X63.32 Y83.876 F18000
M204 S5000
;TYPE:Perimeter
G1 F4800
G1 X63.32 Y3.067 E22.72613
G1 X70.948 Y3.067 E23.02947
G1 X70.948 Y6.881 E23.18114
G1 X70.948 Y208.027 E31.18016
G1 X63.32 Y208.027 E31.4835
G1 X63.32 Y83.936 E36.41826
M204 S20000
;WIPE_START
G1 F14400
G1 X63.32 Y83.876 E36.39926
G1 X63.32 Y76.041 E33.91826
;WIPE_END
G92 E0
G1 Z-.98 F18000
G1 X70.134 Y3.201
G1 Z-1.38
G1 E2.5 F4800
M204 S5000
;TYPE:Solid infill
;WIDTH:0.400683
G1 X70.663 Y3.73 E2.52981
G1 X70.663 Y4.206 E2.54878
G1 X69.81 Y3.352 E2.59688
G1 X69.334 Y3.352 E2.61585
G1 X70.663 Y4.681 E2.69074
G1 X70.663 Y5.157 E2.70971
G1 X68.858 Y3.352 E2.81143
G1 X68.383 Y3.352 E2.83036
G1 X70.663 Y5.633 E2.95887
G1 X70.663 Y6.108 E2.9778
G1 X67.907 Y3.352 E3.13311
G1 X67.432 Y3.352 E3.15204
G1 X70.663 Y6.584 E3.33415
G1 X70.663 Y7.059 E3.35308
G1 X66.956 Y3.352 E3.56198
G1 X66.48 Y3.352 E3.58095
G1 X70.663 Y7.535 E3.81668
G1 X70.663 Y8.011 E3.83565
G1 X66.005 Y3.352 E4.09817
G1 X65.529 Y3.352 E4.11714
G1 X70.663 Y8.486 E4.40646
G1 X70.663 Y8.962 E4.42543
G1 X65.054 Y3.352 E4.74155
G1 X64.578 Y3.352 E4.76052
G1 X70.663 Y9.437 E5.10343
G1 X70.663 Y9.913 E5.1224
G1 X64.102 Y3.352 E5.49214
G1 X63.627 Y3.352 E5.51107
G1 X70.663 Y10.389 E5.9076
G1 X70.663 Y10.864 E5.92653
G1 X63.605 Y3.806 E6.32428
G1 X63.605 Y4.282 E6.34325
G1 X70.663 Y11.34 E6.741
G1 X70.663 Y11.815 E6.75993
G1 X63.605 Y4.757 E7.15768
G1 X63.605 Y5.233 E7.17665
G1 X70.663 Y12.291 E7.5744
G1 X70.663 Y12.767 E7.59337
G1 X63.605 Y5.708 E7.99114
G1 X63.605 Y6.184 E8.01011
G1 X70.663 Y13.242 E8.40786
G1 X70.663 Y13.718 E8.42683
G1 X63.605 Y6.66 E8.82458
G1 X63.605 Y7.135 E8.84351
G1 X70.663 Y14.194 E9.24128
G1 X70.663 Y14.669 E9.26021
G1 X63.605 Y7.611 E9.65796
G1 X63.605 Y8.087 E9.67693
G1 X70.663 Y15.145 E10.07468
G1 X70.663 Y15.62 E10.09361
G1 X63.605 Y8.562 E10.49136
G1 X63.605 Y9.038 E10.51033
G1 X70.663 Y16.096 E10.90808
G1 X70.663 Y16.572 E10.92705
G1 X63.605 Y9.513 E11.32482
G1 X63.605 Y9.989 E11.34379
G1 X70.663 Y17.047 E11.74154
G1 X70.663 Y17.523 E11.76051
G1 X63.605 Y10.465 E12.15826
G1 X63.605 Y10.94 E12.17719
G1 X70.663 Y17.998 E12.57494
G1 X70.663 Y18.474 E12.59391
G1 X63.605 Y11.416 E12.99166
G1 X63.605 Y11.891 E13.01059
G1 X70.663 Y18.95 E13.40836
G1 X70.663 Y19.425 E13.42729
G1 X63.605 Y12.367 E13.82504
G1 X63.605 Y12.843 E13.84401
G1 X70.663 Y19.901 E14.24176
G1 X70.663 Y20.376 E14.26069
G1 X63.605 Y13.318 E14.65844
G1 X63.605 Y13.794 E14.67741
G1 X70.663 Y20.852 E15.07516
G1 X70.663 Y21.328 E15.09413
G1 X63.605 Y14.269 E15.4919
G1 X63.605 Y14.745 E15.51087
G1 X70.663 Y21.803 E15.90862
G1 X70.663 Y22.279 E15.92759
G1 X63.605 Y15.221 E16.32534
G1 X63.605 Y15.696 E16.34427
G1 X70.663 Y22.754 E16.74202
G1 X70.663 Y23.23 E16.76099
G1 X63.605 Y16.172 E17.15874
G1 X63.605 Y16.647 E17.17767
G1 X70.663 Y23.706 E17.57544
G1 X70.663 Y24.181 E17.59437
G1 X63.605 Y17.123 E17.99212
G1 X63.605 Y17.599 E18.01109
G1 X70.663 Y24.657 E18.40884
G1 X70.663 Y25.132 E18.42777
G1 X63.605 Y18.074 E18.82552
G1 X63.605 Y18.55 E18.84449
G1 X70.663 Y25.608 E19.24224
G1 X70.663 Y26.084 E19.26121
G1 X63.605 Y19.025 E19.65898
G1 X63.605 Y19.501 E19.67795
G1 X70.663 Y26.559 E20.0757
G1 X70.663 Y27.035 E20.09467
G1 X63.605 Y19.977 E20.49242
G1 X63.605 Y20.452 E20.51135
G1 X70.663 Y27.51 E20.9091
G1 X70.663 Y27.986 E20.92807
G1 X63.605 Y20.928 E21.32582
G1 X63.605 Y21.403 E21.34475
G1 X70.663 Y28.462 E21.74252
G1 X70.663 Y28.937 E21.76145
G1 X63.605 Y21.879 E22.1592
G1 X63.605 Y22.355 E22.17817
G1 X70.663 Y29.413 E22.57592
G1 X70.663 Y29.888 E22.59485
G1 X63.605 Y22.83 E22.9926
G1 X63.605 Y23.306 E23.01157
G1 X70.663 Y30.364 E23.40932
G1 X70.663 Y30.84 E23.42829
G1 X63.605 Y23.781 E23.82606
G1 X63.605 Y24.257 E23.84503
G1 X70.663 Y31.315 E24.24278
G1 X70.663 Y31.791 E24.26175
G1 X63.605 Y24.733 E24.6595
G1 X63.605 Y25.208 E24.67843
G1 X70.663 Y32.266 E25.07618
G1 X70.663 Y32.742 E25.09515
G1 X63.605 Y25.684 E25.4929
G1 X63.605 Y26.159 E25.51183
G1 X70.663 Y33.218 E25.9096
G1 X70.663 Y33.693 E25.92853
G1 X63.605 Y26.635 E26.32628
G1 X63.605 Y27.111 E26.34525
G1 X70.663 Y34.169 E26.743
G1 X70.663 Y34.644 E26.76193
G1 X63.605 Y27.586 E27.15968
G1 X63.605 Y28.062 E27.17865
G1 X70.663 Y35.12 E27.5764
G1 X70.663 Y35.596 E27.59537
G1 X63.605 Y28.537 E27.99314
G1 X63.605 Y29.013 E28.01211
G1 X70.663 Y36.071 E28.40986
G1 X70.663 Y36.547 E28.42883
G1 X63.605 Y29.489 E28.82658
G1 X63.605 Y29.964 E28.84551
G1 X70.663 Y37.022 E29.24326
G1 X70.663 Y37.498 E29.26223
G1 X63.605 Y30.44 E29.65998
G1 X63.605 Y30.915 E29.67891
G1 X70.663 Y37.974 E30.07668
G1 X70.663 Y38.449 E30.09561
G1 X63.605 Y31.391 E30.49336
G1 X63.605 Y31.867 E30.51233
G1 X70.663 Y38.925 E30.91008
G1 X70.663 Y39.4 E30.92901
G1 X63.605 Y32.342 E31.32676
G1 X63.605 Y32.818 E31.34573
G1 X70.663 Y39.876 E31.74348
G1 X70.663 Y40.352 E31.76245
G1 X63.605 Y33.293 E32.16022
G1 X63.605 Y33.769 E32.17919
G1 X70.663 Y40.827 E32.57694
G1 X70.663 Y41.303 E32.59591
G1 X63.605 Y34.245 E32.99366
G1 X63.605 Y34.72 E33.01259
G1 X70.663 Y41.778 E33.41034
G1 X70.663 Y42.254 E33.42931
G1 X63.605 Y35.196 E33.82706
G1 X63.605 Y35.671 E33.84599
G1 X70.663 Y42.73 E34.24376
G1 X70.663 Y43.205 E34.26269
G1 X63.605 Y36.147 E34.66044
G1 X63.605 Y36.623 E34.67941
G1 X70.663 Y43.681 E35.07716
G1 X70.663 Y44.156 E35.09609
G1 X63.605 Y37.098 E35.49384
G1 X63.605 Y37.574 E35.51281
G1 X70.663 Y44.632 E35.91056
G1 X70.663 Y45.108 E35.92953
G1 X63.605 Y38.049 E36.3273
G1 X63.605 Y38.525 E36.34627
G1 X70.663 Y45.583 E36.74402
G1 X70.663 Y46.059 E36.76299
G1 X63.605 Y39.001 E37.16074
G1 X63.605 Y39.476 E37.17967
G1 X70.663 Y46.535 E37.57744
G1 X70.663 Y47.01 E37.59637
G1 X63.605 Y39.952 E37.99412
G1 X63.605 Y40.428 E38.01309
G1 X70.663 Y47.486 E38.41084
G1 X70.663 Y47.961 E38.42977
G1 X63.605 Y40.903 E38.82752
G1 X63.605 Y41.379 E38.84649
G1 X70.663 Y48.437 E39.24424
G1 X70.663 Y48.913 E39.26321
G1 X63.605 Y41.854 E39.66098
G1 X63.605 Y42.33 E39.67995
G1 X70.663 Y49.388 E40.0777
G1 X70.663 Y49.864 E40.09667
G1 X63.605 Y42.806 E40.49442
G1 X63.605 Y43.281 E40.51335
G1 X70.663 Y50.339 E40.9111
G1 X70.663 Y50.815 E40.93007
G1 X63.605 Y43.757 E41.32782
G1 X63.605 Y44.232 E41.34675
G1 X70.663 Y51.291 E41.74452
G1 X70.663 Y51.766 E41.76345
G1 X63.605 Y44.708 E42.1612
G1 X63.605 Y45.184 E42.18017
G1 X70.663 Y52.242 E42.57792
G1 X70.663 Y52.717 E42.59685
G1 X63.605 Y45.659 E42.9946
G1 X63.605 Y46.135 E43.01357
G1 X70.663 Y53.193 E43.41132
G1 X70.663 Y53.669 E43.43029
G1 X63.605 Y46.61 E43.82806
G1 X63.605 Y47.086 E43.84703
G1 X70.663 Y54.144 E44.24478
G1 X70.663 Y54.62 E44.26375
G1 X63.605 Y47.562 E44.6615
G1 X63.605 Y48.037 E44.68043
G1 X70.663 Y55.095 E45.07818
G1 X70.663 Y55.571 E45.09715
G1 X63.605 Y48.513 E45.4949
G1 X63.605 Y48.988 E45.51383
G1 X70.663 Y56.047 E45.9116
G1 X70.663 Y56.522 E45.93053
G1 X63.605 Y49.464 E46.32828
G1 X63.605 Y49.94 E46.34725
G1 X70.663 Y56.998 E46.745
G1 X70.663 Y57.473 E46.76393
G1 X63.605 Y50.415 E47.16168
G1 X63.605 Y50.891 E47.18065
G1 X70.663 Y57.949 E47.5784
G1 X70.663 Y58.425 E47.59737
G1 X63.605 Y51.366 E47.99514
G1 X63.605 Y51.842 E48.01411
G1 X70.663 Y58.9 E48.41186
G1 X70.663 Y59.376 E48.43083
G1 X63.605 Y52.318 E48.82858
G1 X63.605 Y52.793 E48.84751
G1 X70.663 Y59.851 E49.24526
G1 X70.663 Y60.327 E49.26423
G1 X63.605 Y53.269 E49.66198
G1 X63.605 Y53.744 E49.68091
G1 X70.663 Y60.803 E50.07868
G1 X70.663 Y61.278 E50.09761
G1 X63.605 Y54.22 E50.49536
G1 X63.605 Y54.696 E50.51433
G1 X70.663 Y61.754 E50.91208
G1 X70.663 Y62.229 E50.93101
G1 X63.605 Y55.171 E51.32876
G1 X63.605 Y55.647 E51.34773
G1 X70.663 Y62.705 E51.74548
G1 X70.663 Y63.181 E51.76445
G1 X63.605 Y56.122 E52.16222
G1 X63.605 Y56.598 E52.18119
G1 X70.663 Y63.656 E52.57894
G1 X70.663 Y64.132 E52.59791
G1 X63.605 Y57.074 E52.99566
G1 X63.605 Y57.549 E53.01459
G1 X70.663 Y64.607 E53.41234
G1 X70.663 Y65.083 E53.43131
G1 X63.605 Y58.025 E53.82906
G1 X63.605 Y58.5 E53.84799
G1 X70.663 Y65.559 E54.24576
G1 X70.663 Y66.034 E54.26469
G1 X63.605 Y58.976 E54.66244
G1 X63.605 Y59.452 E54.68141
G1 X70.663 Y66.51 E55.07916
G1 X70.663 Y66.985 E55.09809
G1 X63.605 Y59.927 E55.49584
G1 X63.605 Y60.403 E55.51481
G1 X70.663 Y67.461 E55.91256
G1 X70.663 Y67.937 E55.93153
G1 X63.605 Y60.878 E56.3293
G1 X63.605 Y61.354 E56.34827
G1 X70.663 Y68.412 E56.74602
G1 X70.663 Y68.888 E56.76499
G1 X63.605 Y61.83 E57.16274
G1 X63.605 Y62.305 E57.18167
G1 X70.663 Y69.363 E57.57942
G1 X70.663 Y69.839 E57.59839
G1 X63.605 Y62.781 E57.99614
G1 X63.605 Y63.256 E58.01507
G1 X70.663 Y70.315 E58.41284
G1 X70.663 Y70.79 E58.43177
G1 X63.605 Y63.732 E58.82952
G1 X63.605 Y64.208 E58.84849
G1 X70.663 Y71.266 E59.24624
G1 X70.663 Y71.741 E59.26517
G1 X63.605 Y64.683 E59.66292
G1 X63.605 Y65.159 E59.68189
G1 X70.663 Y72.217 E60.07964
G1 X70.663 Y72.693 E60.09861
G1 X63.605 Y65.634 E60.49638
G1 X63.605 Y66.11 E60.51535
G1 X70.663 Y73.168 E60.9131
G1 X70.663 Y73.644 E60.93207
G1 X63.605 Y66.586 E61.32982
G1 X63.605 Y67.061 E61.34875
G1 X70.663 Y74.119 E61.7465
G1 X70.663 Y74.595 E61.76547
G1 X63.605 Y67.537 E62.16322
G1 X63.605 Y68.012 E62.18215
G1 X70.663 Y75.071 E62.57992
G1 X70.663 Y75.546 E62.59885
G1 X63.605 Y68.488 E62.9966
G1 X63.605 Y68.964 E63.01557
G1 X70.663 Y76.022 E63.41332
G1 X70.663 Y76.497 E63.43225
G1 X63.605 Y69.439 E63.83
G1 X63.605 Y69.915 E63.84897
G1 X70.663 Y76.973 E64.24672
G1 X70.663 Y77.449 E64.26569
G1 X63.605 Y70.39 E64.66346
G1 X63.605 Y70.866 E64.68243
G1 X70.663 Y77.924 E65.08018
G1 X70.663 Y78.4 E65.09915
G1 X63.605 Y71.342 E65.4969
G1 X63.605 Y71.817 E65.51583
G1 X70.663 Y78.875 E65.91358
G1 X70.663 Y79.351 E65.93255
G1 X63.605 Y72.293 E66.3303
G1 X63.605 Y72.768 E66.34923
G1 X70.663 Y79.827 E66.747
G1 X70.663 Y80.302 E66.76593
G1 X63.605 Y73.244 E67.16368
G1 X63.605 Y73.72 E67.18265
G1 X70.663 Y80.778 E67.5804
G1 X70.663 Y81.254 E67.59937
G1 X63.605 Y74.195 E67.99714
G1 X63.605 Y74.671 E68.01611
G1 X70.663 Y81.729 E68.41386
G1 X70.663 Y82.205 E68.43283
G1 X63.605 Y75.147 E68.83058
G1 X63.605 Y75.622 E68.84951
G1 X70.663 Y82.68 E69.24726
G1 X70.663 Y83.156 E69.26623
G1 X63.605 Y76.098 E69.66398
G1 X63.605 Y76.573 E69.68291
G1 X70.663 Y83.632 E70.08068
G1 X70.663 Y84.107 E70.09961
G1 X63.605 Y77.049 E70.49736
G1 X63.605 Y77.525 E70.51633
G1 X70.663 Y84.583 E70.91408
G1 X70.663 Y85.058 E70.93301
G1 X63.605 Y78 E71.33076
G1 X63.605 Y78.476 E71.34973
G1 X70.663 Y85.534 E71.74748
G1 X70.663 Y86.01 E71.76645
G1 X63.605 Y78.951 E72.16422
G1 X63.605 Y79.427 E72.18319
G1 X70.663 Y86.485 E72.58094
G1 X70.663 Y86.961 E72.59991
G1 X63.605 Y79.903 E72.99766
G1 X63.605 Y80.378 E73.01659
G1 X70.663 Y87.436 E73.41434
G1 X70.663 Y87.912 E73.43331
G1 X63.605 Y80.854 E73.83106
G1 X63.605 Y81.329 E73.84999
G1 X70.663 Y88.388 E74.24776
G1 X70.663 Y88.863 E74.26669
G1 X63.605 Y81.805 E74.66444
G1 X63.605 Y82.281 E74.68341
G1 X70.663 Y89.339 E75.08116
G1 X70.663 Y89.814 E75.10009
G1 X63.605 Y82.756 E75.49784
G1 X63.605 Y83.232 E75.51681
G1 X70.663 Y90.29 E75.91456
G1 X70.663 Y90.766 E75.93353
G1 X63.605 Y83.707 E76.3313
G1 X63.605 Y84.183 E76.35027
G1 X70.663 Y91.241 E76.74802
G1 X70.663 Y91.717 E76.76699
G1 X63.605 Y84.659 E77.16474
G1 X63.605 Y85.134 E77.18367
G1 X70.663 Y92.192 E77.58142
G1 X70.663 Y92.668 E77.60039
G1 X63.605 Y85.61 E77.99814
G1 X63.605 Y86.085 E78.01707
G1 X70.663 Y93.144 E78.41484
G1 X70.663 Y93.619 E78.43377
G1 X63.605 Y86.561 E78.83152
G1 X63.605 Y87.037 E78.85049
G1 X70.663 Y94.095 E79.24824
G1 X70.663 Y94.57 E79.26717
G1 X63.605 Y87.512 E79.66492
G1 X63.605 Y87.988 E79.68389
G1 X70.663 Y95.046 E80.08164
G1 X70.663 Y95.522 E80.10061
G1 X63.605 Y88.463 E80.49838
G1 X63.605 Y88.939 E80.51735
G1 X70.663 Y95.997 E80.9151
G1 X70.663 Y96.473 E80.93407
G1 X63.605 Y89.415 E81.33182
G1 X63.605 Y89.89 E81.35075
G1 X70.663 Y96.948 E81.7485
G1 X70.663 Y97.424 E81.76747
G1 X63.605 Y90.366 E82.16522
G1 X63.605 Y90.841 E82.18415
G1 X70.663 Y97.9 E82.58192
G1 X70.663 Y98.375 E82.60085
G1 X63.605 Y91.317 E82.9986
G1 X63.605 Y91.793 E83.01757
G1 X70.663 Y98.851 E83.41532
G1 X70.663 Y99.326 E83.43425
G1 X63.605 Y92.268 E83.832
G1 X63.605 Y92.744 E83.85097
G1 X70.663 Y99.802 E84.24872
G1 X70.663 Y100.278 E84.26769
G1 X63.605 Y93.219 E84.66546
G1 X63.605 Y93.695 E84.68443
G1 X70.663 Y100.753 E85.08218
G1 X70.663 Y101.229 E85.10115
G1 X63.605 Y94.171 E85.4989
G1 X63.605 Y94.646 E85.51783
G1 X70.663 Y101.704 E85.91558
G1 X70.663 Y102.18 E85.93455
G1 X63.605 Y95.122 E86.3323
G1 X63.605 Y95.597 E86.35123
G1 X70.663 Y102.656 E86.749
G1 X70.663 Y103.131 E86.76793
G1 X63.605 Y96.073 E87.16568
G1 X63.605 Y96.549 E87.18465
G1 X70.663 Y103.607 E87.5824
G1 X70.663 Y104.082 E87.60133
G1 X63.605 Y97.024 E87.99908
G1 X63.605 Y97.5 E88.01805
G1 X70.663 Y104.558 E88.4158
G1 X70.663 Y105.034 E88.43477
G1 X63.605 Y97.975 E88.83254
G1 X63.605 Y98.451 E88.85151
G1 X70.663 Y105.509 E89.24926
G1 X70.663 Y105.985 E89.26823
G1 X63.605 Y98.927 E89.66598
G1 X63.605 Y99.402 E89.68491
G1 X70.663 Y106.46 E90.08266
G1 X70.663 Y106.936 E90.10163
G1 X63.605 Y99.878 E90.49938
G1 X63.605 Y100.353 E90.51831
G1 X70.663 Y107.412 E90.91608
G1 X70.663 Y107.887 E90.93501
G1 X63.605 Y100.829 E91.33276
G1 X63.605 Y101.305 E91.35173
G1 X70.663 Y108.363 E91.74948
G1 X70.663 Y108.838 E91.76841
G1 X63.605 Y101.78 E92.16616
G1 X63.605 Y102.256 E92.18513
G1 X70.663 Y109.314 E92.58288
G1 X70.663 Y109.79 E92.60185
G1 X63.605 Y102.731 E92.99962
G1 X63.605 Y103.207 E93.01859
G1 X70.663 Y110.265 E93.41634
G1 X70.663 Y110.741 E93.43531
G1 X63.605 Y103.683 E93.83306
G1 X63.605 Y104.158 E93.85199
G1 X70.663 Y111.216 E94.24974
G1 X70.663 Y111.692 E94.26871
G1 X63.605 Y104.634 E94.66646
G1 X63.605 Y105.109 E94.68539
G1 X70.663 Y112.168 E95.08316
G1 X70.663 Y112.643 E95.10209
G1 X63.605 Y105.585 E95.49984
G1 X63.605 Y106.061 E95.51881
G1 X70.663 Y113.119 E95.91656
G1 X70.663 Y113.595 E95.93553
G1 X63.605 Y106.536 E96.3333
G1 X63.605 Y107.012 E96.35227
G1 X70.663 Y114.07 E96.75002
G1 X70.663 Y114.546 E96.76899
G1 X63.605 Y107.488 E97.16674
G1 X63.605 Y107.963 E97.18567
G1 X70.663 Y115.021 E97.58342
G1 X70.663 Y115.497 E97.60239
G1 X63.605 Y108.439 E98.00014
G1 X63.605 Y108.914 E98.01907
G1 X70.663 Y115.973 E98.41684
G1 X70.663 Y116.448 E98.43577
G1 X63.605 Y109.39 E98.83352
G1 X63.605 Y109.866 E98.85249
G1 X70.663 Y116.924 E99.25024
G1 X70.663 Y117.399 E99.26917
G1 X63.605 Y110.341 E99.66692
G1 X63.605 Y110.817 E99.68589
G1 X70.663 Y117.875 E100.08364
G1 X70.663 Y118.351 E100.10261
G1 X63.605 Y111.292 E100.50038
G1 X63.605 Y111.768 E100.51935
G1 X70.663 Y118.826 E100.9171
