;FLAVOR:Marlin
;TIME:10355
;Filament used: 35.9785m
;Layer height: 0.4
;Generated with Cura_SteamEngine 3.6.0
M140 S30
M105
M190 S30
M104 S220
M105
M109 S220
M82 ;absolute extrusion mode
G21 ;metric values
G90 ;absolute positioning
M82 ;set extruder to absolute mode
M107 ;start with the fan off
G28 X0 Y0 ;move X/Y to min endstops
G28 Z0 ;move Z to min endstops
G1 Z15.0 F120 ;move the platform down 15mm
G92 E0 ;zero the extruded length
G1 F200 E3 ;extrude 3mm of feed stock
G92 E0 ;zero the extruded length again
G1 F120
M117 Printing...
G5
G92 E0
G1 F2400 E-6
;LAYER_COUNT:274
;LAYER:0
M106 S255
M204 S3000
M205 X10 Y10
;MESH:batteryDISPENSER.stl
G0 F3600 X106.713 Y63.565 Z0.4
M204 S2500
M205 X8 Y8
;TYPE:WALL-INNER
G1 F2400 E0
G1 F1800 X49.562 Y63.565 E7.50456
G1 X49.562 Y16.585 E13.67355
G1 X127.042 Y16.585 E23.84752
G1 X127.042 Y27.183 E25.23916
G1 X120.124 Y27.187 E26.14757
G1 X117.686 Y27.428 E26.46926
G1 X115.259 Y28.16 E26.80214
G1 X113.018 Y29.351 E27.13538
G1 X111.05 Y30.957 E27.46893
G1 X109.441 Y32.903 E27.80049
G1 X108.24 Y35.133 E28.13308
G1 X107.511 Y37.525 E28.46144
G1 X107.257 Y38.978 E28.65513
G1 X107.26 Y40.63 E28.87206
G1 X107.505 Y42.636 E29.13742
G1 X108.241 Y45.043 E29.46794
G1 X109.442 Y47.275 E29.80076
G1 X111.066 Y49.235 E30.13499
G1 X113.036 Y50.836 E30.46833
G1 X115.276 Y52.022 E30.80115
G1 X117.703 Y52.752 E31.13395
G1 X120.165 Y52.992 E31.45877
G1 X127.042 Y52.992 E32.36179
G1 X127.042 Y75.696 E35.34308
G1 X122.339 Y75.696 E35.96063
G1 X119.403 Y75.985 E36.34803
G1 X116.511 Y76.862 E36.74485
G1 X113.848 Y78.286 E37.14139
G1 X111.524 Y80.195 E37.53631
G1 X109.626 Y82.501 E37.92849
G1 X108.205 Y85.152 E38.32345
G1 X107.548 Y87.312 E38.61992
G1 X107.33 Y88.028 E38.7182
G1 X107.042 Y90.958 E39.10479
G1 X107.042 Y91.231 E39.14064
G1 X107.33 Y94.161 E39.52723
G1 X107.548 Y94.876 E39.62539
G1 X108.209 Y97.044 E39.92301
G1 X109.641 Y99.705 E40.31981
G1 X111.556 Y102.026 E40.71493
G1 X113.883 Y103.925 E41.10932
G1 X116.529 Y105.334 E41.50296
G1 X119.404 Y106.204 E41.89739
G1 X122.339 Y106.493 E42.28465
G1 X127.042 Y106.493 E42.90221
G1 X127.042 Y118.565 E44.48739
G1 X106.713 Y118.565 E47.15681
G1 X106.713 Y94.909 E50.26311
G1 X106.713 Y94.161 E50.34844
G1 X106.713 Y91.231 E50.56488
G1 X106.713 Y90.958 E50.57892
G1 X106.713 Y88.028 E50.79537
G1 X106.713 Y87.279 E50.88082
G1 X106.713 Y63.565 E53.99472
M204 S3000
M205 X10 Y10
G0 F3600 X106.783 Y63.495
G0 X107.218 Y38.978
G0 X107.425 Y37.79
G0 X108.121 Y35.183
G0 X109.019 Y35.458
M204 S2500
M205 X8 Y8
;TYPE:WALL-OUTER
G1 F1800 X108.33 Y37.721 E54.30535
G1 X108.097 Y39.05 E54.48252
G1 X108.1 Y40.578 E54.68317
G1 X108.33 Y42.461 E54.93226
G1 X109.02 Y44.718 E55.24217
G1 X110.142 Y46.803 E55.55308
G1 X111.66 Y48.635 E55.86549
G1 X113.502 Y50.132 E56.17717
G1 X115.597 Y51.241 E56.48844
G1 X117.866 Y51.924 E56.79959
G1 X120.206 Y52.152 E57.10831
G1 X127.882 Y52.152 E58.11625
G1 X127.882 Y76.536 E61.31814
G1 X122.38 Y76.536 E62.04061
G1 X119.568 Y76.813 E62.41165
G1 X116.834 Y77.642 E62.78679
G1 X114.317 Y78.988 E63.16159
G1 X112.12 Y80.792 E63.53488
G1 X110.327 Y82.971 E63.90542
G1 X108.985 Y85.476 E64.27858
G1 X108.158 Y88.193 E64.65152
G1 X107.882 Y90.999 E65.02175
G1 X107.882 Y91.19 E65.04683
G1 X108.158 Y93.996 E65.41707
G1 X108.988 Y96.719 E65.79087
G1 X110.342 Y99.234 E66.16594
G1 X112.151 Y101.428 E66.53933
G1 X114.35 Y103.222 E66.91199
G1 X116.851 Y104.554 E67.28407
G1 X119.568 Y105.376 E67.65681
G1 X122.38 Y105.653 E68.02785
G1 X127.882 Y105.653 E68.75032
G1 X127.882 Y119.405 E70.55611
G1 X48.722 Y119.405 E80.95069
G1 X48.722 Y15.745 E94.56239
G1 X127.882 Y15.745 E104.95697
G1 X127.882 Y28.023 E106.56921
G1 X120.166 Y28.027 E107.5824
G1 X117.85 Y28.256 E107.888
G1 X115.58 Y28.94 E108.19931
G1 X113.485 Y30.054 E108.51088
G1 X111.645 Y31.556 E108.82278
G1 X110.141 Y33.374 E109.1326
G1 X109.019 Y35.458 E109.44339
M204 S3000
M205 X10 Y10
G0 F3600 X108.932 Y35.745
G0 X108.034 Y35.47
G0 X49.854 Y64.377
G0 X49.782 Y64.495
G0 X49.882 Y64.405
M204 S2500
M205 X8 Y8
G1 F1800 X49.882 Y118.045 E116.48692
G1 X105.873 Y118.045 E123.83915
G1 X105.873 Y64.405 E130.88267
G1 X49.882 Y64.405 E138.23491
M204 S3000
M205 X10 Y10
G0 F3600 X49.882 Y64.705
G0 X49.782 Y64.705
G0 X50.392 Y62.735
M204 S2500
M205 X8 Y8
;TYPE:SKIN
G1 F1800 X50.392 Y17.415 E144.18592
G1 X126.212 Y17.415 E154.14192
G1 X126.212 Y26.353 E155.31558
G1 X120.083 Y26.357 E156.12039
G1 X117.524 Y26.61 E156.45805
G1 X114.941 Y27.389 E156.81232
G1 X112.556 Y28.656 E157.16694
G1 X110.463 Y30.366 E157.52184
G1 X108.749 Y32.437 E157.87484
G1 X107.47 Y34.813 E158.22917
G1 X106.702 Y37.332 E158.57497
G1 X106.427 Y38.907 E158.78491
G1 X106.43 Y40.681 E159.01786
G1 X106.69 Y42.809 E159.29937
G1 X107.471 Y45.364 E159.65019
G1 X108.75 Y47.741 E160.00463
G1 X110.479 Y49.828 E160.36051
G1 X112.576 Y51.532 E160.71532
G1 X114.96 Y52.793 E161.06946
G1 X117.541 Y53.57 E161.42339
G1 X120.125 Y53.822 E161.76431
G1 X126.212 Y53.822 E162.5636
G1 X126.212 Y74.866 E165.32691
G1 X122.298 Y74.866 E165.84086
G1 X119.241 Y75.167 E166.24422
G1 X116.191 Y76.091 E166.6627
G1 X113.384 Y77.593 E167.08074
G1 X110.935 Y79.605 E167.49693
G1 X108.933 Y82.037 E167.91056
G1 X107.543 Y84.63 E168.29688
G1 X107.543 Y62.735 E171.17194
G1 X50.392 Y62.735 E178.6765
M204 S3000
M205 X10 Y10
G0 F3600 X51.652 Y62.344
M204 S2500
M205 X8 Y8
G1 F1800 X50.781 Y61.473 E178.83824
M204 S3000
M205 X10 Y10
G0 F3600 X50.781 Y60.285
M204 S2500
M205 X8 Y8
G1 F1800 X52.84 Y62.344 E179.2206
M204 S3000
M205 X10 Y10
G0 F3600 X54.028 Y62.344
M204 S2500
M205 X8 Y8
G1 F1800 X50.781 Y59.097 E179.82358
M204 S3000
M205 X10 Y10
G0 F3600 X50.781 Y57.909
M204 S2500
M205 X8 Y8
G1 F1800 X55.216 Y62.344 E180.64716
M204 S3000
M205 X10 Y10
G0 F3600 X56.404 Y62.344
M204 S2500
M205 X8 Y8
G1 F1800 X50.781 Y56.721 E181.69136
M204 S3000
M205 X10 Y10
G0 F3600 X50.781 Y55.533
M204 S2500
M205 X8 Y8
G1 F1800 X57.592 Y62.344 E182.95618
M204 S3000
M205 X10 Y10
G0 F3600 X58.78 Y62.344
M204 S2500
M205 X8 Y8
G1 F1800 X50.781 Y54.345 E184.44161
M204 S3000
M205 X10 Y10
G0 F3600 X50.781 Y53.157
M204 S2500
M205 X8 Y8
G1 F1800 X59.968 Y62.344 E186.14765
M204 S3000
M205 X10 Y10
G0 F3600 X61.156 Y62.344
M204 S2500
M205 X8 Y8
G1 F1800 X50.781 Y51.969 E188.07431
M204 S3000
M205 X10 Y10
G0 F3600 X50.781 Y50.781
M204 S2500
M205 X8 Y8
G1 F1800 X62.344 Y62.344 E190.22158
M204 S3000
M205 X10 Y10
G0 F3600 X63.532 Y62.344
M204 S2500
M205 X8 Y8
G1 F1800 X50.781 Y49.593 E192.58946
M204 S3000
M205 X10 Y10
G0 F3600 X50.781 Y48.405
M204 S2500
M205 X8 Y8
G1 F1800 X64.72 Y62.344 E195.17796
M204 S3000
M205 X10 Y10
G0 F3600 X65.908 Y62.344
M204 S2500
M205 X8 Y8
G1 F1800 X50.781 Y47.217 E197.98707
M204 S3000
M205 X10 Y10
G0 F3600 X50.781 Y46.029
M204 S2500
M205 X8 Y8
G1 F1800 X67.095 Y62.344 E201.0167
M204 S3000
M205 X10 Y10
G0 F3600 X68.283 Y62.344
M204 S2500
M205 X8 Y8
G1 F1800 X50.781 Y44.841 E204.26695
M204 S3000
M205 X10 Y10
G0 F3600 X50.781 Y43.653
M204 S2500
M205 X8 Y8
G1 F1800 X69.471 Y62.344 E207.73781
M204 S3000
M205 X10 Y10
G0 F3600 X70.659 Y62.344
M204 S2500
M205 X8 Y8
G1 F1800 X50.781 Y42.466 E211.42919
M204 S3000
M205 X10 Y10
G0 F3600 X50.781 Y41.278
M204 S2500
M205 X8 Y8
G1 F1800 X71.847 Y62.344 E215.34118
M204 S3000
M205 X10 Y10
G0 F3600 X73.035 Y62.344
M204 S2500
M205 X8 Y8
G1 F1800 X50.781 Y40.09 E219.47379
M204 S3000
M205 X10 Y10
G0 F3600 X50.781 Y38.902
M204 S2500
M205 X8 Y8
G1 F1800 X74.223 Y62.344 E223.82701
M204 S3000
M205 X10 Y10
G0 F3600 X75.411 Y62.344
M204 S2500
M205 X8 Y8
G1 F1800 X50.781 Y37.714 E228.40085
M204 S3000
M205 X10 Y10
G0 F3600 X50.781 Y36.526
M204 S2500
M205 X8 Y8
G1 F1800 X76.599 Y62.344 E233.1953
M204 S3000
M205 X10 Y10
G0 F3600 X77.787 Y62.344
M204 S2500
M205 X8 Y8
G1 F1800 X50.781 Y35.338 E238.21036
M204 S3000
M205 X10 Y10
G0 F3600 X50.781 Y34.15
M204 S2500
M205 X8 Y8
G1 F1800 X78.975 Y62.344 E243.44604
M204 S3000
M205 X10 Y10
G0 F3600 X80.163 Y62.344
M204 S2500
M205 X8 Y8
G1 F1800 X50.781 Y32.962 E248.90233
M204 S3000
M205 X10 Y10
G0 F3600 X50.781 Y31.774
M204 S2500
M205 X8 Y8
G1 F1800 X81.351 Y62.344 E254.57923
M204 S3000
M205 X10 Y10
G0 F3600 X82.539 Y62.344
M204 S2500
M205 X8 Y8
G1 F1800 X50.781 Y30.586 E260.47675
M204 S3000
M205 X10 Y10
G0 F3600 X50.781 Y29.398
M204 S2500
M205 X8 Y8
G1 F1800 X83.727 Y62.344 E266.59488
M204 S3000
M205 X10 Y10
G0 F3600 X84.915 Y62.344
M204 S2500
M205 X8 Y8
G1 F1800 X50.781 Y28.21 E272.93363
M204 S3000
M205 X10 Y10
G0 F3600 X50.781 Y27.022
M204 S2500
M205 X8 Y8
G1 F1800 X86.102 Y62.344 E279.4929
M204 S3000
M205 X10 Y10
G0 F3600 X87.29 Y62.344
M204 S2500
M205 X8 Y8
G1 F1800 X50.781 Y25.834 E286.27278
M204 S3000
M205 X10 Y10
G0 F3600 X50.781 Y24.646
M204 S2500
M205 X8 Y8
G1 F1800 X88.478 Y62.344 E293.27327
M204 S3000
M205 X10 Y10
G0 F3600 X89.666 Y62.344
M204 S2500
M205 X8 Y8
G1 F1800 X50.781 Y23.458 E300.49438
M204 S3000
M205 X10 Y10
G0 F3600 X50.781 Y22.271
M204 S2500
M205 X8 Y8
G1 F1800 X90.854 Y62.344 E307.93601
M204 S3000
M205 X10 Y10
G0 F3600 X92.042 Y62.344
M204 S2500
M205 X8 Y8
G1 F1800 X50.781 Y21.083 E315.59825
M204 S3000
M205 X10 Y10
G0 F3600 X50.781 Y19.895
M204 S2500
M205 X8 Y8
G1 F1800 X93.23 Y62.344 E323.48111
M204 S3000
M205 X10 Y10
G0 F3600 X94.418 Y62.344
M204 S2500
M205 X8 Y8
G1 F1800 X50.781 Y18.707 E331.58458
M204 S3000
M205 X10 Y10
G0 F3600 X51.067 Y17.804
M204 S2500
M205 X8 Y8
G1 F1800 X95.606 Y62.344 E339.85564
M204 S3000
M205 X10 Y10
G0 F3600 X96.794 Y62.344
M204 S2500
M205 X8 Y8
G1 F1800 X52.255 Y17.804 E348.12671
M204 S3000
M205 X10 Y10
G0 F3600 X53.443 Y17.804
M204 S2500
M205 X8 Y8
G1 F1800 X97.982 Y62.344 E356.39778
M204 S3000
M205 X10 Y10
G0 F3600 X99.17 Y62.344
M204 S2500
M205 X8 Y8
G1 F1800 X54.631 Y17.804 E364.66884
M204 S3000
M205 X10 Y10
G0 F3600 X55.819 Y17.804
M204 S2500
M205 X8 Y8
G1 F1800 X100.358 Y62.344 E372.93991
M204 S3000
M205 X10 Y10
G0 F3600 X101.546 Y62.344
M204 S2500
M205 X8 Y8
G1 F1800 X57.006 Y17.804 E381.21107
M204 S3000
M205 X10 Y10
G0 F3600 X58.194 Y17.804
M204 S2500
M205 X8 Y8
G1 F1800 X102.734 Y62.344 E389.48222
M204 S3000
M205 X10 Y10
G0 F3600 X103.922 Y62.344
M204 S2500
M205 X8 Y8
G1 F1800 X59.382 Y17.804 E397.75338
M204 S3000
M205 X10 Y10
G0 F3600 X60.57 Y17.804
M204 S2500
M205 X8 Y8
G1 F1800 X105.11 Y62.344 E406.02454
M204 S3000
M205 X10 Y10
G0 F3600 X106.297 Y62.344
M204 S2500
M205 X8 Y8
G1 F1800 X61.758 Y17.804 E414.29561
M204 S3000
M205 X10 Y10
G0 F3600 X62.946 Y17.804
M204 S2500
M205 X8 Y8
G1 F1800 X107.485 Y62.344 E422.56667
M204 S3000
M205 X10 Y10
G0 F3600 X107.932 Y62.79
M204 S2500
M205 X8 Y8
G1 F1800 X119.856 Y74.714 E424.78098
M204 S3000
M205 X10 Y10
G0 F3600 X118.835 Y74.881
M204 S2500
M205 X8 Y8
G1 F1800 X107.932 Y63.978 E426.80569
M204 S3000
M205 X10 Y10
G0 F3600 X107.932 Y65.166
M204 S2500
M205 X8 Y8
G1 F1800 X117.924 Y75.158 E428.66122
M204 S3000
M205 X10 Y10
G0 F3600 X117.012 Y75.434
M204 S2500
M205 X8 Y8
G1 F1800 X107.932 Y66.354 E430.3474
M204 S3000
M205 X10 Y10
G0 F3600 X107.932 Y67.542
M204 S2500
M205 X8 Y8
G1 F1800 X116.1 Y75.71 E431.86421
M204 S3000
M205 X10 Y10
G0 F3600 X115.317 Y76.115
M204 S2500
M205 X8 Y8
G1 F1800 X107.932 Y68.73 E433.23562
M204 S3000
M205 X10 Y10
G0 F3600 X107.932 Y69.918
M204 S2500
M205 X8 Y8
G1 F1800 X114.542 Y76.528 E434.4631
M204 S3000
M205 X10 Y10
G0 F3600 X113.769 Y76.943
M204 S2500
M205 X8 Y8
G1 F1800 X107.932 Y71.105 E435.54714
M204 S3000
M205 X10 Y10
G0 F3600 X107.932 Y72.293
M204 S2500
M205 X8 Y8
G1 F1800 X113.021 Y77.383 E436.49227
M204 S3000
M205 X10 Y10
G0 F3600 X112.369 Y77.919
M204 S2500
M205 X8 Y8
G1 F1800 X107.932 Y73.481 E437.31632
M204 S3000
M205 X10 Y10
G0 F3600 X107.932 Y74.669
M204 S2500
M205 X8 Y8
G1 F1800 X111.717 Y78.455 E438.01929
M204 S3000
M205 X10 Y10
G0 F3600 X111.065 Y78.99
M204 S2500
M205 X8 Y8
G1 F1800 X107.932 Y75.857 E438.6011
M204 S3000
M205 X10 Y10
G0 F3600 X107.932 Y77.045
M204 S2500
M205 X8 Y8
G1 F1800 X110.457 Y79.57 E439.07
M204 S3000
M205 X10 Y10
G0 F3600 X109.92 Y80.221
M204 S2500
M205 X8 Y8
G1 F1800 X107.932 Y78.233 E439.43917
M204 S3000
M205 X10 Y10
G0 F3600 X107.932 Y79.421
M204 S2500
M205 X8 Y8
G1 F1800 X109.384 Y80.873 E439.70881
M204 S3000
M205 X10 Y10
G0 F3600 X108.848 Y81.525
M204 S2500
M205 X8 Y8
G1 F1800 X107.932 Y80.609 E439.87891
M204 S3000
M205 X10 Y10
G0 F3600 X107.932 Y81.797
M204 S2500
M205 X8 Y8
G1 F1800 X108.378 Y82.243 E439.96174
M204 S3000
M205 X10 Y10
G0 F3600 X113.824 Y78.253
G0 X115.339 Y77.444
G0 X120.937 Y74.607
M204 S2500
M205 X8 Y8
G1 F1800 X64.134 Y17.804 E450.51016
M204 S3000
M205 X10 Y10
G0 F3600 X65.322 Y17.804
M204 S2500
M205 X8 Y8
G1 F1800 X122.019 Y74.501 E461.03889
M204 S3000
M205 X10 Y10
G0 F3600 X123.181 Y74.476
M204 S2500
M205 X8 Y8
G1 F1800 X66.51 Y17.804 E471.56289
M204 S3000
M205 X10 Y10
G0 F3600 X67.698 Y17.804
M204 S2500
M205 X8 Y8
G1 F1800 X124.369 Y74.476 E482.08689
M204 S3000
M205 X10 Y10
G0 F3600 X125.557 Y74.476
M204 S2500
M205 X8 Y8
G1 F1800 X68.886 Y17.804 E492.61089
M204 S3000
M205 X10 Y10
G0 F3600 X70.074 Y17.804
M204 S2500
M205 X8 Y8
G1 F1800 X125.821 Y73.552 E502.9633
M204 S3000
M205 X10 Y10
G0 F3600 X125.821 Y72.364
M204 S2500
M205 X8 Y8
G1 F1800 X71.262 Y17.804 E513.0951
M204 S3000
M205 X10 Y10
G0 F3600 X72.45 Y17.804
M204 S2500
M205 X8 Y8
G1 F1800 X125.821 Y71.176 E523.00629
M204 S3000
M205 X10 Y10
G0 F3600 X125.821 Y69.988
M204 S2500
M205 X8 Y8
G1 F1800 X73.638 Y17.804 E532.69686
M204 S3000
M205 X10 Y10
G0 F3600 X74.826 Y17.804
M204 S2500
M205 X8 Y8
G1 F1800 X125.821 Y68.8 E542.16681
M204 S3000
M205 X10 Y10
G0 F3600 X125.821 Y67.612
M204 S2500
M205 X8 Y8
G1 F1800 X76.013 Y17.804 E551.41625
M204 S3000
M205 X10 Y10
G0 F3600 X77.201 Y17.804
M204 S2500
M205 X8 Y8
G1 F1800 X125.821 Y66.424 E560.44507
M204 S3000
M205 X10 Y10
G0 F3600 X125.821 Y65.236
M204 S2500
M205 X8 Y8
G1 F1800 X112.538 Y51.953 E562.91175
G1 X112.432 Y51.847
M204 S3000
M205 X10 Y10
G0 F3600 X114.977 Y53.204
M204 S2500
M205 X8 Y8
G1 F1800 X125.821 Y64.049 E564.92559
M204 S3000
M205 X10 Y10
G0 F3600 X125.821 Y62.861
M204 S2500
M205 X8 Y8
G1 F1800 X116.678 Y53.717 E566.62356
M204 S3000
M205 X10 Y10
G0 F3600 X118.172 Y54.023
M204 S2500
M205 X8 Y8
G1 F1800 X125.821 Y61.673 E568.04408
M204 S3000
M205 X10 Y10
G0 F3600 X125.821 Y60.485
M204 S2500
M205 X8 Y8
G1 F1800 X119.488 Y54.151 E569.22023
M204 S3000
M205 X10 Y10
G0 F3600 X120.737 Y54.212
M204 S2500
M205 X8 Y8
G1 F1800 X125.821 Y59.297 E570.16443
M204 S3000
M205 X10 Y10
G0 F3600 X125.821 Y58.109
M204 S2500
M205 X8 Y8
G1 F1800 X121.925 Y54.212 E570.88801
M204 S3000
M205 X10 Y10
G0 F3600 X123.112 Y54.212
M204 S2500
M205 X8 Y8
G1 F1800 X125.821 Y56.921 E571.39108
M204 S3000
M205 X10 Y10
G0 F3600 X125.821 Y55.733
M204 S2500
M205 X8 Y8
G1 F1800 X124.3 Y54.212 E571.67353
M204 S3000
M205 X10 Y10
G0 F3600 X125.488 Y54.212
M204 S2500
M205 X8 Y8
G1 F1800 X125.821 Y54.545 E571.73537
M204 S3000
M205 X10 Y10
G0 F3600 X117.692 Y52.79
G0 X115.262 Y52.06
G0 X113.241 Y50.989
G0 X108.282 Y47.697
M204 S2500
M205 X8 Y8
G1 F1800 X78.389 Y17.804 E577.28656
M204 S3000
M205 X10 Y10
G0 F3600 X79.577 Y17.804
M204 S2500
M205 X8 Y8
G1 F1800 X107.029 Y45.256 E582.38444
G1 X107.135 Y45.362
M204 S3000
M205 X10 Y10
G0 F3600 X106.507 Y43.547
M204 S2500
M205 X8 Y8
G1 F1800 X80.765 Y17.804 E587.16487
M204 S3000
M205 X10 Y10
G0 F3600 X81.953 Y17.804
M204 S2500
M205 X8 Y8
G1 F1800 X106.204 Y42.055 E591.66833
M204 S3000
M205 X10 Y10
G0 F3600 X106.039 Y40.702
M204 S2500
M205 X8 Y8
G1 F1800 X83.141 Y17.804 E595.92053
M204 S3000
M205 X10 Y10
G0 F3600 X84.329 Y17.804
M204 S2500
M205 X8 Y8
G1 F1800 X106.037 Y39.512 E599.95174
M204 S3000
M205 X10 Y10
G0 F3600 X106.118 Y38.405
M204 S2500
M205 X8 Y8
G1 F1800 X85.517 Y17.804 E603.77738
M204 S3000
M205 X10 Y10
G0 F3600 X86.705 Y17.804
M204 S2500
M205 X8 Y8
G1 F1800 X106.295 Y37.394 E607.41528
M204 S3000
M205 X10 Y10
G0 F3600 X106.557 Y36.469
M204 S2500
M205 X8 Y8
G1 F1800 X87.893 Y17.804 E610.88132
M204 S3000
M205 X10 Y10
G0 F3600 X89.081 Y17.804
M204 S2500
M205 X8 Y8
G1 F1800 X106.834 Y35.558 E614.17817
M204 S3000
M205 X10 Y10
G0 F3600 X107.113 Y34.649
M204 S2500
M205 X8 Y8
G1 F1800 X90.269 Y17.804 E617.30623
M204 S3000
M205 X10 Y10
G0 F3600 X91.457 Y17.804
M204 S2500
M205 X8 Y8
