; generated by PrusaSlicer 2.8.1+win64 on 2025-02-26 at 11:53:30 UTC


;
;
; 

; external perimeters extrusion width = 0.40mm
; perimeters extrusion width = 0.40mm
; infill extrusion width = 0.40mm
; solid infill extrusion width = 0.40mm
; top infill extrusion width = 0.40mm
; support material extrusion width = 0.44mm
; first layer extrusion width = 0.44mm

M73 P0 R28
;TYPE:Custom
G90 ; use absolute coordinates
M83 ; extruder relative mode
M140 S0 ; set bed temp
M190 S0 ; wait for bed temp
M104 S205 ; set extruder temp
M109 S205 ; wait for extruder temp
G28                                        ; move X/Y/Z to min endstops
G1 Z0.28                                   ; lift nozzle a bit 
G92 E0 
G1 Y3 F2400                                    ; zero the extruded length 
G1 X180  E40 F500                       ; Extrude 25mm of filament in a 5cm line. 
G92 E0                                     ; zero the extruded length again 
G1 E-0.2 F3000                                ; Retract a little 
M73 P1 R28
G1 X181 F4000                              ; Quickly wipe away from the filament line
M117
G21 ; set units to millimeters
G90 ; use absolute coordinates
M82 ; use absolute distances for extrusion
G92 E0
; Filament gcode
M107
;LAYER_CHANGE
;Z:0.2
;HEIGHT:0.2
G1 E-2 F2400
G92 E0
G1 Z.2 F12000
G1 X108.803 Y104.294
G1 E2 F2400
M204 S5000
;TYPE:Skirt/Brim
;WIDTH:0.44
G1 F1800
G1 X110.648 Y103.292 E2.06585
G1 X111.505 Y103.143 E2.09313
G1 X112.412 Y103.146 E2.12158
G1 X113.87 Y103.557 E2.16909
G1 X131.412 Y113.647 E2.80385
G1 X132.322 Y114.486 E2.84267
G1 X133.01 Y115.606 E2.8839
G1 X133.33 Y116.743 E2.92095
G1 X133.369 Y117.938 E2.95845
G1 X133.137 Y119.061 E2.99442
G1 X132.599 Y120.149 E3.03249
G1 X131.421 Y121.348 E3.08521
G1 X113.872 Y131.442 E3.72022
G1 X112.756 Y131.8 E3.75698
G1 X111.593 Y131.868 E3.79352
G1 X109.985 Y131.447 E3.84566
G1 X108.58 Y130.509 E3.89865
G1 X108.049 Y129.88 E3.92447
G1 X107.623 Y129.162 E3.95066
G1 X107.24 Y127.877 E3.99272
G1 X107.203 Y107.397 E4.63511
G1 X107.634 Y105.815 E4.68654
G1 X108.137 Y105 E4.71658
G1 X108.762 Y104.338 E4.74514
M204 S20000
G1 X108.762 Y104.338 F12000
G1 X109.049 Y104.611
M204 S5000
G1 F1800
G1 X109.069 Y104.59 E4.74605
G1 X110.748 Y103.678 E4.80598
G1 X111.555 Y103.537 E4.83168
G1 X112.382 Y103.543 E4.85762
G1 X113.693 Y103.913 E4.90035
G1 X131.194 Y113.98 E5.53363
G1 X132.031 Y114.757 E5.56945
G1 X132.656 Y115.788 E5.60727
G1 X132.94 Y116.824 E5.64096
G1 X132.971 Y117.925 E5.67551
G1 X132.754 Y118.953 E5.70847
G1 X132.258 Y119.943 E5.7432
G1 X131.199 Y121.017 E5.79051
G1 X113.692 Y131.087 E6.424
G1 X112.708 Y131.405 E6.45644
G1 X111.602 Y131.47 E6.49119
G1 X110.12 Y131.073 E6.53931
G1 X108.865 Y130.232 E6.5867
G1 X108.363 Y129.637 E6.61112
G1 X107.977 Y128.982 E6.63497
G1 X107.629 Y127.793 E6.67383
G1 X107.6 Y107.423 E7.31277
G1 X107.987 Y105.999 E7.35906
G1 X108.464 Y105.226 E7.38755
G1 X109.008 Y104.655 E7.41229
M204 S20000
G1 X109.008 Y104.655 F12000
G1 X109.295 Y104.928
M204 S5000
G1 F1800
G1 X109.335 Y104.887 E7.41409
G1 X110.848 Y104.064 E7.46811
G1 X111.605 Y103.932 E7.49221
G1 X112.351 Y103.939 E7.51561
G1 X113.516 Y104.27 E7.5536
G1 X130.975 Y114.312 E8.18535
G1 X131.739 Y115.027 E8.21817
M73 P1 R27
G1 X132.3 Y115.966 E8.25248
G1 X132.55 Y116.903 E8.2829
G1 X132.574 Y117.909 E8.31446
G1 X132.372 Y118.844 E8.34446
G1 X131.919 Y119.735 E8.37581
G1 X130.978 Y120.686 E8.41777
G1 X113.513 Y130.732 E9.04975
G1 X112.613 Y131.019 E9.07938
G1 X111.613 Y131.072 E9.11079
G1 X110.312 Y130.724 E9.15303
G1 X109.149 Y129.953 E9.1968
G1 X108.696 Y129.42 E9.21874
G1 X108.332 Y128.803 E9.24121
G1 X108.018 Y127.71 E9.27688
G1 X107.997 Y107.449 E9.9124
G1 X108.34 Y106.181 E9.9536
G1 X108.766 Y105.484 E9.97922
G1 X109.254 Y104.972 E10.00141
M204 S20000
G1 X109.254 Y104.972 F12000
G1 X109.54 Y105.246
M204 S5000
G1 F1800
G1 X109.6 Y105.184 E10.00412
G1 X110.95 Y104.449 E10.05233
G1 X111.62 Y104.329 E10.07368
G1 X112.32 Y104.336 E10.09564
G1 X113.339 Y104.626 E10.12887
G1 X130.757 Y114.644 E10.75913
G1 X131.445 Y115.296 E10.78886
G1 X131.943 Y116.143 E10.81968
G1 X132.16 Y116.979 E10.84677
G1 X132.176 Y117.892 E10.87541
G1 X131.99 Y118.731 E10.90237
G1 X131.58 Y119.526 E10.93043
G1 X130.757 Y120.355 E10.96707
G1 X113.334 Y130.377 E11.59753
G1 X112.519 Y130.632 E11.62432
G1 X111.627 Y130.674 E11.65233
G1 X110.448 Y130.35 E11.69068
G1 X109.434 Y129.674 E11.72891
G1 X109.01 Y129.176 E11.74943
G1 X108.688 Y128.625 E11.76945
G1 X108.408 Y127.629 E11.8019
G1 X108.394 Y107.475 E12.43406
G1 X108.694 Y106.364 E12.47016
G1 X109.093 Y105.71 E12.49419
G1 X109.498 Y105.29 E12.51249
M204 S20000
G1 X109.498 Y105.29 F12000
G1 X109.784 Y105.565
M204 S5000
G1 F1800
G1 X109.865 Y105.481 E12.51615
G1 X111.051 Y104.834 E12.55853
G1 X111.671 Y104.723 E12.57829
G1 X112.288 Y104.733 E12.59765
G1 X113.162 Y104.982 E12.62616
G1 X130.537 Y114.976 E13.25488
G1 X131.149 Y115.562 E13.28146
M73 P2 R27
G1 X131.585 Y116.316 E13.30878
G1 X131.769 Y117.051 E13.33255
G1 X131.779 Y117.872 E13.3583
G1 X131.609 Y118.617 E13.38227
G1 X131.243 Y119.314 E13.40696
G1 X130.537 Y120.024 E13.43837
G1 X113.156 Y130.021 E14.0673
G1 X112.429 Y130.245 E14.09116
G1 X111.643 Y130.276 E14.11583
G1 X110.64 Y130 E14.14846
G1 X109.716 Y129.394 E14.18312
G1 X109.344 Y128.96 E14.20105
G1 X109.045 Y128.448 E14.21965
G1 X108.798 Y127.55 E14.24886
G1 X108.791 Y107.501 E14.87773
G1 X109.048 Y106.545 E14.90878
G1 X109.395 Y105.969 E14.92987
G1 X109.743 Y105.608 E14.9456
M204 S20000
G1 X109.743 Y105.608 F12000
G1 X110.026 Y105.884
M204 S5000
G1 F1800
G1 X110.128 Y105.78 E14.95017
G1 X111.155 Y105.218 E14.98689
G1 X111.685 Y105.121 E15.00379
G1 X112.256 Y105.129 E15.0217
G1 X112.985 Y105.338 E15.04549
G1 X130.317 Y115.308 E15.67266
G1 X130.851 Y115.826 E15.696
G1 X131.225 Y116.486 E15.71979
G1 X131.377 Y117.12 E15.74024
G1 X131.382 Y117.85 E15.76314
G1 X131.229 Y118.499 E15.78405
G1 X130.907 Y119.1 E15.80544
G1 X130.316 Y119.693 E15.8317
G1 X112.979 Y129.665 E16.45904
G1 X112.341 Y129.857 E16.47994
G1 X111.661 Y129.878 E16.50128
G1 X110.829 Y129.65 E16.52834
G1 X109.998 Y129.113 E16.55937
G1 X109.658 Y128.716 E16.57577
G1 X109.402 Y128.273 E16.59182
G1 X109.188 Y127.473 E16.6178
G1 X109.188 Y107.527 E17.24344
G1 X109.403 Y106.726 E17.26945
G1 X109.723 Y106.194 E17.28892
G1 X109.984 Y105.927 E17.30063
M204 S20000
G1 X109.984 Y105.927 F12000
G1 X110.268 Y106.205
M204 S5000
G1 F1800
G1 X110.391 Y106.078 E17.30618
G1 X111.261 Y105.602 E17.33729
G1 X111.7 Y105.518 E17.35131
G1 X112.223 Y105.526 E17.36772
G1 X112.808 Y105.694 E17.38681
G1 X130.097 Y115.639 E18.01242
G1 X130.551 Y116.087 E18.03243
G1 X130.863 Y116.652 E18.05267
G1 X130.985 Y117.185 E18.06982
G1 X130.985 Y117.825 E18.08989
G1 X130.85 Y118.378 E18.10775
G1 X130.573 Y118.884 E18.12584
G1 X130.095 Y119.362 E18.14704
G1 X112.802 Y129.309 E18.77279
G1 X112.256 Y129.468 E18.79063
G1 X111.681 Y129.481 E18.80867
G1 X111.016 Y129.299 E18.8303
G1 X110.278 Y128.83 E18.85773
G1 X109.759 Y128.097 E18.8859
G1 X109.585 Y127.447 E18.90701
G1 X109.585 Y107.553 E19.53101
G1 X109.759 Y106.904 E19.55209
G1 X110.025 Y106.454 E19.56849
G1 X110.226 Y106.248 E19.57752
M204 S20000
G1 X110.226 Y106.248 F12000
G1 X110.51 Y106.525
M204 S5000
G1 F1800
G1 X110.655 Y106.377 E19.58402
G1 X111.37 Y105.985 E19.6096
G1 X111.716 Y105.915 E19.62067
G1 X112.19 Y105.923 E19.63554
G1 X112.63 Y106.05 E19.6499
G1 X129.875 Y115.969 E20.27391
G1 X130.248 Y116.345 E20.29052
G1 X130.5 Y116.814 E20.30722
G1 X130.588 Y117.206 E20.31982
G1 X130.588 Y117.799 E20.33842
G1 X130.473 Y118.253 E20.35311
G1 X130.241 Y118.665 E20.36794
G1 X129.875 Y119.03 E20.38415
G1 X112.626 Y128.952 E21.00831
G1 X112.176 Y129.078 E21.02297
G1 X111.705 Y129.084 E21.03774
G1 X111.2 Y128.946 E21.05416
G1 X110.555 Y128.544 E21.078
G1 X110.116 Y127.921 E21.10191
G1 X109.982 Y127.421 E21.11815
G1 X109.982 Y107.579 E21.74052
G1 X110.116 Y107.079 E21.75676
G1 X110.327 Y106.713 E21.77001
G1 X110.468 Y106.568 E21.77635
M204 S20000
G1 X110.468 Y106.568 F12000
G1 X110.746 Y106.846
M204 S5000
G1 F1800
G1 X110.915 Y106.678 E21.78382
G1 X111.482 Y106.367 E21.8041
G1 X112.157 Y106.319 E21.82533
G1 X112.452 Y106.406 E21.83498
G1 X129.654 Y116.301 E22.45744
G1 X129.912 Y116.559 E22.46888
G1 X130.137 Y116.977 E22.48377
G1 X130.191 Y117.772 E22.50876
G1 X129.912 Y118.443 E22.53155
G1 X129.654 Y118.699 E22.54295
G1 X112.452 Y128.594 E23.16541
G1 X111.733 Y128.687 E23.18815
G1 X111.382 Y128.592 E23.19956
G1 X110.829 Y128.255 E23.21987
G1 X110.473 Y127.746 E23.23935
G1 X110.379 Y127.395 E23.25075
G1 X110.379 Y107.605 E23.87149
G1 X110.657 Y106.935 E23.89424
G1 X110.704 Y106.889 E23.8963
M204 S20000
G1 X110.704 Y106.889 F12000
G1 X111.044 Y107.135
M204 S5000
G1 F1800
G1 X111.134 Y107.01 E23.90113
G1 X111.754 Y106.71 E23.92273
G1 X112.274 Y106.761 E23.93912
G1 X129.434 Y116.632 E24.56007
G1 X129.58 Y116.778 E24.56655
G1 X129.794 Y117.251 E24.58283
G1 X129.74 Y117.946 E24.6047
G1 X129.434 Y118.368 E24.62105
G1 X112.276 Y128.237 E25.24191
G1 X112.076 Y128.29 E25.2484
G1 X111.56 Y128.236 E25.26467
G1 X111.097 Y127.962 E25.28155
G1 X110.83 Y127.57 E25.29643
G1 X110.776 Y127.369 E25.30296
G1 X110.776 Y107.631 E25.92207
G1 X110.83 Y107.43 E25.9286
G1 X111.009 Y107.183 E25.93817
M204 S20000
G1 X111.009 Y107.183 F12000
G1 X111.337 Y107.373
M204 S5000
G1 F1800
G1 X111.356 Y107.34 E25.93936
G1 X111.735 Y107.121 E25.95309
G1 X112.101 Y107.12 E25.96457
G1 X129.213 Y116.963 E26.58377
G1 X129.397 Y117.28 E26.59527
G1 X129.397 Y117.72 E26.60907
G1 X129.213 Y118.037 E26.62057
G1 X112.101 Y127.88 E27.23977
G1 X111.786 Y127.893 E27.24966
G1 X111.356 Y127.66 E27.265
G1 X111.173 Y127.343 E27.27648
G1 X111.173 Y107.657 E27.89396
G1 X111.307 Y107.425 E27.90236
M204 S20000
G1 X111.307 Y107.425 F12000
G1 X111.624 Y107.644
M204 S5000
G1 F1800
G1 X111.972 Y107.504 E27.91413
G1 X128.946 Y117.268 E28.52835
G1 X129 Y117.64 E28.54014
G1 X128.946 Y117.732 E28.54349
G1 X111.972 Y127.496 E29.15771
G1 X111.865 Y127.496 E29.16107
M73 P3 R27
G1 X111.571 Y127.264 E29.17282
G1 X111.571 Y107.736 E29.78534
G1 X111.594 Y107.696 E29.78679
M204 S20000
;WIPE_START
G1 F9600
G1 X111.624 Y107.644 E29.77253
G1 X111.972 Y107.504 E29.68344
G1 X118.894 Y111.486 E27.78679
;WIPE_END
G92 E0
G92 E0
G1 X113.182 Y123.764 F12000
G1 E2 F2400
M204 S5000
;TYPE:External perimeter
;WIDTH:0.439999
G1 F1800
G1 X113.182 Y110.663 E2.41093
G1 X113.281 Y110.491 E2.41715
G1 X113.502 Y110.363 E2.42516
G1 X113.701 Y110.363 E2.4314
G1 X125.764 Y117.328 E2.86831
G1 X125.863 Y117.5 E2.87453
G1 X125.792 Y117.652 E2.87979
G1 X113.701 Y124.637 E3.31778
G1 X113.502 Y124.637 E3.32402
G1 X113.281 Y124.509 E3.33203
G1 X113.182 Y124.337 E3.33825
G1 X113.182 Y123.824 E3.35434
M204 S20000
G1 X113.182 Y123.824 F12000
G1 X112.822 Y123.764
M204 S5000
;TYPE:Perimeter
;WIDTH:0.365673
G1 F1800
G1 X112.822 Y110.663 E3.68835
;WIDTH:0.402836
G1 X112.952 Y110.405 E3.69656
;WIDTH:0.439999
G1 X113.082 Y110.147 E3.70562
G1 X113.304 Y110.019 E3.71366
G1 X113.549 Y110.013 E3.72135
;WIDTH:0.406883
G1 X113.794 Y110.006 E3.7284
;WIDTH:0.373767
G1 X113.882 Y110.05 E3.73097
;WIDTH:0.379684
G1 X125.947 Y117.01 E4.1015
;WIDTH:0.428789
G1 X126.028 Y117.108 E4.10538
;WIDTH:0.477894
G1 X126.109 Y117.206 E4.10975
;WIDTH:0.526999
G1 X126.191 Y117.304 E4.11464
;WIDTH:0.576104
G1 X126.272 Y117.402 E4.11999
;WIDTH:0.625208
G1 X126.353 Y117.5 E4.12584
G1 X126.288 Y117.587 E4.13084
;WIDTH:0.577215
G1 X126.223 Y117.674 E4.13542
;WIDTH:0.529222
G1 X126.158 Y117.762 E4.13962
;WIDTH:0.481229
G1 X126.094 Y117.849 E4.14336
;WIDTH:0.433236
G1 X126.029 Y117.936 E4.14671
;WIDTH:0.385242
G1 X125.947 Y117.99 E4.14936
;WIDTH:0.379682
G1 X113.882 Y124.95 E4.51989
;WIDTH:0.404145
G1 X113.593 Y124.965 E4.52815
;WIDTH:0.439999
G1 X113.304 Y124.981 E4.53723
G1 X113.082 Y124.853 E4.54527
G1 X112.955 Y124.643 E4.55297
;WIDTH:0.405563
G1 X112.827 Y124.434 E4.55999
;WIDTH:0.371127
G1 X112.822 Y124.337 E4.56251
;WIDTH:0.365673
G1 X112.822 Y123.824 E4.57559
M204 S20000
;WIPE_START
G1 F9600
G1 X112.822 Y123.764 E4.56134
G1 X112.822 Y115.403 E2.57559
;WIPE_END
G92 E0
G1 X120.976 Y121.661 F12000
G1 E2 F2400
M204 S5000
;TYPE:External perimeter
;WIDTH:0.439999
G1 F1800
G1 X112.139 Y126.744 E2.31977
G1 X112.139 Y108.256 E2.89967
G1 X128.21 Y117.5 E3.4812
G1 X121.028 Y121.631 E3.74108
M204 S20000
G1 X121.028 Y121.631 F12000
G1 X120.794 Y121.345
M204 S5000
;TYPE:Perimeter
;WIDTH:0.379682
G1 F1800
G1 X114.044 Y125.232 E3.94829
;WIDTH:0.368291
G1 X114.043 Y125.232 E3.94832
;WIDTH:0.404145
G1 X113.673 Y125.424 E3.96021
;WIDTH:0.439999
G1 X113.303 Y125.616 E3.97329
G1 X112.536 Y126.058 E4.00106
G1 X112.536 Y125.168 E4.02898
G1 X112.518 Y124.753 E4.04201
;WIDTH:0.402836
G1 X112.499 Y124.337 E4.05385
;WIDTH:0.365673
G1 X112.499 Y110.663 E4.40247
;WIDTH:0.402836
G1 X112.518 Y110.247 E4.41431
;WIDTH:0.439999
G1 X112.536 Y109.832 E4.42734
G1 X112.536 Y108.942 E4.45526
G1 X113.303 Y109.384 E4.48303
G1 X113.674 Y109.576 E4.49613
;WIDTH:0.404147
G1 X114.044 Y109.768 E4.50802
;WIDTH:0.379684
G1 X126.115 Y116.719 E4.87857
;WIDTH:0.428789
G1 X126.25 Y116.824 E4.88378
;WIDTH:0.477894
G1 X126.385 Y116.93 E4.88968
;WIDTH:0.526999
G1 X126.52 Y117.036 E4.89624
;WIDTH:0.576104
G1 X126.654 Y117.142 E4.90344
;WIDTH:0.625208
G1 X126.789 Y117.248 E4.91133
G1 X127.228 Y117.5 E4.93461
G1 X126.789 Y117.752 E4.95789
G1 X126.654 Y117.858 E4.96578
;WIDTH:0.576103
G1 X126.52 Y117.964 E4.97298
;WIDTH:0.526998
G1 X126.385 Y118.07 E4.97954
;WIDTH:0.477893
G1 X126.25 Y118.176 E4.98544
;WIDTH:0.428788
G1 X126.115 Y118.281 E4.99065
;WIDTH:0.379682
G1 X120.846 Y121.315 E5.15239
M204 S20000
;WIPE_START
G1 F9600
G1 X120.794 Y121.345 E5.13813
G1 X114.044 Y125.232 E3.2882
G1 X114.043 Y125.232 E3.28796
G1 X113.673 Y125.424 E3.18896
G1 X113.536 Y125.495 E3.15239
;WIPE_END
G92 E0
G1 X119.816 Y119.225 F12000
G1 E2 F2400
M204 S5000
;TYPE:External perimeter
;WIDTH:0.439999
G1 F1800
G1 X119.546 Y119.547 E2.01318
G1 X119.16 Y119.871 E2.02899
G1 X118.724 Y120.123 E2.04479
G1 X118.247 Y120.296 E2.06071
G1 X117.754 Y120.383 E2.07641
G1 X117.246 Y120.383 E2.09234
G1 X116.751 Y120.295 E2.10811
G1 X116.276 Y120.122 E2.12397
G1 X115.84 Y119.87 E2.13977
G1 X115.453 Y119.545 E2.15562
G1 X115.129 Y119.159 E2.17143
G1 X114.877 Y118.722 E2.18725
G1 X114.705 Y118.25 E2.20301
G1 X114.617 Y117.749 E2.21897
G1 X114.617 Y117.247 E2.23472
G1 X114.705 Y116.75 E2.25055
G1 X114.877 Y116.277 E2.26634
G1 X115.13 Y115.84 E2.28218
G1 X115.453 Y115.454 E2.29797
G1 X115.842 Y115.129 E2.31387
G1 X116.276 Y114.878 E2.3296
G1 X116.753 Y114.704 E2.34553
G1 X117.246 Y114.617 E2.36123
G1 X117.754 Y114.617 E2.37716
G1 X118.249 Y114.705 E2.39293
G1 X118.724 Y114.877 E2.40878
G1 X119.161 Y115.13 E2.42462
G1 X119.547 Y115.454 E2.44043
G1 X119.871 Y115.84 E2.45624
G1 X120.123 Y116.277 E2.47206
G1 X120.296 Y116.751 E2.48789
G1 X120.383 Y117.247 E2.50369
G1 X120.383 Y117.753 E2.51956
G1 X120.296 Y118.249 E2.53536
G1 X120.123 Y118.723 E2.55119
G1 X119.87 Y119.16 E2.56703
G1 X119.855 Y119.179 E2.56779
M204 S20000
G1 X119.855 Y119.179 F12000
G1 X119.513 Y118.97
M204 S5000
;TYPE:Perimeter
G1 F1800
G1 X119.266 Y119.265 E2.57986
G1 X118.933 Y119.545 E2.59351
G1 X118.556 Y119.763 E2.60717
G1 X118.147 Y119.911 E2.62081
G1 X117.719 Y119.987 E2.63444
G1 X117.281 Y119.987 E2.64818
G1 X116.856 Y119.912 E2.66172
G1 X116.444 Y119.762 E2.67547
G1 X116.069 Y119.546 E2.68904
G1 X115.734 Y119.265 E2.70275
G1 X115.455 Y118.932 E2.71638
G1 X115.237 Y118.555 E2.73004
G1 X115.088 Y118.147 E2.74366
G1 X115.013 Y117.715 E2.75741
G1 X115.032 Y117.064 E2.77784
G1 X115.144 Y116.643 E2.7915
G1 X115.329 Y116.247 E2.80521
G1 X115.58 Y115.889 E2.81892
G1 X115.889 Y115.58 E2.83263
G1 X116.247 Y115.329 E2.84634
G1 X116.642 Y115.145 E2.86001
G1 X117.065 Y115.032 E2.87374
G1 X117.5 Y114.994 E2.88744
G1 X118.144 Y115.088 E2.90785
G1 X118.556 Y115.237 E2.92159
G1 X118.932 Y115.455 E2.93522
G1 X119.265 Y115.734 E2.94885
G1 X119.545 Y116.068 E2.96252
G1 X119.763 Y116.445 E2.97618
G1 X119.912 Y116.853 E2.9898
G1 X119.987 Y117.282 E3.00346
G1 X119.988 Y117.717 E3.0171
G1 X119.912 Y118.146 E3.03077
G1 X119.763 Y118.555 E3.04442
