;FLAVOR:Marlin
;TIME:968
;Filament used: 0.367933m
;Layer height: 0.2
;MINX:128.6
;MINY:128.6
;MINZ:0.2
;MAXX:171.4
;MAXY:171.4
;MAXZ:20.1
;Generated with Cura_SteamEngine 4.10.0
M140 S60
M105
M190 S60
M104 S200
M105
M109 S200
M82 ;absolute extrusion mode
G28 ; home all axes
 M117 Purge extruder
 G92 E0 ; reset extruder
 G1 Z1.0 F3000 ; move z up little to prevent scratching of surface
 G1 X2 Y20 Z0.3 F5000.0 ; move to start-line position
 G1 X2 Y200.0 Z0.3 F1500.0 E15 ; draw 1st line
 G1 X2 Y200.0 Z0.4 F5000.0 ; move to side a little
 G1 X2 Y20 Z0.4 F1500.0 E30 ; draw 2nd line
 G92 E0 ; reset extruder
 G1 Z1.0 F3000 ; move z up little to prevent scratching of surface
G92 E0
G92 E0
G1 F2400 E-6
;LAYER_COUNT:100
;LAYER:0
M107
M204 S3000
G1 F300 Z0.4
G0 F6000 X131.805 Y132.093 Z0.4
M204 S2500
;TYPE:SKIRT
G1 F300 Z0.2
G1 F2400 E0
G1 F1200 X132.496 Y131.435 E0.03015
G1 X133.24 Y130.836 E0.06033
G1 X134.032 Y130.302 E0.09051
G1 X134.865 Y129.836 E0.12067
G1 X135.734 Y129.441 E0.15083
G1 X136.633 Y129.12 E0.18099
G1 X137.556 Y128.876 E0.21116
G1 X138.497 Y128.71 E0.24135
G1 X139.689 Y128.613 E0.27914
G1 X140.01 Y128.604 E0.28929
G1 X140.33 Y128.6 E0.2994
G1 X159.293 Y128.6 E0.89858
G1 X160.154 Y128.611 E0.92578
G1 X161.108 Y128.665 E0.95597
G1 X162.053 Y128.798 E0.98613
G1 X162.984 Y129.01 E1.0163
G1 X163.894 Y129.299 E1.04647
G1 X164.777 Y129.663 E1.07664
G1 X165.626 Y130.1 E1.10682
G1 X166.435 Y130.606 E1.13697
G1 X167.199 Y131.178 E1.16712
G1 X167.913 Y131.812 E1.19729
G1 X168.571 Y132.504 E1.22746
G1 X169.169 Y133.248 E1.25763
G1 X169.703 Y134.04 E1.28781
G1 X170.168 Y134.874 E1.31798
G1 X170.563 Y135.743 E1.34814
G1 X170.882 Y136.643 E1.37831
G1 X171.126 Y137.566 E1.40848
G1 X171.291 Y138.507 E1.43866
G1 X171.386 Y139.69 E1.47616
G1 X171.395 Y140.01 E1.48628
G1 X171.4 Y140.33 E1.49639
G1 X171.399 Y159.405 E2.09911
G1 X171.39 Y160.132 E2.12208
G1 X171.338 Y161.085 E2.15224
G1 X171.207 Y162.031 E2.18241
G1 X170.997 Y162.963 E2.2126
G1 X170.71 Y163.873 E2.24275
G1 X170.347 Y164.756 E2.27291
G1 X169.912 Y165.606 E2.30308
G1 X169.407 Y166.417 E2.33327
G1 X168.837 Y167.182 E2.36341
G1 X168.204 Y167.897 E2.39359
G1 X167.514 Y168.557 E2.42376
G1 X166.77 Y169.156 E2.45394
G1 X165.98 Y169.691 E2.48409
G1 X165.147 Y170.158 E2.51426
G1 X164.278 Y170.554 E2.54443
G1 X163.379 Y170.876 E2.57461
G1 X162.456 Y171.121 E2.60478
G1 X161.516 Y171.288 E2.63495
G1 X160.311 Y171.387 E2.67315
G1 X159.99 Y171.396 E2.6833
G1 X159.67 Y171.4 E2.69341
G1 X140.56 Y171.399 E3.29723
G1 X139.862 Y171.39 E3.31929
G1 X138.909 Y171.338 E3.34944
G1 X137.963 Y171.206 E3.37962
G1 X137.032 Y170.995 E3.40979
G1 X136.121 Y170.708 E3.43997
G1 X135.238 Y170.345 E3.47013
G1 X134.389 Y169.909 E3.50029
G1 X133.578 Y169.404 E3.53048
G1 X132.813 Y168.833 E3.56064
G1 X132.099 Y168.2 E3.59079
G1 X131.439 Y167.509 E3.62098
G1 X130.84 Y166.766 E3.65114
G1 X130.306 Y165.975 E3.68129
G1 X129.839 Y165.142 E3.71147
G1 X129.444 Y164.273 E3.74163
G1 X129.122 Y163.374 E3.7718
G1 X128.878 Y162.451 E3.80197
G1 X128.711 Y161.511 E3.83213
G1 X128.613 Y160.299 E3.87056
G1 X128.604 Y159.966 E3.88108
G1 X128.6 Y159.658 E3.89081
G1 X128.601 Y140.52 E4.49552
G1 X128.61 Y139.855 E4.51653
G1 X128.663 Y138.901 E4.54672
G1 X128.795 Y137.956 E4.57687
G1 X129.007 Y137.025 E4.60704
G1 X129.295 Y136.115 E4.6372
G1 X129.658 Y135.232 E4.66737
G1 X130.094 Y134.382 E4.69755
G1 X130.6 Y133.572 E4.72773
G1 X131.172 Y132.808 E4.75789
G1 X131.805 Y132.093 E4.78806
M204 S3000
G0 F6000 X132.198 Y132.264
M204 S2500
G1 F1200 X132.886 Y131.627 E4.81769
G1 X133.626 Y131.051 E4.84732
G1 X134.412 Y130.539 E4.87696
G1 X135.239 Y130.097 E4.90658
G1 X136.101 Y129.727 E4.93622
G1 X136.991 Y129.431 E4.96586
G1 X137.903 Y129.213 E4.99549
G1 X138.83 Y129.072 E5.02512
G1 X139.701 Y129.013 E5.0527
G1 X140.022 Y129.004 E5.06285
G1 X140.33 Y129 E5.07258
G1 X159.293 Y129 E5.67176
G1 X160.149 Y129.011 E5.6988
G1 X161.085 Y129.065 E5.72843
G1 X162.013 Y129.197 E5.75805
G1 X162.927 Y129.409 E5.78769
G1 X163.819 Y129.698 E5.81732
G1 X164.684 Y130.061 E5.84696
G1 X165.514 Y130.497 E5.87658
G1 X166.305 Y131.002 E5.90624
G1 X167.049 Y131.573 E5.93587
G1 X167.742 Y132.205 E5.96551
G1 X168.379 Y132.893 E5.99513
G1 X168.954 Y133.634 E6.02477
G1 X169.465 Y134.42 E6.05439
G1 X169.907 Y135.248 E6.08405
G1 X170.276 Y136.11 E6.11367
G1 X170.571 Y137 E6.1433
G1 X170.789 Y137.912 E6.17293
G1 X170.929 Y138.84 E6.20258
G1 X170.987 Y139.701 E6.22985
G1 X170.996 Y140.021 E6.23996
G1 X171 Y140.33 E6.24973
G1 X170.999 Y159.4 E6.85229
G1 X170.99 Y160.127 E6.87526
G1 X170.939 Y161.064 E6.90491
G1 X170.807 Y161.992 E6.93453
G1 X170.598 Y162.906 E6.96415
G1 X170.311 Y163.799 E6.99379
G1 X169.949 Y164.665 E7.02345
G1 X169.515 Y165.496 E7.05307
G1 X169.011 Y166.287 E7.0827
G1 X168.442 Y167.032 E7.11232
G1 X167.811 Y167.727 E7.14199
G1 X167.124 Y168.365 E7.17161
G1 X166.385 Y168.942 E7.20123
G1 X165.599 Y169.454 E7.23087
G1 X164.773 Y169.897 E7.26049
G1 X163.911 Y170.269 E7.29015
G1 X163.022 Y170.565 E7.31976
G1 X162.11 Y170.785 E7.3494
G1 X161.183 Y170.926 E7.37903
G1 X160.299 Y170.987 E7.40703
G1 X159.978 Y170.996 E7.41718
G1 X159.67 Y171 E7.42691
G1 X140.565 Y170.999 E8.03057
G1 X139.867 Y170.99 E8.05263
G1 X138.931 Y170.938 E8.08225
G1 X138.002 Y170.806 E8.1119
G1 X137.088 Y170.596 E8.14153
G1 X136.195 Y170.309 E8.17117
G1 X135.33 Y169.946 E8.20081
G1 X134.499 Y169.512 E8.23043
G1 X133.708 Y169.008 E8.26007
G1 X132.963 Y168.438 E8.28971
G1 X132.269 Y167.807 E8.31934
G1 X131.632 Y167.12 E8.34895
G1 X131.055 Y166.38 E8.3786
G1 X130.543 Y165.594 E8.40824
G1 X130.1 Y164.767 E8.43788
G1 X129.729 Y163.906 E8.4675
G1 X129.433 Y163.016 E8.49714
G1 X129.214 Y162.104 E8.52677
G1 X129.073 Y161.177 E8.5564
G1 X129.013 Y160.288 E8.58455
G1 X129.004 Y159.955 E8.59508
G1 X129 Y159.658 E8.60447
G1 X129.001 Y140.525 E9.20901
G1 X129.01 Y139.86 E9.23003
G1 X129.063 Y138.924 E9.25965
G1 X129.195 Y137.995 E9.2893
G1 X129.406 Y137.081 E9.31894
G1 X129.694 Y136.189 E9.34856
G1 X130.057 Y135.324 E9.3782
G1 X130.492 Y134.493 E9.40783
G1 X130.996 Y133.703 E9.43744
G1 X131.566 Y132.958 E9.46708
G1 X132.198 Y132.264 E9.49674
M204 S3000
G0 F6000 X132.589 Y132.439
M204 S2500
G1 F1200 X133.274 Y131.823 E9.52585
G1 X134.01 Y131.27 E9.55494
G1 X134.791 Y130.782 E9.58404
G1 X135.611 Y130.364 E9.61312
G1 X136.465 Y130.019 E9.64222
G1 X137.345 Y129.749 E9.6713
G1 X138.245 Y129.557 E9.70038
G1 X139.159 Y129.443 E9.72949
G1 X139.712 Y129.413 E9.74698
G1 X140.033 Y129.404 E9.75713
G1 X140.33 Y129.4 E9.76652
G1 X159.293 Y129.4 E10.36569
G1 X160.143 Y129.411 E10.39255
G1 X161.062 Y129.464 E10.42164
G1 X161.973 Y129.597 E10.45073
G1 X162.869 Y129.808 E10.47981
G1 X163.743 Y130.096 E10.50889
G1 X164.59 Y130.459 E10.53801
G1 X165.401 Y130.894 E10.56709
G1 X166.171 Y131.398 E10.59616
G1 X166.895 Y131.967 E10.62526
G1 X167.567 Y132.597 E10.65437
G1 X168.182 Y133.282 E10.68345
G1 X168.735 Y134.018 E10.71254
G1 X169.222 Y134.799 E10.74162
G1 X169.639 Y135.62 E10.77072
G1 X169.984 Y136.474 E10.79982
G1 X170.253 Y137.354 E10.8289
G1 X170.445 Y138.255 E10.85801
G1 X170.558 Y139.168 E10.88707
G1 X170.587 Y139.712 E10.90429
G1 X170.596 Y140.032 E10.9144
G1 X170.6 Y140.33 E10.92382
G1 X170.599 Y159.395 E11.52622
G1 X170.59 Y160.122 E11.54919
G1 X170.539 Y161.041 E11.57827
G1 X170.408 Y161.953 E11.60739
G1 X170.198 Y162.849 E11.63646
G1 X169.912 Y163.724 E11.66555
G1 X169.551 Y164.571 E11.69464
G1 X169.117 Y165.383 E11.72373
G1 X168.615 Y166.155 E11.75283
G1 X168.047 Y166.88 E11.78193
G1 X167.419 Y167.553 E11.81102
G1 X166.735 Y168.169 E11.8401
G1 X166 Y168.723 E11.86918
G1 X165.22 Y169.212 E11.89827
G1 X164.4 Y169.631 E11.92737
G1 X163.547 Y169.977 E11.95645
G1 X162.667 Y170.248 E11.98555
G1 X161.767 Y170.441 E12.01463
G1 X160.853 Y170.556 E12.04374
G1 X160.288 Y170.587 E12.06162
G1 X159.967 Y170.596 E12.07177
G1 X159.67 Y170.6 E12.08115
G1 X140.57 Y170.599 E12.68466
G1 X139.872 Y170.59 E12.70671
G1 X138.953 Y170.538 E12.7358
G1 X138.042 Y170.407 E12.76488
G1 X137.146 Y170.197 E12.79396
G1 X136.271 Y169.91 E12.82305
G1 X135.424 Y169.548 E12.85216
G1 X134.612 Y169.114 E12.88125
G1 X133.841 Y168.612 E12.91032
G1 X133.116 Y168.044 E12.93942
G1 X132.443 Y167.415 E12.96853
G1 X131.828 Y166.731 E12.99759
G1 X131.274 Y165.996 E13.02667
G1 X130.786 Y165.215 E13.05577
G1 X130.367 Y164.395 E13.08487
G1 X130.021 Y163.542 E13.11395
G1 X129.751 Y162.662 E13.14304
G1 X129.558 Y161.761 E13.17215
G1 X129.444 Y160.848 E13.20122
G1 X129.413 Y160.277 E13.21929
G1 X129.404 Y159.944 E13.22982
G1 X129.4 Y159.658 E13.23886
G1 X129.401 Y140.531 E13.84321
G1 X129.41 Y139.866 E13.86423
G1 X129.462 Y138.946 E13.89334
G1 X129.594 Y138.035 E13.92243
G1 X129.805 Y137.139 E13.95152
G1 X130.092 Y136.264 E13.98061
G1 X130.455 Y135.418 E14.0097
G1 X130.889 Y134.606 E14.03879
G1 X131.392 Y133.835 E14.06788
G1 X131.961 Y133.111 E14.09698
G1 X132.589 Y132.439 E14.12604
M204 S3000
G0 F6000 X132.981 Y132.617
M204 S2500
G1 F1200 X133.662 Y132.024 E14.15457
G1 X134.394 Y131.494 E14.18312
G1 X135.169 Y131.031 E14.21165
G1 X135.982 Y130.638 E14.24018
G1 X136.827 Y130.318 E14.26873
G1 X137.696 Y130.075 E14.29724
G1 X138.584 Y129.909 E14.32579
G1 X139.723 Y129.813 E14.3619
G1 X140.044 Y129.804 E14.37205
G1 X140.33 Y129.8 E14.38109
G1 X159.293 Y129.8 E14.98026
G1 X160.137 Y129.811 E15.00693
G1 X161.039 Y129.864 E15.03548
G1 X161.932 Y129.996 E15.06401
G1 X162.81 Y130.207 E15.09254
G1 X163.666 Y130.495 E15.12108
G1 X164.493 Y130.857 E15.1496
G1 X165.285 Y131.292 E15.17815
G1 X166.036 Y131.794 E15.20669
G1 X166.739 Y132.361 E15.23523
G1 X167.389 Y132.988 E15.26377
G1 X167.981 Y133.67 E15.2923
G1 X168.511 Y134.401 E15.32083
G1 X168.973 Y135.177 E15.34937
G1 X169.366 Y135.99 E15.3779
G1 X169.684 Y136.835 E15.40643
G1 X169.927 Y137.705 E15.43497
G1 X170.092 Y138.593 E15.46351
G1 X170.187 Y139.723 E15.49934
G1 X170.196 Y140.043 E15.50946
G1 X170.2 Y140.33 E15.51852
G1 X170.199 Y159.39 E16.12077
G1 X170.19 Y160.117 E16.14374
G1 X170.139 Y161.019 E16.17228
G1 X170.008 Y161.913 E16.20083
G1 X169.799 Y162.791 E16.22935
G1 X169.513 Y163.648 E16.2579
G1 X169.152 Y164.476 E16.28644
G1 X168.72 Y165.268 E16.31494
G1 X168.219 Y166.02 E16.3435
G1 X167.653 Y166.724 E16.37204
G1 X167.028 Y167.375 E16.40055
G1 X166.347 Y167.969 E16.42911
G1 X165.616 Y168.5 E16.45765
G1 X164.842 Y168.964 E16.48617
G1 X164.029 Y169.358 E16.51471
G1 X163.185 Y169.678 E16.54324
G1 X162.315 Y169.923 E16.57179
G1 X161.428 Y170.089 E16.60031
G1 X160.277 Y170.187 E16.63681
G1 X159.956 Y170.196 E16.64695
G1 X159.67 Y170.2 E16.65599
G1 X140.575 Y170.199 E17.25934
G1 X139.877 Y170.19 E17.28139
G1 X138.976 Y170.139 E17.30991
G1 X138.082 Y170.007 E17.33846
G1 X137.204 Y169.798 E17.36698
G1 X136.347 Y169.511 E17.39554
G1 X135.52 Y169.15 E17.42405
G1 X134.727 Y168.717 E17.4526
G1 X133.976 Y168.216 E17.48112
G1 X133.272 Y167.65 E17.50967
G1 X132.621 Y167.024 E17.5382
G1 X132.028 Y166.343 E17.56673
G1 X131.498 Y165.612 E17.59526
G1 X131.034 Y164.837 E17.62381
G1 X130.64 Y164.024 E17.65235
G1 X130.32 Y163.18 E17.68087
G1 X130.076 Y162.31 E17.70942
G1 X129.91 Y161.422 E17.73797
G1 X129.813 Y160.267 E17.77459
G1 X129.804 Y159.934 E17.78512
G1 X129.8 Y159.658 E17.79384
G1 X129.801 Y140.536 E18.39804
G1 X129.81 Y139.871 E18.41905
G1 X129.862 Y138.969 E18.4476
G1 X129.994 Y138.076 E18.47612
G1 X130.204 Y137.198 E18.50465
G1 X130.491 Y136.341 E18.5332
G1 X130.853 Y135.514 E18.56173
G1 X131.286 Y134.722 E18.59025
G1 X131.788 Y133.971 E18.61879
G1 X132.355 Y133.267 E18.64735
G1 X132.981 Y132.617 E18.67587
M204 S3000
G1 F2400 E12.67587
G1 F300 Z0.4
;MESH:20mm_cube.stl
G0 F6000 X159.8 Y159.8 Z0.4
M204 S2500
;TYPE:WALL-OUTER
G1 F300 Z0.2
G1 F2400 E18.67587
G1 F1200 X140.2 Y159.8 E19.26258
G1 X140.2 Y140.2 E19.84929
G1 X159.8 Y140.2 E20.43599
G1 X159.8 Y159.8 E21.0227
M204 S3000
G0 F6000 X159.41 Y159.41
M204 S2500
;TYPE:SKIN
G1 F1200 X140.59 Y159.41 E21.58606
G1 X140.59 Y140.59 E22.14942
G1 X159.41 Y140.59 E22.71278
G1 X159.41 Y159.41 E23.27614
M204 S3000
G1 F2400 E17.27614
G1 F300 Z0.4
G0 F6000 X159.249 Y141.147 Z0.4
M204 S2500
G1 F300 Z0.2
G1 F2400 E23.27614
G1 F1200 X158.852 Y140.75 E23.29295
M204 S3000
G0 F6000 X158.286 Y140.75
M204 S2500
G1 F1200 X159.249 Y141.713 E23.33372
M204 S3000
G0 F6000 X159.249 Y142.279
M204 S2500
G1 F1200 X157.72 Y140.75 E23.39844
M204 S3000
G0 F6000 X157.155 Y140.75
M204 S2500
G1 F1200 X159.249 Y142.844 E23.48709
M204 S3000
G0 F6000 X159.249 Y143.41
M204 S2500
G1 F1200 X156.589 Y140.75 E23.5997
M204 S3000
G0 F6000 X156.023 Y140.75
M204 S2500
G1 F1200 X159.249 Y143.976 E23.73626
M204 S3000
G0 F6000 X159.249 Y144.541
M204 S2500
G1 F1200 X155.458 Y140.75 E23.89675
M204 S3000
G0 F6000 X154.892 Y140.75
M204 S2500
G1 F1200 X159.249 Y145.107 E24.08119
M204 S3000
G0 F6000 X159.249 Y145.673
M204 S2500
G1 F1200 X154.326 Y140.75 E24.2896
M204 S3000
G0 F6000 X153.761 Y140.75
M204 S2500
G1 F1200 X159.249 Y146.238 E24.52193
M204 S3000
G0 F6000 X159.249 Y146.804
M204 S2500
G1 F1200 X153.195 Y140.75 E24.77821
M204 S3000
G0 F6000 X152.629 Y140.75
M204 S2500
G1 F1200 X159.249 Y147.37 E25.05846
M204 S3000
G0 F6000 X159.249 Y147.935
M204 S2500
G1 F1200 X152.064 Y140.75 E25.36262
M204 S3000
G0 F6000 X151.498 Y140.75
M204 S2500
G1 F1200 X159.249 Y148.501 E25.69075
M204 S3000
G0 F6000 X159.249 Y149.067
M204 S2500
G1 F1200 X150.932 Y140.75 E26.04283
M204 S3000
G0 F6000 X150.366 Y140.75
M204 S2500
G1 F1200 X159.249 Y149.632 E26.41886
M204 S3000
G0 F6000 X159.249 Y150.198
M204 S2500
G1 F1200 X149.801 Y140.75 E26.81882
M204 S3000
G0 F6000 X149.235 Y140.75
M204 S2500
G1 F1200 X159.249 Y150.764 E27.24275
M204 S3000
G0 F6000 X159.249 Y151.33
M204 S2500
G1 F1200 X148.669 Y140.75 E27.69063
M204 S3000
G0 F6000 X148.104 Y140.75
M204 S2500
G1 F1200 X159.249 Y151.895 E28.16244
M204 S3000
G0 F6000 X159.249 Y152.461
M204 S2500
G1 F1200 X147.538 Y140.75 E28.6582
M204 S3000
G0 F6000 X146.972 Y140.75
M204 S2500
G1 F1200 X159.249 Y153.027 E29.17793
M204 S3000
G0 F6000 X159.249 Y153.592
M204 S2500
G1 F1200 X146.407 Y140.75 E29.72157
M204 S3000
G0 F6000 X145.841 Y140.75
M204 S2500
G1 F1200 X159.249 Y154.158 E30.28917
M204 S3000
G0 F6000 X159.249 Y154.724
M204 S2500
G1 F1200 X145.275 Y140.75 E30.88074
M204 S3000
G0 F6000 X144.71 Y140.75
M204 S2500
G1 F1200 X159.249 Y155.289 E31.49622
M204 S3000
G0 F6000 X159.249 Y155.855
M204 S2500
G1 F1200 X144.144 Y140.75 E32.13567
M204 S3000
G0 F6000 X143.578 Y140.75
M204 S2500
G1 F1200 X159.249 Y156.421 E32.79907
M204 S3000
G0 F6000 X159.249 Y156.986
M204 S2500
G1 F1200 X143.013 Y140.75 E33.48639
M204 S3000
G0 F6000 X142.447 Y140.75
M204 S2500
G1 F1200 X159.249 Y157.552 E34.19767
M204 S3000
G0 F6000 X159.249 Y158.118
M204 S2500
G1 F1200 X141.881 Y140.75 E34.93292
M204 S3000
G0 F6000 X141.315 Y140.75
M204 S2500
G1 F1200 X159.249 Y158.683 E35.6921
M204 S3000
G0 F6000 X159.249 Y159.249
M204 S2500
G1 F1200 X140.749 Y140.749 E36.47527
M204 S3000
G0 F6000 X140.749 Y141.315
M204 S2500
G1 F1200 X158.683 Y159.249 E37.23447
M204 S3000
G0 F6000 X158.118 Y159.249
M204 S2500
G1 F1200 X140.749 Y141.88 E37.96976
M204 S3000
G0 F6000 X140.749 Y142.446
M204 S2500
G1 F1200 X157.552 Y159.249 E38.68108
M204 S3000
G0 F6000 X156.986 Y159.249
M204 S2500
G1 F1200 X140.749 Y143.012 E39.36845
M204 S3000
G0 F6000 X140.749 Y143.578
M204 S2500
G1 F1200 X156.421 Y159.249 E40.03187
M204 S3000
G0 F6000 X155.855 Y159.249
M204 S2500
G1 F1200 X140.749 Y144.143 E40.67136
M204 S3000
G0 F6000 X140.749 Y144.709
M204 S2500
G1 F1200 X155.289 Y159.249 E41.28688
M204 S3000
G0 F6000 X154.724 Y159.249
M204 S2500
G1 F1200 X140.749 Y145.275 E41.87847
M204 S3000
G0 F6000 X140.749 Y145.84
M204 S2500
G1 F1200 X154.158 Y159.249 E42.44612
M204 S3000
G0 F6000 X153.592 Y159.249
M204 S2500
G1 F1200 X140.749 Y146.406 E42.9898
M204 S3000
G0 F6000 X140.749 Y146.972
M204 S2500
G1 F1200 X153.027 Y159.249 E43.50955
M204 S3000
G0 F6000 X152.461 Y159.249
M204 S2500
G1 F1200 X140.749 Y147.537 E44.00536
M204 S3000
G0 F6000 X140.749 Y148.103
M204 S2500
G1 F1200 X151.895 Y159.249 E44.4772
M204 S3000
G0 F6000 X151.33 Y159.249
M204 S2500
G1 F1200 X140.749 Y148.669 E44.92511
M204 S3000
G0 F6000 X140.749 Y149.234
M204 S2500
