;FLAVOR:Marlin
;TIME:7919
;Filament used: 15.2885m
;Layer height: 0.3
;Generated with Cura_SteamEngine 3.6.0
M104 S205
M105
M109 S205
M82 ;absolute extrusion mode
G21        ;metric values
G90        ;absolute positioning
M107       ;start with the fan off
G28   ;move to endstops
G92 E0                  ;zero the extruded length
G1 F200 E3              ;extrude 3mm of feed stock
G92 E0                  ;zero the extruded length again
G1 F120
;Put printing message on LCD screen
M117 Printing...
G92 E0
G1 F2400 E-6
;LAYER_COUNT:101
;LAYER:0
M107
G0 F2400 X0.809 Y82.41 Z0.3
;TYPE:SKIRT
G1 F2400 E0
G1 F1200 X-4.663 Y82.565 E0.36706
G1 X-10.075 Y83.025 E0.73125
G1 X-15.485 Y83.796 E1.09767
G1 X-20.669 Y84.827 E1.45208
G1 X-21.42 Y84.901 E1.50268
G1 X-23.905 Y84.9 E1.66931
G1 X-24.623 Y84.832 E1.71767
G1 X-31.241 Y83.569 E2.16943
G1 X-36.634 Y82.88 E2.53398
G1 X-42.059 Y82.496 E2.89865
G1 X-46.15 Y82.41 E3.17302
G1 X-66.407 Y82.397 E4.5313
G1 X-66.96 Y82.357 E4.56848
G1 X-67.501 Y82.237 E4.60564
G1 X-68.019 Y82.041 E4.64277
G1 X-68.503 Y81.773 E4.67987
G1 X-68.944 Y81.438 E4.717
G1 X-69.332 Y81.042 E4.75418
G1 X-69.555 Y80.753 E4.77865
G1 X-71.122 Y78.505 E4.9624
G1 X-73.841 Y74.887 E5.26586
G1 X-74.141 Y74.421 E5.30302
G1 X-74.371 Y73.917 E5.34017
G1 X-74.526 Y73.386 E5.37726
G1 X-74.611 Y72.58 E5.4316
G1 X-74.612 Y-88.405 E16.22604
G1 X-74.572 Y-88.957 E16.26315
G1 X-74.453 Y-89.498 E16.30029
G1 X-74.257 Y-90.017 E16.33749
G1 X-73.989 Y-90.501 E16.37459
G1 X-73.654 Y-90.942 E16.41172
G1 X-73.259 Y-91.331 E16.4489
G1 X-72.812 Y-91.658 E16.48603
G1 X-72.323 Y-91.918 E16.52317
G1 X-71.802 Y-92.104 E16.56026
G1 X-71.259 Y-92.214 E16.59741
G1 X-70.773 Y-92.245 E16.63006
G1 X-12.998 Y-92.254 E20.50402
G1 X-7.526 Y-92.409 E20.87108
G1 X-2.114 Y-92.869 E21.23527
G1 X3.296 Y-93.64 E21.60169
G1 X8.48 Y-94.671 E21.9561
G1 X9.231 Y-94.745 E22.0067
G1 X11.714 Y-94.744 E22.17319
G1 X12.432 Y-94.676 E22.22155
G1 X19.052 Y-93.413 E22.67344
G1 X24.446 Y-92.724 E23.03806
G1 X29.871 Y-92.34 E23.40273
G1 X33.962 Y-92.254 E23.6771
G1 X54.233 Y-92.224 E25.03633
G1 X54.785 Y-92.183 E25.07344
G1 X55.326 Y-92.063 E25.1106
G1 X55.844 Y-91.867 E25.14773
G1 X56.328 Y-91.598 E25.18486
G1 X56.769 Y-91.263 E25.222
G1 X57.327 Y-90.65 E25.27758
G1 X61.682 Y-84.692 E25.77242
G1 X61.976 Y-84.222 E25.8096
G1 X62.199 Y-83.715 E25.84673
G1 X62.347 Y-83.182 E25.88383
G1 X62.422 Y-82.426 E25.93477
G1 X62.422 Y78.561 E36.72934
G1 X62.382 Y79.113 E36.76645
G1 X62.263 Y79.654 E36.80359
G1 X62.067 Y80.173 E36.84079
G1 X61.799 Y80.657 E36.87788
G1 X61.464 Y81.098 E36.91502
G1 X61.069 Y81.487 E36.95219
G1 X60.622 Y81.814 E36.98933
G1 X60.133 Y82.074 E37.02646
G1 X59.612 Y82.26 E37.06356
G1 X59.069 Y82.37 E37.10071
G1 X58.583 Y82.401 E37.13336
G1 X0.809 Y82.41 E41.00725
G0 F2400 X0.828 Y81.85
G1 F1200 X-4.708 Y82.007 E41.3786
G1 X-10.149 Y82.469 E41.74474
G1 X-15.564 Y83.241 E42.1115
G1 X-20.778 Y84.278 E42.46796
G1 X-21.419 Y84.341 E42.51115
G1 X-23.904 Y84.34 E42.67778
G1 X-24.518 Y84.282 E42.71913
G1 X-31.147 Y83.017 E43.17164
G1 X-36.577 Y82.323 E43.5387
G1 X-42.048 Y81.936 E43.90646
G1 X-46.138 Y81.85 E44.18076
G1 X-66.407 Y81.837 E45.53985
G1 X-66.917 Y81.797 E45.57415
G1 X-67.415 Y81.678 E45.60848
G1 X-67.888 Y81.482 E45.64281
G1 X-68.325 Y81.216 E45.67712
G1 X-68.716 Y80.885 E45.71147
G1 X-69.096 Y80.433 E45.75106
G1 X-70.676 Y78.166 E45.93635
G1 X-73.393 Y74.551 E46.23957
G1 X-73.668 Y74.119 E46.27391
G1 X-73.872 Y73.649 E46.30826
G1 X-74 Y73.154 E46.34255
G1 X-74.051 Y72.58 E46.38119
G1 X-74.052 Y-88.405 E57.17562
G1 X-74.012 Y-88.915 E57.20992
G1 X-73.893 Y-89.413 E57.24426
G1 X-73.698 Y-89.886 E57.27856
G1 X-73.432 Y-90.324 E57.31292
G1 X-73.101 Y-90.714 E57.34722
G1 X-72.714 Y-91.049 E57.38154
G1 X-72.279 Y-91.318 E57.41584
G1 X-71.807 Y-91.517 E57.45018
G1 X-71.31 Y-91.641 E57.48453
G1 X-70.773 Y-91.685 E57.52066
G1 X-13.017 Y-91.694 E61.39334
G1 X-7.481 Y-91.851 E61.76469
G1 X-2.04 Y-92.313 E62.13084
G1 X3.375 Y-93.085 E62.4976
G1 X8.589 Y-94.122 E62.85405
G1 X9.23 Y-94.185 E62.89724
G1 X11.713 Y-94.184 E63.06373
G1 X12.327 Y-94.126 E63.10509
G1 X18.958 Y-92.861 E63.55773
G1 X24.389 Y-92.167 E63.92485
G1 X29.86 Y-91.78 E64.29261
G1 X33.949 Y-91.694 E64.56685
G1 X54.232 Y-91.664 E65.92688
G1 X54.742 Y-91.623 E65.96118
G1 X55.24 Y-91.504 E65.99552
G1 X55.713 Y-91.308 E66.02985
G1 X56.15 Y-91.041 E66.06419
G1 X56.54 Y-90.71 E66.09849
G1 X56.875 Y-90.32 E66.13296
G1 X61.23 Y-84.362 E66.6278
G1 X61.499 Y-83.926 E66.66215
G1 X61.697 Y-83.454 E66.69647
G1 X61.819 Y-82.957 E66.73079
G1 X61.862 Y-82.426 E66.76651
G1 X61.862 Y78.561 E77.56108
G1 X61.822 Y79.071 E77.59538
G1 X61.703 Y79.569 E77.62971
G1 X61.508 Y80.042 E77.66402
G1 X61.242 Y80.48 E77.69838
G1 X60.911 Y80.87 E77.73268
G1 X60.524 Y81.205 E77.767
G1 X60.089 Y81.474 E77.80129
G1 X59.617 Y81.673 E77.83564
G1 X59.12 Y81.797 E77.86999
G1 X58.583 Y81.841 E77.90612
G1 X0.828 Y81.85 E81.77873
G1 F2400 E75.77873
;MESH:remote-control_wz_3f_v01.stl 2
G0 F2400 X0.828 Y77.71
G0 X-22.318 Y77.66
G0 X-22.248 Y77.73
;TYPE:WALL-INNER
G1 F2400 E81.77873
G1 F1200 X-22.248 Y80.23 E81.94636
G1 X-23.068 Y80.23 E82.00134
G1 X-23.068 Y77.73 E82.16897
G1 X-65.568 Y77.73 E85.0187
G1 X-65.568 Y76.91 E85.07369
G1 X56.932 Y76.91 E93.28761
G1 X56.932 Y-80.77 E103.86044
G1 X-23.068 Y-80.77 E109.22463
G1 X-23.068 Y-81.59 E109.27961
G1 X57.752 Y-81.59 E114.69879
G1 X57.752 Y77.73 E125.38158
G1 X-22.248 Y77.73 E130.74578
G0 F2400 X-21.688 Y78.29
;TYPE:WALL-OUTER
G1 F1200 X-21.688 Y80.79 E130.91341
G1 X-23.628 Y80.79 E131.04349
G1 X-23.628 Y78.29 E131.21112
G1 X-66.128 Y78.29 E134.06085
G1 X-66.128 Y76.35 E134.19093
G1 X56.372 Y76.35 E142.40486
G1 X56.372 Y-80.21 E152.90259
G1 X-23.628 Y-80.21 E158.26678
G1 X-23.628 Y-82.15 E158.39686
G1 X58.312 Y-82.15 E163.89114
G1 X58.312 Y78.29 E174.64903
G1 X-21.688 Y78.29 E180.01322
G0 F2400 X-21.688 Y78.49
G0 X-22.348 Y78.49
G0 X-23.04 Y77.702
G0 X-65.083 Y77.469
G0 X-65.195 Y77.356
;TYPE:SKIN
G1 F1200 X-64.441 Y77.319 E180.04027
G1 X-23.259 Y77.319 E181.51548
G1 X-22.657 Y77.92 E181.54595
G1 X-22.467 Y77.319 E181.56853
G1 X32.969 Y77.319 E183.55434
G1 X56.728 Y77.319 E184.40543
G1 X57.341 Y77.14 E184.42831
G1 X57.341 Y21.703 E186.41416
G1 X57.341 Y-33.733 E188.39997
G1 X57.341 Y-80.458 E190.07374
G1 X57.377 Y-81.214 E190.10086
G1 X42.366 Y-81.179 E190.63858
G1 X-13.07 Y-81.179 E192.62439
G1 X-22.574 Y-81.179 E192.96484
G0 F2400 X-22.724 Y-81.33
G1 F2400 E186.96484
;MESH:remote-control_wz_3f_v01.stl 1
G0 F2400 X10.809 Y-81.57
G0 X10.809 Y-83.095
G0 X10.809 Y-85.249
G0 X10.809 Y-86.774
G0 X10.809 Y-87.504
G0 X10.879 Y-87.574
;TYPE:WALL-INNER
G1 F2400 E192.96484
G1 F1200 X53.379 Y-87.574 E195.81457
G1 X53.379 Y-86.754 E195.86955
G1 X-69.121 Y-86.754 E204.08348
G1 X-69.121 Y70.926 E214.6563
G1 X10.879 Y70.926 E220.0205
G1 X10.879 Y71.746 E220.07548
G1 X-69.941 Y71.746 E225.49466
G1 X-69.941 Y-87.574 E236.17745
G1 X10.059 Y-87.574 E241.54165
G1 X10.059 Y-90.074 E241.70928
G1 X10.879 Y-90.074 E241.76426
G1 X10.879 Y-87.574 E241.93189
G0 F2400 X11.439 Y-88.134
;TYPE:WALL-OUTER
G1 F1200 X53.939 Y-88.134 E244.78162
G1 X53.939 Y-86.194 E244.9117
G1 X-68.561 Y-86.194 E253.12562
G1 X-68.561 Y70.366 E263.62335
G1 X11.439 Y70.366 E268.98755
G1 X11.439 Y72.306 E269.11763
G1 X-70.501 Y72.306 E274.61191
G1 X-70.501 Y-88.134 E285.3698
G1 X9.499 Y-88.134 E290.73399
G1 X9.499 Y-90.634 E290.90162
G1 X11.439 Y-90.634 E291.03171
G1 X11.439 Y-88.134 E291.19934
G0 F2400 X11.639 Y-88.134
G0 X11.639 Y-87.474
G0 X52.863 Y-87.313
;TYPE:SKIN
G1 F1200 X53.119 Y-87.057 E291.22361
G0 F2400 X52.371 Y-87.013
G1 F1200 X52.071 Y-87.313 E291.25206
G0 F2400 X51.579 Y-87.013
G1 F1200 X51.279 Y-87.313 E291.28051
G0 F2400 X50.787 Y-87.013
G1 F1200 X50.487 Y-87.313 E291.30896
G0 F2400 X49.995 Y-87.013
G1 F1200 X49.695 Y-87.313 E291.3374
G0 F2400 X49.204 Y-87.013
G1 F1200 X48.903 Y-87.313 E291.3659
G0 F2400 X48.412 Y-87.013
G1 F1200 X48.111 Y-87.313 E291.39439
G0 F2400 X47.62 Y-87.013
G1 F1200 X47.319 Y-87.313 E291.42289
G0 F2400 X46.828 Y-87.013
G1 F1200 X46.527 Y-87.313 E291.45139
G0 F2400 X46.036 Y-87.013
G1 F1200 X45.735 Y-87.313 E291.47988
G0 F2400 X45.244 Y-87.013
G1 F1200 X44.943 Y-87.313 E291.50838
G0 F2400 X44.452 Y-87.013
G1 F1200 X44.151 Y-87.313 E291.53687
G0 F2400 X43.66 Y-87.013
G1 F1200 X43.359 Y-87.313 E291.56537
G0 F2400 X42.868 Y-87.013
G1 F1200 X42.567 Y-87.313 E291.59386
G0 F2400 X42.076 Y-87.013
G1 F1200 X41.775 Y-87.313 E291.62236
G0 F2400 X41.284 Y-87.013
G1 F1200 X40.983 Y-87.313 E291.65085
G0 F2400 X40.492 Y-87.013
G1 F1200 X40.191 Y-87.313 E291.67935
G0 F2400 X39.7 Y-87.013
G1 F1200 X39.399 Y-87.313 E291.70784
G0 F2400 X38.908 Y-87.013
G1 F1200 X38.608 Y-87.313 E291.73629
G0 F2400 X38.116 Y-87.013
G1 F1200 X37.816 Y-87.313 E291.76474
G0 F2400 X37.324 Y-87.013
G1 F1200 X37.024 Y-87.313 E291.79319
G0 F2400 X36.532 Y-87.013
G1 F1200 X36.232 Y-87.313 E291.82164
G0 F2400 X35.74 Y-87.013
G1 F1200 X35.44 Y-87.313 E291.85008
G0 F2400 X34.948 Y-87.013
G1 F1200 X34.648 Y-87.313 E291.87853
G0 F2400 X34.156 Y-87.013
G1 F1200 X33.856 Y-87.313 E291.90698
G0 F2400 X33.364 Y-87.013
G1 F1200 X33.064 Y-87.313 E291.93543
G0 F2400 X32.572 Y-87.013
G1 F1200 X32.272 Y-87.313 E291.96388
G0 F2400 X31.78 Y-87.013
G1 F1200 X31.48 Y-87.313 E291.99232
G0 F2400 X30.988 Y-87.013
G1 F1200 X30.688 Y-87.313 E292.02077
G0 F2400 X30.196 Y-87.013
G1 F1200 X29.896 Y-87.313 E292.04922
G0 F2400 X29.405 Y-87.013
G1 F1200 X29.104 Y-87.313 E292.07771
G0 F2400 X28.613 Y-87.013
G1 F1200 X28.312 Y-87.313 E292.10621
G0 F2400 X27.821 Y-87.013
G1 F1200 X27.52 Y-87.313 E292.13471
G0 F2400 X27.029 Y-87.013
G1 F1200 X26.728 Y-87.313 E292.1632
G0 F2400 X26.237 Y-87.013
G1 F1200 X25.936 Y-87.313 E292.1917
G0 F2400 X25.445 Y-87.013
G1 F1200 X25.144 Y-87.313 E292.22019
G0 F2400 X24.653 Y-87.013
G1 F1200 X24.352 Y-87.313 E292.24869
G0 F2400 X23.861 Y-87.013
G1 F1200 X23.56 Y-87.313 E292.27718
G0 F2400 X23.069 Y-87.013
G1 F1200 X22.768 Y-87.313 E292.30568
G0 F2400 X22.277 Y-87.013
G1 F1200 X21.976 Y-87.313 E292.33417
G0 F2400 X21.485 Y-87.013
G1 F1200 X21.184 Y-87.313 E292.36267
G0 F2400 X20.693 Y-87.013
G1 F1200 X20.392 Y-87.313 E292.39116
G0 F2400 X19.901 Y-87.013
G1 F1200 X19.6 Y-87.313 E292.41966
G0 F2400 X19.109 Y-87.013
G1 F1200 X18.809 Y-87.313 E292.44811
G0 F2400 X18.317 Y-87.013
G1 F1200 X18.017 Y-87.313 E292.47656
G0 F2400 X17.525 Y-87.013
G1 F1200 X17.225 Y-87.313 E292.505
G0 F2400 X16.733 Y-87.013
G1 F1200 X16.433 Y-87.313 E292.53345
G0 F2400 X15.941 Y-87.013
G1 F1200 X15.641 Y-87.313 E292.5619
G0 F2400 X15.149 Y-87.013
G1 F1200 X14.849 Y-87.313 E292.59035
G0 F2400 X14.357 Y-87.013
G1 F1200 X14.057 Y-87.313 E292.6188
G0 F2400 X13.565 Y-87.013
G1 F1200 X13.265 Y-87.313 E292.64724
G0 F2400 X12.773 Y-87.013
G1 F1200 X12.473 Y-87.313 E292.67569
G0 F2400 X11.981 Y-87.013
G1 F1200 X11.681 Y-87.313 E292.70414
G0 F2400 X11.189 Y-87.013
G1 F1200 X10.889 Y-87.313 E292.73259
G0 F2400 X10.619 Y-87.583
G1 F1200 X10.318 Y-87.884 E292.76113
G0 F2400 X10.098 Y-87.312
G1 F1200 X10.398 Y-87.013 E292.78953
G0 F2400 X9.606 Y-87.013
G1 F1200 X9.306 Y-87.312 E292.81793
G0 F2400 X8.814 Y-87.013
G1 F1200 X8.514 Y-87.312 E292.84633
G0 F2400 X8.022 Y-87.013
G1 F1200 X7.722 Y-87.312 E292.87473
G0 F2400 X7.23 Y-87.013
G1 F1200 X6.93 Y-87.312 E292.90313
G0 F2400 X6.438 Y-87.013
G1 F1200 X6.138 Y-87.312 E292.93153
G0 F2400 X5.646 Y-87.013
G1 F1200 X5.346 Y-87.312 E292.95993
G0 F2400 X4.854 Y-87.013
G1 F1200 X4.554 Y-87.312 E292.98833
G0 F2400 X4.062 Y-87.013
G1 F1200 X3.762 Y-87.312 E293.01673
G0 F2400 X3.27 Y-87.013
G1 F1200 X2.97 Y-87.312 E293.04514
G0 F2400 X2.478 Y-87.013
G1 F1200 X2.178 Y-87.312 E293.07354
G0 F2400 X1.686 Y-87.013
G1 F1200 X1.386 Y-87.312 E293.10194
G0 F2400 X0.894 Y-87.013
G1 F1200 X0.594 Y-87.312 E293.13034
G0 F2400 X0.102 Y-87.013
G1 F1200 X-.197 Y-87.312 E293.15869
G0 F2400 X-.689 Y-87.013
G1 F1200 X-.989 Y-87.312 E293.18709
G0 F2400 X-1.481 Y-87.013
G1 F1200 X-1.781 Y-87.312 E293.21549
G0 F2400 X-2.273 Y-87.013
G1 F1200 X-2.573 Y-87.312 E293.24389
G0 F2400 X-3.065 Y-87.013
G1 F1200 X-3.365 Y-87.312 E293.27229
G0 F2400 X-3.857 Y-87.013
G1 F1200 X-4.157 Y-87.312 E293.30069
G0 F2400 X-4.649 Y-87.013
G1 F1200 X-4.949 Y-87.312 E293.32909
G0 F2400 X-5.441 Y-87.013
G1 F1200 X-5.74 Y-87.312 E293.35745
G0 F2400 X-6.233 Y-87.013
G1 F1200 X-6.532 Y-87.312 E293.3858
G0 F2400 X-7.025 Y-87.013
G1 F1200 X-7.324 Y-87.312 E293.41415
G0 F2400 X-7.817 Y-87.013
G1 F1200 X-8.116 Y-87.312 E293.44251
G0 F2400 X-8.609 Y-87.013
G1 F1200 X-8.908 Y-87.312 E293.47086
G0 F2400 X-9.4 Y-87.013
G1 F1200 X-9.7 Y-87.312 E293.49926
G0 F2400 X-10.192 Y-87.013
G1 F1200 X-10.492 Y-87.312 E293.52766
G0 F2400 X-10.984 Y-87.013
G1 F1200 X-11.284 Y-87.312 E293.55606
G0 F2400 X-11.776 Y-87.013
G1 F1200 X-12.076 Y-87.312 E293.58446
G0 F2400 X-12.568 Y-87.013
G1 F1200 X-12.868 Y-87.312 E293.61286
G0 F2400 X-13.36 Y-87.013
G1 F1200 X-13.66 Y-87.312 E293.64126
G0 F2400 X-14.152 Y-87.013
G1 F1200 X-14.452 Y-87.312 E293.66966
G0 F2400 X-14.944 Y-87.013
G1 F1200 X-15.244 Y-87.312 E293.69806
G0 F2400 X-15.736 Y-87.013
G1 F1200 X-16.036 Y-87.312 E293.72646
G0 F2400 X-16.528 Y-87.013
G1 F1200 X-16.828 Y-87.312 E293.75486
G0 F2400 X-17.32 Y-87.013
G1 F1200 X-17.62 Y-87.312 E293.78327
G0 F2400 X-18.112 Y-87.013
G1 F1200 X-18.412 Y-87.312 E293.81167
G0 F2400 X-18.904 Y-87.013
G1 F1200 X-19.204 Y-87.312 E293.84007
G0 F2400 X-19.696 Y-87.013
G1 F1200 X-19.996 Y-87.312 E293.86847
G0 F2400 X-20.488 Y-87.013
G1 F1200 X-20.788 Y-87.312 E293.89687
G0 F2400 X-21.28 Y-87.013
G1 F1200 X-21.58 Y-87.312 E293.92527
G0 F2400 X-22.072 Y-87.013
G1 F1200 X-22.372 Y-87.312 E293.95367
G0 F2400 X-22.864 Y-87.013
G1 F1200 X-23.164 Y-87.312 E293.98207
G0 F2400 X-23.656 Y-87.013
G1 F1200 X-23.956 Y-87.312 E294.01047
G0 F2400 X-24.448 Y-87.013
G1 F1200 X-24.748 Y-87.312 E294.03887
G0 F2400 X-25.24 Y-87.013
G1 F1200 X-25.539 Y-87.312 E294.06722
G0 F2400 X-26.032 Y-87.013
G1 F1200 X-26.331 Y-87.312 E294.09558
G0 F2400 X-26.824 Y-87.013
G1 F1200 X-27.123 Y-87.312 E294.12393
G0 F2400 X-27.616 Y-87.013
G1 F1200 X-27.915 Y-87.312 E294.15228
G0 F2400 X-28.408 Y-87.013
G1 F1200 X-28.707 Y-87.312 E294.18064
G0 F2400 X-29.199 Y-87.013
G1 F1200 X-29.499 Y-87.312 E294.20904
G0 F2400 X-29.991 Y-87.013
G1 F1200 X-30.291 Y-87.312 E294.23744
G0 F2400 X-30.783 Y-87.013
G1 F1200 X-31.083 Y-87.312 E294.26584
G0 F2400 X-31.575 Y-87.013
G1 F1200 X-31.875 Y-87.312 E294.29424
G0 F2400 X-32.367 Y-87.013
G1 F1200 X-32.667 Y-87.312 E294.32264
G0 F2400 X-33.159 Y-87.013
G1 F1200 X-33.459 Y-87.312 E294.35104
G0 F2400 X-33.951 Y-87.013
G1 F1200 X-34.251 Y-87.312 E294.37944
G0 F2400 X-34.743 Y-87.013
G1 F1200 X-35.043 Y-87.312 E294.40784
G0 F2400 X-35.535 Y-87.013
G1 F1200 X-35.835 Y-87.312 E294.43624
G0 F2400 X-36.327 Y-87.013
G1 F1200 X-36.627 Y-87.312 E294.46464
G0 F2400 X-37.119 Y-87.013
G1 F1200 X-37.419 Y-87.312 E294.49304
G0 F2400 X-37.911 Y-87.013
G1 F1200 X-38.211 Y-87.312 E294.52144
G0 F2400 X-38.703 Y-87.013
G1 F1200 X-39.003 Y-87.312 E294.54984
G0 F2400 X-39.495 Y-87.013
G1 F1200 X-39.795 Y-87.312 E294.57824
G0 F2400 X-40.287 Y-87.013
G1 F1200 X-40.587 Y-87.312 E294.60664
G0 F2400 X-41.079 Y-87.013
G1 F1200 X-41.379 Y-87.312 E294.63504
G0 F2400 X-41.871 Y-87.013
G1 F1200 X-42.171 Y-87.312 E294.66345
G0 F2400 X-42.663 Y-87.013
G1 F1200 X-42.963 Y-87.312 E294.69185
G0 F2400 X-43.455 Y-87.013
G1 F1200 X-43.755 Y-87.312 E294.72025
G0 F2400 X-44.247 Y-87.013
G1 F1200 X-44.547 Y-87.312 E294.74865
G0 F2400 X-45.039 Y-87.013
G1 F1200 X-45.338 Y-87.312 E294.777
G0 F2400 X-45.831 Y-87.013
G1 F1200 X-46.13 Y-87.312 E294.80535
G0 F2400 X-46.623 Y-87.013
G1 F1200 X-46.922 Y-87.312 E294.83371
G0 F2400 X-47.415 Y-87.013
G1 F1200 X-47.714 Y-87.312 E294.86206
G0 F2400 X-48.207 Y-87.013
G1 F1200 X-48.506 Y-87.312 E294.89041
G0 F2400 X-48.998 Y-87.013
G1 F1200 X-49.298 Y-87.312 E294.91881
G0 F2400 X-49.79 Y-87.013
G1 F1200 X-50.09 Y-87.312 E294.94721
G0 F2400 X-50.582 Y-87.013
G1 F1200 X-50.882 Y-87.312 E294.97561
G0 F2400 X-51.374 Y-87.013
G1 F1200 X-51.674 Y-87.312 E295.00401
G0 F2400 X-52.166 Y-87.013
G1 F1200 X-52.466 Y-87.312 E295.03242
