;FLAVOR:Marlin
;TIME:856
;Filament used: 1.2211m
;Layer height: 0.3
;MINX:-15.602
;MINY:-32.317
;MINZ:0.3
;MAXX:15.597
;MAXY:36.002
;MAXZ:8.8
;POSTPROCESSED
;Generated with Cura_SteamEngine 4.10.0
M140 S60
M105
M190 S60
M104 S228
M105
M109 S228
M82 ;absolute extrusion mode
G21        ;metric values
G90        ;absolute positioning
M107       ;start with the fan off
G28   ;move to endstops
;Z-Offset Reset und dann Z +0,1 für PLA
;MacroZOffset0
;MacroZOffsetPlus0100
G92 E0                  ;zero the extruded length
G1 F200 E3              ;extrude 3mm of feed stock
G92 E0                  ;zero the extruded length again
G1 F150.0
;Put printing message on LCD screen
M117 Printing...
G92 E0
G92 E0
G1 F2400 E-6
;LAYER_COUNT:27
;LAYER:0
M106 S89.3
G1 F600 Z1.3
G0 F1125 X-14.888 Y1.246 Z1.3
;TYPE:SKIRT
G1 F600 Z0.3
G1 F2400 E0
G1 F300 X-15.07 Y-1.433 E0.26793
G1 X-15.333 Y-4.142 E0.5395
G1 X-15.532 Y-5.812 E0.70732
G1 X-15.593 Y-6.495 E0.77574
G1 X-15.602 Y-7.068 E0.83292
G1 X-15.596 Y-7.52 E0.87802
G1 X-15.545 Y-8.095 E0.93562
G1 X-15.386 Y-9.099 E1.03705
G1 X-14.986 Y-11.857 E1.31512
G1 X-14.676 Y-14.529 E1.58353
G1 X-14.436 Y-17.265 E1.85757
G1 X-14.329 Y-18.936 E2.02465
G1 X-14.312 Y-19.135 E2.04458
G1 X-14.17 Y-20.393 E2.1709
G1 X-14.065 Y-21.218 E2.25388
G1 X-13.943 Y-21.872 E2.32026
G1 X-13.602 Y-23.257 E2.46258
G1 X-13.571 Y-23.374 E2.47466
G1 X-13.448 Y-23.867 E2.52536
G1 X-13.305 Y-24.356 E2.5762
G1 X-13.131 Y-24.879 E2.6312
G1 X-12.822 Y-25.74 E2.72247
G1 X-12.68 Y-26.095 E2.76062
G1 X-12.467 Y-26.594 E2.81476
G1 X-12.203 Y-27.11 E2.87259
G1 X-11.871 Y-27.584 E2.93034
G1 X-11.477 Y-28.009 E2.98816
G1 X-11.086 Y-28.333 E3.03883
G1 X-10.574 Y-28.679 E3.10049
G1 X-10.016 Y-29.003 E3.16487
G1 X-8.619 Y-29.79 E3.32486
G1 X-5.463 Y-31.708 E3.69336
G1 X-4.949 Y-31.974 E3.75111
G1 X-4.402 Y-32.167 E3.80899
G1 X-3.835 Y-32.282 E3.86672
G1 X-3.16 Y-32.317 E3.93416
G1 X-2.842 Y-32.308 E3.9659
G1 X-0.061 Y-32.267 E4.24342
G1 X2.21 Y-32.292 E4.47004
G1 X3.179 Y-32.314 E4.56675
G1 X3.758 Y-32.287 E4.62458
G1 X4.327 Y-32.181 E4.68234
G1 X4.877 Y-31.998 E4.74017
G1 X5.442 Y-31.713 E4.80331
G1 X6.589 Y-31.022 E4.93693
G1 X6.687 Y-30.974 E4.94782
G1 X7.724 Y-30.346 E5.06878
G1 X9.308 Y-29.461 E5.24983
G1 X9.48 Y-29.349 E5.27031
G1 X10.541 Y-28.749 E5.39193
G1 X11.025 Y-28.429 E5.44983
G1 X11.501 Y-28.004 E5.5135
G1 X11.629 Y-27.871 E5.53192
G1 X12.001 Y-27.427 E5.58971
G1 X12.308 Y-26.936 E5.6475
G1 X12.482 Y-26.57 E5.68793
G1 X12.723 Y-25.986 E5.75097
G1 X12.979 Y-25.3 E5.82403
G1 X13.158 Y-24.764 E5.88042
G1 X13.513 Y-23.603 E6.00156
G1 X13.577 Y-23.369 E6.02576
G1 X13.815 Y-22.381 E6.12717
G1 X13.938 Y-21.815 E6.18496
G1 X14.026 Y-21.356 E6.23159
G1 X14.152 Y-20.57 E6.31102
G1 X14.209 Y-20.125 E6.35579
G1 X14.272 Y-19.472 E6.42125
G1 X14.439 Y-17.265 E6.64209
G1 X14.465 Y-16.847 E6.68388
G1 X14.71 Y-14.179 E6.95121
G1 X15.036 Y-11.473 E7.22317
G1 X15.342 Y-9.381 E7.43413
G1 X15.543 Y-8.098 E7.56371
G1 X15.597 Y-7.466 E7.627
G1 X15.595 Y-6.491 E7.72429
G1 X15.558 Y-5.976 E7.77581
G1 X15.263 Y-3.43 E8.03155
G1 X15.028 Y-.749 E8.30009
G1 X14.867 Y1.984 E8.57326
G1 X14.785 Y4.683 E8.84269
G1 X14.771 Y6.277 E9.00175
G1 X14.767 Y26.718 E11.04136
G1 X14.758 Y27.166 E11.08607
G1 X14.709 Y28.171 E11.18647
G1 X14.632 Y28.79 E11.24871
G1 X14.467 Y29.555 E11.3268
G1 X14.245 Y30.257 E11.40026
G1 X13.892 Y31.103 E11.49173
G1 X13.6 Y31.653 E11.55386
G1 X13.253 Y32.213 E11.6196
G1 X12.816 Y32.798 E11.69246
G1 X12.234 Y33.438 E11.77877
G1 X11.582 Y34.036 E11.86705
G1 X10.991 Y34.478 E11.94069
G1 X10.282 Y34.91 E12.02353
G1 X9.502 Y35.295 E12.11032
G1 X8.81 Y35.555 E12.18408
G1 X7.955 Y35.784 E12.2724
G1 X7.098 Y35.932 E12.35918
G1 X6.343 Y35.985 E12.4347
G1 X5.79 Y36.002 E12.4899
G1 X-5.496 Y36.002 E13.61603
G1 X-6.201 Y35.992 E13.68638
G1 X-6.718 Y35.967 E13.73802
G1 X-7.616 Y35.861 E13.82825
G1 X-8.337 Y35.705 E13.90186
G1 X-9.044 Y35.485 E13.97574
G1 X-9.911 Y35.12 E14.0696
G1 X-10.494 Y34.809 E14.13553
G1 X-11.038 Y34.468 E14.19959
G1 X-11.638 Y34.015 E14.27461
G1 X-12.18 Y33.526 E14.34745
G1 X-12.817 Y32.833 E14.44137
G1 X-13.174 Y32.366 E14.50002
G1 X-13.545 Y31.809 E14.5668
G1 X-13.929 Y31.099 E14.64734
G1 X-14.197 Y30.476 E14.71501
G1 X-14.493 Y29.572 E14.80993
G1 X-14.623 Y29.005 E14.86797
G1 X-14.734 Y28.308 E14.93839
G1 X-14.784 Y27.586 E15.01061
G1 X-14.793 Y27.263 E15.04285
G1 X-14.797 Y26.43 E15.12597
G1 X-14.746 Y6.748 E17.08985
G1 X-14.778 Y3.982 E17.36586
G1 X-14.888 Y1.246 E17.63908
G0 F1125 X-14.087 Y1.232
G1 F300 X-14.273 Y-1.498 E17.91212
G1 X-14.537 Y-4.221 E18.18509
G1 X-14.738 Y-5.907 E18.35451
G1 X-14.794 Y-6.508 E18.41474
G1 X-14.803 Y-7.081 E18.47192
G1 X-14.755 Y-7.97 E18.56076
G1 X-14.587 Y-9.029 E18.66774
G1 X-14.192 Y-11.753 E18.94239
G1 X-13.881 Y-14.439 E19.21219
G1 X-13.64 Y-17.179 E19.48664
G1 X-13.531 Y-18.885 E19.65722
G1 X-13.517 Y-19.046 E19.67334
G1 X-13.377 Y-20.292 E19.79845
G1 X-13.272 Y-21.117 E19.88143
G1 X-13.166 Y-21.681 E19.93869
G1 X-12.829 Y-23.052 E20.07957
G1 X-12.798 Y-23.169 E20.09164
G1 X-12.672 Y-23.674 E20.14358
G1 X-12.391 Y-24.569 E20.23718
G1 X-12.071 Y-25.464 E20.33202
G1 X-11.944 Y-25.781 E20.36609
G1 X-11.731 Y-26.28 E20.42023
G1 X-11.49 Y-26.742 E20.47222
G1 X-11.182 Y-27.162 E20.52419
G1 X-10.613 Y-27.688 E20.60151
G1 X-10.172 Y-27.988 E20.65473
G1 X-9.624 Y-28.306 E20.71795
G1 X-8.205 Y-29.105 E20.88044
G1 X-5.048 Y-31.024 E21.24908
G1 X-4.583 Y-31.26 E21.30111
G1 X-4.088 Y-31.422 E21.35308
G1 X-3.573 Y-31.506 E21.40514
G1 X-2.824 Y-31.508 E21.47988
G1 X-0.064 Y-31.467 E21.7553
G1 X2.229 Y-31.492 E21.98411
G1 X3.197 Y-31.514 E22.08073
G1 X3.718 Y-31.486 E22.13279
G1 X4.228 Y-31.379 E22.18478
G1 X4.715 Y-31.195 E22.23673
G1 X5.03 Y-31.027 E22.27235
G1 X6.171 Y-30.34 E22.40524
G1 X6.272 Y-30.29 E22.41649
G1 X7.331 Y-29.648 E22.54006
G1 X8.918 Y-28.762 E22.72141
G1 X9.069 Y-28.662 E22.73949
G1 X10.148 Y-28.052 E22.86316
G1 X10.58 Y-27.762 E22.91508
G1 X11.053 Y-27.317 E22.97988
G1 X11.384 Y-26.915 E23.03184
G1 X11.743 Y-26.263 E23.10611
G1 X11.975 Y-25.7 E23.16686
G1 X12.227 Y-25.027 E23.23857
G1 X12.399 Y-24.512 E23.29275
G1 X12.748 Y-23.37 E23.4119
G1 X12.799 Y-23.18 E23.43153
G1 X13.034 Y-22.21 E23.53111
G1 X13.153 Y-21.66 E23.58726
G1 X13.236 Y-21.229 E23.63106
G1 X13.362 Y-20.443 E23.71049
G1 X13.413 Y-20.046 E23.75043
G1 X13.474 Y-19.411 E23.81408
G1 X13.64 Y-17.215 E24.03382
G1 X13.664 Y-16.823 E24.07301
G1 X13.914 Y-14.106 E24.34526
G1 X14.246 Y-11.341 E24.62313
G1 X14.545 Y-9.3 E24.82896
G1 X14.753 Y-7.974 E24.96288
G1 X14.798 Y-7.432 E25.01715
G1 X14.795 Y-6.506 E25.10955
G1 X14.763 Y-6.068 E25.15337
G1 X14.468 Y-3.522 E25.40911
G1 X14.229 Y-.793 E25.68245
G1 X14.067 Y1.949 E25.95653
G1 X13.985 Y4.639 E26.22506
G1 X13.971 Y6.27 E26.38781
G1 X13.967 Y26.707 E28.42702
G1 X13.959 Y27.127 E28.46894
G1 X13.91 Y28.132 E28.56933
G1 X13.848 Y28.633 E28.61971
G1 X13.688 Y29.371 E28.69505
G1 X13.49 Y29.992 E28.76009
G1 X13.183 Y30.732 E28.84003
G1 X12.906 Y31.256 E28.89917
G1 X12.604 Y31.745 E28.95652
G1 X12.181 Y32.311 E29.02702
G1 X11.66 Y32.881 E29.10408
G1 X11.094 Y33.402 E29.18084
G1 X10.521 Y33.831 E29.25226
G1 X9.889 Y34.213 E29.32595
G1 X9.209 Y34.55 E29.40167
G1 X8.54 Y34.802 E29.473
G1 X7.772 Y35.005 E29.55227
G1 X7.029 Y35.135 E29.62753
G1 X6.297 Y35.186 E29.70075
G1 X5.79 Y35.202 E29.75136
G1 X-5.484 Y35.202 E30.87628
G1 X-6.189 Y35.192 E30.94664
G1 X-7.071 Y35.133 E31.03484
G1 X-7.779 Y35.011 E31.10653
G1 X-8.528 Y34.818 E31.1837
G1 X-9.186 Y34.573 E31.25376
G1 X-9.976 Y34.181 E31.34176
G1 X-10.568 Y33.821 E31.41089
G1 X-11.146 Y33.384 E31.48319
G1 X-11.623 Y32.952 E31.54741
G1 X-12.183 Y32.346 E31.62974
G1 X-12.526 Y31.898 E31.68604
G1 X-12.848 Y31.416 E31.74388
G1 X-13.218 Y30.732 E31.82147
G1 X-13.452 Y30.185 E31.88084
G1 X-13.714 Y29.39 E31.96436
G1 X-13.838 Y28.849 E32.01974
G1 X-13.936 Y28.242 E32.08109
G1 X-13.985 Y27.539 E32.15141
G1 X-13.993 Y27.259 E32.17936
G1 X-13.997 Y26.432 E32.26188
G1 X-13.946 Y6.739 E34.22686
G1 X-13.979 Y3.941 E34.50606
G1 X-14.087 Y1.232 E34.77658
G1 F2400 E28.77658
G1 F600 Z1.3
;MESH:wk??adka_pas??w_1.stl
G0 F1125 X6.892 Y-2.444 Z1.3
;TYPE:WALL-INNER
G1 F600 Z0.3
G1 F2400 E34.77658
G1 F300 X6.969 Y-2.444 E34.7835
G1 X6.969 Y-2.127 E34.81197
G1 X6.972 Y-.86 E34.92575
G1 X6.972 Y0.942 E35.08757
G1 X6.972 Y0.943 E35.08766
G1 X6.972 Y1.381 E35.12699
G1 X6.535 Y1.34 E35.15183
G1 X3.981 Y1.099 E35.3822
G1 X-6.531 Y1.1 E36.32621
G1 X-6.931 Y1.1 E36.36213
G1 X-6.931 Y0.7 E36.38536
G1 X-6.923 Y-2.463 E36.66941
G1 X-6.922 Y-2.57 E36.67902
G1 X-6.16 Y-2.462 E36.72956
G1 X6.018 Y-2.462 E37.82317
G1 X6.46 Y-2.491 E37.86295
G1 X6.776 Y-2.511 E37.89139
G1 X6.856 Y-2.54 E37.89903
G1 X6.875 Y-2.547 E37.90085
G1 X6.878 Y-2.528
G1 X6.892 Y-2.444 E37.90471
G0 F1125 X-6.424 Y1.9
G1 F300 X-6.424 Y2.82 E37.98733
G1 X-6.465 Y2.842 E37.99151
G1 X-6.984 Y3.27 E38.05192
G1 X-7.192 Y3.441 E38.0761
G1 X-7.739 Y4.104 E38.15329
G1 X-7.738 Y3.44 E38.17047
G1 X-7.738 Y3.17 E38.19124
G1 X-7.72 Y-2.977 E38.74326
G1 X-7.72 Y-3.252 E38.76796
G1 X-7.624 Y-3.668 E38.8063
G1 X-7.566 Y-3.646
G1 X-7.31 Y-3.546 E38.82616
G1 X-6.863 Y-3.37 E38.8693
G1 X-6.103 Y-3.262 E38.93824
G1 X5.992 Y-3.262 E40.0244
G1 X6.612 Y-3.302 E40.08019
G1 X7.232 Y-3.523 E40.1393
G1 X7.444 Y-3.599 E40.15952
G1 X7.51 Y-3.623 E40.16583
G1 X7.572 Y-3.244 E40.18648
G1 X7.768 Y-3.244 E40.20409
G1 X7.768 Y-3.018 E40.22438
G1 X7.772 Y-.86 E40.41817
G1 X7.772 Y3.186 E40.78152
G1 X7.772 Y3.441 E40.80441
G1 X7.771 Y4.06 E40.86
G1 X7.722 Y4.06 E40.8644
G1 X7.213 Y3.441 E40.8991
G1 X7.016 Y3.279 E40.91889
G1 X6.856 Y3.147 E40.93752
G1 X6.856 Y2.174 E41.02489
G1 X3.943 Y1.899 E41.28765
G1 X-6.424 Y1.9 E42.21863
G0 F1125 X-6.727 Y6.112
G0 X-7.448 Y28.028
G1 F300 X-7.448 Y28.326 E42.24539
G1 X-7.638 Y28.028 E42.25237
G1 X-7.69 Y27.853 E42.25608
G1 X-7.775 Y27.567 E42.28287
G1 X-7.786 Y27.366 E42.30095
G1 X-7.684 Y27.492 E42.30114
G1 X-7.448 Y27.781 E42.31191
G1 X-7.448 Y28.028 E42.32028
G0 F1125 X-3.805 Y28.987
G1 F300 X-6.038 Y29.002 E42.52081
G1 X-6.33 Y28.981 E42.5471
G1 X-6.038 Y28.981 E42.54744
G1 X-3.805 Y28.987 E42.55008
G0 F1125 X7.606 Y28.027
G1 F300 X7.368 Y28.399 E42.58973
G1 X7.368 Y28.027 E42.59329
G1 X7.368 Y27.859 E42.60501
G1 X7.426 Y27.811
G1 X7.533 Y27.722 E42.60625
G1 X7.6 Y27.721
G1 X7.695 Y27.719 E42.61478
G1 X7.682 Y27.764
G1 X7.633 Y27.935 E42.62046
G1 X7.606 Y28.027
G0 F1125 X-6.648 Y28.18
G1 F300 X-3.804 Y28.187 E42.87586
G1 X6.568 Y28.187 E43.80729
G1 X6.568 Y27.466 E43.87203
G1 X6.944 Y27.176 E43.91468
G1 X7.134 Y26.929 E43.94266
G1 X7.898 Y26.915 E44.01128
G1 X7.941 Y26.915 E44.01514
G1 X7.953 Y24.445 E44.23696
G1 X7.951 Y4.86 E45.99574
G1 X7.274 Y4.86 E46.05653
G1 X7.143 Y4.615 E46.08148
G1 X6.644 Y4.009 E46.15198
G1 X6.056 Y3.524 E46.22043
G1 X6.056 Y2.902 E46.27628
G1 X3.905 Y2.699 E46.47031
G1 X-5.624 Y2.7 E47.32603
G1 X-5.624 Y3.299 E47.37982
G1 X-6.018 Y3.51 E47.41996
G1 X-6.624 Y4.009 E47.49046
G1 X-7.123 Y4.615 E47.56095
G1 X-7.334 Y5.008 E47.60101
G1 X-7.838 Y5.008 E47.64627
G1 X-7.933 Y5.008 E47.6548
G1 X-7.933 Y26.416 E49.57729
G1 X-7.459 Y26.416 E49.61986
G1 X-7.401 Y26.554 E49.6333
G1 X-6.923 Y27.176 E49.70375
G1 X-6.648 Y27.388 E49.73493
G1 X-6.648 Y28.18 E49.80605
G0 F1125 X-6.761 Y24.844
G0 X-6.761 Y6.58
G0 X-5.8 Y4.833
G0 X8.252 Y-4.044
G1 F300 X8.566 Y-4.044 E49.83425
G1 X8.572 Y-.86 E50.12018
G1 X8.572 Y4.86 E50.63385
G1 X8.569 Y24.445 E51.99361
G1 X8.568 Y26.915 E52.16597
G1 X8.567 Y27.272 E52.19549
G1 X8.564 Y27.314 E52.19927
G1 X8.537 Y27.69 E52.23312
G1 X8.342 Y28.359 E52.2957
G1 X7.968 Y28.945 E52.35813
G1 X7.442 Y29.404 E52.42082
G1 X6.802 Y29.697 E52.48403
G1 X6.459 Y29.771 E52.51554
G1 X6.034 Y29.802 E52.55381
G1 X-6.068 Y29.802 E53.6406
G1 X-6.495 Y29.771 E53.67905
G1 X-7.165 Y29.575 E53.74174
G1 X-7.743 Y29.202 E53.80351
G1 X-8.003 Y28.943 E53.83647
G1 X-8.373 Y28.364 E53.89817
G1 X-8.569 Y27.703 E53.96009
G1 X-8.599 Y27.145 E54.01027
G1 X-8.598 Y26.415 E54.07583
G1 X-8.542 Y5.007 E55.60661
G1 X-8.542 Y4.912 E55.61514
G1 X-8.518 Y-4.044 E56.41942
G1 X-8.358 Y-4.044 E56.43378
G1 X-8.28 Y-4.38 E56.46476
G1 X-8.156 Y-4.917 E56.51425
G1 X-7.684 Y-4.631 E56.54373
G1 X-7.309 Y-4.404 E56.5831
G1 X-6.658 Y-4.149 E56.64589
G1 X-6.046 Y-4.062 E56.7014
G1 X5.966 Y-4.062 E57.7801
G1 X6.449 Y-4.093 E57.82357
G1 X7.281 Y-4.39 E57.9029
G1 X7.839 Y-4.727 E57.96144
G1 X8.113 Y-4.892 E57.99016
G1 X8.252 Y-4.044 E58.04434
G0 F1125 X8.931 Y-4.844
G1 F300 X9.372 Y-4.844 E58.08395
G1 X9.372 Y-4.284 E58.13018
G1 X9.366 Y-4.213 E58.13657
G1 X9.372 Y-.86 E58.43768
G1 X9.367 Y27.301 E60.96661
G1 X9.331 Y27.806 E61.01207
G1 X9.233 Y28.257 E61.05352
G1 X9.071 Y28.694 E61.09537
G1 X8.843 Y29.111 E61.13805
G1 X8.574 Y29.471 E61.17841
G1 X8.239 Y29.806 E61.22095
G1 X7.875 Y30.079 E61.26181
G1 X7.471 Y30.3 E61.30317
G1 X7.031 Y30.466 E61.3454
G1 X6.573 Y30.565 E61.38748
G1 X6.065 Y30.602 E61.43322
G1 X-6.098 Y30.602 E62.52548
G1 X-6.609 Y30.565 E62.57149
G1 X-7.053 Y30.469 E62.61229
G1 X-7.496 Y30.305 E62.65471
G1 X-7.902 Y30.081 E62.69635
G1 X-8.268 Y29.807 E62.73741
G1 X-8.608 Y29.47 E62.7804
G1 X-8.883 Y29.101 E62.82172
G1 X-9.103 Y28.697 E62.86303
G1 X-9.269 Y28.252 E62.90569
G1 X-9.363 Y27.815 E62.94583
G1 X-9.401 Y27.291 E62.99301
G1 X-9.399 Y27.139 E63.00666
G1 X-9.316 Y-4.844 E65.87882
G1 X-8.994 Y-4.844 E65.90773
G1 X-8.811 Y-5.636 E65.98073
G1 X-8.81 Y-5.637 E65.98086
G1 X-8.687 Y-6.174 E66.03033
G1 X-8.215 Y-5.889 E66.05978
G1 X-6.953 Y-5.124 E66.19231
G1 X-6.453 Y-4.928 E66.24054
G1 X-5.989 Y-4.862 E66.28263
G1 X5.941 Y-4.862 E67.35397
G1 X6.286 Y-4.884 E67.38501
G1 X6.936 Y-5.116 E67.44699
G1 X8.205 Y-5.883 E67.58015
G1 X8.71 Y-6.187 E67.63308
G1 X8.805 Y-5.605 E67.6641
G1 X8.931 Y-4.844 E67.73337
G0 F1125 X8.94 Y-6.768
G0 X7.488 Y-8.75
G1 F300 X7.571 Y-8.509 E67.75626
G1 X7.404 Y-8.61 E67.75671
G1 X7.174 Y-8.75 E67.77765
G1 X7.488 Y-8.75 E67.78322
G1 F2400 E61.78322
G1 F600 Z1.3
G0 F1125 X7.788 Y-8.845 Z1.3
G0 X8.956 Y-18.146
G1 F600 Z0.3
G1 F2400 E67.78322
G1 F300 X8.605 Y-18.146 E67.81474
G1 X8.606 Y-18.337 E67.8184
G1 X8.608 Y-18.454 E67.81907
G1 X8.626 Y-19.096 E67.87674
G1 X8.639 Y-19.712 E67.93207
G1 X8.644 Y-19.91 E67.94986
G1 X8.617 Y-20.214 E67.97727
G1 X8.615 Y-20.228 E67.97854
G1 X8.616 Y-20.239 E67.97953
G1 X8.658 Y-20.696 E68.02074
G1 X8.75 Y-20.257 E68.0241
G1 X8.757 Y-20.227
G1 X8.798 Y-19.932 E68.02874
G1 X8.83 Y-19.708 E68.03291
G1 X8.882 Y-19.119 E68.04704
G1 X8.938 Y-18.484 E68.06904
G1 X8.952 Y-18.334 E68.07029
G1 X8.956 Y-18.146 E68.07361
G1 F2400 E62.07361
G1 F600 Z1.3
G0 F1125 X9.004 Y-18.135 Z1.3
G0 X-8.603 Y-18.187
G1 F600 Z0.3
G1 F2400 E68.07361
G1 F300 X-8.602 Y-18.146 E68.07729
G1 X-8.92 Y-18.146 E68.09431
G1 X-8.952 Y-18.146 E68.09582
G1 X-8.952 Y-18.185
G1 X-8.92 Y-18.731 E68.12882
G1 X-8.804 Y-19.701 E68.21655
G1 X-8.787 Y-19.84 E68.22912
G1 X-8.733 Y-20.408 E68.28036
G1 X-8.725 Y-20.482 E68.28704
G1 X-8.672 Y-20.716 E68.30859
G1 X-8.657 Y-20.487 E68.30921
G1 X-8.651 Y-20.401
G1 X-8.618 Y-19.851 E68.31629
G1 X-8.607 Y-19.678 E68.32104
G1 X-8.605 Y-18.732 E68.34745
G1 X-8.603 Y-18.187 E68.36774
G1 F2400 E62.36774
G1 F600 Z1.3
G0 F1125 X-8.552 Y-18.187 Z1.3
G0 X-7.405 Y-8.611
G1 F600 Z0.3
G1 F2400 E68.36774
G1 F300 X-7.563 Y-8.515 E68.38434
G1 X-7.487 Y-8.746 E68.38988
G1 X-7.18 Y-8.746 E68.40289
G1 X-7.405 Y-8.611 E68.40423
G0 F1125 X-8.942 Y-6.772
G0 X-6.72 Y25.505
G0 X-5.848 Y27.382
G1 F300 X-3.803 Y27.387 E68.58787
G1 X5.768 Y27.387 E69.44737
G1 X5.768 Y27.02 E69.48033
G1 X5.914 Y26.96 E69.4945
G1 X6.373 Y26.606 E69.54656
G1 X6.735 Y26.135 E69.59991
G1 X7.145 Y26.128 E69.63673
G1 X7.153 Y24.443 E69.78805
G1 X7.151 Y5.66 E71.47481
G1 X6.786 Y5.66 E71.50758
G1 X6.777 Y5.627 E71.51066
G1 X6.475 Y5.062 E71.56819
G1 X6.076 Y4.577 E71.62459
G1 X5.591 Y4.178 E71.68098
G1 X5.256 Y3.998 E71.71514
G1 X5.256 Y3.63 E71.74818
G1 X3.867 Y3.499 E71.87347
G1 X-4.824 Y3.5 E72.65395
G1 X-4.824 Y3.823 E72.68295
G1 X-5.017 Y3.881 E72.70105
G1 X-5.571 Y4.178 E72.7575
G1 X-6.056 Y4.577 E72.8139
G1 X-6.455 Y5.062 E72.8703
G1 X-6.752 Y5.616 E72.92674
G1 X-6.81 Y5.808 E72.94476
G1 X-7.133 Y5.808 E72.97376
G1 X-7.133 Y25.616 E74.75257
