;FLAVOR:Marlin
;TIME:1371
;Filament used: 1.03866m
;Layer height: 0.2
;MINX:-15.493
;MINY:4.508
;MINZ:0.3
;MAXX:22.56
;MAXY:54.174
;MAXZ:6.9
;Generated with Cura_SteamEngine 4.10.0
M104 S225
M105
M109 S225
M82 ;absolute extrusion mode
G21        ;metric values
G90        ;absolute positioning
M107       ;start with the fan off
G28   ;move to endstops

;Z-Offset Reset und dann Z +0,1 für PLA
MacroZOffset0
MacroZOffsetPlus0100

G92 E0                  ;zero the extruded length
G1 F200 E3              ;extrude 3mm of feed stock
G92 E0                  ;zero the extruded length again
G1 F150.0
;Put printing message on LCD screen
M117 Printing...
G92 E0
G92 E0
G1 F2400 E-6
;LAYER_COUNT:35
;LAYER:0
M107
M204 S3000
G0 F3000 X1.96 Y4.853 Z0.3
M204 S1500
;TYPE:SKIRT
G1 F2400 E0
G1 F1200 X2.474 Y4.734 E0.02632
G1 X2.723 Y4.692 E0.03892
G1 X3.28 Y4.634 E0.06686
G1 X3.669 Y4.618 E0.08628
G1 X4.505 Y4.571 E0.12806
G1 X4.623 Y4.572 E0.13394
G1 X5.966 Y4.508 E0.20102
G1 X6.522 Y4.517 E0.22877
G1 X7.221 Y4.597 E0.26387
G1 X8.564 Y4.852 E0.33207
G1 X9.96 Y5.133 E0.40311
G1 X10.665 Y5.329 E0.43962
G1 X11.205 Y5.542 E0.46858
G1 X11.619 Y5.738 E0.49143
G1 X12.376 Y6.082 E0.53291
G1 X13.665 Y6.683 E0.60387
G1 X14.135 Y6.938 E0.63054
G1 X14.345 Y7.069 E0.64289
G1 X14.791 Y7.388 E0.67025
G1 X15.326 Y7.823 E0.70465
G1 X16.946 Y9.119 E0.80815
G1 X17.284 Y9.419 E0.8307
G1 X17.729 Y9.864 E0.8621
G1 X18.184 Y10.358 E0.8956
G1 X18.599 Y10.861 E0.92814
G1 X18.944 Y11.315 E0.95659
G1 X19.3 Y11.829 E0.98778
G1 X19.54 Y12.203 E1.00995
G1 X19.814 Y12.667 E1.03683
G1 X20.06 Y13.116 E1.06238
G1 X20.345 Y13.691 E1.09439
G1 X20.71 Y14.547 E1.14082
G1 X20.903 Y15.063 E1.16831
G1 X21.092 Y15.651 E1.19912
G1 X21.212 Y16.071 E1.22091
G1 X21.333 Y16.563 E1.24619
G1 X21.444 Y17.086 E1.27286
G1 X21.534 Y17.611 E1.29944
G1 X21.597 Y18.056 E1.32186
G1 X21.658 Y18.571 E1.34773
G1 X22.02 Y21.307 E1.48542
G1 X22.404 Y23.707 E1.60668
G1 X22.486 Y24.185 E1.63088
G1 X22.548 Y24.798 E1.66162
G1 X22.56 Y25.262 E1.68477
G1 X22.559 Y38.704 E2.3554
G1 X22.548 Y39.411 E2.39067
G1 X22.499 Y40.002 E2.42026
G1 X22.281 Y40.855 E2.46418
G1 X22.157 Y41.193 E2.48215
G1 X20.999 Y44.24 E2.64477
G1 X20.838 Y44.686 E2.66843
G1 X20.639 Y45.204 E2.69611
G1 X20.411 Y45.733 E2.72485
G1 X20.175 Y46.229 E2.75225
G1 X19.887 Y46.777 E2.78314
G1 X19.621 Y47.233 E2.80948
G1 X19.279 Y47.77 E2.84124
G1 X18.915 Y48.291 E2.87295
G1 X18.61 Y48.693 E2.89812
G1 X18.207 Y49.182 E2.92974
G1 X17.568 Y49.874 E2.97673
G1 X17.139 Y50.295 E3.00671
G1 X16.72 Y50.671 E3.0348
G1 X16.335 Y50.991 E3.05978
G1 X15.823 Y51.384 E3.09198
G1 X15.334 Y51.729 E3.12184
G1 X14.763 Y52.093 E3.15562
G1 X13.938 Y52.556 E3.20282
G1 X13.473 Y52.787 E3.22872
G1 X12.884 Y53.05 E3.2609
G1 X12.304 Y53.279 E3.29201
G1 X11.71 Y53.485 E3.32338
G1 X11.245 Y53.625 E3.34761
G1 X10.75 Y53.755 E3.37314
G1 X10.171 Y53.886 E3.40276
G1 X9.651 Y53.981 E3.42913
G1 X9.026 Y54.071 E3.46063
G1 X8.385 Y54.134 E3.49277
G1 X7.4 Y54.174 E3.54195
G1 X6.837 Y54.166 E3.57004
G1 X6.273 Y54.136 E3.59822
G1 X5.701 Y54.084 E3.62687
G1 X5.142 Y54.009 E3.65501
G1 X4.646 Y53.924 E3.68012
G1 X4.03 Y53.795 E3.71152
G1 X3.441 Y53.643 E3.74186
G1 X2.929 Y53.489 E3.76854
G1 X2.384 Y53.304 E3.79725
G1 X1.875 Y53.108 E3.82446
G1 X1.379 Y52.894 E3.85141
G1 X0.86 Y52.646 E3.88011
G1 X0.315 Y52.36 E3.91082
G1 X-.139 Y52.095 E3.93704
G1 X-.681 Y51.751 E3.96907
G1 X-1.198 Y51.389 E4.00056
G1 X-1.962 Y50.789 E4.04902
G1 X-2.346 Y50.452 E4.07451
G1 X-2.791 Y50.032 E4.10504
G1 X-3.208 Y49.604 E4.13485
G1 X-3.571 Y49.201 E4.16191
G1 X-3.901 Y48.805 E4.18763
G1 X-3.993 Y48.689 E4.19502
G1 X-4.995 Y47.375 E4.27746
G1 X-6.671 Y45.243 E4.41276
G1 X-8.373 Y43.198 E4.54549
G1 X-10.207 Y41.119 E4.68381
G1 X-12.022 Y39.172 E4.8166
G1 X-13.4 Y37.778 E4.91439
G1 X-14.241 Y36.918 E4.9744
G1 X-14.626 Y36.467 E5.00399
G1 X-14.947 Y35.969 E5.03355
G1 X-15.199 Y35.431 E5.06319
G1 X-15.375 Y34.865 E5.09276
G1 X-15.474 Y34.281 E5.12231
G1 X-15.493 Y33.688 E5.15191
G1 X-15.458 Y33.264 E5.17314
G1 X-15.303 Y32.096 E5.23192
G1 X-15.193 Y31.338 E5.27013
G1 X-14.844 Y28.308 E5.4223
G1 X-14.821 Y28.086 E5.43343
G1 X-14.72 Y27.501 E5.46305
G1 X-14.516 Y26.863 E5.49647
G1 X-14.334 Y26.4 E5.52129
G1 X-9.506 Y14.572 E6.15866
G1 X-8.864 Y13.083 E6.23955
G1 X-8.597 Y12.528 E6.27028
G1 X-8.271 Y11.938 E6.30391
G1 X-7.967 Y11.437 E6.33315
G1 X-7.689 Y11.019 E6.35819
G1 X-7.362 Y10.563 E6.38619
G1 X-7.031 Y10.137 E6.4131
G1 X-6.711 Y9.752 E6.43808
G1 X-6.363 Y9.365 E6.46404
G1 X-5.98 Y8.968 E6.49156
G1 X-5.541 Y8.551 E6.52177
G1 X-5.193 Y8.243 E6.54496
G1 X-4.704 Y7.842 E6.57651
G1 X-4.378 Y7.594 E6.59694
G1 X-3.953 Y7.293 E6.62292
G1 X-3.511 Y7.001 E6.64935
G1 X-2.971 Y6.675 E6.68082
G1 X-2.448 Y6.393 E6.71047
G1 X-2.29 Y6.317 E6.71921
G1 X-1.409 Y5.91 E6.76763
G1 X-.783 Y5.676 E6.80097
G1 X-.541 Y5.606 E6.81354
G1 X0.727 Y5.217 E6.87971
G1 X1.96 Y4.853 E6.94385
M204 S3000
G0 F3000 X2.073 Y5.237
M204 S1500
G1 F1200 X2.79 Y5.087 E6.9804
G1 X3.296 Y5.034 E7.00578
G1 X3.646 Y5.02 E7.02325
G1 X4.527 Y4.97 E7.06728
G1 X4.652 Y4.972 E7.07352
G1 X5.985 Y4.908 E7.1401
G1 X6.491 Y4.915 E7.16534
G1 X7.146 Y4.99 E7.19823
G1 X8.485 Y5.244 E7.26623
G1 X9.881 Y5.525 E7.33727
G1 X10.543 Y5.71 E7.37157
G1 X11.034 Y5.904 E7.3979
G1 X11.429 Y6.09 E7.41969
G1 X12.207 Y6.445 E7.46235
G1 X13.496 Y7.046 E7.53331
G1 X14.133 Y7.408 E7.56986
G1 X14.539 Y7.698 E7.59475
G1 X15.1 Y8.154 E7.63082
G1 X16.345 Y9.15 E7.71036
G1 X17.002 Y9.702 E7.75317
G1 X17.44 Y10.14 E7.78408
G1 X17.884 Y10.622 E7.81677
G1 X18.289 Y11.114 E7.84856
G1 X18.615 Y11.544 E7.87549
G1 X18.966 Y12.05 E7.90621
G1 X19.195 Y12.406 E7.92733
G1 X19.522 Y12.961 E7.95947
G1 X19.922 Y13.733 E8.00284
G1 X20.156 Y14.247 E8.03102
G1 X20.366 Y14.764 E8.05886
G1 X20.523 Y15.186 E8.08132
G1 X20.709 Y15.765 E8.11166
G1 X20.823 Y16.167 E8.13251
G1 X20.968 Y16.76 E8.16297
G1 X21.049 Y17.153 E8.18299
G1 X21.158 Y17.796 E8.21552
G1 X21.2 Y18.103 E8.23098
G1 X21.267 Y18.667 E8.25932
G1 X21.622 Y21.35 E8.39434
G1 X22.009 Y23.77 E8.51661
G1 X22.092 Y24.253 E8.54106
G1 X22.148 Y24.81 E8.56899
G1 X22.16 Y25.262 E8.59154
G1 X22.16 Y38.698 E9.26187
G1 X22.149 Y39.405 E9.29715
G1 X22.1 Y39.968 E9.32534
G1 X21.905 Y40.717 E9.36395
G1 X21.783 Y41.051 E9.38169
G1 X20.623 Y44.104 E9.54463
G1 X20.465 Y44.542 E9.56786
G1 X20.266 Y45.06 E9.59555
G1 X20.046 Y45.569 E9.62321
G1 X19.814 Y46.056 E9.65012
G1 X19.541 Y46.575 E9.67938
G1 X19.275 Y47.031 E9.70572
G1 X18.951 Y47.542 E9.73591
G1 X18.594 Y48.052 E9.76696
G1 X18.008 Y48.798 E9.81429
G1 X17.604 Y49.256 E9.84476
G1 X17.191 Y49.687 E9.87454
G1 X16.872 Y49.997 E9.89673
G1 X16.453 Y50.373 E9.92482
G1 X15.974 Y50.766 E9.95573
G1 X15.468 Y51.148 E9.98736
G1 X14.697 Y51.664 E10.03365
G1 X14.164 Y51.979 E10.06454
G1 X13.589 Y52.286 E10.09706
G1 X12.722 Y52.684 E10.14465
G1 X12.171 Y52.902 E10.17421
G1 X11.592 Y53.103 E10.20479
G1 X11.143 Y53.238 E10.22818
G1 X10.544 Y53.394 E10.25906
G1 X10.099 Y53.493 E10.28181
G1 X9.579 Y53.588 E10.30818
G1 X8.985 Y53.673 E10.33812
G1 X8.359 Y53.735 E10.3695
G1 X7.39 Y53.774 E10.41788
G1 X6.848 Y53.766 E10.44493
G1 X6.297 Y53.736 E10.47246
G1 X5.754 Y53.687 E10.49966
G1 X5.195 Y53.612 E10.5278
G1 X4.599 Y53.507 E10.55799
G1 X3.918 Y53.358 E10.59277
G1 X3.556 Y53.259 E10.61149
G1 X2.931 Y53.07 E10.64407
G1 X2.528 Y52.931 E10.66533
G1 X2.019 Y52.735 E10.69255
G1 X1.541 Y52.528 E10.71853
G1 X1.034 Y52.286 E10.74656
G1 X0.517 Y52.015 E10.77568
G1 X0.063 Y51.75 E10.80191
G1 X-.453 Y51.422 E10.83241
G1 X-.958 Y51.068 E10.86318
G1 X-1.71 Y50.479 E10.91084
G1 X-2.164 Y50.076 E10.94112
G1 X-2.617 Y49.641 E10.97246
G1 X-2.911 Y49.336 E10.99359
G1 X-3.274 Y48.933 E11.02065
G1 X-3.675 Y48.446 E11.05212
G1 X-4.641 Y47.179 E11.13161
G1 X-6.365 Y44.986 E11.27078
G1 X-8.082 Y42.923 E11.40469
G1 X-9.881 Y40.884 E11.54035
G1 X-11.762 Y38.866 E11.67798
G1 X-13.326 Y37.281 E11.78907
G1 X-13.955 Y36.638 E11.83395
G1 X-14.321 Y36.207 E11.86216
G1 X-14.622 Y35.729 E11.89034
G1 X-14.853 Y35.213 E11.91855
G1 X-15.009 Y34.669 E11.94678
G1 X-15.087 Y34.109 E11.97499
G1 X-15.062 Y33.317 E12.01452
G1 X-14.907 Y32.153 E12.07311
G1 X-14.799 Y31.408 E12.11066
G1 X-14.441 Y28.303 E12.2666
G1 X-14.423 Y28.127 E12.27543
G1 X-14.325 Y27.57 E12.30364
G1 X-14.14 Y27.001 E12.33349
G1 X-13.964 Y26.551 E12.3576
G1 X-9.139 Y14.73 E12.99459
G1 X-8.497 Y13.241 E13.07548
G1 X-8.239 Y12.707 E13.10507
G1 X-7.922 Y12.134 E13.13774
G1 X-7.634 Y11.659 E13.16545
G1 X-7.356 Y11.241 E13.1905
G1 X-7.047 Y10.809 E13.217
G1 X-6.716 Y10.383 E13.24391
G1 X-6.413 Y10.019 E13.26754
G1 X-6.065 Y9.632 E13.29351
G1 X-5.703 Y9.257 E13.31951
G1 X-5.272 Y8.847 E13.34919
G1 X-4.939 Y8.551 E13.37142
G1 X-4.548 Y8.229 E13.39669
G1 X-4.147 Y7.921 E13.42191
G1 X-3.633 Y7.559 E13.45328
G1 X-3.303 Y7.343 E13.47296
G1 X-2.773 Y7.023 E13.50384
G1 X-2.266 Y6.75 E13.53257
G1 X-2.123 Y6.68 E13.54051
G1 X-1.242 Y6.273 E13.58893
G1 X-.672 Y6.06 E13.61929
G1 X-.422 Y5.988 E13.63227
G1 X0.84 Y5.601 E13.69812
G1 X2.073 Y5.237 E13.76226
M204 S3000
G0 F3000 X2.187 Y5.62
M204 S1500
G1 F1200 X2.856 Y5.481 E13.79635
G1 X3.688 Y5.419 E13.83798
G1 X4.55 Y5.37 E13.88105
G1 X4.651 Y5.372 E13.88609
G1 X6.004 Y5.307 E13.95367
G1 X6.687 Y5.332 E13.98777
G1 X7.072 Y5.384 E14.00715
G1 X8.406 Y5.636 E14.07488
G1 X9.802 Y5.917 E14.14592
G1 X10.422 Y6.091 E14.17805
G1 X11.263 Y6.454 E14.22375
G1 X12.038 Y6.807 E14.26624
G1 X13.327 Y7.408 E14.33719
G1 X13.921 Y7.748 E14.37134
G1 X14.287 Y8.008 E14.39374
G1 X14.848 Y8.464 E14.42981
G1 X16.098 Y9.465 E14.5097
G1 X16.719 Y9.985 E14.55011
G1 X17.151 Y10.417 E14.58059
G1 X17.584 Y10.887 E14.61247
G1 X17.979 Y11.367 E14.64348
G1 X18.287 Y11.772 E14.66887
G1 X18.632 Y12.27 E14.69909
G1 X18.851 Y12.609 E14.71923
G1 X19.125 Y13.073 E14.74611
G1 X19.564 Y13.912 E14.79335
G1 X19.785 Y14.398 E14.81999
G1 X19.993 Y14.908 E14.84747
G1 X20.142 Y15.309 E14.86881
G1 X20.325 Y15.879 E14.89868
G1 X20.435 Y16.262 E14.91856
G1 X20.577 Y16.845 E14.9485
G1 X20.655 Y17.221 E14.96765
G1 X20.762 Y17.852 E14.99958
G1 X20.803 Y18.15 E15.01459
G1 X20.865 Y18.676 E15.04101
G1 X21.229 Y21.425 E15.17936
G1 X21.607 Y23.792 E15.29895
G1 X21.698 Y24.321 E15.32573
G1 X21.748 Y24.822 E15.35085
G1 X21.76 Y25.262 E15.37281
G1 X21.76 Y38.692 E16.04283
G1 X21.749 Y39.399 E16.07811
G1 X21.7 Y39.933 E16.10486
G1 X21.53 Y40.58 E16.13824
G1 X21.409 Y40.909 E16.15572
G1 X20.263 Y43.924 E16.31664
G1 X20.092 Y44.399 E16.34183
G1 X19.893 Y44.917 E16.36951
G1 X19.682 Y45.405 E16.39604
G1 X19.454 Y45.883 E16.42246
G1 X19.196 Y46.374 E16.45013
G1 X18.93 Y46.83 E16.47647
G1 X18.622 Y47.314 E16.50509
G1 X18.273 Y47.813 E16.53547
G1 X17.698 Y48.545 E16.58191
G1 X17.314 Y48.98 E16.61086
G1 X16.91 Y49.403 E16.64004
G1 X16.604 Y49.699 E16.66128
G1 X16.185 Y50.075 E16.68937
G1 X15.732 Y50.448 E16.71864
G1 X15.237 Y50.822 E16.7496
G1 X14.48 Y51.328 E16.79502
G1 X13.974 Y51.628 E16.82437
G1 X13.415 Y51.926 E16.85597
G1 X12.56 Y52.318 E16.9029
G1 X12.038 Y52.525 E16.93092
G1 X11.474 Y52.721 E16.9607
G1 X11.041 Y52.851 E16.98326
G1 X10.453 Y53.004 E17.01357
G1 X10.027 Y53.099 E17.03535
G1 X9.507 Y53.194 E17.06172
G1 X8.944 Y53.275 E17.0901
G1 X8.333 Y53.335 E17.12073
G1 X7.381 Y53.374 E17.16826
G1 X6.859 Y53.367 E17.19431
G1 X6.32 Y53.337 E17.22124
G1 X5.807 Y53.291 E17.24694
G1 X5.248 Y53.216 E17.27507
G1 X4.682 Y53.116 E17.30375
G1 X4.02 Y52.971 E17.33756
G1 X3.671 Y52.876 E17.3556
G1 X3.058 Y52.69 E17.38756
G1 X2.671 Y52.558 E17.40796
G1 X2.162 Y52.362 E17.43518
G1 X1.703 Y52.163 E17.46014
G1 X1.208 Y51.926 E17.48752
G1 X0.718 Y51.669 E17.51512
G1 X0.264 Y51.404 E17.54135
G1 X-.224 Y51.094 E17.57019
G1 X-.719 Y50.748 E17.60032
G1 X-1.459 Y50.168 E17.64723
G1 X-1.889 Y49.786 E17.67592
G1 X-2.331 Y49.362 E17.70648
G1 X-2.614 Y49.068 E17.72684
G1 X-2.977 Y48.665 E17.7539
G1 X-3.357 Y48.204 E17.7837
G1 X-4.359 Y46.89 E17.86615
G1 X-6.041 Y44.75 E18.00194
G1 X-7.791 Y42.648 E18.1384
G1 X-9.589 Y40.61 E18.27399
G1 X-11.451 Y38.613 E18.41021
G1 X-13.04 Y37.002 E18.5231
G1 X-13.669 Y36.359 E18.56797
G1 X-14.015 Y35.948 E18.59478
G1 X-14.295 Y35.491 E18.62152
G1 X-14.505 Y34.998 E18.64825
G1 X-14.639 Y34.478 E18.67504
G1 X-14.694 Y33.945 E18.70177
G1 X-14.665 Y33.369 E18.73055
G1 X-14.512 Y32.211 E18.78882
G1 X-14.396 Y31.412 E18.8291
G1 X-14.017 Y28.128 E18.99403
G1 X-13.93 Y27.64 E19.01876
G1 X-13.765 Y27.138 E19.04512
G1 X-13.593 Y26.702 E19.06851
G1 X-8.772 Y14.889 E19.70505
G1 X-8.13 Y13.4 E19.78595
G1 X-7.882 Y12.887 E19.81437
G1 X-7.574 Y12.329 E19.84617
G1 X-7.301 Y11.88 E19.87239
G1 X-7.023 Y11.462 E19.89743
G1 X-6.731 Y11.054 E19.92247
G1 X-6.4 Y10.628 E19.94938
G1 X-6.116 Y10.287 E19.97152
G1 X-5.694 Y9.82 E20.00292
G1 X-5.073 Y9.208 E20.04642
G1 X-4.685 Y8.86 E20.07242
G1 X-4.294 Y8.538 E20.09769
G1 X-3.916 Y8.247 E20.12149
G1 X-3.411 Y7.891 E20.15232
G1 X-3.096 Y7.685 E20.1711
G1 X-2.575 Y7.371 E20.20145
G1 X-2.084 Y7.106 E20.22928
G1 X-1.955 Y7.043 E20.23644
G1 X-1.074 Y6.636 E20.28486
G1 X-.561 Y6.445 E20.31217
G1 X-.319 Y6.375 E20.32474
G1 X0.954 Y5.984 E20.39118
G1 X2.187 Y5.62 E20.45532
M204 S3000
G0 F3000 X2.3 Y6.004
M204 S1500
G1 F1200 X2.923 Y5.876 E20.48705
G1 X3.675 Y5.82 E20.52467
G1 X4.573 Y5.769 E20.56954
G1 X4.678 Y5.771 E20.57478
G1 X6.023 Y5.707 E20.64196
G1 X6.656 Y5.731 E20.67356
G1 X6.998 Y5.777 E20.69078
G1 X8.327 Y6.028 E20.75826
G1 X9.723 Y6.309 E20.8293
G1 X10.3 Y6.472 E20.85921
G1 X11.118 Y6.827 E20.9037
G1 X11.869 Y7.17 E20.94489
G1 X13.158 Y7.771 E21.01585
G1 X13.71 Y8.087 E21.04758
G1 X14.034 Y8.319 E21.06746
G1 X14.595 Y8.775 E21.10353
G1 X15.851 Y9.779 E21.18375
G1 X16.437 Y10.268 E21.22183
G1 X16.861 Y10.693 E21.25178
G1 X17.284 Y11.151 E21.28288
G1 X17.669 Y11.62 E21.31315
G1 X17.959 Y12 E21.337
G1 X18.298 Y12.49 E21.36673
G1 X18.506 Y12.813 E21.3859
G1 X18.822 Y13.35 E21.41698
G1 X19.206 Y14.091 E21.45862
G1 X19.415 Y14.549 E21.48374
G1 X19.62 Y15.053 E21.51088
G1 X19.761 Y15.432 E21.53105
G1 X19.942 Y15.992 E21.56042
G1 X20.046 Y16.358 E21.5794
G1 X20.186 Y16.931 E21.60883
G1 X20.261 Y17.288 E21.62703
G1 X20.366 Y17.908 E21.6584
G1 X20.406 Y18.198 E21.673
G1 X20.474 Y18.772 E21.70184
G1 X20.831 Y21.468 E21.83752
G1 X21.213 Y23.859 E21.95832
G1 X21.304 Y24.388 E21.9851
G1 X21.359 Y25.165 E22.02396
G1 X21.36 Y38.686 E22.69853
G1 X21.349 Y39.393 E22.7338
G1 X21.301 Y39.896 E22.75901
G1 X21.154 Y40.442 E22.78722
G1 X21.035 Y40.767 E22.80449
G1 X19.875 Y43.82 E22.96743
G1 X19.718 Y44.256 E22.99055
G1 X19.48 Y44.871 E23.02345
G1 X19.093 Y45.71 E23.06954
G1 X18.85 Y46.172 E23.09559
G1 X18.584 Y46.628 E23.12192
G1 X18.294 Y47.086 E23.14897
G1 X17.953 Y47.573 E23.17863
G1 X17.388 Y48.293 E23.22429
G1 X17.024 Y48.705 E23.25172
G1 X16.629 Y49.118 E23.28023
G1 X16.337 Y49.402 E23.30055
G1 X15.918 Y49.778 E23.32864
G1 X15.49 Y50.13 E23.35629
G1 X15.006 Y50.495 E23.38653
G1 X14.263 Y50.992 E23.43113
G1 X13.783 Y51.276 E23.45895
G1 X13.24 Y51.566 E23.48966
G1 X12.398 Y51.953 E23.53589
G1 X11.905 Y52.148 E23.56234
G1 X11.356 Y52.339 E23.59134
G1 X10.94 Y52.464 E23.61302
G1 X10.361 Y52.615 E23.64287
G1 X9.955 Y52.706 E23.66363
G1 X9.435 Y52.801 E23.69
G1 X8.903 Y52.877 E23.71681
G1 X8.307 Y52.936 E23.74669
G1 X7.371 Y52.974 E23.79343
G1 X6.87 Y52.967 E23.81842
G1 X6.343 Y52.938 E23.84475
G1 X5.86 Y52.895 E23.86895
G1 X5.301 Y52.82 E23.89709
G1 X4.765 Y52.724 E23.92425
G1 X4.122 Y52.584 E23.95708
G1 X3.786 Y52.493 E23.97445
G1 X3.184 Y52.311 E24.00583
G1 X2.815 Y52.184 E24.0253
G1 X2.306 Y51.988 E24.05251
G1 X1.773 Y51.754 E24.08155
G1 X1.302 Y51.526 E24.10766
G1 X0.92 Y51.324 E24.12921
G1 X0.466 Y51.059 E24.15544
G1 X0.004 Y50.765 E24.18276
G1 X-.48 Y50.427 E24.21221
G1 X-1.207 Y49.857 E24.2583
G1 X-1.613 Y49.496 E24.28541
G1 X-2.045 Y49.082 E24.31526
G1 X-2.317 Y48.801 E24.33477
G1 X-2.68 Y48.398 E24.36183
G1 X-3.039 Y47.961 E24.39004
G1 X-4.041 Y46.647 E24.47249
G1 X-5.738 Y44.487 E24.60953
G1 X-7.467 Y42.411 E24.74432
G1 X-9.296 Y40.338 E24.88224
G1 X-11.174 Y38.323 E25.01966
G1 X-12.542 Y36.939 E25.11675
G1 X-13.383 Y36.079 E25.17676
G1 X-13.707 Y35.691 E25.20198
G1 X-13.966 Y35.256 E25.22723
G1 X-14.153 Y34.787 E25.25242
G1 X-14.264 Y34.293 E25.27768
