;FLAVOR:Marlin
;TIME:1285
;Filament used: 0.403724m
;Layer height: 0.2
;Generated with Cura_SteamEngine 3.6.0
M140 S30
M105
M190 S30
M104 S220
M105
M109 S220
M82 ;absolute extrusion mode
G21 ;metric values
G90 ;absolute positioning
M82 ;set extruder to absolute mode
M107 ;start with the fan off
G28 X0 Y0 ;move X/Y to min endstops
G28 Z0 ;move Z to min endstops
G1 Z15.0 F120 ;move the platform down 15mm
G92 E0 ;zero the extruded length
G1 F200 E3 ;extrude 3mm of feed stock
G92 E0 ;zero the extruded length again
G1 F120
M117 Printing...
G5
G92 E0
G1 F2400 E-6
;LAYER_COUNT:38
;LAYER:-5
M107
M204 S3000
M205 X10 Y10
G0 F7200 X38.254 Y150.276 Z0.24
M204 S1800
M205 X8 Y8
;TYPE:SUPPORT-INTERFACE
G1 F2400 E0
G1 F225 X38.461 Y150.227 E0.02394
G1 X39.311 Y150.076 E0.12111
G1 X40.165 Y149.997 E0.21764
G1 X40.612 Y149.975 E0.26801
G1 X41.455 Y149.972 E0.36289
G1 X41.629 Y149.978 E0.38249
G1 X42.376 Y150.042 E0.46687
G1 X43.182 Y150.159 E0.55854
G1 X43.383 Y150.198 E0.58159
G1 X44.018 Y150.352 E0.65513
G1 X44.193 Y150.403 E0.67565
G1 X44.806 Y150.611 E0.7485
G1 X45.017 Y150.693 E0.77398
G1 X45.563 Y150.935 E0.8412
G1 X45.757 Y151.031 E0.86556
G1 X46.318 Y151.342 E0.93776
G1 X46.492 Y151.449 E0.96075
G1 X47.023 Y151.809 E1.03296
G1 X47.191 Y151.933 E1.05646
G1 X47.566 Y152.24 E1.111
G1 X48.125 Y152.641 E1.18844
G1 X48.749 Y152.978 E1.26826
G1 X49.409 Y153.232 E1.34785
G1 X50.097 Y153.403 E1.42764
G1 X50.801 Y153.484 E1.5074
G1 X51.508 Y153.477 E1.58698
G1 X52.21 Y153.38 E1.66674
G1 X52.893 Y153.195 E1.74639
G1 X53.549 Y152.925 E1.82623
G1 X54.17 Y152.572 E1.90663
G1 X54.923 Y151.977 E2.01465
G1 X55.396 Y151.53 E2.08789
G1 X56.063 Y150.945 E2.18775
G1 X56.05 Y150.932 E2.18982
G1 X56.525 Y150.515 E2.26096
G1 X56.692 Y150.38 E2.28513
G1 X57.212 Y150.001 E2.35755
G1 X57.383 Y149.887 E2.38068
G1 X57.918 Y149.565 E2.45097
G1 X58.085 Y149.474 E2.47237
G1 X58.673 Y149.189 E2.54592
G1 X58.86 Y149.108 E2.56885
G1 X59.455 Y148.881 E2.64053
G1 X59.64 Y148.821 E2.66242
G1 X60.255 Y148.648 E2.73433
G1 X60.462 Y148.599 E2.75827
G1 X61.312 Y148.448 E2.85544
G1 X62.166 Y148.369 E2.95197
G1 X62.613 Y148.347 E3.00234
G1 X63.456 Y148.344 E3.09722
G1 X63.63 Y148.35 E3.11681
G1 X64.377 Y148.414 E3.2012
G1 X65.183 Y148.531 E3.29287
G1 X65.384 Y148.57 E3.31591
G1 X66.019 Y148.724 E3.38945
G1 X66.194 Y148.775 E3.40997
G1 X66.807 Y148.983 E3.48283
G1 X67.018 Y149.065 E3.50831
G1 X67.564 Y149.307 E3.57553
G1 X67.758 Y149.403 E3.59989
G1 X68.319 Y149.714 E3.67208
G1 X68.493 Y149.821 E3.69508
G1 X69.024 Y150.181 E3.76728
G1 X69.169 Y150.288 E3.78756
G1 X69.687 Y150.711 E3.86284
G1 X69.831 Y150.84 E3.8846
G1 X70.143 Y151.146 E3.93378
G1 X70.413 Y151.39 E3.97474
G1 X70.867 Y151.786 E4.04255
G1 X71.188 Y152.103 E4.09332
G1 X71.368 Y152.292 E4.1227
G1 X71.945 Y152.95 E4.2212
G1 X72.241 Y153.337 E4.27604
G1 X72.404 Y153.566 E4.30768
G1 X72.788 Y154.148 E4.38616
G1 X72.89 Y154.315 E4.40818
G1 X73.174 Y154.831 E4.47447
G1 X73.536 Y155.585 E4.56861
G1 X73.757 Y156.133 E4.63512
G1 X73.859 Y156.422 E4.66961
G1 X74.114 Y157.256 E4.76777
G1 X74.255 Y157.88 E4.83977
G1 X74.237 Y157.884 E4.84185
G1 X74.328 Y158.256 E4.88495
G1 X74.38 Y158.527 E4.91601
G1 X74.394 Y158.527 E4.91759
G1 X74.457 Y158.786 E4.94759
G1 X74.58 Y159.408 E5.01895
G1 X74.617 Y159.661 E5.04773
G1 X74.681 Y160.283 E5.11811
G1 X74.692 Y160.471 E5.1393
G1 X74.701 Y161.088 E5.20875
G1 X74.694 Y161.324 E5.23533
G1 X74.647 Y161.95 E5.30598
G1 X74.625 Y162.134 E5.32684
G1 X74.523 Y162.756 E5.39778
G1 X74.473 Y162.988 E5.4245
G1 X74.318 Y163.587 E5.49413
G1 X74.254 Y163.795 E5.51863
G1 X74.046 Y164.376 E5.58809
G1 X73.961 Y164.588 E5.61379
G1 X73.744 Y165.072 E5.67349
G1 X73.551 Y165.467 E5.72297
G1 X73.123 Y166.251 E5.82351
G1 X72.887 Y166.621 E5.8729
G1 X72.61 Y167.033 E5.92878
G1 X72.176 Y167.622 E6.01113
G1 X72.052 Y167.774 E6.03321
G1 X71.645 Y168.234 E6.10234
G1 X71.478 Y168.407 E6.1294
G1 X71.025 Y168.835 E6.19954
G1 X70.868 Y168.971 E6.22292
G1 X70.382 Y169.354 E6.29257
G1 X70.216 Y169.474 E6.31562
G1 X69.671 Y169.829 E6.38883
G1 X69.492 Y169.935 E6.41224
G1 X68.942 Y170.227 E6.48233
G1 X68.756 Y170.315 E6.50549
G1 X68.148 Y170.572 E6.57978
G1 X67.979 Y170.635 E6.60008
G1 X67.363 Y170.833 E6.67291
G1 X66.872 Y170.981 E6.73063
G1 X66.385 Y171.143 E6.78839
G1 X65.655 Y171.345 E6.87364
G1 X65.165 Y171.449 E6.93002
G1 X64.909 Y171.495 E6.9593
G1 X64.075 Y171.608 E7.05402
G1 X63.561 Y171.643 E7.11201
G1 X63.221 Y171.653 E7.15029
G1 X62.373 Y171.644 E7.24574
G1 X61.611 Y171.574 E7.33187
G1 X60.91 Y171.468 E7.41167
G1 X60.683 Y171.423 E7.43771
G1 X59.959 Y171.245 E7.52163
G1 X59.59 Y171.138 E7.56487
G1 X59.21 Y171.01 E7.61
G1 X59.21 Y171.004 E7.61068
G1 X58.471 Y170.789 E7.6973
G1 X57.863 Y170.584 E7.76952
G1 X57.674 Y170.511 E7.79232
G1 X57.079 Y170.247 E7.86559
G1 X56.92 Y170.169 E7.88552
G1 X56.336 Y169.846 E7.96063
G1 X55.672 Y169.44 E8.04823
G1 X55.666 Y169.446 E8.04919
G1 X55.556 Y169.382 E8.06351
G1 X54.905 Y169.103 E8.14323
G1 X54.224 Y168.91 E8.2229
G1 X53.524 Y168.802 E8.30261
G1 X52.816 Y168.785 E8.38232
G1 X52.112 Y168.857 E8.46197
G1 X51.422 Y169.017 E8.5417
G1 X50.758 Y169.264 E8.62143
G1 X50.131 Y169.591 E8.70103
G1 X49.554 Y169.992 E8.78011
G1 X49.187 Y170.311 E8.83484
G1 X49.04 Y170.45 E8.85761
G1 X48.872 Y170.596 E8.88266
G1 X48.387 Y170.981 E8.95236
G1 X48.238 Y171.088 E8.97301
G1 X47.683 Y171.452 E9.04771
G1 X47.52 Y171.549 E9.06906
G1 X46.953 Y171.851 E9.14136
G1 X46.751 Y171.947 E9.16653
G1 X46.189 Y172.186 E9.23527
G1 X45.981 Y172.264 E9.26027
G1 X45.409 Y172.447 E9.32787
G1 X44.872 Y172.61 E9.39103
G1 X44.393 Y172.769 E9.44784
G1 X43.566 Y172.996 E9.54436
G1 X42.967 Y173.115 E9.6131
G1 X42.781 Y173.144 E9.63429
G1 X41.937 Y173.249 E9.73001
G1 X41.521 Y173.273 E9.77691
G1 X41.178 Y173.282 E9.81553
G1 X40.201 Y173.262 E9.92552
G1 X40.07 Y173.25 E9.94032
G1 X39.056 Y173.122 E10.05536
G1 X38.823 Y173.079 E10.08202
G1 X38.125 Y172.924 E10.1625
G1 X37.925 Y172.869 E10.18585
G1 X37.36 Y172.69 E10.25255
G1 X37.364 Y172.674 E10.25441
G1 X36.467 Y172.416 E10.35946
G1 X35.896 Y172.224 E10.42726
G1 X35.679 Y172.141 E10.45341
G1 X35.119 Y171.896 E10.52221
G1 X34.926 Y171.801 E10.54642
G1 X34.369 Y171.495 E10.61795
G1 X34.183 Y171.381 E10.64251
G1 X33.646 Y171.02 E10.71533
G1 X33.517 Y170.925 E10.73337
G1 X33.009 Y170.512 E10.80705
G1 X32.844 Y170.366 E10.83185
G1 X32.416 Y169.95 E10.89903
G1 X32.254 Y169.775 E10.92587
G1 X31.532 Y168.9 E11.05355
G1 X30.958 Y168.031 E11.17077
G1 X30.676 Y167.551 E11.23343
G1 X30.177 Y166.585 E11.3558
G1 X30.084 Y166.372 E11.38196
G1 X29.828 Y165.728 E11.45996
G1 X29.759 Y165.531 E11.48346
G1 X29.576 Y164.915 E11.55578
G1 X29.534 Y164.744 E11.5756
G1 X29.402 Y164.097 E11.64992
G1 X29.37 Y163.892 E11.67328
G1 X29.303 Y163.285 E11.74201
G1 X29.288 Y163.046 E11.76896
G1 X29.275 Y162.412 E11.84034
G1 X29.279 Y162.252 E11.85835
G1 X29.326 Y161.574 E11.93484
G1 X29.347 Y161.394 E11.95524
G1 X29.448 Y160.759 E12.02761
G1 X29.487 Y160.568 E12.04955
G1 X29.606 Y160.1 E12.1039
G1 X29.774 Y159.295 E12.19646
G1 X29.917 Y158.726 E12.26249
G1 X30.102 Y158.098 E12.33618
G1 X30.312 Y157.521 E12.40529
G1 X30.81 Y156.449 E12.53833
G1 X30.938 Y156.215 E12.56835
G1 X31.389 Y155.464 E12.66695
G1 X31.629 Y155.118 E12.71434
G1 X31.807 Y154.878 E12.74797
G1 X32.443 Y154.098 E12.86125
G1 X33.186 Y153.352 E12.97975
G1 X33.329 Y153.219 E13.00173
G1 X33.345 Y153.238 E13.00453
G1 X33.649 Y152.945 E13.05205
G1 X33.904 Y152.728 E13.08974
G1 X33.892 Y152.71 E13.09217
G1 X34.054 Y152.554 E13.11748
G1 X34.515 Y152.15 E13.18647
G1 X34.691 Y152.008 E13.21193
G1 X35.211 Y151.629 E13.28435
G1 X35.376 Y151.519 E13.30667
G1 X35.917 Y151.193 E13.37776
G1 X36.084 Y151.102 E13.39917
G1 X36.664 Y150.821 E13.47171
G1 X36.864 Y150.734 E13.49625
G1 X37.454 Y150.509 E13.56732
G1 X37.639 Y150.449 E13.58921
G1 X38.254 Y150.276 E13.66112
M204 S3000
M205 X10 Y10
G0 F7200 X38.4 Y150.241
M204 S1800
M205 X8 Y8
G1 F225 X38.4 Y172.985 E16.22101
M204 S3000
M205 X10 Y10
G0 F7200 X40.8 Y173.274
M204 S1800
M205 X8 Y8
G1 F225 X40.8 Y149.974 E18.84348
M204 S3000
M205 X10 Y10
G0 F7200 X43.2 Y150.163
M204 S1800
M205 X8 Y8
G1 F225 X43.2 Y173.069 E21.4216
M204 S3000
M205 X10 Y10
G0 F7200 X45.6 Y172.386
M204 S1800
M205 X8 Y8
G1 F225 X45.6 Y150.954 E23.83382
M204 S3000
M205 X10 Y10
G0 F7200 X48 Y152.552
M204 S1800
M205 X8 Y8
G1 F225 X48 Y171.245 E25.93776
M204 S3000
M205 X10 Y10
G0 F7200 X50.4 Y169.451
M204 S1800
M205 X8 Y8
G1 F225 X50.4 Y153.438 E27.74006
M204 S3000
M205 X10 Y10
G0 F7200 X52.8 Y153.22
M204 S1800
M205 X8 Y8
G1 F225 X52.8 Y168.787 E29.49216
M204 S3000
M205 X10 Y10
G0 F7200 X55.2 Y169.229
M204 S1800
M205 X8 Y8
G1 F225 X55.2 Y151.715 E31.4634
M204 S3000
M205 X10 Y10
G0 F7200 X57.6 Y149.756
M204 S1800
M205 X8 Y8
G1 F225 X57.6 Y170.478 E33.79571
M204 S3000
M205 X10 Y10
G0 F7200 X60 Y171.255
M204 S1800
M205 X8 Y8
G1 F225 X60 Y148.719 E36.33219
M204 S3000
M205 X10 Y10
G0 F7200 X62.4 Y148.357
M204 S1800
M205 X8 Y8
G1 F225 X62.4 Y171.644 E38.9532
M204 S3000
M205 X10 Y10
G0 F7200 X64.8 Y171.51
M204 S1800
M205 X8 Y8
G1 F225 X64.8 Y148.476 E41.54573
M204 S3000
M205 X10 Y10
G0 F7200 X67.2 Y149.146
M204 S1800
M205 X8 Y8
G1 F225 X67.2 Y170.883 E43.99228
M204 S3000
M205 X10 Y10
G0 F7200 X69.6 Y169.872
M204 S1800
M205 X8 Y8
G1 F225 X69.6 Y150.64 E46.15688
M204 S3000
M205 X10 Y10
G0 F7200 X72 Y153.022
M204 S1800
M205 X8 Y8
G1 F225 X72 Y167.833 E47.82389
M204 S3000
M205 X10 Y10
G0 F7200 X74.4 Y163.271
M204 S1800
M205 X8 Y8
G1 F225 X74.4 Y158.552 E48.35503
M204 S3000
M205 X10 Y10
G0 F7200 X36 Y151.147
M204 S1800
M205 X8 Y8
G1 F225 X36 Y172.258 E50.73112
M204 S3000
M205 X10 Y10
G0 F7200 X33.6 Y170.986
M204 S1800
M205 X8 Y8
G1 F225 X33.6 Y152.992 E52.75639
M204 S3000
M205 X10 Y10
G0 F7200 X31.2 Y155.778
M204 S1800
M205 X8 Y8
G1 F225 X31.2 Y168.397 E54.17668
M204 S3000
M205 X10 Y10
G0 F7200 X30.544 Y167.723
;TIME_ELAPSED:138.315624
;LAYER:-4
M140 S30
G0 X30.544 Y167.723 Z0.54
M204 S1800
M205 X8 Y8
;TYPE:SUPPORT
G1 F225 X34.758 Y171.937 E54.73565
G1 X34.274 Y171.671 E54.78745
G1 X34.079 Y171.551 E54.80892
G1 X33.548 Y171.195 E54.86888
G1 X33.383 Y171.073 E54.88813
G1 X32.872 Y170.658 E54.94987
G1 X32.724 Y170.527 E54.96841
G1 X32.261 Y170.076 E55.02904
G1 X32.117 Y169.921 E55.04888
G1 X31.37 Y169.016 E55.15894
G1 X30.788 Y168.136 E55.2579
M204 S3000
M205 X10 Y10
G0 F7200 X34.758 Y171.937
M204 S1800
M205 X8 Y8
G1 F225 X34.831 Y171.977 E55.26571
G1 X35.025 Y172.072 E55.28597
G1 X35.614 Y172.328 E55.3462
G1 X35.829 Y172.413 E55.36789
G1 X36.417 Y172.61 E55.42605
G1 X37.017 Y172.782 E55.4846
G1 X29.46 Y165.224 E56.48705
G1 X29.378 Y164.948 E56.51406
G1 X29.338 Y164.789 E56.52944
G1 X29.202 Y164.12 E56.59347
G1 X29.175 Y163.939 E56.61063
G1 X29.123 Y163.473 E56.65461
G1 X38.955 Y173.305 E57.95877
G1 X39.012 Y173.316 E57.96421
G1 X40.046 Y173.446 E58.06196
G1 X40.317 Y173.466 E58.08745
G1 X40.532 Y173.468 E58.10761
G1 X29.093 Y162.029 E59.62493
G1 X29.126 Y161.56 E59.66903
G1 X29.149 Y161.362 E59.68772
G1 X29.243 Y160.765 E59.74441
G1 X41.927 Y173.449 E61.42687
G1 X41.939 Y173.449 E61.42799
G1 X42.09 Y173.434 E61.44223
G1 X42.963 Y173.317 E61.52484
G1 X43.17 Y173.278 E61.5446
G1 X29.503 Y159.61 E63.35751
G1 X29.578 Y159.249 E63.39209
G1 X29.673 Y158.854 E63.4302
G1 X29.784 Y158.478 E63.46697
G1 X44.306 Y173 E65.39323
G1 X44.439 Y172.963 E65.40618
G1 X44.821 Y172.84 E65.44382
G1 X45.384 Y172.663 E65.49917
G1 X30.139 Y157.418 E67.52133
G1 X30.587 Y156.452 E67.6212
G1 X46.433 Y172.298 E69.72308
G1 X46.841 Y172.125 E69.76465
G1 X47.044 Y172.028 E69.78575
G1 X47.392 Y171.843 E69.82272
G1 X31.101 Y155.552 E71.98362
G1 X31.213 Y155.366 E72.00399
G1 X31.466 Y154.999 E72.0458
G1 X31.641 Y154.763 E72.07335
G1 X31.679 Y154.715 E72.0791
G1 X48.268 Y171.305 E74.2796
G1 X48.347 Y171.254 E74.28841
G1 X48.499 Y171.145 E74.30596
G1 X49.018 Y170.733 E74.36811
G1 X49.066 Y170.689 E74.37422
G1 X32.318 Y153.94 E76.59581
G1 X33.025 Y153.233 E76.68959
G1 X49.832 Y170.04 E78.91894
G1 X50.233 Y169.761 E78.96476
G1 X50.715 Y169.509 E79.01577
G1 X33.762 Y152.556 E81.26449
G1 X33.907 Y152.416 E81.28339
G1 X34.39 Y151.993 E81.34361
G1 X34.514 Y151.894 E81.35849
G1 X51.762 Y169.142 E83.64634
G1 X52.145 Y169.054 E83.6832
G1 X52.822 Y168.985 E83.74703
G1 X53.023 Y168.989 E83.76588
G1 X35.341 Y151.306 E86.11136
G1 X35.836 Y151.008 E86.16556
G1 X35.987 Y150.926 E86.18167
G1 X36.249 Y150.8 E86.20894
G1 X54.701 Y169.252 E88.65649
G1 X54.837 Y169.291 E88.66976
G1 X55.466 Y169.56 E88.73392
G1 X55.703 Y169.692 E88.75937
G1 X56.238 Y170.02 E88.81823
G1 X56.832 Y170.348 E88.88187
G1 X56.992 Y170.426 E88.89857
G1 X57.527 Y170.664 E88.95349
G1 X37.239 Y150.376 E91.64457
G1 X37.384 Y150.321 E91.65912
G1 X37.591 Y150.253 E91.67955
G1 X38.202 Y150.081 E91.73909
G1 X38.329 Y150.052 E91.75131
G1 X59.635 Y171.358 E94.57742
G1 X59.908 Y171.437 E94.60408
G1 X60.661 Y171.621 E94.67678
G1 X60.862 Y171.662 E94.69603
G1 X61.439 Y171.747 E94.75073
G1 X39.543 Y149.852 E97.65504
G1 X40.264 Y149.79 E97.72291
G1 X40.747 Y149.77 E97.76825
G1 X40.877 Y149.771 E97.78045
G1 X62.954 Y171.848 E100.70883
G1 X63.332 Y171.85 E100.74429
G1 X63.963 Y171.818 E100.80355
G1 X64.082 Y171.807 E100.81476
G1 X64.297 Y171.778 E100.8351
G1 X42.36 Y149.84 E103.74499
G1 X42.543 Y149.86 E103.76225
G1 X43.225 Y149.963 E103.82694
G1 X43.429 Y150.003 E103.84644
G1 X44.073 Y150.159 E103.90859
G1 X44.101 Y150.167 E103.91132
G1 X65.512 Y171.578 E106.75137
G1 X65.705 Y171.537 E106.76987
G1 X66.451 Y171.331 E106.84246
G1 X66.625 Y171.276 E106.85958
G1 X46.682 Y151.334 E109.50483
G1 X47.128 Y151.637 E109.55541
G1 X47.308 Y151.77 E109.5764
G1 X47.688 Y152.08 E109.6224
G1 X48.231 Y152.469 E109.68505
G1 X48.833 Y152.795 E109.74926
G1 X49.469 Y153.039 E109.81315
G1 X49.911 Y153.149 E109.85587
G1 X67.694 Y170.931 E112.21462
G1 X68.047 Y170.822 E112.24927
G1 X68.242 Y170.749 E112.2688
G1 X68.722 Y170.545 E112.31771
G1 X51.453 Y153.276 E114.60835
G1 X51.493 Y153.276 E114.6121
G1 X52.17 Y153.183 E114.67619
G1 X52.646 Y153.055 E114.72242
G1 X69.658 Y170.067 E116.97897
G1 X69.788 Y169.991 E116.99309
G1 X70.313 Y169.649 E117.05186
G1 X70.499 Y169.515 E117.07336
G1 X70.51 Y169.505 E117.07476
G1 X53.645 Y152.64 E119.3118
G1 X54.058 Y152.405 E119.35637
G1 X54.486 Y152.067 E119.40752
G1 X71.283 Y168.864 E121.63554
G1 X71.634 Y168.533 E121.68079
G1 X71.789 Y168.372 E121.70176
G1 X71.984 Y168.151 E121.7294
G1 X55.237 Y151.403 E123.95086
G1 X55.246 Y151.393 E123.95212
G1 X55.77 Y150.934 E124.01746
G1 X55.763 Y150.927 E124.01839
G1 X55.914 Y150.784 E124.03789
G1 X55.977 Y150.729 E124.04574
G1 X72.613 Y167.365 E126.2524
G1 X72.771 Y167.151 E126.27735
G1 X73.052 Y166.731 E126.32475
G1 X73.185 Y166.523 E126.34791
G1 X56.75 Y150.089 E128.52785
G1 X57.079 Y149.847 E128.56615
G1 X57.274 Y149.717 E128.58814
G1 X57.599 Y149.523 E128.62364
G1 X73.695 Y165.619 E130.75868
G1 X73.726 Y165.561 E130.76484
G1 X73.928 Y165.148 E130.80797
G1 X74.149 Y164.659 E130.8583
G1 X58.527 Y149.036 E132.93053
G1 X58.585 Y149.007 E132.93661
G1 X58.79 Y148.919 E132.95754
G1 X59.385 Y148.693 E133.01724
G1 X59.546 Y148.641 E133.0331
G1 X74.517 Y163.613 E135.01899
G1 X74.67 Y163.023 E135.07615
G1 X74.715 Y162.814 E135.09621
G1 X74.774 Y162.455 E135.13033
G1 X60.676 Y148.358 E137.00028
G1 X61.285 Y148.248 E137.05833
G1 X61.405 Y148.235 E137.06965
G1 X61.924 Y148.191 E137.1185
G1 X74.899 Y161.166 E138.83956
G1 X74.9 Y161.093 E138.84641
G1 X74.891 Y160.451 E138.90663
G1 X74.879 Y160.261 E138.92448
G1 X74.82 Y159.673 E138.97991
G1 X63.29 Y148.143 E140.5093
G1 X63.464 Y148.143 E140.52562
G1 X64.181 Y148.192 E140.59303
G1 X64.543 Y148.232 E140.62719
G1 X64.838 Y148.277 E140.65517
G1 X74.461 Y157.9 E141.93161
G1 X74.41 Y157.642 E141.95628
G1 X74.309 Y157.208 E141.99807
G1 X74.049 Y156.362 E142.08108
G1 X73.939 Y156.048 E142.11229
G1 X73.882 Y155.906 E142.12664
G1 X66.716 Y148.74 E143.07717
G1 X66.874 Y148.794 E143.09283
G1 X67.08 Y148.874 E143.11356
G1 X67.653 Y149.128 E143.17234
G1 X67.865 Y149.233 E143.19453
G1 X68.416 Y149.538 E143.2536
G1 X68.621 Y149.664 E143.27617
G1 X69.123 Y150.004 E143.33304
G1 X69.31 Y150.144 E143.35495
G1 X69.801 Y150.544 E143.41435
