;FLAVOR:Marlin
;TIME:3182
;Filament used: 5.60988m
;Layer height: 0.25
;Generated with Cura_SteamEngine 3.6.0
M140 S30
M105
M190 S30
M104 S220
M105
M109 S220
M82 ;absolute extrusion mode
G21 ;metric values
G90 ;absolute positioning
M82 ;set extruder to absolute mode
M107 ;start with the fan off
G28 X0 Y0 ;move X/Y to min endstops
G28 Z0 ;move Z to min endstops
G1 Z15.0 F120 ;move the platform down 15mm
G92 E0 ;zero the extruded length
G1 F200 E3 ;extrude 3mm of feed stock
G92 E0 ;zero the extruded length again
G1 F120
M117 Printing...
G5
G92 E0
G1 F2400 E-6
;LAYER_COUNT:60
;LAYER:0
M106 S255
M204 S3000
M205 X10 Y10
;MESH:BagClipShortTeeBraille_v01.stl
G0 F2400 X36.207 Y76.4 Z0.3
M204 S1800
M205 X8 Y8
;TYPE:WALL-INNER
G1 F2400 E0
G1 F1200 X36.689 Y76.552 E0.04148
G1 X37.118 Y76.827 E0.0833
G1 X37.46 Y77.198 E0.12471
G1 X37.693 Y77.647 E0.16622
G1 X37.803 Y78.142 E0.20784
G1 X37.781 Y78.65 E0.24957
G1 X37.629 Y79.133 E0.29113
G1 X37.358 Y79.557 E0.33242
G1 X36.982 Y79.902 E0.3743
G1 X36.532 Y80.136 E0.41593
G1 X36.039 Y80.245 E0.45737
G1 X35.533 Y80.223 E0.49893
G1 X35.045 Y80.069 E0.54093
G1 X34.624 Y79.801 E0.58189
G1 X34.279 Y79.425 E0.62377
G1 X34.047 Y78.978 E0.6651
G1 X33.936 Y78.478 E0.70713
G1 X33.958 Y77.976 E0.74837
G1 X34.111 Y77.49 E0.79019
G1 X34.384 Y77.062 E0.83185
G1 X34.755 Y76.721 E0.8732
G1 X35.204 Y76.488 E0.91472
G1 X35.7 Y76.378 E0.95642
G1 X36.207 Y76.4 E0.99806
M204 S3000
M205 X10 Y10
G0 F2400 X36.322 Y75.755
M204 S1800
M205 X8 Y8
;TYPE:WALL-OUTER
G1 F1200 X36.967 Y75.958 E1.05356
G1 X37.538 Y76.323 E1.10918
G1 X37.997 Y76.822 E1.16482
G1 X38.31 Y77.425 E1.22058
G1 X38.456 Y78.082 E1.27581
G1 X38.426 Y78.765 E1.33192
G1 X38.223 Y79.409 E1.38734
G1 X37.859 Y79.98 E1.44291
G1 X37.36 Y80.438 E1.4985
G1 X36.757 Y80.751 E1.55425
G1 X36.096 Y80.898 E1.60983
G1 X35.418 Y80.868 E1.66552
G1 X34.769 Y80.664 E1.72136
G1 X34.201 Y80.302 E1.77663
G1 X33.743 Y79.803 E1.83222
G1 X33.43 Y79.2 E1.88798
G1 X33.283 Y78.538 E1.94363
G1 X33.313 Y77.861 E1.99925
G1 X33.517 Y77.212 E2.05508
G1 X33.88 Y76.643 E2.11047
G1 X34.379 Y76.184 E2.16611
G1 X34.982 Y75.871 E2.22187
G1 X35.64 Y75.725 E2.27719
G1 X36.322 Y75.755 E2.33321
M204 S3000
M205 X10 Y10
G0 F2400 X36.608 Y75.845
G0 X36.088 Y77.086
M204 S1800
M205 X8 Y8
;TYPE:SKIN
G1 F1200 X36.394 Y77.183 E2.35956
G1 X36.67 Y77.36 E2.38647
G1 X36.889 Y77.596 E2.41289
G1 X37.039 Y77.885 E2.43961
G1 X37.109 Y78.202 E2.46625
G1 X37.095 Y78.533 E2.49344
G1 X36.999 Y78.838 E2.51969
G1 X36.826 Y79.109 E2.54607
G1 X36.584 Y79.331 E2.57302
G1 X36.293 Y79.482 E2.59993
G1 X35.98 Y79.551 E2.62623
G1 X35.651 Y79.537 E2.65326
G1 X35.34 Y79.439 E2.68002
G1 X35.073 Y79.269 E2.706
G1 X34.849 Y79.025 E2.73318
G1 X34.701 Y78.739 E2.75961
G1 X34.63 Y78.419 E2.78651
G1 X34.644 Y78.094 E2.81321
G1 X34.741 Y77.785 E2.83979
G1 X34.917 Y77.508 E2.86672
G1 X35.153 Y77.292 E2.89298
G1 X35.443 Y77.142 E2.91977
G1 X35.759 Y77.072 E2.94633
G1 X36.088 Y77.086 E2.97336
M204 S3000
M205 X10 Y10
G0 F2400 X35.822 Y77.399
M204 S1800
M205 X8 Y8
G1 F1200 X36.777 Y78.355 E3.08426
M204 S3000
M205 X10 Y10
G0 F2400 X36.446 Y79.014
M204 S1800
M205 X8 Y8
G1 F1200 X35.161 Y77.729 E3.2334
M204 S3000
M205 X10 Y10
G0 F2400 X34.991 Y78.549
M204 S1800
M205 X8 Y8
G1 F1200 X35.631 Y79.189 E3.30768
M204 S3000
M205 X10 Y10
G1 F2400 E-2.69232
G1 F300 Z0.375
G0 F2400 X35.631 Y79.189 Z0.375
G0 X14.071 Y189.548
M204 S1800
M205 X8 Y8
;TYPE:WALL-INNER
G1 F300 Z0.3
G1 F2400 E3.30768
G1 F1200 X13.727 Y189.488 E3.33634
G1 X11.825 Y189.154 E3.49482
G1 X11.274 Y188.98 E3.54225
G1 X10.851 Y188.71 E3.58343
G1 X10.506 Y188.334 E3.62531
G1 X10.272 Y187.884 E3.66694
G1 X10.163 Y187.391 E3.70837
G1 X10.188 Y186.814 E3.75577
G1 X20.293 Y129.499 E8.53212
G1 X17.717 Y128.007 E8.77644
G1 X15.95 Y126.755 E8.95416
G1 X14.278 Y125.326 E9.13467
G1 X12.755 Y123.761 E9.31389
G1 X11.371 Y122.052 E9.49437
G1 X10.165 Y120.248 E9.67246
G1 X9.12 Y118.326 E9.85201
G1 X8.256 Y116.319 E10.03133
G1 X7.577 Y114.24 E10.21083
G1 X7.088 Y112.096 E10.3913
G1 X6.802 Y109.946 E10.56931
G1 X6.711 Y107.755 E10.74927
G1 X6.82 Y105.572 E10.92865
G1 X7.129 Y103.404 E11.10838
G1 X7.634 Y101.272 E11.28819
G1 X8.326 Y99.21 E11.4667
G1 X9.211 Y97.202 E11.64679
G1 X10.268 Y95.298 E11.82551
G1 X11.501 Y93.486 E12.00538
G1 X12.895 Y91.793 E12.18537
G1 X14.425 Y90.249 E12.36376
G1 X16.103 Y88.839 E12.54363
G1 X17.897 Y87.591 E12.72299
G1 X19.801 Y86.51 E12.90268
G1 X21.788 Y85.611 E13.08166
G1 X23.899 Y84.882 E13.26495
G1 X25.944 Y84.377 E13.43782
G1 X28.202 Y84.035 E13.62525
G1 X30.347 Y83.91 E13.80159
G1 X32.53 Y83.98 E13.98084
G1 X33.262 Y84.071 E14.04137
G1 X33.627 Y84.116 E14.07156
G1 X33.564 Y84.478 E14.09078
G1 X33.471 Y85.005 E14.1347
G1 X32.273 Y84.863 E14.23371
G1 X30.022 Y84.813 E14.41849
G1 X27.776 Y84.985 E14.60336
G1 X25.557 Y85.375 E14.78826
G1 X23.389 Y85.981 E14.97301
G1 X21.288 Y86.794 E15.1579
G1 X19.278 Y87.81 E15.34273
G1 X17.377 Y89.017 E15.52754
G1 X15.602 Y90.402 E15.71231
G1 X13.971 Y91.955 E15.89714
G1 X12.498 Y93.66 E16.08205
G1 X11.201 Y95.499 E16.26674
G1 X10.088 Y97.458 E16.45165
G1 X9.171 Y99.515 E16.63648
G1 X8.459 Y101.652 E16.82134
G1 X7.961 Y103.848 E17.00614
G1 X7.678 Y106.082 E17.19095
G1 X7.613 Y108.332 E17.37568
G1 X7.769 Y110.58 E17.56062
G1 X8.144 Y112.801 E17.74548
G1 X8.734 Y114.975 E17.93035
G1 X9.534 Y117.079 E18.11508
G1 X10.534 Y119.096 E18.29985
G1 X11.728 Y121.007 E18.48478
G1 X13.101 Y122.792 E18.66959
G1 X14.643 Y124.433 E18.8544
G1 X16.336 Y125.918 E19.03922
G1 X18.168 Y127.229 E19.2241
G1 X20.118 Y128.355 E19.4089
G1 X22.168 Y129.285 E19.59365
G1 X24.299 Y130.013 E19.77846
G1 X25.485 Y130.291 E19.87843
G1 X13.911 Y195.933 E25.34873
G1 X13.501 Y196.221 E25.38985
G1 X13.5 Y196.222 E25.38997
G1 X12.809 Y196.706 E25.4592
G1 X12.954 Y195.874 E25.49651
G1 X12.955 Y195.873 E25.49662
G1 X14.011 Y189.892 E25.99507
G1 X14.071 Y189.548 E26.01361
M204 S3000
M205 X10 Y10
G0 F2400 X13.318 Y190.076
M204 S1800
M205 X8 Y8
;TYPE:WALL-OUTER
G1 F1200 X12.974 Y190.016 E26.04227
G1 X11.668 Y189.786 E26.1511
G1 X10.999 Y189.575 E26.20867
G1 X10.428 Y189.211 E26.26424
G1 X9.97 Y188.712 E26.31983
G1 X9.657 Y188.109 E26.37559
G1 X9.51 Y187.448 E26.43116
G1 X9.541 Y186.741 E26.48924
G1 X19.574 Y129.834 E31.23159
G1 X17.372 Y128.559 E31.44042
G1 X15.545 Y127.265 E31.62416
G1 X13.837 Y125.804 E31.80862
G1 X12.269 Y124.193 E31.99312
G1 X10.849 Y122.44 E32.17826
G1 X9.607 Y120.583 E32.36161
G1 X8.534 Y118.608 E32.54608
G1 X7.646 Y116.547 E32.73025
G1 X6.95 Y114.414 E32.91439
G1 X6.449 Y112.216 E33.09941
G1 X6.154 Y110.004 E33.28255
G1 X6.061 Y107.75 E33.46769
G1 X6.173 Y105.502 E33.65241
G1 X6.489 Y103.283 E33.83636
G1 X7.006 Y101.1 E34.02048
G1 X7.72 Y98.972 E34.20469
G1 X8.625 Y96.919 E34.38882
G1 X9.716 Y94.953 E34.57335
G1 X10.982 Y93.094 E34.75793
G1 X12.411 Y91.359 E34.9424
G1 X13.987 Y89.768 E35.12619
G1 X15.708 Y88.322 E35.31067
G1 X17.546 Y87.043 E35.49444
G1 X19.506 Y85.93 E35.67942
G1 X21.545 Y85.008 E35.86307
G1 X23.719 Y84.257 E36.05184
G1 X25.82 Y83.738 E36.22945
G1 X28.132 Y83.388 E36.42136
G1 X30.341 Y83.259 E36.60296
G1 X32.576 Y83.331 E36.78648
G1 X34.021 Y83.51 E36.90597
G1 X34.386 Y83.555 E36.93616
G1 X34.323 Y83.917 E36.95538
G1 X34.004 Y85.723 E37.10589
G1 X32.227 Y85.512 E37.25276
G1 X30.04 Y85.464 E37.43229
G1 X27.857 Y85.631 E37.61197
G1 X25.701 Y86.01 E37.79162
G1 X23.594 Y86.599 E37.97117
G1 X21.553 Y87.389 E38.15078
G1 X19.6 Y88.376 E38.33037
G1 X17.752 Y89.549 E38.51001
G1 X16.027 Y90.895 E38.68958
G1 X14.442 Y92.404 E38.86918
G1 X13.011 Y94.061 E39.04886
G1 X11.75 Y95.848 E39.22836
G1 X10.669 Y97.751 E39.40797
G1 X9.778 Y99.751 E39.58766
G1 X9.086 Y101.827 E39.76726
G1 X8.602 Y103.961 E39.94684
G1 X8.327 Y106.132 E40.12644
G1 X8.264 Y108.319 E40.306
G1 X8.415 Y110.503 E40.48567
G1 X8.78 Y112.661 E40.66529
G1 X9.353 Y114.774 E40.84496
G1 X10.13 Y116.819 E41.0245
G1 X11.102 Y118.779 E41.20405
G1 X12.262 Y120.636 E41.38374
G1 X13.597 Y122.37 E41.56334
G1 X15.095 Y123.965 E41.74292
G1 X16.74 Y125.408 E41.92251
G1 X18.52 Y126.682 E42.10215
G1 X20.415 Y127.776 E42.28173
G1 X22.408 Y128.68 E42.46133
G1 X24.479 Y129.387 E42.64093
G1 X26.232 Y129.798 E42.7887
G1 X14.504 Y196.311 E48.33159
G1 X12.671 Y197.596 E48.51531
G1 X12.46 Y197.744 E48.53646
G1 X11.981 Y197.659 E48.57638
G1 X12.025 Y197.405 E48.59454
G1 X13.258 Y190.42 E49.17666
G1 X13.318 Y190.076 E49.1952
M204 S3000
M205 X10 Y10
G0 F2400 X13.023 Y190.025
G0 X13.153 Y189.286
G0 X14.447 Y188.914
M204 S1800
M205 X8 Y8
;TYPE:SKIN
G1 F1200 X11.985 Y188.481 E49.40036
G1 X11.567 Y188.349 E49.43633
G1 X11.301 Y188.179 E49.46224
G1 X11.077 Y187.936 E49.48936
G1 X10.926 Y187.645 E49.51627
G1 X10.857 Y187.332 E49.54257
G1 X10.876 Y186.888 E49.57904
G1 X20.992 Y129.509 E54.36073
G1 X21.914 Y129.927 E54.44381
G1 X24.108 Y130.677 E54.6341
G1 X24.691 Y130.814 E54.68325
G1 X14.447 Y188.914 E59.52503
M204 S3000
M205 X10 Y10
G0 F2400 X11.902 Y188.113
M204 S1800
M205 X8 Y8
G1 F1200 X11.209 Y187.42 E59.60546
M204 S3000
M205 X10 Y10
G0 F2400 X11.275 Y186.496
M204 S1800
M205 X8 Y8
G1 F1200 X13.129 Y188.35 E59.82064
M204 S3000
M205 X10 Y10
G0 F2400 X14.201 Y188.432
M204 S1800
M205 X8 Y8
G1 F1200 X11.423 Y185.654 E60.14307
M204 S3000
M205 X10 Y10
G0 F2400 X11.571 Y184.812
M204 S1800
M205 X8 Y8
G1 F1200 X14.35 Y187.591 E60.46561
M204 S3000
M205 X10 Y10
G0 F2400 X14.498 Y186.749
M204 S1800
M205 X8 Y8
G1 F1200 X11.72 Y183.971 E60.78803
M204 S3000
M205 X10 Y10
G0 F2400 X11.868 Y183.13
M204 S1800
M205 X8 Y8
G1 F1200 X14.647 Y185.908 E61.11052
M204 S3000
M205 X10 Y10
G0 F2400 X14.795 Y185.066
M204 S1800
M205 X8 Y8
G1 F1200 X12.017 Y182.288 E61.43294
M204 S3000
M205 X10 Y10
G0 F2400 X12.165 Y181.447
M204 S1800
M205 X8 Y8
G1 F1200 X14.943 Y184.225 E61.75537
M204 S3000
M205 X10 Y10
G0 F2400 X15.091 Y183.383
M204 S1800
M205 X8 Y8
G1 F1200 X12.313 Y180.604 E62.07785
M204 S3000
M205 X10 Y10
G0 F2400 X12.462 Y179.763
M204 S1800
M205 X8 Y8
G1 F1200 X15.24 Y182.541 E62.40027
M204 S3000
M205 X10 Y10
G0 F2400 X15.388 Y181.7
M204 S1800
M205 X8 Y8
G1 F1200 X12.61 Y178.922 E62.7227
M204 S3000
M205 X10 Y10
G0 F2400 X12.759 Y178.08
M204 S1800
M205 X8 Y8
G1 F1200 X15.537 Y180.858 E63.04512
M204 S3000
M205 X10 Y10
G0 F2400 X15.685 Y180.017
M204 S1800
M205 X8 Y8
G1 F1200 X12.907 Y177.239 E63.36755
M204 S3000
M205 X10 Y10
G0 F2400 X13.055 Y176.396
M204 S1800
M205 X8 Y8
G1 F1200 X15.834 Y179.175 E63.69009
M204 S3000
M205 X10 Y10
G0 F2400 X15.982 Y178.333
M204 S1800
M205 X8 Y8
G1 F1200 X13.203 Y175.555 E64.01257
M204 S3000
M205 X10 Y10
G0 F2400 X13.352 Y174.714
M204 S1800
M205 X8 Y8
G1 F1200 X16.13 Y177.492 E64.335
M204 S3000
M205 X10 Y10
G0 F2400 X16.279 Y176.65
M204 S1800
M205 X8 Y8
G1 F1200 X13.5 Y173.872 E64.65748
M204 S3000
M205 X10 Y10
G0 F2400 X13.649 Y173.031
M204 S1800
M205 X8 Y8
G1 F1200 X16.427 Y175.809 E64.9799
M204 S3000
M205 X10 Y10
G0 F2400 X16.575 Y174.967
M204 S1800
M205 X8 Y8
G1 F1200 X13.797 Y172.189 E65.30233
M204 S3000
M205 X10 Y10
G0 F2400 X13.945 Y171.347
M204 S1800
M205 X8 Y8
G1 F1200 X16.724 Y174.126 E65.62487
M204 S3000
M205 X10 Y10
G0 F2400 X16.872 Y173.285
M204 S1800
M205 X8 Y8
G1 F1200 X14.094 Y170.506 E65.94735
M204 S3000
M205 X10 Y10
G0 F2400 X14.242 Y169.664
M204 S1800
M205 X8 Y8
G1 F1200 X17.02 Y172.442 E66.26978
M204 S3000
M205 X10 Y10
G0 F2400 X17.169 Y171.601
M204 S1800
M205 X8 Y8
G1 F1200 X14.391 Y168.823 E66.5922
M204 S3000
M205 X10 Y10
G0 F2400 X14.539 Y167.981
M204 S1800
M205 X8 Y8
G1 F1200 X17.317 Y170.759 E66.91463
M204 S3000
M205 X10 Y10
G0 F2400 X17.466 Y169.918
M204 S1800
M205 X8 Y8
G1 F1200 X14.687 Y167.139 E67.23717
M204 S3000
M205 X10 Y10
G0 F2400 X14.835 Y166.298
M204 S1800
M205 X8 Y8
G1 F1200 X17.614 Y169.077 E67.55971
M204 S3000
M205 X10 Y10
G0 F2400 X17.763 Y168.235
M204 S1800
M205 X8 Y8
G1 F1200 X14.984 Y165.456 E67.88225
M204 S3000
M205 X10 Y10
G0 F2400 X15.132 Y164.615
M204 S1800
M205 X8 Y8
G1 F1200 X17.911 Y167.393 E68.20473
M204 S3000
M205 X10 Y10
G0 F2400 X18.059 Y166.551
M204 S1800
M205 X8 Y8
G1 F1200 X15.281 Y163.773 E68.52716
M204 S3000
M205 X10 Y10
G0 F2400 X15.429 Y162.932
M204 S1800
M205 X8 Y8
G1 F1200 X18.207 Y165.71 E68.84958
M204 S3000
M205 X10 Y10
G0 F2400 X18.356 Y164.869
M204 S1800
M205 X8 Y8
G1 F1200 X15.577 Y162.09 E69.17212
M204 S3000
M205 X10 Y10
G0 F2400 X15.726 Y161.248
M204 S1800
M205 X8 Y8
G1 F1200 X18.504 Y164.027 E69.4946
M204 S3000
M205 X10 Y10
G0 F2400 X18.653 Y163.186
M204 S1800
M205 X8 Y8
G1 F1200 X15.874 Y160.407 E69.81715
M204 S3000
M205 X10 Y10
G0 F2400 X16.023 Y159.565
M204 S1800
M205 X8 Y8
G1 F1200 X18.801 Y162.344 E70.13963
M204 S3000
M205 X10 Y10
G0 F2400 X18.949 Y161.502
M204 S1800
M205 X8 Y8
G1 F1200 X16.171 Y158.724 E70.46205
M204 S3000
M205 X10 Y10
G0 F2400 X16.319 Y157.882
M204 S1800
M205 X8 Y8
G1 F1200 X19.098 Y160.661 E70.78459
M204 S3000
M205 X10 Y10
G0 F2400 X19.246 Y159.819
M204 S1800
M205 X8 Y8
G1 F1200 X16.467 Y157.04 E71.10713
M204 S3000
M205 X10 Y10
G0 F2400 X16.616 Y156.199
M204 S1800
M205 X8 Y8
G1 F1200 X19.395 Y158.978 E71.42968
M204 S3000
M205 X10 Y10
G0 F2400 X19.543 Y158.136
M204 S1800
M205 X8 Y8
G1 F1200 X16.764 Y155.357 E71.75222
M204 S3000
M205 X10 Y10
G0 F2400 X16.913 Y154.516
M204 S1800
M205 X8 Y8
G1 F1200 X19.692 Y157.295 E72.07476
M204 S3000
M205 X10 Y10
G0 F2400 X19.84 Y156.453
M204 S1800
M205 X8 Y8
G1 F1200 X17.061 Y153.674 E72.3973
M204 S3000
M205 X10 Y10
G0 F2400 X17.209 Y152.832
M204 S1800
M205 X8 Y8
G1 F1200 X19.988 Y155.611 E72.71984
M204 S3000
M205 X10 Y10
G0 F2400 X20.136 Y154.77
M204 S1800
M205 X8 Y8
G1 F1200 X17.358 Y151.991 E73.04232
M204 S3000
M205 X10 Y10
G0 F2400 X17.506 Y151.149
M204 S1800
M205 X8 Y8
G1 F1200 X20.285 Y153.928 E73.36486
M204 S3000
M205 X10 Y10
G0 F2400 X20.433 Y153.087
M204 S1800
M205 X8 Y8
G1 F1200 X17.655 Y150.308 E73.68735
M204 S3000
M205 X10 Y10
G0 F2400 X17.803 Y149.466
M204 S1800
M205 X8 Y8
G1 F1200 X20.582 Y152.245 E74.00989
M204 S3000
M205 X10 Y10
G0 F2400 X20.73 Y151.404
M204 S1800
M205 X8 Y8
G1 F1200 X17.951 Y148.624 E74.33248
M204 S3000
M205 X10 Y10
G0 F2400 X18.099 Y147.783
M204 S1800
M205 X8 Y8
G1 F1200 X20.878 Y150.562 E74.65503
M204 S3000
M205 X10 Y10
G0 F2400 X21.027 Y149.72
M204 S1800
M205 X8 Y8
G1 F1200 X18.248 Y146.941 E74.97757
M204 S3000
M205 X10 Y10
G0 F2400 X18.396 Y146.1
M204 S1800
M205 X8 Y8
G1 F1200 X21.175 Y148.879 E75.30011
M204 S3000
M205 X10 Y10
G0 F2400 X21.324 Y148.037
M204 S1800
M205 X8 Y8
G1 F1200 X18.545 Y145.258 E75.62265
M204 S3000
M205 X10 Y10
G0 F2400 X18.693 Y144.417
M204 S1800
M205 X8 Y8
G1 F1200 X21.472 Y147.196 E75.94519
M204 S3000
M205 X10 Y10
G0 F2400 X21.621 Y146.354
M204 S1800
M205 X8 Y8
G1 F1200 X18.841 Y143.575 E76.26779
M204 S3000
M205 X10 Y10
G0 F2400 X18.99 Y142.733
M204 S1800
M205 X8 Y8
G1 F1200 X21.769 Y145.513 E76.59039
M204 S3000
M205 X10 Y10
G0 F2400 X21.917 Y144.671
M204 S1800
M205 X8 Y8
G1 F1200 X19.138 Y141.892 E76.91293
M204 S3000
M205 X10 Y10
G0 F2400 X19.287 Y141.05
M204 S1800
M205 X8 Y8
G1 F1200 X22.065 Y143.829 E77.23541
M204 S3000
M205 X10 Y10
G0 F2400 X22.214 Y142.988
M204 S1800
M205 X8 Y8
G1 F1200 X19.435 Y140.209 E77.55795
M204 S3000
M205 X10 Y10
G0 F2400 X19.584 Y139.367
M204 S1800
M205 X8 Y8
G1 F1200 X22.362 Y142.146 E77.88043
M204 S3000
M205 X10 Y10
G0 F2400 X22.511 Y141.305
M204 S1800
M205 X8 Y8
G1 F1200 X19.731 Y138.525 E78.20309
M204 S3000
M205 X10 Y10
G0 F2400 X19.88 Y137.684
M204 S1800
M205 X8 Y8
G1 F1200 X22.659 Y140.463 E78.52563
M204 S3000
M205 X10 Y10
G0 F2400 X22.807 Y139.621
M204 S1800
M205 X8 Y8
G1 F1200 X20.028 Y136.842 E78.84817
M204 S3000
M205 X10 Y10
G0 F2400 X20.177 Y136.001
M204 S1800
M205 X8 Y8
G1 F1200 X22.956 Y138.78 E79.17071
M204 S3000
M205 X10 Y10
G0 F2400 X23.104 Y137.938
M204 S1800
M205 X8 Y8
G1 F1200 X20.325 Y135.159 E79.49325
M204 S3000
M205 X10 Y10
G0 F2400 X20.473 Y134.317
M204 S1800
M205 X8 Y8
G1 F1200 X23.253 Y137.097 E79.81591
M204 S3000
M205 X10 Y10
G0 F2400 X23.401 Y136.255
M204 S1800
M205 X8 Y8
G1 F1200 X20.622 Y133.476 E80.13845
M204 S3000
M205 X10 Y10
G0 F2400 X20.77 Y132.634
M204 S1800
M205 X8 Y8
G1 F1200 X23.55 Y135.414 E80.46111
M204 S3000
M205 X10 Y10
G0 F2400 X23.698 Y134.573
M204 S1800
M205 X8 Y8
G1 F1200 X20.919 Y131.793 E80.78371
M204 S3000
