;FLAVOR:Marlin
;TIME:3045
;Filament used: 8.39059m
;Layer height: 0.2
;MINX:22.829
;MINY:84.409
;MINZ:0.26
;MAXX:199.165
;MAXY:137.594
;MAXZ:22.46
;Generated with Cura_SteamEngine 5.4.0
M140 S60
M105
M190 S60
M104 S215
M105
M109 S215
M82 ;absolute extrusion mode
G28 ;Home
G1 Z15.0 F6000 ;Move the platform down 15mm
;Prime the extruder
G92 E0
G1 F200 E3
G92 E0
G92 E0
G92 E0
G1 F4800 E-2.5
;LAYER_COUNT:112
;LAYER:0
M107
G0 X51.489 Y88.277 Z0.26
;TYPE:SKIRT
G1 F4800 E0
G1 X52.475 Y87.696 E0.08907
G1 X53.286 Y87.247 E0.16122
G1 X54.272 Y86.77 E0.24647
G1 X55.254 Y86.332 E0.33015
G1 X56.333 Y85.919 E0.42007
G1 X57.149 Y85.632 E0.48739
G1 X58.207 Y85.321 E0.57322
G1 X59.153 Y85.072 E0.64935
G1 X59.807 Y84.933 E0.70139
G1 X61.051 Y84.703 E0.79985
G1 X62.383 Y84.539 E0.9043
G1 X63.203 Y84.462 E0.9684
G1 X64.555 Y84.413 E1.07369
G1 X65.439 Y84.409 E1.14249
G1 X66.67 Y84.471 E1.23842
G1 X67.571 Y84.543 E1.30877
G1 X68.723 Y84.698 E1.39924
G1 X69.647 Y84.85 E1.47212
G1 X70.714 Y85.085 E1.55715
G1 X71.684 Y85.327 E1.63496
G1 X72.848 Y85.688 E1.72981
G1 X74.115 Y86.11 E1.83374
G1 X76.086 Y86.794 E1.99612
G1 X79.361 Y87.867 E2.26434
G1 X80.405 Y88.19 E2.34939
G1 X83.519 Y89.094 E2.60176
G1 X84.621 Y89.394 E2.69064
G1 X87.828 Y90.212 E2.94823
G1 X88.935 Y90.473 E3.03675
G1 X92.05 Y91.156 E3.28495
G1 X93.097 Y91.368 E3.36809
G1 X96.422 Y91.981 E3.63123
G1 X97.503 Y92.161 E3.71652
G1 X100.804 Y92.655 E3.97629
G1 X101.821 Y92.79 E4.05614
G1 X105.113 Y93.17 E4.31405
G1 X106.196 Y93.276 E4.39874
G1 X109.524 Y93.547 E4.65862
G1 X110.637 Y93.618 E4.74541
G1 X113.934 Y93.774 E5.0023
G1 X114.954 Y93.805 E5.08172
G1 X118.338 Y93.851 E5.34512
G1 X119.465 Y93.847 E5.43284
G1 X122.727 Y93.781 E5.68676
G1 X123.834 Y93.74 E5.77298
G1 X127.031 Y93.569 E6.02215
G1 X129.019 Y93.429 E6.17726
G1 X130.713 Y93.296 E6.30951
G1 X174.329 Y89.482 E9.71704
G1 X175.132 Y89.431 E9.77966
G1 X175.959 Y89.428 E9.84403
G1 X176.595 Y89.475 E9.89366
G1 X178.2 Y89.812 E10.0213
G1 X179.428 Y90.087 E10.11924
G1 X182.096 Y90.606 E10.33078
G1 X184.807 Y91.054 E10.54463
G1 X187.532 Y91.425 E10.75867
G1 X190.236 Y91.717 E10.97035
G1 X194.143 Y92.001 E11.27523
G1 X194.524 Y92.022 E11.30492
G1 X195.033 Y92.089 E11.34488
G1 X195.651 Y92.263 E11.39485
G1 X196.131 Y92.447 E11.43486
G1 X196.759 Y92.81 E11.49131
G1 X197.175 Y93.111 E11.53127
G1 X197.771 Y93.719 E11.59754
G1 X198.09 Y94.121 E11.63748
G1 X198.465 Y94.803 E11.69805
G1 X198.662 Y95.277 E11.738
G1 X198.843 Y95.994 E11.79556
G1 X198.998 Y97.428 E11.90781
G1 X199.165 Y99.425 E12.06378
G1 X199.153 Y100.116 E12.11757
G1 X199.105 Y100.627 E12.15751
G1 X198.901 Y101.385 E12.21861
G1 X198.715 Y101.864 E12.2586
G1 X198.364 Y102.47 E12.3131
G1 X197.994 Y102.981 E12.3622
G1 X197.335 Y103.592 E12.43215
G1 X195.132 Y105.377 E12.65282
G1 X193.068 Y107.149 E12.86454
G1 X191.059 Y108.974 E13.07578
G1 X189.08 Y110.876 E13.2894
G1 X187.159 Y112.83 E13.50267
G1 X185.295 Y114.837 E13.71584
G1 X183.5 Y116.884 E13.92774
G1 X181.741 Y119.007 E14.14231
G1 X180.202 Y120.969 E14.33639
G1 X179.719 Y121.601 E14.39829
G1 X179.377 Y121.984 E14.43826
G1 X178.979 Y122.309 E14.47825
G1 X178.536 Y122.568 E14.51819
G1 X178.058 Y122.755 E14.55813
G1 X177.429 Y122.894 E14.60827
G1 X176.424 Y122.907 E14.68649
G1 X132.006 Y122.908 E18.14349
G1 X130.355 Y122.922 E18.27199
G1 X128.334 Y122.956 E18.4293
G1 X125.108 Y123.063 E18.68052
G1 X124.07 Y123.116 E18.76141
G1 X120.652 Y123.346 E19.02803
G1 X119.591 Y123.436 E19.1109
G1 X116.293 Y123.771 E19.3689
G1 X115.219 Y123.898 E19.45307
G1 X111.926 Y124.345 E19.71171
G1 X110.812 Y124.515 E19.79942
G1 X107.662 Y125.05 E20.04809
G1 X106.58 Y125.252 E20.13375
G1 X103.236 Y125.937 E20.39942
G1 X102.185 Y126.172 E20.48323
G1 X99.037 Y126.928 E20.73521
G1 X98.024 Y127.188 E20.8166
G1 X94.685 Y128.111 E21.08622
G1 X93.688 Y128.405 E21.16712
G1 X90.643 Y129.355 E21.41537
G1 X89.612 Y129.696 E21.49989
G1 X86.346 Y130.84 E21.76922
G1 X85.315 Y131.221 E21.85476
G1 X82.314 Y132.388 E22.10537
G1 X81.306 Y132.798 E22.19006
G1 X78.239 Y134.109 E22.44965
G1 X76.248 Y135.001 E22.61945
G1 X74.514 Y135.743 E22.76624
G1 X73.664 Y136.078 E22.83735
G1 X72.522 Y136.454 E22.93092
G1 X71.618 Y136.724 E23.00435
G1 X70.478 Y136.997 E23.09558
G1 X69.579 Y137.185 E23.16706
G1 X68.35 Y137.372 E23.26382
G1 X67.419 Y137.484 E23.3368
G1 X66.251 Y137.56 E23.42789
G1 X65.347 Y137.594 E23.4983
G1 X64.178 Y137.574 E23.5893
G1 X63.146 Y137.525 E23.66971
G1 X62.019 Y137.408 E23.75789
G1 X61.299 Y137.318 E23.81436
G1 X60.384 Y137.155 E23.8867
G1 X59.149 Y136.902 E23.98481
G1 X57.881 Y136.551 E24.08721
G1 X56.973 Y136.27 E24.16119
G1 X55.821 Y135.843 E24.25681
G1 X55.031 Y135.524 E24.32311
G1 X54.365 Y135.217 E24.38019
G1 X53.277 Y134.685 E24.47445
G1 X52.488 Y134.243 E24.54483
G1 X51.286 Y133.517 E24.65412
G1 X48.823 Y131.871 E24.88468
G1 X46.505 Y130.418 E25.0976
G1 X44.106 Y129.007 E25.31421
G1 X41.764 Y127.717 E25.52231
G1 X39.302 Y126.451 E25.73777
G1 X36.834 Y125.269 E25.95075
G1 X34.337 Y124.158 E26.16345
G1 X31.804 Y123.117 E26.37659
G1 X29.389 Y122.193 E26.57784
G1 X28.664 Y121.847 E26.64036
G1 X28.051 Y121.53 E26.69407
G1 X27.003 Y120.821 E26.79255
G1 X26.601 Y120.493 E26.83293
G1 X26.166 Y120.095 E26.87881
G1 X25.64 Y119.587 E26.93573
G1 X24.826 Y118.585 E27.0362
G1 X24.543 Y118.163 E27.07575
G1 X24.029 Y117.292 E27.15446
G1 X23.8 Y116.815 E27.19564
G1 X23.41 Y115.862 E27.27578
G1 X23.25 Y115.343 E27.31805
G1 X23.012 Y114.365 E27.39639
G1 X22.932 Y113.853 E27.43672
G1 X22.832 Y112.792 E27.51966
G1 X22.829 Y112.284 E27.5592
G1 X22.89 Y111.155 E27.6472
G1 X22.967 Y110.62 E27.68926
G1 X23.071 Y110.121 E27.72894
G1 X23.274 Y109.291 E27.79544
G1 X23.694 Y108.16 E27.88934
G1 X23.921 Y107.684 E27.93038
G1 X24.436 Y106.748 E28.01353
G1 X24.721 Y106.323 E28.05335
G1 X25.344 Y105.504 E28.13344
G1 X25.71 Y105.103 E28.17569
G1 X26.455 Y104.382 E28.25638
G1 X26.848 Y104.061 E28.29588
G1 X27.751 Y103.413 E28.38238
G1 X28.213 Y103.143 E28.42403
G1 X28.935 Y102.774 E28.48713
G1 X31.272 Y101.632 E28.68957
G1 X33.725 Y100.348 E28.90506
G1 X36.083 Y99.027 E29.11541
G1 X38.446 Y97.612 E29.32978
G1 X40.741 Y96.149 E29.5416
G1 X43.033 Y94.596 E29.75707
G1 X45.241 Y93.005 E29.96888
G1 X47.388 Y91.365 E30.17916
G1 X49.59 Y89.596 E30.39899
G1 X50.699 Y88.804 E30.50505
G1 X51.489 Y88.277 E30.57896
G1 F4800 E28.07896
;MESH:clip.stl
G0 X36.663 Y109.837
G0 X33.277 Y115.997
G0 X33.241 Y116.655
;TYPE:WALL-OUTER
G1 F4800 E30.57896
G1 X34.066 Y116.613 E30.63296
G1 X34.843 Y116.423 E30.68526
G1 X35.595 Y116.079 E30.73932
G1 X36.244 Y115.612 E30.79159
G1 X36.808 Y115.019 E30.8451
G1 X37.256 Y114.308 E30.90004
G1 X37.551 Y113.556 E30.95285
G1 X37.699 Y112.779 E31.00456
G1 X37.699 Y111.975 E31.05712
G1 X37.549 Y111.197 E31.10892
G1 X37.238 Y110.403 E31.16467
G1 X36.799 Y109.723 E31.21758
G1 X36.243 Y109.14 E31.27025
G1 X35.58 Y108.666 E31.32353
G1 X34.832 Y108.326 E31.37725
G1 X34.054 Y108.139 E31.42956
G1 X33.23 Y108.1 E31.48349
G1 X32.427 Y108.217 E31.53654
G1 X31.664 Y108.482 E31.58935
G1 X30.947 Y108.897 E31.64351
G1 X30.345 Y109.423 E31.69577
G1 X29.82 Y110.101 E31.75183
G1 X29.464 Y110.804 E31.80335
G1 X29.238 Y111.587 E31.85663
G1 X29.166 Y112.376 E31.90842
G1 X29.24 Y113.171 E31.96062
G1 X29.474 Y113.98 E32.01568
G1 X29.842 Y114.692 E32.06808
G1 X30.347 Y115.333 E32.12142
G1 X30.968 Y115.87 E32.1751
G1 X31.668 Y116.274 E32.22794
G1 X32.447 Y116.542 E32.28179
G1 X33.241 Y116.655 E32.33422
G0 X33.44 Y116.645
G0 X33.265 Y116.131
;TYPE:WALL-INNER
G1 X33.99 Y116.094 E32.39016
G1 X34.671 Y115.928 E32.44417
G1 X35.331 Y115.625 E32.50012
G1 X35.899 Y115.217 E32.55401
G1 X36.393 Y114.697 E32.60927
G1 X36.788 Y114.071 E32.6663
G1 X37.048 Y113.411 E32.72096
G1 X37.177 Y112.73 E32.77437
G1 X37.177 Y112.025 E32.82869
G1 X37.046 Y111.342 E32.88227
G1 X36.771 Y110.642 E32.94022
G1 X36.387 Y110.048 E32.99472
G1 X35.899 Y109.535 E33.04927
G1 X35.318 Y109.12 E33.10429
G1 X34.662 Y108.822 E33.1598
G1 X33.98 Y108.658 E33.21385
G1 X33.256 Y108.624 E33.26969
G1 X32.552 Y108.727 E33.32452
G1 X31.882 Y108.959 E33.37915
G1 X31.252 Y109.324 E33.43525
G1 X30.727 Y109.783 E33.48898
G1 X30.264 Y110.381 E33.54725
G1 X29.952 Y110.996 E33.60039
G1 X29.754 Y111.684 E33.65555
G1 X29.69 Y112.376 E33.70909
G1 X29.756 Y113.074 E33.76312
G1 X29.961 Y113.786 E33.8202
G1 X30.283 Y114.408 E33.87417
G1 X30.726 Y114.97 E33.92931
G1 X31.272 Y115.443 E33.98497
G1 X31.886 Y115.797 E34.03958
G1 X32.569 Y116.032 E34.09523
G1 X33.265 Y116.131 E34.1494
G0 X33.285 Y115.997
G0 X30.049 Y113.204
;TYPE:SKIN
G1 X32.636 Y115.792 E34.43419
G0 X33.561 Y115.868
G1 X29.947 Y112.254 E34.83197
G0 X30.057 Y111.516
G1 X34.304 Y115.763 E35.29943
G0 X34.928 Y115.538
G1 X30.28 Y110.89 E35.81102
G0 X30.593 Y110.355
G1 X35.463 Y115.225 E36.34704
G0 X35.922 Y114.835
G1 X30.976 Y109.89 E36.89137
G0 X31.435 Y109.5
G1 X36.307 Y114.372 E37.42762
G0 X36.617 Y113.833
G1 X31.973 Y109.189 E37.93876
G0 X32.602 Y108.97
G1 X36.836 Y113.204 E38.40479
G0 X36.931 Y112.45
G1 X33.355 Y108.874 E38.79838
G0 X34.322 Y108.992
G1 X36.824 Y111.495 E39.07382
G1 X36.903 Y111.574
G0 X36.518 Y111.646
G1 F4800 E36.57382
G0 X37.401 Y111.261
G0 X39.433 Y110.546
G0 X40.228 Y110.722
G0 X40.547 Y111.254
;TYPE:WALL-OUTER
G1 F4800 E39.07382
G1 X40.698 Y111.186 E39.08465
G1 X46.712 Y110.663 E39.47931
G1 X46.673 Y109.257 E39.57126
G1 X46.786 Y107.56 E39.68245
G1 X47.065 Y105.839 E39.79643
G1 X47.485 Y104.219 E39.90584
G1 X48.091 Y102.56 E40.02131
G1 X48.838 Y100.992 E40.13486
G1 X49.716 Y99.523 E40.24674
G1 X50.751 Y98.119 E40.36078
G1 X51.892 Y96.84 E40.47283
G1 X53.134 Y95.686 E40.58367
G1 X54.509 Y94.632 E40.69693
G1 X55.982 Y93.708 E40.81061
G1 X57.536 Y92.931 E40.92419
G1 X59.152 Y92.306 E41.03747
G1 X60.815 Y91.839 E41.15039
G1 X62.49 Y91.532 E41.26172
G1 X64.201 Y91.384 E41.374
G1 X65.95 Y91.4 E41.48835
G1 X67.666 Y91.579 E41.60114
G1 X69.37 Y91.922 E41.71478
G1 X70.995 Y92.411 E41.82572
G1 X72.601 Y93.065 E41.93908
G1 X74.131 Y93.865 E42.05196
G1 X75.581 Y94.808 E42.16504
G1 X76.916 Y95.866 E42.2764
G1 X78.188 Y97.086 E42.39162
G1 X79.3 Y98.379 E42.50312
G1 X80.31 Y99.808 E42.61752
G1 X80.984 Y100.981 E42.70596
G1 X81.228 Y101.438 E42.73983
G1 X81.881 Y102.88 E42.84332
G1 X82.433 Y104.474 E42.9536
G1 X82.842 Y106.161 E43.06708
G1 X83.036 Y107.484 E43.1545
G1 X174.204 Y99.507 E49.13748
G1 X174.023 Y97.454 E49.27222
G1 X174.044 Y96.972 E49.30376
G1 X174.204 Y96.46 E49.33883
G1 X174.442 Y96.086 E49.36781
G1 X174.832 Y95.708 E49.40332
G1 X175.313 Y95.455 E49.43885
G1 X175.82 Y95.351 E49.47269
G1 X176.353 Y95.387 E49.50761
G1 X176.894 Y95.593 E49.54546
G1 X177.262 Y95.836 E49.57429
G1 X177.557 Y96.16 E49.60293
G1 X177.816 Y96.643 E49.63876
G1 X177.908 Y97.078 E49.66783
G1 X178.535 Y104.199 E50.13518
G1 X178.499 Y104.353 E50.14552
G1 X178.34 Y104.469 E50.15838
G1 X176.109 Y104.666 E50.3048
G1 X177.922 Y106.724 E50.48411
G1 X178.346 Y106.704 E50.51186
G1 X179.006 Y106.554 E50.55611
G1 X179.655 Y106.282 E50.60211
G1 X180.252 Y105.878 E50.64924
G1 X180.723 Y105.418 E50.69228
G1 X181.686 Y104.058 E50.80123
G1 X182.35 Y103.37 E50.86374
G1 X183.134 Y102.778 E50.92796
G1 X184.023 Y102.305 E50.9938
G1 X184.965 Y101.988 E51.05877
G1 X185.928 Y101.823 E51.12265
G1 X194.445 Y101.079 E51.68158
G1 X194.783 Y101.007 E51.70417
G1 X195.122 Y100.824 E51.72936
G1 X195.351 Y100.604 E51.75012
G1 X195.52 Y100.328 E51.77127
G1 X195.616 Y100.014 E51.79274
G1 X195.63 Y99.665 E51.81557
G1 X195.371 Y96.729 E52.00826
G1 X195.297 Y96.39 E52.03095
G1 X195.153 Y96.107 E52.05171
G1 X194.887 Y95.817 E52.07743
G1 X194.623 Y95.654 E52.09772
G1 X194.306 Y95.558 E52.11937
G1 X193.958 Y95.544 E52.14214
G1 X183.713 Y96.441 E52.81448
G1 X182.75 Y96.448 E52.87744
G1 X181.761 Y96.296 E52.94286
G1 X180.863 Y96.01 E53.00447
G1 X179.925 Y95.534 E53.07324
G1 F4809.5 X179.17 Y94.985 E53.13414
G1 X177.953 Y93.791 E53.24538
G1 F4800 X177.328 Y93.377 E53.2944
G1 X176.64 Y93.106 E53.34274
G1 X175.952 Y92.971 E53.38857
G1 X175.233 Y92.967 E53.43558
G1 X130.137 Y96.912 E56.39504
G1 X125.643 Y97.229 E56.68957
G1 X121.115 Y97.395 E56.98579
G1 X116.604 Y97.409 E57.28071
G1 X112.079 Y97.271 E57.57667
G1 X107.561 Y96.98 E57.87265
G1 X103.098 Y96.541 E58.16583
G1 X98.59 Y95.946 E58.46311
G1 X94.148 Y95.204 E58.75753
G1 X89.695 Y94.306 E59.05451
G1 X85.311 Y93.266 E59.34907
G1 X80.952 Y92.076 E59.64448
G1 X76.633 Y90.745 E59.93994
G1 X72.35 Y89.258 E60.23634
G1 X70.653 Y88.716 E60.35281
G1 X68.87 Y88.307 E60.4724
G1 X67.103 Y88.056 E60.58908
G1 X65.274 Y87.948 E60.70886
G1 X63.469 Y87.994 E60.8269
G1 X61.679 Y88.188 E60.94461
G1 X59.905 Y88.534 E61.06277
G1 X58.152 Y89.029 E61.18186
G1 X56.477 Y89.658 E61.29883
G1 X54.836 Y90.435 E61.41753
G1 X53.26 Y91.348 E61.5366
G1 X51.798 Y92.366 E61.65307
G1 X50.402 Y93.527 E61.77177
G1 X49.097 Y94.806 E61.89123
G1 X47.916 Y96.178 E62.00958
G1 X46.862 Y97.629 E62.12683
G1 X45.91 Y99.204 E62.24715
G1 X45.271 Y100.23 E62.32617
G1 X44.48 Y101.226 E62.40932
G1 X43.817 Y101.906 E62.47141
G1 X43.431 Y102.249 E62.50517
G1 X42.722 Y102.831 E62.56513
G1 X41.746 Y103.467 E62.64129
G1 X40.665 Y104.022 E62.72073
G1 X39.489 Y104.471 E62.80303
G1 X38.306 Y104.777 E62.88292
G1 X37.078 Y104.957 E62.96405
G1 X32.831 Y105.327 E63.24276
G1 X31.791 Y105.495 E63.31163
G1 X30.811 Y105.808 E63.37889
G1 X29.878 Y106.263 E63.44675
G1 X28.984 Y106.878 E63.51769
G1 X28.217 Y107.599 E63.58651
G1 X27.578 Y108.409 E63.65396
G1 X27.055 Y109.325 E63.72292
G1 X26.675 Y110.302 E63.79145
G1 X26.443 Y111.315 E63.85939
G1 X26.367 Y112.41 E63.93115
G1 X26.448 Y113.458 E63.99987
G1 X26.678 Y114.458 E64.06695
G1 X27.056 Y115.429 E64.13507
G1 X27.567 Y116.322 E64.20234
G1 X28.215 Y117.148 E64.27097
G1 X28.967 Y117.858 E64.33859
G1 X29.813 Y118.451 E64.40613
G1 X30.75 Y118.921 E64.47466
G1 X31.725 Y119.241 E64.54175
G1 X32.81 Y119.427 E64.61371
G1 X33.843 Y119.444 E64.68126
G1 X34.891 Y119.306 E64.75036
G1 X35.91 Y119.013 E64.81968
G1 X36.839 Y118.588 E64.88647
G1 X37.724 Y118.014 E64.95543
G1 X38.51 Y117.32 E65.02398
G1 X39.2 Y116.49 E65.09454
G1 X39.742 Y115.601 E65.16261
G1 X40.142 Y114.651 E65.23
G1 X40.409 Y113.628 E65.29912
G1 X40.515 Y112.619 E65.36545
G1 X40.468 Y111.449 E65.442
G1 X40.547 Y111.254 E65.45576
G0 X40.698 Y111.186
G0 X40.732 Y111.183
G0 X40.395 Y110.621
G0 X39.571 Y113.918
G0 X39.226 Y114.917
G0 X38.765 Y115.789
G0 X38.123 Y116.628
G0 X37.361 Y117.339
G0 X36.487 Y117.919
G0 X35.537 Y118.344
G0 X34.724 Y118.556
G0 X33.437 Y118.758
G0 X33.456 Y118.505
G1 X32.498 Y118.431 E65.51857
G1 X31.511 Y118.193 E65.58495
G1 X30.566 Y117.788 E65.65216
G1 X29.713 Y117.238 E65.71852
G1 X28.973 Y116.56 E65.78413
G1 X28.359 Y115.79 E65.84851
G1 X27.87 Y114.918 E65.91387
G1 X27.515 Y113.912 E65.98362
G1 X27.342 Y112.91 E66.05009
G1 X27.339 Y111.889 E66.11684
G1 X27.507 Y110.875 E66.18404
G1 X27.848 Y109.892 E66.25206
G1 X28.301 Y109.046 E66.3148
G1 X28.914 Y108.249 E66.38053
G1 X29.667 Y107.553 E66.44757
G1 X30.523 Y106.991 E66.51451
G1 X31.456 Y106.581 E66.58114
G1 X32.413 Y106.337 E66.6457
G1 X33.427 Y106.249 E66.71225
G1 X34.385 Y106.323 E66.77506
G1 X35.432 Y106.582 E66.84557
G1 X36.304 Y106.96 E66.90771
G1 X37.188 Y107.531 E66.97651
G1 X37.883 Y108.165 E67.03801
G1 X38.549 Y109.004 E67.10804
G1 X39.039 Y109.897 E67.17463
G1 X39.374 Y110.861 E67.24135
G1 X39.542 Y111.863 E67.30777
G1 X39.544 Y112.874 E67.37387
G1 X39.378 Y113.878 E67.4404
G1 X39.045 Y114.843 E67.50714
G1 X38.6 Y115.683 E67.56928
G1 X37.979 Y116.494 E67.63606
G1 X37.244 Y117.18 E67.70179
G1 X36.381 Y117.751 E67.76944
G1 X35.466 Y118.159 E67.83494
G1 X34.465 Y118.419 E67.90255
G1 X33.456 Y118.505 E67.96875
G0 X33.257 Y118.49
G0 X33.238 Y118.743
G0 X34.532 Y118.607
G0 X35.537 Y118.344
G0 X36.487 Y117.919
G0 X37.361 Y117.339
G0 X38.123 Y116.628
G0 X38.765 Y115.789
G0 X39.226 Y114.917
G0 X39.536 Y114.018
G0 X40.003 Y110.908
G0 X39.976 Y111.468
;TYPE:WALL-INNER
G1 F5647.1 X40.013 Y111.862 E67.99467
G1 F5931.4 X40.033 Y112.771 E68.05137
G1 F5721.9 X39.895 Y113.786 E68.11758
G1 F5514.9 X39.68 Y114.495 E68.16726
G1 F5526.7 X39.407 Y115.207 E68.21829
G1 F5684.2 X38.919 Y116.068 E68.28268
G1 F5721.9 X38.258 Y116.897 E68.35122
