;FLAVOR:Marlin
;TIME:287
;Filament used: 0.70226m
;Layer height: 0.4
;MINX:116.485
;MINY:118.012
;MINZ:0.4
;MAXX:183.511
;MAXY:181.987
;MAXZ:4
;Generated with Cura_SteamEngine 5.4.0
M140 S90
M105
M190 S90
M104 S230
M105
M109 S230
M82 ;absolute extrusion mode
G28 ; home all axes
 M117 Purge extruder
 G92 E0 ; reset extruder
 G1 Z1.0 F3000 ; move z up little to prevent scratching of surface
 G1 X2 Y20 Z0.3 F5000.0 ; move to start-line position
 G1 X2 Y200.0 Z0.3 F1500.0 E15 ; draw 1st line
 G1 X2 Y200.0 Z0.4 F5000.0 ; move to side a little
 G1 X2 Y20 Z0.4 F1500.0 E30 ; draw 2nd line
 G92 E0 ; reset extruder
 G1 Z1.0 F3000 ; move z up little to prevent scratching of surface
G92 E0
G92 E0
G1 F1500 E-2
;LAYER_COUNT:10
;LAYER:0
M107
G0 F6000 X120.37 Y133.233 Z0.4
;TYPE:SKIRT
G1 F1500 E0
G1 F600 X121.428 Y132.33 E0.18505
G1 X121.66 Y132.157 E0.22356
G1 X122.461 Y131.611 E0.35252
G1 X122.953 Y131.324 E0.4283
G1 X123.601 Y130.968 E0.52667
G1 X124.196 Y130.662 E0.61568
G1 X124.885 Y130.346 E0.71653
G1 X125.739 Y129.99 E0.83962
G1 X126.59 Y129.677 E0.96025
G1 X127.391 Y129.42 E1.07217
G1 X128.061 Y129.228 E1.16489
G1 X128.789 Y129.05 E1.2646
G1 X130.061 Y128.77 E1.43788
G1 X132.542 Y128.186 E1.77697
G1 X134.981 Y127.538 E2.11272
G1 X137.395 Y126.824 E2.44763
G1 X139.768 Y126.048 E2.77979
G1 X142.127 Y125.201 E3.11325
G1 X144.491 Y124.277 E3.45093
G1 X146.763 Y123.314 E3.77922
G1 X150.291 Y121.669 E4.29711
G1 X151.642 Y121.008 E4.4972
G1 X152.412 Y120.663 E4.60946
G1 X153.144 Y120.357 E4.71501
G1 X154.189 Y119.953 E4.86407
G1 X155.177 Y119.61 E5.0032
G1 X155.963 Y119.363 E5.11282
G1 X156.658 Y119.163 E5.20903
G1 X157.504 Y118.942 E5.32536
G1 X158.529 Y118.709 E5.46521
G1 X159.354 Y118.543 E5.57716
G1 X160.305 Y118.382 E5.70549
G1 X161.175 Y118.261 E5.82235
G1 X162.579 Y118.117 E6.01012
G1 X163.415 Y118.06 E6.1216
G1 X164.132 Y118.028 E6.21708
G1 X164.94 Y118.012 E6.3246
G1 X166.019 Y118.024 E6.46816
G1 X166.868 Y118.058 E6.5812
G1 X167.892 Y118.129 E6.71776
G1 X168.709 Y118.209 E6.82697
G1 X169.774 Y118.346 E6.96983
G1 X170.603 Y118.478 E7.08151
G1 X171.616 Y118.67 E7.21868
G1 X172.516 Y118.868 E7.34128
G1 X173.463 Y119.125 E7.47183
G1 X173.818 Y119.239 E7.52143
G1 X174.755 Y119.588 E7.65446
G1 X175.234 Y119.803 E7.72431
G1 X175.699 Y120.027 E7.79297
G1 X176.555 Y120.487 E7.92226
G1 X177.117 Y120.844 E8.01084
G1 X177.475 Y121.087 E8.0684
G1 X178.284 Y121.692 E8.2028
G1 X178.837 Y122.176 E8.30057
G1 X179.194 Y122.51 E8.36561
G1 X179.898 Y123.231 E8.49968
G1 X180.363 Y123.786 E8.596
G1 X180.64 Y124.14 E8.65581
G1 X181.224 Y124.961 E8.78985
G1 X181.592 Y125.571 E8.88463
G1 X181.812 Y125.964 E8.94455
G1 X182.264 Y126.864 E9.07853
G1 X182.522 Y127.491 E9.16874
G1 X182.689 Y127.937 E9.2321
G1 X182.972 Y128.804 E9.35343
G1 X183.154 Y129.541 E9.45443
G1 X183.255 Y130.021 E9.51969
G1 X183.418 Y131.015 E9.65369
G1 X183.478 Y131.701 E9.74531
G1 X183.502 Y132.147 E9.80473
G1 X183.511 Y133.122 E9.93445
G1 X183.463 Y133.841 E10.03032
G1 X183.402 Y134.452 E10.11201
G1 X183.313 Y135.134 E10.20351
G1 X182.858 Y138.137 E10.60759
G1 X182.559 Y140.612 E10.93926
G1 X182.329 Y143.116 E11.2738
G1 X182.17 Y145.621 E11.60774
G1 X182.082 Y148.115 E11.93975
G1 X182.065 Y150.648 E12.27675
G1 X182.119 Y153.18 E12.61368
G1 X182.242 Y155.647 E12.9423
G1 X182.439 Y158.176 E13.27978
G1 X182.704 Y160.651 E13.61094
G1 X183.041 Y163.146 E13.94589
G1 X183.21 Y164.202 E14.08816
G1 X183.404 Y165.58 E14.2733
G1 X183.496 Y166.549 E14.4028
G1 X183.51 Y167.278 E14.4998
G1 X183.502 Y167.79 E14.56793
G1 X183.443 Y168.763 E14.69761
G1 X183.348 Y169.455 E14.79054
G1 X183.271 Y169.905 E14.85128
G1 X183.08 Y170.796 E14.97251
G1 X182.875 Y171.499 E15.06994
G1 X182.713 Y171.99 E15.13872
G1 X182.367 Y172.9 E15.26824
G1 X182.046 Y173.583 E15.36865
G1 X181.841 Y173.982 E15.42833
G1 X181.341 Y174.856 E15.56229
G1 X180.96 Y175.419 E15.65273
G1 X180.673 Y175.815 E15.71779
G1 X180.068 Y176.576 E15.84713
G1 X179.596 Y177.086 E15.93958
G1 X179.258 Y177.428 E16.00355
G1 X178.543 Y178.091 E16.13328
G1 X177.994 Y178.527 E16.22655
G1 X177.585 Y178.831 E16.29435
G1 X176.778 Y179.378 E16.42405
G1 X176.145 Y179.739 E16.521
G1 X175.745 Y179.95 E16.58117
G1 X174.89 Y180.354 E16.70697
G1 X174.164 Y180.633 E16.81045
G1 X173.63 Y180.816 E16.88555
G1 X172.534 Y181.129 E17.03719
G1 X171.714 Y181.311 E17.14894
G1 X170.699 Y181.505 E17.28642
G1 X169.698 Y181.665 E17.42128
G1 X168.816 Y181.78 E17.53962
G1 X168.137 Y181.85 E17.63043
G1 X167.277 Y181.919 E17.74521
G1 X166.25 Y181.97 E17.88201
G1 X165.401 Y181.987 E17.99499
G1 X164.322 Y181.976 E18.13855
G1 X163.189 Y181.927 E18.28942
G1 X162.188 Y181.85 E18.42299
G1 X161.642 Y181.794 E18.49601
G1 X160.258 Y181.611 E18.68174
G1 X159.47 Y181.477 E18.78808
G1 X158.429 Y181.271 E18.92926
G1 X157.873 Y181.146 E19.00508
G1 X156.881 Y180.896 E19.14118
G1 X155.789 Y180.583 E19.29231
G1 X154.797 Y180.262 E19.43103
G1 X154.02 Y179.985 E19.54077
G1 X153.34 Y179.724 E19.63768
G1 X152.569 Y179.406 E19.74863
G1 X151.304 Y178.83 E19.93355
G1 X150.13 Y178.255 E20.10747
G1 X147.833 Y177.167 E20.44561
G1 X145.531 Y176.157 E20.78005
G1 X143.211 Y175.214 E21.11323
G1 X140.85 Y174.333 E21.44849
G1 X138.478 Y173.523 E21.78196
G1 X136.049 Y172.77 E22.12029
G1 X133.724 Y172.12 E22.44147
G1 X129.957 Y171.208 E22.95711
G1 X128.494 Y170.88 E23.15658
G1 X128.007 Y170.757 E23.2234
G1 X127.453 Y170.601 E23.29997
G1 X126.783 Y170.389 E23.39347
G1 X125.809 Y170.04 E23.53112
G1 X125.121 Y169.758 E23.63004
G1 X124.612 Y169.534 E23.70402
G1 X123.948 Y169.214 E23.80209
G1 X123.29 Y168.869 E23.90093
G1 X122.418 Y168.359 E24.03533
G1 X121.636 Y167.818 E24.16183
G1 X120.863 Y167.213 E24.29243
G1 X120.15 Y166.549 E24.42205
G1 X119.624 Y165.976 E24.52553
G1 X119.39 Y165.701 E24.57357
G1 X118.829 Y164.982 E24.6949
G1 X118.261 Y164.107 E24.83368
G1 X117.847 Y163.344 E24.94917
G1 X117.458 Y162.519 E25.07052
G1 X117.097 Y161.539 E25.20947
G1 X116.862 Y160.7 E25.32538
G1 X116.652 Y159.722 E25.45846
G1 X116.502 Y158.311 E25.64724
G1 X116.487 Y157.932 E25.6977
G1 X116.498 Y156.862 E25.84006
G1 X116.59 Y155.369 E26.03907
G1 X116.707 Y152.794 E26.382
G1 X116.75 Y150.274 E26.71731
G1 X116.722 Y147.779 E27.04927
G1 X116.577 Y144.421 E27.49644
G1 X116.499 Y143.146 E27.66638
G1 X116.485 Y142.102 E27.80529
G1 X116.497 Y141.762 E27.85055
G1 X116.581 Y140.748 E27.98591
G1 X116.732 Y139.849 E28.10719
G1 X116.888 Y139.199 E28.19613
G1 X116.987 Y138.84 E28.24567
G1 X117.266 Y137.972 E28.36697
G1 X117.671 Y137.012 E28.50559
G1 X118.06 Y136.257 E28.61858
G1 X118.56 Y135.412 E28.74921
G1 X119.127 Y134.62 E28.87879
G1 X119.682 Y133.958 E28.99372
G1 X120.37 Y133.233 E29.12669
G0 F6000 X120.89 Y133.841
G1 F600 X121.908 Y132.97 E29.30494
G1 X122.112 Y132.817 E29.33886
G1 X122.865 Y132.302 E29.46023
G1 X123.339 Y132.025 E29.53327
G1 X123.968 Y131.679 E29.62878
G1 X124.53 Y131.389 E29.71292
G1 X125.193 Y131.084 E29.81001
G1 X126.015 Y130.741 E29.92851
G1 X126.835 Y130.439 E30.04476
G1 X127.612 Y130.189 E30.15335
G1 X128.251 Y130.005 E30.24182
G1 X128.961 Y129.831 E30.33907
G1 X130.244 Y129.549 E30.51384
G1 X132.725 Y128.965 E30.85293
G1 X135.203 Y128.307 E31.19403
G1 X137.628 Y127.589 E31.5305
G1 X140.034 Y126.802 E31.86729
G1 X142.404 Y125.952 E32.20226
G1 X144.803 Y125.014 E32.54495
G1 X147.075 Y124.051 E32.87325
G1 X150.643 Y122.388 E33.39697
G1 X151.994 Y121.727 E33.59706
G1 X152.721 Y121.401 E33.70306
G1 X153.432 Y121.103 E33.80563
G1 X154.452 Y120.709 E33.9511
G1 X155.417 Y120.373 E34.08705
G1 X156.184 Y120.132 E34.19401
G1 X156.861 Y119.937 E34.28774
G1 X157.682 Y119.722 E34.40065
G1 X158.686 Y119.493 E34.53765
G1 X159.488 Y119.332 E34.64648
G1 X160.439 Y119.171 E34.7748
G1 X161.257 Y119.057 E34.88468
G1 X162.634 Y118.915 E35.06885
G1 X163.451 Y118.859 E35.1778
G1 X164.148 Y118.828 E35.27062
G1 X164.932 Y118.812 E35.37494
G1 X165.987 Y118.823 E35.51531
G1 X166.813 Y118.856 E35.62529
G1 X167.815 Y118.925 E35.75891
G1 X168.607 Y119.002 E35.86477
G1 X169.649 Y119.136 E36.00454
G1 X170.455 Y119.264 E36.11312
G1 X171.445 Y119.451 E36.24716
G1 X172.307 Y119.64 E36.36456
G1 X173.218 Y119.887 E36.49014
G1 X173.573 Y120.001 E36.53974
G1 X174.428 Y120.318 E36.66106
G1 X174.888 Y120.524 E36.72811
G1 X175.322 Y120.732 E36.79214
G1 X176.126 Y121.162 E36.91344
G1 X176.668 Y121.506 E36.99885
G1 X177.026 Y121.749 E37.05641
G1 X177.757 Y122.294 E37.17772
G1 X178.29 Y122.76 E37.27191
G1 X178.647 Y123.094 E37.33695
G1 X179.285 Y123.745 E37.45822
G1 X179.733 Y124.279 E37.55095
G1 X180.01 Y124.633 E37.61075
G1 X180.539 Y125.375 E37.73199
G1 X180.894 Y125.962 E37.82326
G1 X181.114 Y126.355 E37.88318
G1 X181.524 Y127.169 E38.00443
G1 X181.773 Y127.773 E38.09135
G1 X181.928 Y128.185 E38.14991
G1 X182.211 Y129.052 E38.27125
G1 X182.371 Y129.706 E38.36082
G1 X182.472 Y130.186 E38.42608
G1 X182.621 Y131.085 E38.54732
G1 X182.679 Y131.746 E38.63559
G1 X182.702 Y132.157 E38.69036
G1 X182.713 Y133.069 E38.8117
G1 X182.667 Y133.762 E38.9041
G1 X182.609 Y134.348 E38.98244
G1 X182.522 Y135.014 E39.0718
G1 X182.067 Y138.017 E39.47588
G1 X181.762 Y140.539 E39.81385
G1 X181.532 Y143.043 E40.14839
G1 X181.37 Y145.593 E40.48833
G1 X181.282 Y148.087 E40.82034
G1 X181.265 Y150.643 E41.1604
G1 X181.319 Y153.202 E41.50092
G1 X181.444 Y155.709 E41.83487
G1 X181.642 Y158.238 E42.17236
G1 X181.911 Y160.758 E42.50953
G1 X182.251 Y163.273 E42.84717
G1 X182.418 Y164.314 E42.98743
G1 X182.608 Y165.657 E43.16788
G1 X182.696 Y166.565 E43.28925
G1 X182.71 Y167.266 E43.38253
G1 X182.703 Y167.744 E43.44613
G1 X182.65 Y168.655 E43.56754
G1 X182.559 Y169.322 E43.6571
G1 X182.489 Y169.737 E43.71309
G1 X182.298 Y170.628 E43.83432
G1 X182.115 Y171.25 E43.92058
G1 X181.965 Y171.707 E43.98457
G1 X181.643 Y172.56 E44.10587
G1 X181.334 Y173.217 E44.20246
G1 X181.129 Y173.616 E44.26214
G1 X180.678 Y174.408 E44.3834
G1 X180.311 Y174.951 E44.47059
G1 X180.046 Y175.318 E44.53081
G1 X179.48 Y176.033 E44.65213
G1 X179.026 Y176.525 E44.7412
G1 X178.713 Y176.843 E44.80056
G1 X178.045 Y177.465 E44.922
G1 X177.516 Y177.886 E45.01194
G1 X177.135 Y178.17 E45.07516
G1 X176.381 Y178.683 E45.19649
G1 X175.772 Y179.031 E45.28981
G1 X175.372 Y179.242 E45.34997
G1 X174.548 Y179.631 E45.4712
G1 X173.904 Y179.877 E45.56292
G1 X173.41 Y180.047 E45.63242
G1 X172.36 Y180.348 E45.77774
G1 X171.564 Y180.525 E45.88623
G1 X170.572 Y180.715 E46.0206
G1 X169.595 Y180.872 E46.15225
G1 X168.733 Y180.984 E46.2679
G1 X168.073 Y181.053 E46.35618
G1 X167.237 Y181.12 E46.46776
G1 X166.234 Y181.17 E46.60137
G1 X165.409 Y181.187 E46.71115
G1 X164.357 Y181.177 E46.85111
G1 X163.25 Y181.129 E46.99853
G1 X162.269 Y181.054 E47.12942
G1 X161.747 Y181.001 E47.19922
G1 X160.392 Y180.822 E47.38106
G1 X159.625 Y180.692 E47.48456
G1 X158.605 Y180.491 E47.62287
G1 X158.068 Y180.37 E47.6961
G1 X157.101 Y180.127 E47.82875
G1 X156.035 Y179.822 E47.97626
G1 X155.066 Y179.509 E48.11174
G1 X154.307 Y179.238 E48.21896
G1 X153.645 Y178.984 E48.31329
G1 X152.874 Y178.666 E48.42425
G1 X151.656 Y178.112 E48.60227
G1 X150.473 Y177.532 E48.77755
G1 X148.166 Y176.439 E49.11718
G1 X145.852 Y175.424 E49.45335
G1 X143.491 Y174.464 E49.79243
G1 X141.13 Y173.583 E50.1277
G1 X138.715 Y172.759 E50.46718
G1 X136.286 Y172.006 E50.80551
G1 X133.912 Y171.342 E51.13347
G1 X130.145 Y170.43 E51.64911
G1 X128.689 Y170.104 E51.84761
G1 X128.224 Y169.987 E51.9114
G1 X127.694 Y169.838 E51.98465
G1 X127.024 Y169.626 E52.07814
G1 X126.112 Y169.3 E52.20699
G1 X125.443 Y169.026 E52.30317
G1 X124.959 Y168.813 E52.37352
G1 X124.319 Y168.505 E52.46802
G1 X123.661 Y168.16 E52.56686
G1 X122.872 Y167.701 E52.6883
G1 X122.127 Y167.187 E52.80872
G1 X121.407 Y166.627 E52.93007
G1 X120.739 Y166.007 E53.05132
G1 X120.232 Y165.456 E53.15093
G1 X120.021 Y165.209 E53.19415
G1 X119.46 Y164.49 E53.31548
G1 X118.964 Y163.725 E53.43678
G1 X118.571 Y163.003 E53.54614
G1 X118.182 Y162.178 E53.66749
G1 X117.867 Y161.322 E53.78884
G1 X117.643 Y160.528 E53.8986
G1 X117.447 Y159.637 E54.01997
G1 X117.301 Y158.278 E54.20181
G1 X117.287 Y157.94 E54.24682
G1 X117.298 Y156.87 E54.38918
G1 X117.388 Y155.419 E54.58259
G1 X117.507 Y152.808 E54.93032
G1 X117.55 Y150.288 E55.26563
G1 X117.522 Y147.77 E55.60065
G1 X117.376 Y144.387 E56.05114
G1 X117.299 Y143.135 E56.21802
G1 X117.285 Y142.13 E56.35174
G1 X117.297 Y141.79 E56.39701
G1 X117.37 Y140.881 E56.51833
G1 X117.521 Y139.982 E56.63961
G1 X117.66 Y139.41 E56.71792
G1 X117.749 Y139.085 E56.76275
G1 X118.028 Y138.217 E56.88405
G1 X118.383 Y137.377 E57.00537
G1 X118.75 Y136.662 E57.1123
G1 X119.212 Y135.876 E57.23359
G1 X119.741 Y135.133 E57.35494
G1 X120.265 Y134.506 E57.46365
G1 X120.89 Y133.841 E57.58506
G1 F1500 E55.58506
;MESH:connector.stl
G0 F6000 X132.796 Y156.591
G0 X132.608 Y159.099
;TYPE:WALL-INNER
G1 F1500 E57.58506
G1 F684.7 X133.364 Y159.146 E57.67336
G1 F683.8 X134.144 Y159.128 E57.76445
G1 F681.8 X134.882 Y159.052 E57.85131
G1 X135.627 Y158.911 E57.94008
G1 F683.8 X136.391 Y158.7 E58.03261
G1 F685.7 X137.082 Y158.445 E58.11835
G1 F686.7 X137.778 Y158.119 E58.20769
G1 F684.7 X138.462 Y157.724 E58.29977
G1 F682.8 X139.077 Y157.298 E58.38723
G1 X139.674 Y156.808 E58.47753
G1 F684.7 X140.222 Y156.274 E58.56673
G1 F686.7 X140.717 Y155.704 E58.65448
G1 F684.7 X141.154 Y155.105 E58.74092
G1 F682.8 X141.579 Y154.406 E58.83656
G1 F662.1 X142.108 Y153.342 E58.97982
G1 F630.7 X142.54 Y152.88 E59.05987
G1 F609.9 X142.877 Y152.684 E59.1109
G1 F600 X143.156 Y152.567 E59.15115
G1 X143.425 Y152.491 E59.18833
G1 X143.694 Y152.456 E59.22442
G1 X144.088 Y152.451 E59.27685
G1 X144.507 Y152.543 E59.33392
G1 X144.765 Y152.642 E59.37068
G1 X145.108 Y152.819 E59.42203
G1 X145.421 Y153.095 E59.47755
G1 F608.4 X145.603 Y153.32 E59.51552
G1 F634.9 X145.823 Y153.695 E59.57018
G1 F666.7 X145.917 Y153.972 E59.60521
G1 F680.9 X146.246 Y155.302 E59.76584
G1 F682.8 X146.602 Y156.44 E59.90524
G1 F683.8 X147.001 Y157.492 E60.03659
G1 F685.7 X147.486 Y158.575 E60.17473
G1 F686.7 X148.017 Y159.593 E60.3082
G1 F687.7 X148.69 Y160.703 E60.45888
G1 F685.7 X149.263 Y161.542 E60.57715
G1 F683.8 X149.957 Y162.441 E60.70974
G1 F682.8 X150.751 Y163.351 E60.85093
G1 F681.8 X151.534 Y164.149 E60.98182
G1 F682.8 X152.404 Y164.939 E61.1192
G1 X153.311 Y165.669 E61.25532
G1 X154.247 Y166.334 E61.38955
G1 F683.8 X155.235 Y166.952 E61.5256
G1 F684.7 X156.251 Y167.509 E61.66067
G1 X157.303 Y168.007 E61.79636
G1 F686.7 X158.364 Y168.433 E61.92926
G1 X159.492 Y168.81 E62.06752
G1 F685.7 X160.583 Y169.105 E62.19908
G1 F684.7 X161.742 Y169.347 E62.33711
G1 F683.8 X162.854 Y169.51 E62.46831
G1 X164.03 Y169.613 E62.60613
G1 F682.8 X165.185 Y169.647 E62.74122
G1 X166.336 Y169.611 E62.87585
G1 X167.516 Y169.507 E63.01433
G1 F683.8 X168.624 Y169.341 E63.14513
G1 F684.7 X169.761 Y169.101 E63.2806
G1 F689.7 X170.04 Y169.015 E63.31439
G1 F692.6 X170.288 Y168.89 E63.3464
G1 X170.516 Y168.727 E63.3787
G1 X170.721 Y168.527 E63.4117
G1 X170.897 Y168.292 E63.44554
G1 X171.024 Y168.052 E63.47683
G1 X171.093 Y167.86 E63.50034
G1 X170.946 Y167.992 E63.52311
G1 F691.6 X170.699 Y168.123 E63.55538
G1 F689.7 X169.434 Y168.462 E63.70697
G1 F688.7 X168.216 Y168.702 E63.85086
G1 F690.6 X167.04 Y168.856 E63.98794
G1 X165.778 Y168.937 E64.1341
G1 X164.566 Y168.938 E64.27419
G1 X163.388 Y168.866 E64.41059
G1 F689.7 X162.172 Y168.711 E64.55248
G1 F688.7 X160.98 Y168.482 E64.69317
G1 F687.7 X159.802 Y168.175 E64.83448
G1 X158.587 Y167.773 E64.98303
G1 X157.456 Y167.31 E65.12489
G1 F688.7 X156.352 Y166.775 E65.26709
G1 F689.7 X155.311 Y166.186 E65.40553
G1 X154.283 Y165.515 E65.54762
G1 X153.325 Y164.796 E65.68626
G1 X152.392 Y163.999 E65.82829
G1 X151.512 Y163.14 E65.97062
G1 F688.7 X150.711 Y162.254 E66.10907
G1 F687.7 X149.941 Y161.283 E66.25292
G1 F686.7 X149.203 Y160.215 E66.40382
G1 X148.58 Y159.168 E66.54545
G1 F689.7 X148.032 Y158.097 E66.6847
G1 X147.55 Y156.984 E66.82508
G1 X147.135 Y155.83 E66.96703
G1 X146.799 Y154.67 E67.10681
G1 F684.7 X146.605 Y153.811 E67.20947
G1 F666.7 X146.517 Y153.462 E67.25257
G1 F626.6 X146.348 Y152.594 E67.36522
G1 F600 X146.306 Y152.324 E67.40157
G1 X146.181 Y150.941 E67.58631
G1 X146.246 Y150.641 E67.62715
G1 X146.374 Y150.362 E67.66799
