; generated by PrusaSlicer 2.8.1+win64 on 2025-01-14 at 11:02:21 UTC

; 

; external perimeters extrusion width = 0.44mm
; perimeters extrusion width = 0.44mm
; infill extrusion width = 0.44mm
; solid infill extrusion width = 0.44mm
; top infill extrusion width = 0.40mm
; first layer extrusion width = 0.44mm

M73 P0 R14
;TYPE:Custom
;G28 ; home all axes
;G1 Z5 F5000 ; lift nozzle
M109 S205
G28 ;home
G92 E0 ;Reset Extruder
G1 Z4.0 F3000 ;Move Z Axis up
G92 E0 ;Reset Extruder
G1 X3.1 Y20 Z0.28 F5000.0 ;Move to start position
G1 X3.1 Y80.0 Z0.28 F1500.0 E10 ;Draw the first line
G1 X3.4 Y80.0 Z0.28 F5000.0 ;Move to side a little
G1 X3.4 Y20 Z0.28 F1500.0 E20 ;Draw the second line
G92 E0 ;Reset Extruder
G1 Z2.0 F3000 ;Move Z Axis up
G21 ; set units to millimeters
G90 ; use absolute coordinates
M82 ; use absolute distances for extrusion
G92 E0
; Filament gcode
M107
;LAYER_CHANGE
;Z:0.3
;HEIGHT:0.3
G1 E-2 F2400
G1 Z.7 F9000
G1 X77.746 Y86.275
G1 Z.3
G1 E0 F2400
;TYPE:Skirt/Brim
;WIDTH:0.44
G1 F1800
G1 X79.14 Y85.459 E.07189
G1 X79.607 Y85.263 E.09443
G1 X81.201 Y84.831 E.16793
G1 X82.507 Y84.712 E.2263
G1 X130.493 Y84.712 E2.36201
G1 X131.301 Y84.765 E2.39805
G1 X133.315 Y85.233 E2.49008
G1 X133.773 Y85.42 E2.5121
G1 X135.178 Y86.22 E2.58406
G1 X135.581 Y86.526 E2.60658
G1 X158.367 Y105.551 E3.92773
G1 X159.786 Y107.253 E4.02635
M73 P1 R14
G1 X160.588 Y110.3 E4.16658
G1 X160.588 Y144.1 E5.67091
G1 X160.191 Y146.28 E5.76953
G1 X159.052 Y148.181 E5.86816
G1 X157.316 Y149.558 E5.96678
G1 X154.4 Y150.288 E6.10057
G1 X82.507 Y150.288 E9.3003
G1 X81.212 Y150.171 E9.35817
G1 X79.685 Y149.766 E9.42848
G1 X79.215 Y149.575 E9.45106
G1 X77.784 Y148.754 E9.52449
G1 X77.399 Y148.459 E9.54608
G1 X75.968 Y146.945 E9.6388
G1 X75.139 Y145.518 E9.71225
G1 X74.531 Y143.499 E9.8061
G1 X74.412 Y142.193 E9.86447
G1 X74.412 Y92.807 E12.06249
G1 X74.531 Y91.501 E12.12086
M73 P1 R13
G1 X74.949 Y89.941 E12.19274
G1 X75.92 Y88.123 E12.28447
G1 X76.219 Y87.728 E12.30652
G1 X77.702 Y86.317 E12.39763
G1 E10.39763 F2400
G92 E0
G1 X77.702 Y86.317 Z.7 F9000
G92 E0
G1 X147.083 Y112.811
G1 Z.3
G1 E2 F2400
;TYPE:External perimeter
;WIDTH:0.44
G1 F1080
G1 X147.03 Y112.918 E2.00531
G1 X147.03 Y141.482 E3.2766
G1 X147.105 Y141.632 E3.28406
M73 P2 R13
G1 X147.218 Y141.67 E3.28937
G1 X154.03 Y141.67 E3.59255
G1 X154.03 Y142.7 E3.63839
G1 X154.03 Y143.73 E3.68423
G1 X82.64 Y143.73 E6.86157
G1 X82.105 Y143.674 E6.88551
G1 X81.737 Y143.522 E6.90323
G1 X81.421 Y143.279 E6.92097
G1 X81.178 Y142.963 E6.93871
G1 X81.026 Y142.595 E6.95643
G1 X80.97 Y142.169 E6.97555
G1 X80.97 Y92.94 E9.16658
G1 X81.026 Y92.405 E9.19052
G1 X81.178 Y92.037 E9.20824
G1 X81.421 Y91.721 E9.22598
M73 P3 R13
G1 X81.737 Y91.478 E9.24372
G1 X82.105 Y91.326 E9.26144
G1 X82.531 Y91.27 E9.28056
G1 X130.36 Y91.27 E11.40928
G1 X130.895 Y91.326 E11.43322
G1 X131.263 Y91.478 E11.45094
G1 X131.579 Y91.721 E11.46868
G1 X131.822 Y92.037 E11.48642
G1 X131.974 Y92.405 E11.50414
G1 X132.03 Y92.831 E11.52326
G1 X132.03 Y110.482 E12.30885
G1 X132.074 Y110.603 E12.31458
G1 X132.218 Y110.67 E12.32165
G1 X154.03 Y110.67 E13.29243
G1 X154.03 Y112.73 E13.38411
G1 X147.218 Y112.73 E13.68729
G1 X147.116 Y112.764 E13.69208
G1 X147.038 Y113.156 F9000
G1 E11.69208 F2400
G92 E0
G1 Z.7 F9000
G1 X153.899 Y111.562
G1 Z.3
G1 E2 F2400
;TYPE:Solid infill
;WIDTH:0.440661
G1 F1800
G1 X153.307 Y110.97 E2.03733
G1 X152.775 Y110.97 E2.06105
G1 X153.73 Y111.925 E2.12127
G1 X153.73 Y112.43 E2.14379
G1 X153.702 Y112.43 E2.14504
G1 X152.243 Y110.97 E2.23707
G1 X151.71 Y110.97 E2.26083
G1 X153.169 Y112.43 E2.35286
G1 X152.637 Y112.43 E2.37658
G1 X151.178 Y110.97 E2.46861
G1 X150.646 Y110.97 E2.49233
G1 X152.105 Y112.43 E2.58436
G1 X151.573 Y112.43 E2.60808
G1 X150.114 Y110.97 E2.70011
G1 X149.582 Y110.97 E2.72383
G1 X151.041 Y112.43 E2.81586
G1 X150.509 Y112.43 E2.83958
G1 X149.05 Y110.97 E2.93161
G1 X148.518 Y110.97 E2.95533
G1 X149.977 Y112.43 E3.04736
G1 X149.444 Y112.43 E3.07112
G1 X147.985 Y110.97 E3.16315
G1 X147.453 Y110.97 E3.18687
G1 X148.912 Y112.43 E3.2789
G1 X148.38 Y112.43 E3.30262
G1 X146.921 Y110.97 E3.39465
G1 X146.389 Y110.97 E3.41837
G1 X147.848 Y112.43 E3.5104
G1 X147.316 Y112.43 E3.53412
G1 X145.857 Y110.97 E3.62615
G1 X145.325 Y110.97 E3.64987
G1 X146.903 Y112.549 E3.7494
G1 X146.766 Y112.725 E3.75934
G1 X146.73 Y112.907 E3.76761
G1 X144.793 Y110.97 E3.88974
G1 X144.26 Y110.97 E3.9135
G1 X146.73 Y113.44 E4.06924
G1 X146.73 Y113.972 E4.09296
G1 X143.728 Y110.97 E4.28224
G1 X143.196 Y110.97 E4.30596
G1 X146.73 Y114.504 E4.52879
G1 X146.73 Y115.036 E4.55251
G1 X142.664 Y110.97 E4.80888
G1 X142.132 Y110.97 E4.8326
G1 X146.73 Y115.568 E5.12252
G1 X146.73 Y116.1 E5.14624
G1 X141.6 Y110.97 E5.4697
G1 X141.068 Y110.97 E5.49342
M73 P4 R13
G1 X146.73 Y116.632 E5.85043
G1 X146.73 Y117.165 E5.87419
G1 X140.535 Y110.97 E6.2648
G1 X140.003 Y110.97 E6.28852
G1 X146.73 Y117.697 E6.71268
G1 X146.73 Y118.229 E6.7364
G1 X139.471 Y110.97 E7.1941
G1 X138.939 Y110.97 E7.21782
G1 X146.73 Y118.761 E7.70907
G1 X146.73 Y119.293 E7.73279
G1 X138.407 Y110.97 E8.25758
G1 X137.875 Y110.97 E8.2813
G1 X146.73 Y119.825 E8.83963
G1 X146.73 Y120.357 E8.86335
G1 X137.343 Y110.97 E9.45523
G1 X136.81 Y110.97 E9.47899
G1 X146.73 Y120.89 E10.10447
G1 X146.73 Y121.422 E10.12819
G1 X136.278 Y110.97 E10.78722
G1 X135.746 Y110.97 E10.81094
G1 X146.73 Y121.954 E11.50351
G1 X146.73 Y122.486 E11.52723
G1 X135.214 Y110.97 E12.25335
G1 X134.682 Y110.97 E12.27707
G1 X146.73 Y123.018 E13.03673
G1 X146.73 Y123.55 E13.06045
G1 X134.15 Y110.97 E13.85366
G1 X133.618 Y110.97 E13.87738
G1 X146.73 Y124.082 E14.70413
G1 X146.73 Y124.614 E14.72785
G1 X133.086 Y110.97 E15.58814
G1 X132.553 Y110.97 E15.6119
G1 X146.73 Y125.147 E16.5058
G1 X146.73 Y125.679 E16.52952
G1 X112.621 Y91.57 E18.68019
G1 X113.153 Y91.57 E18.70391
M73 P5 R13
G1 X131.73 Y110.147 E19.87524
G1 X131.73 Y109.614 E19.899
G1 X113.686 Y91.57 E21.03673
G1 X114.218 Y91.57 E21.06045
G1 X131.73 Y109.082 E22.16463
G1 X131.73 Y108.55 E22.18835
G1 X114.75 Y91.57 E23.25899
G1 X115.282 Y91.57 E23.28271
G1 X131.73 Y108.018 E24.3198
G1 X131.73 Y107.486 E24.34352
G1 X115.814 Y91.57 E25.34707
G1 X116.346 Y91.57 E25.37079
G1 X131.73 Y106.954 E26.3408
G1 X131.73 Y106.422 E26.36452
G1 X116.878 Y91.57 E27.30098
G1 X117.41 Y91.57 E27.3247
G1 X131.73 Y105.89 E28.22762
G1 X131.73 Y105.357 E28.25138
M73 P6 R13
G1 X117.943 Y91.57 E29.12069
G1 X118.475 Y91.57 E29.14441
G1 X131.73 Y104.825 E29.98018
G1 X131.73 Y104.293 E30.0039
G1 X119.007 Y91.57 E30.80612
G1 X119.539 Y91.57 E30.82984
G1 X131.73 Y103.761 E31.59852
G1 X131.73 Y103.229 E31.62224
G1 X120.071 Y91.57 E32.35737
G1 X120.603 Y91.57 E32.38109
G1 X131.73 Y102.697 E33.08268
G1 X131.73 Y102.165 E33.1064
G1 X121.135 Y91.57 E33.77445
G1 X121.668 Y91.57 E33.79821
G1 X131.73 Y101.632 E34.43265
G1 X131.73 Y101.1 E34.45637
G1 X122.2 Y91.57 E35.05726
G1 X122.732 Y91.57 E35.08098
G1 X131.73 Y100.568 E35.64833
G1 X131.73 Y100.036 E35.67205
G1 X123.264 Y91.57 E36.20586
G1 X123.796 Y91.57 E36.22958
G1 X131.73 Y99.504 E36.72984
G1 X131.73 Y98.972 E36.75356
G1 X124.328 Y91.57 E37.22028
G1 X124.86 Y91.57 E37.244
G1 X131.73 Y98.44 E37.67717
G1 X131.73 Y97.907 E37.70093
G1 X125.393 Y91.57 E38.1005
G1 X125.925 Y91.57 E38.12422
G1 X131.73 Y97.375 E38.49024
G1 X131.73 Y96.843 E38.51396
G1 X126.457 Y91.57 E38.84644
G1 X126.989 Y91.57 E38.87016
G1 X131.73 Y96.311 E39.16909
G1 X131.73 Y95.779 E39.19281
G1 X127.521 Y91.57 E39.4582
G1 X128.053 Y91.57 E39.48192
M73 P7 R13
G1 X131.73 Y95.247 E39.71377
G1 X131.73 Y94.715 E39.73749
G1 X128.585 Y91.57 E39.93579
G1 X129.118 Y91.57 E39.95955
G1 X131.73 Y94.182 E40.12424
G1 X131.73 Y93.65 E40.14796
G1 X129.65 Y91.57 E40.27911
G1 X130.182 Y91.57 E40.30283
G1 X131.73 Y93.118 E40.40044
G1 X131.73 Y92.851 E40.41234
G1 X131.689 Y92.546 E40.42606
G1 X130.558 Y91.414 E40.4974
G1 E38.4974 F2400
G92 E0
G1 X130.558 Y91.414 Z.7 F9000
G1 X146.899 Y126.38
G1 Z.3
G1 E2 F2400
G1 F1800
G1 X112.089 Y91.57 E4.19487
G1 X111.557 Y91.57 E4.21859
G1 X146.73 Y126.743 E6.43635
G1 X146.73 Y127.275 E6.46007
G1 X111.025 Y91.57 E8.71137
G1 X110.493 Y91.57 E8.73509
G1 X146.73 Y127.807 E11.01994
G1 X146.73 Y128.339 E11.04366
G1 X109.961 Y91.57 E13.36205
G1 X109.428 Y91.57 E13.38581
M73 P8 R13
G1 X146.73 Y128.872 E15.73781
G1 X146.73 Y129.404 E15.76153
G1 X108.896 Y91.57 E18.14707
G1 X108.364 Y91.57 E18.17079
G1 X146.73 Y129.936 E20.58988
G1 X146.73 Y130.468 E20.6136
G1 X107.832 Y91.57 E23.06623
G1 X107.3 Y91.57 E23.08995
M73 P9 R12
G1 X146.73 Y131 E25.57613
G1 X146.73 Y131.532 E25.59985
G1 X106.768 Y91.57 E28.11957
G1 X106.236 Y91.57 E28.14329
G1 X146.73 Y132.064 E30.69655
G1 X146.73 Y132.597 E30.72031
G1 X105.703 Y91.57 E33.30718
G1 X105.171 Y91.57 E33.3309
G1 X146.73 Y133.129 E35.95132
G1 X146.73 Y133.661 E35.97504
M73 P10 R12
G1 X104.639 Y91.57 E38.629
G1 X104.107 Y91.57 E38.65272
G1 X146.73 Y134.193 E41.34022
G1 X146.73 Y134.725 E41.36394
G1 X103.575 Y91.57 E44.08499
G1 X103.043 Y91.57 E44.10871
G1 X146.73 Y135.257 E46.8633
G1 X146.73 Y135.789 E46.88702
M73 P11 R12
G1 X102.511 Y91.57 E49.67516
G1 X101.978 Y91.57 E49.69892
G1 X146.73 Y136.322 E52.52066
G1 X146.73 Y136.854 E52.54438
G1 X101.446 Y91.57 E55.39967
G1 X100.914 Y91.57 E55.42339
G1 X146.73 Y137.386 E58.31222
G1 X146.73 Y137.918 E58.33594
M73 P12 R12
G1 X100.382 Y91.57 E61.25832
G1 X99.85 Y91.57 E61.28204
G1 X146.73 Y138.45 E64.23796
G1 X146.73 Y138.982 E64.26168
G1 X99.318 Y91.57 E67.25114
G1 X98.786 Y91.57 E67.27486
G1 X146.73 Y139.514 E70.29787
G1 X146.73 Y140.047 E70.32163
M73 P13 R12
G1 X98.253 Y91.57 E73.37825
G1 X97.721 Y91.57 E73.40197
G1 X146.73 Y140.579 E76.49213
G1 X146.73 Y141.111 E76.51585
G1 X97.189 Y91.57 E79.63955
G1 X96.657 Y91.57 E79.66327
G1 X148.516 Y143.43 E82.93316
G1 X149.048 Y143.43 E82.95688
M73 P14 R12
G1 X147.589 Y141.97 E83.04891
G1 X148.121 Y141.97 E83.07263
G1 X149.58 Y143.43 E83.16466
G1 X150.112 Y143.43 E83.18838
G1 X148.653 Y141.97 E83.28041
G1 X149.186 Y141.97 E83.30417
G1 X150.645 Y143.43 E83.3962
G1 X151.177 Y143.43 E83.41992
G1 X149.718 Y141.97 E83.51195
G1 X150.25 Y141.97 E83.53567
G1 X151.709 Y143.43 E83.6277
G1 X152.241 Y143.43 E83.65142
G1 X150.782 Y141.97 E83.74345
G1 X151.314 Y141.97 E83.76717
G1 X152.773 Y143.43 E83.8592
G1 X153.305 Y143.43 E83.88292
G1 X151.846 Y141.97 E83.97495
G1 X152.378 Y141.97 E83.99867
G1 X153.73 Y143.322 E84.08392
G1 X153.73 Y142.789 E84.10768
G1 X152.911 Y141.97 E84.15932
G1 X153.443 Y141.97 E84.18304
G1 X153.899 Y142.426 E84.21179
G1 E82.21179 F2400
G92 E0
G1 X153.899 Y142.426 Z.7 F9000
G1 X148.153 Y143.599
G1 Z.3
G1 E2 F2400
G1 F1800
G1 X96.125 Y91.57 E5.28055
G1 X95.593 Y91.57 E5.30427
G1 X147.452 Y143.43 E8.57416
G1 X146.92 Y143.43 E8.59788
G1 X95.061 Y91.57 E11.86777
G1 X94.528 Y91.57 E11.89153
M73 P15 R12
G1 X146.387 Y143.43 E15.16142
G1 X145.855 Y143.43 E15.18514
G1 X93.996 Y91.57 E18.45503
G1 X93.464 Y91.57 E18.47875
M73 P15 R11
G1 X145.323 Y143.43 E21.74864
G1 X144.791 Y143.43 E21.77236
M73 P16 R11
G1 X92.932 Y91.57 E25.04225
G1 X92.4 Y91.57 E25.06597
G1 X144.259 Y143.43 E28.33586
G1 X143.727 Y143.43 E28.35958
G1 X91.868 Y91.57 E31.62947
G1 X91.336 Y91.57 E31.65319
M73 P17 R11
G1 X143.195 Y143.43 E34.92308
G1 X142.662 Y143.43 E34.94684
G1 X90.803 Y91.57 E38.21673
G1 X90.271 Y91.57 E38.24045
G1 X142.13 Y143.43 E41.51034
G1 X141.598 Y143.43 E41.53406
G1 X89.739 Y91.57 E44.80395
G1 X89.207 Y91.57 E44.82767
M73 P18 R11
G1 X141.066 Y143.43 E48.09756
G1 X140.534 Y143.43 E48.12128
G1 X88.675 Y91.57 E51.39117
G1 X88.143 Y91.57 E51.41489
G1 X140.002 Y143.43 E54.68478
G1 X139.47 Y143.43 E54.7085
M73 P19 R11
G1 X87.611 Y91.57 E57.97839
G1 X87.079 Y91.57 E58.00211
G1 X138.938 Y143.43 E61.272
G1 X138.405 Y143.43 E61.29576
G1 X86.546 Y91.57 E64.56565
G1 X86.014 Y91.57 E64.58937
G1 X137.873 Y143.43 E67.85926
G1 X137.341 Y143.43 E67.88298
M73 P20 R11
G1 X85.482 Y91.57 E71.15287
G1 X84.95 Y91.57 E71.17659
G1 X136.809 Y143.43 E74.44648
G1 X136.277 Y143.43 E74.4702
G1 X84.418 Y91.57 E77.74009
G1 X83.886 Y91.57 E77.76381
M73 P21 R11
G1 X135.745 Y143.43 E81.0337
G1 X135.213 Y143.43 E81.05742
G1 X83.354 Y91.57 E84.32731
G1 X82.821 Y91.57 E84.35107
G1 X134.68 Y143.43 E87.62096
G1 X134.148 Y143.43 E87.64468
G1 X82.32 Y91.601 E90.91262
G1 X82.184 Y91.619 E90.91874
M73 P22 R11
G1 X81.916 Y91.73 E90.93167
G1 X133.616 Y143.43 E94.1915
G1 X133.084 Y143.43 E94.21522
G1 X81.616 Y91.961 E97.46046
G1 X81.441 Y92.189 E97.47327
G1 X81.403 Y92.281 E97.47771
G1 X132.552 Y143.43 E100.7028
G1 X132.02 Y143.43 E100.72652
M73 P23 R10
G1 X81.29 Y92.7 E103.92519
G1 X81.27 Y92.851 E103.93198
G1 X81.27 Y93.212 E103.94808
G1 X131.488 Y143.43 E107.11447
G1 X130.955 Y143.43 E107.13823
G1 X81.27 Y93.745 E110.27101
G1 X81.27 Y94.277 E110.29473
G1 X130.423 Y143.43 E113.39397
G1 X129.891 Y143.43 E113.41769
M73 P24 R10
G1 X81.27 Y94.809 E116.48338
G1 X81.27 Y95.341 E116.5071
G1 X129.359 Y143.43 E119.53925
G1 X128.827 Y143.43 E119.56297
G1 X81.27 Y95.873 E122.56158
G1 X81.27 Y96.405 E122.5853
G1 X128.295 Y143.43 E125.55036
G1 X127.763 Y143.43 E125.57408
M73 P25 R10
G1 X81.27 Y96.937 E128.5056
G1 X81.27 Y97.47 E128.52936
G1 X127.23 Y143.43 E131.42727
G1 X126.698 Y143.43 E131.45099
G1 X81.27 Y98.002 E134.31536
G1 X81.27 Y98.534 E134.33908
G1 X126.166 Y143.43 E137.1699
G1 X125.634 Y143.43 E137.19362
M73 P26 R10
G1 X81.27 Y99.066 E139.9909
G1 X81.27 Y99.598 E140.01462
G1 X125.102 Y143.43 E142.77835
G1 X124.57 Y143.43 E142.80207
G1 X81.27 Y100.13 E145.53226
G1 X81.27 Y100.662 E145.55598
G1 X124.038 Y143.43 E148.25263
G1 X123.505 Y143.43 E148.27639
M73 P27 R10
G1 X81.27 Y101.195 E150.93943
G1 X81.27 Y101.727 E150.96315
G1 X122.973 Y143.43 E153.59264
G1 X122.441 Y143.43 E153.61636
G1 X81.27 Y102.259 E156.21231
G1 X81.27 Y102.791 E156.23603
G1 X121.909 Y143.43 E158.79844
G1 X121.377 Y143.43 E158.82216
M73 P28 R10
G1 X81.27 Y103.323 E161.35102
G1 X81.27 Y103.855 E161.37474
G1 X120.845 Y143.43 E163.87006
G1 X120.313 Y143.43 E163.89378
G1 X81.27 Y104.387 E166.35555
G1 X81.27 Y104.92 E166.37931
G1 X119.78 Y143.43 E168.80748
G1 X119.248 Y143.43 E168.8312
M73 P29 R10
G1 X81.27 Y105.452 E171.22582
G1 X81.27 Y105.984 E171.24954
G1 X118.716 Y143.43 E173.61062
G1 X118.184 Y143.43 E173.63434
G1 X81.27 Y106.516 E175.96187
G1 X81.27 Y107.048 E175.98559
G1 X117.652 Y143.43 E178.27958
G1 X117.12 Y143.43 E178.3033
G1 X81.27 Y107.58 E180.56375
G1 X81.27 Y108.112 E180.58747
M73 P30 R9
G1 X116.588 Y143.43 E182.81437
G1 X116.055 Y143.43 E182.83813
G1 X81.27 Y108.645 E185.03143
G1 X81.27 Y109.177 E185.05515
G1 X115.523 Y143.43 E187.2149
G1 X114.991 Y143.43 E187.23862
G1 X81.27 Y109.709 E189.36483
G1 X81.27 Y110.241 E189.38855
G1 X114.459 Y143.43 E191.48121
G1 X113.927 Y143.43 E191.50493
G1 X81.27 Y110.773 E193.56405
M73 P31 R9
G1 X81.27 Y111.305 E193.58777
G1 X113.395 Y143.43 E195.61334
G1 X112.863 Y143.43 E195.63706
G1 X81.27 Y111.837 E197.62909
G1 X81.27 Y112.37 E197.65285
G1 X112.33 Y143.43 E199.61127
G1 X111.798 Y143.43 E199.63499
G1 X81.27 Y112.902 E201.55987
G1 X81.27 Y113.434 E201.58359
G1 X111.266 Y143.43 E203.47492
G1 X110.734 Y143.43 E203.49864
M73 P32 R9
G1 X81.27 Y113.966 E205.35643
G1 X81.27 Y114.498 E205.38015
G1 X110.202 Y143.43 E207.2044
G1 X109.67 Y143.43 E207.22812
G1 X81.27 Y115.03 E209.01882
G1 X81.27 Y115.562 E209.04254
G1 X109.138 Y143.43 E210.7997
G1 X108.606 Y143.43 E210.82342
G1 X81.27 Y116.094 E212.54703
G1 X81.27 Y116.627 E212.57079
G1 X108.073 Y143.43 E214.2608
G1 X107.541 Y143.43 E214.28452
G1 X81.27 Y117.159 E215.94098
G1 X81.27 Y117.691 E215.9647
M73 P33 R9
G1 X107.009 Y143.43 E217.58762
G1 X106.477 Y143.43 E217.61134
G1 X81.27 Y118.223 E219.20071
G1 X81.27 Y118.755 E219.22443
G1 X105.945 Y143.43 E220.78026
G1 X105.413 Y143.43 E220.80398
G1 X81.27 Y119.287 E222.32627
G1 X81.27 Y119.819 E222.34999
G1 X104.881 Y143.43 E223.83873
G1 X104.348 Y143.43 E223.86249
G1 X81.27 Y120.352 E225.31762
G1 X81.27 Y120.884 E225.34134
G1 X103.816 Y143.43 E226.76293
G1 X103.284 Y143.43 E226.78665
M73 P34 R9
G1 X81.27 Y121.416 E228.1747
G1 X81.27 Y121.948 E228.19842
G1 X102.752 Y143.43 E229.55292
G1 X102.22 Y143.43 E229.57664
G1 X81.27 Y122.48 E230.8976
G1 X81.27 Y123.012 E230.92132
