;FLAVOR:Marlin
;TIME:3600
;Filament used: 4.01525m
;Layer height: 0.2
;MINX:59.65
;MINY:98.689
;MINZ:0.3
;MAXX:162.95
;MAXY:201.989
;MAXZ:9.975
;POSTPROCESSED
;Generated with Cura_SteamEngine 4.10.0
M104 S195
M105
M109 S195
M82 ;absolute extrusion mode
G21 ;metric values
G90 ;absolute positioning
M82 ;set extruder to absolute mode
M107 ;start with the fan off
G28 X0 Y0 ;move X/Y to min endstops
G28 Z0 ;move Z to min endstops
M501
M420 S1 ;Marlin Bed-leveling on
G1 Z15.0 F120 ;move the platform down 15mm
G92 E0 ;zero the extruded length
G1 F200 E3 ;extrude 3mm of feed stock
G92 E0 ;zero the extruded length again
G1 F120
M117 Printing...
G5
G92 E0
G92 E0
G1 F2400 E-6
;LAYER_COUNT:50
;LAYER:0
M107
M204 S3000
M205 X10 Y10
G1 F600 Z0.375
G0 F1200 X62.636 Y99.789 Z0.375
M204 S2500
M205 X8 Y8
;TYPE:SKIRT
G1 F600 Z0.3
G1 F2400 E0
G1 F1200 X63.266 Y99.422 E0.06047
G1 X63.932 Y99.125 E0.12096
G1 X64.626 Y98.903 E0.18139
G1 X65.341 Y98.759 E0.24189
G1 X66.3 Y98.689 E0.32164
G1 X76.3 Y98.689 E1.15107
G1 X77.028 Y98.729 E1.21154
G1 X77.747 Y98.848 E1.27199
G1 X78.449 Y99.046 E1.33248
G1 X79.125 Y99.319 E1.39295
G1 X79.767 Y99.664 E1.4534
G1 X80.368 Y100.078 E1.51393
G1 X80.919 Y100.555 E1.57438
G1 X81.415 Y101.089 E1.63483
G1 X81.85 Y101.675 E1.69536
G1 X82.217 Y102.305 E1.75584
G1 X82.514 Y102.971 E1.81632
G1 X82.736 Y103.665 E1.87675
G1 X82.88 Y104.38 E1.93725
G1 X82.95 Y105.339 E2.017
G1 X82.95 Y178.689 E8.10083
G1 X139.65 Y178.689 E12.80367
G1 X139.65 Y135.339 E16.39923
G1 X139.69 Y134.611 E16.4597
G1 X139.809 Y133.892 E16.52015
G1 X140.007 Y133.19 E16.58064
G1 X140.28 Y132.514 E16.64111
G1 X140.625 Y131.872 E16.70156
G1 X141.039 Y131.271 E16.76209
G1 X141.516 Y130.72 E16.82254
G1 X142.05 Y130.224 E16.88299
G1 X142.636 Y129.789 E16.94352
G1 X143.266 Y129.422 E17.004
G1 X143.932 Y129.125 E17.06448
G1 X144.626 Y128.903 E17.12491
G1 X145.341 Y128.759 E17.18541
G1 X146.3 Y128.689 E17.26516
G1 X156.3 Y128.689 E18.09459
G1 X157.028 Y128.729 E18.15506
G1 X157.747 Y128.848 E18.21551
G1 X158.449 Y129.046 E18.276
G1 X159.125 Y129.319 E18.33647
G1 X159.767 Y129.664 E18.39692
G1 X160.368 Y130.078 E18.45745
G1 X160.919 Y130.555 E18.5179
G1 X161.415 Y131.089 E18.57835
G1 X161.85 Y131.675 E18.63888
G1 X162.217 Y132.305 E18.69936
G1 X162.514 Y132.971 E18.75984
G1 X162.736 Y133.665 E18.82028
G1 X162.88 Y134.38 E18.88077
G1 X162.95 Y135.339 E18.96052
G1 X162.95 Y195.339 E23.93707
G1 X162.91 Y196.067 E23.99755
G1 X162.791 Y196.786 E24.05799
G1 X162.593 Y197.488 E24.11849
G1 X162.32 Y198.164 E24.17896
G1 X161.975 Y198.806 E24.23941
G1 X161.561 Y199.407 E24.29994
G1 X161.084 Y199.958 E24.36039
G1 X160.55 Y200.454 E24.42084
G1 X159.964 Y200.889 E24.48137
G1 X159.334 Y201.256 E24.54184
G1 X158.668 Y201.553 E24.60233
G1 X157.974 Y201.775 E24.66276
G1 X157.259 Y201.919 E24.72326
G1 X156.3 Y201.989 E24.80301
G1 X66.3 Y201.989 E32.26783
G1 X65.572 Y201.949 E32.3283
G1 X64.853 Y201.83 E32.38875
G1 X64.151 Y201.632 E32.44925
G1 X63.475 Y201.359 E32.50972
G1 X62.833 Y201.014 E32.57017
G1 X62.232 Y200.6 E32.6307
G1 X61.681 Y200.123 E32.69115
G1 X61.185 Y199.589 E32.7516
G1 X60.75 Y199.003 E32.81213
G1 X60.383 Y198.373 E32.8726
G1 X60.086 Y197.707 E32.93308
G1 X59.864 Y197.013 E32.99352
G1 X59.72 Y196.298 E33.05401
G1 X59.65 Y195.339 E33.13377
G1 X59.65 Y105.339 E40.59859
G1 X59.69 Y104.611 E40.65906
G1 X59.809 Y103.892 E40.71951
G1 X60.007 Y103.19 E40.78001
G1 X60.28 Y102.514 E40.84048
G1 X60.625 Y101.872 E40.90093
G1 X61.039 Y101.271 E40.96146
G1 X61.516 Y100.72 E41.0219
G1 X62.05 Y100.224 E41.08235
G1 X62.636 Y99.789 E41.14289
M204 S3000
M205 X10 Y10
G0 X63.307 Y100.196
M204 S2500
M205 X8 Y8
G1 X63.922 Y99.885 E41.20005
G1 X64.569 Y99.646 E41.25726
G1 X65.24 Y99.484 E41.31451
G1 X65.924 Y99.401 E41.37166
G1 X66.3 Y99.389 E41.40286
G1 X76.3 Y99.389 E42.23228
G1 X76.988 Y99.429 E42.28945
G1 X77.668 Y99.548 E42.3467
G1 X78.329 Y99.745 E42.40391
G1 X78.962 Y100.018 E42.46109
G1 X79.56 Y100.362 E42.51831
G1 X80.114 Y100.772 E42.57547
G1 X80.617 Y101.244 E42.63269
G1 X81.062 Y101.771 E42.6899
G1 X81.443 Y102.346 E42.74711
G1 X81.754 Y102.961 E42.80427
G1 X81.993 Y103.608 E42.86148
G1 X82.155 Y104.279 E42.91873
G1 X82.238 Y104.963 E42.97588
G1 X82.25 Y105.339 E43.00708
G1 X82.25 Y179.389 E49.14897
G1 X140.35 Y179.389 E53.96793
G1 X140.35 Y135.339 E57.62154
G1 X140.39 Y134.651 E57.6787
G1 X140.509 Y133.971 E57.73596
G1 X140.706 Y133.31 E57.79317
G1 X140.979 Y132.677 E57.85035
G1 X141.323 Y132.079 E57.90757
G1 X141.733 Y131.525 E57.96473
G1 X142.205 Y131.022 E58.02194
G1 X142.732 Y130.577 E58.07915
G1 X143.307 Y130.196 E58.13637
G1 X143.922 Y129.885 E58.19353
G1 X144.569 Y129.646 E58.25073
G1 X145.24 Y129.484 E58.30799
G1 X145.924 Y129.401 E58.36514
G1 X146.3 Y129.389 E58.39634
G1 X156.3 Y129.389 E59.22576
G1 X156.988 Y129.429 E59.28292
G1 X157.668 Y129.548 E59.34018
G1 X158.329 Y129.745 E59.39739
G1 X158.962 Y130.018 E59.45457
G1 X159.56 Y130.362 E59.51179
G1 X160.114 Y130.772 E59.56895
G1 X160.617 Y131.244 E59.62616
G1 X161.062 Y131.771 E59.68337
G1 X161.443 Y132.346 E59.74059
G1 X161.754 Y132.961 E59.79775
G1 X161.993 Y133.608 E59.85495
G1 X162.155 Y134.279 E59.91221
G1 X162.238 Y134.963 E59.96936
G1 X162.25 Y135.339 E60.00056
G1 X162.25 Y195.339 E64.97711
G1 X162.21 Y196.027 E65.03427
G1 X162.091 Y196.707 E65.09153
G1 X161.894 Y197.368 E65.14873
G1 X161.621 Y198.001 E65.20591
G1 X161.277 Y198.599 E65.26313
G1 X160.867 Y199.153 E65.3203
G1 X160.395 Y199.656 E65.37751
G1 X159.868 Y200.101 E65.43472
G1 X159.293 Y200.482 E65.49193
G1 X158.678 Y200.793 E65.54909
G1 X158.031 Y201.032 E65.6063
G1 X157.36 Y201.194 E65.66355
G1 X156.676 Y201.277 E65.7207
G1 X156.3 Y201.289 E65.7519
G1 X66.3 Y201.289 E73.21672
G1 X65.612 Y201.249 E73.27389
G1 X64.932 Y201.13 E73.33114
G1 X64.271 Y200.933 E73.38835
G1 X63.638 Y200.66 E73.44553
G1 X63.04 Y200.316 E73.50275
G1 X62.486 Y199.906 E73.55991
G1 X61.983 Y199.434 E73.61713
G1 X61.538 Y198.907 E73.67434
G1 X61.157 Y198.332 E73.73155
G1 X60.846 Y197.717 E73.78871
G1 X60.607 Y197.07 E73.84592
G1 X60.445 Y196.399 E73.90317
G1 X60.362 Y195.715 E73.96032
G1 X60.35 Y195.339 E73.99152
G1 X60.35 Y105.339 E81.45634
G1 X60.39 Y104.651 E81.5135
G1 X60.509 Y103.971 E81.57076
G1 X60.706 Y103.31 E81.62797
G1 X60.979 Y102.677 E81.68515
G1 X61.323 Y102.079 E81.74237
G1 X61.733 Y101.525 E81.79953
G1 X62.205 Y101.022 E81.85674
G1 X62.732 Y100.577 E81.91395
G1 X63.307 Y100.196 E81.97116
M204 S3000
M205 X10 Y10
G0 X63.409 Y100.957
M204 S2500
M205 X8 Y8
G1 X63.971 Y100.634 E82.02493
G1 X64.568 Y100.383 E82.07864
G1 X65.192 Y100.207 E82.13242
G1 X65.832 Y100.11 E82.18611
G1 X66.3 Y100.089 E82.22496
G1 X76.3 Y100.089 E83.05439
G1 X76.947 Y100.129 E83.10816
G1 X77.583 Y100.248 E83.16182
G1 X78.2 Y100.445 E83.21554
G1 X78.789 Y100.716 E83.26932
G1 X79.339 Y101.058 E83.32304
G1 X79.843 Y101.465 E83.37677
G1 X80.293 Y101.931 E83.4305
G1 X80.682 Y102.448 E83.48416
G1 X81.005 Y103.01 E83.53793
G1 X81.256 Y103.607 E83.59164
G1 X81.432 Y104.231 E83.64542
G1 X81.529 Y104.871 E83.69911
G1 X81.55 Y105.339 E83.73796
G1 X81.55 Y180.089 E89.93791
G1 X141.05 Y180.089 E94.87299
G1 X141.05 Y135.339 E98.58466
G1 X141.09 Y134.692 E98.63843
G1 X141.209 Y134.056 E98.6921
G1 X141.406 Y133.439 E98.74582
G1 X141.677 Y132.85 E98.79959
G1 X142.019 Y132.3 E98.85331
G1 X142.426 Y131.796 E98.90704
G1 X142.892 Y131.346 E98.96078
G1 X143.409 Y130.957 E99.01444
G1 X143.971 Y130.634 E99.0682
G1 X144.568 Y130.383 E99.12192
G1 X145.192 Y130.207 E99.17569
G1 X145.832 Y130.11 E99.22938
G1 X146.3 Y130.089 E99.26824
G1 X156.3 Y130.089 E100.09766
G1 X156.947 Y130.129 E100.15143
G1 X157.583 Y130.248 E100.2051
G1 X158.2 Y130.445 E100.25882
G1 X158.789 Y130.716 E100.31259
G1 X159.339 Y131.058 E100.36631
G1 X159.843 Y131.465 E100.42004
G1 X160.293 Y131.931 E100.47377
G1 X160.682 Y132.448 E100.52744
G1 X161.005 Y133.01 E100.5812
G1 X161.256 Y133.607 E100.63492
G1 X161.432 Y134.231 E100.68869
G1 X161.529 Y134.871 E100.74238
G1 X161.55 Y135.339 E100.78124
G1 X161.55 Y195.339 E105.75779
G1 X161.51 Y195.986 E105.81155
G1 X161.391 Y196.622 E105.86522
G1 X161.194 Y197.239 E105.91894
G1 X160.923 Y197.828 E105.97272
G1 X160.581 Y198.378 E106.02643
G1 X160.174 Y198.882 E106.08017
G1 X159.708 Y199.332 E106.1339
G1 X159.191 Y199.721 E106.18756
G1 X158.629 Y200.044 E106.24132
G1 X158.032 Y200.295 E106.29504
G1 X157.408 Y200.471 E106.34881
G1 X156.768 Y200.568 E106.4025
G1 X156.3 Y200.589 E106.44136
G1 X66.3 Y200.589 E113.90618
G1 X65.653 Y200.549 E113.95995
G1 X65.017 Y200.43 E114.01361
G1 X64.4 Y200.233 E114.06734
G1 X63.811 Y199.962 E114.12111
G1 X63.261 Y199.62 E114.17483
G1 X62.757 Y199.213 E114.22856
G1 X62.307 Y198.747 E114.28229
G1 X61.918 Y198.23 E114.33596
G1 X61.595 Y197.668 E114.38972
G1 X61.344 Y197.071 E114.44344
G1 X61.168 Y196.447 E114.49721
G1 X61.071 Y195.807 E114.5509
G1 X61.05 Y195.339 E114.58976
G1 X61.05 Y105.339 E122.05458
G1 X61.09 Y104.692 E122.10834
G1 X61.209 Y104.056 E122.16201
G1 X61.406 Y103.439 E122.21573
G1 X61.677 Y102.85 E122.26951
G1 X62.019 Y102.3 E122.32323
G1 X62.426 Y101.796 E122.37696
G1 X62.892 Y101.346 E122.43069
G1 X63.409 Y100.957 E122.48435
M204 S3000
M205 X10 Y10
G0 X63.574 Y101.696
M204 S2500
M205 X8 Y8
G1 X64.08 Y101.368 E122.53437
G1 X64.624 Y101.109 E122.58434
G1 X65.198 Y100.924 E122.63436
G1 X65.792 Y100.817 E122.68442
G1 X66.3 Y100.789 E122.72662
G1 X76.3 Y100.789 E123.55605
G1 X76.902 Y100.829 E123.60609
G1 X77.493 Y100.948 E123.65609
G1 X78.063 Y101.144 E123.70608
G1 X78.602 Y101.414 E123.75609
G1 X79.101 Y101.753 E123.80612
G1 X79.55 Y102.155 E123.85611
G1 X79.943 Y102.613 E123.90616
G1 X80.271 Y103.119 E123.95618
G1 X80.53 Y103.663 E124.00615
G1 X80.715 Y104.237 E124.05617
G1 X80.822 Y104.831 E124.10623
G1 X80.85 Y105.339 E124.14843
G1 X80.85 Y180.789 E130.40644
G1 X141.75 Y180.789 E135.45764
G1 X141.75 Y135.339 E139.22737
G1 X141.79 Y134.737 E139.27741
G1 X141.909 Y134.146 E139.32742
G1 X142.105 Y133.576 E139.37741
G1 X142.375 Y133.037 E139.42741
G1 X142.714 Y132.538 E139.47745
G1 X143.116 Y132.089 E139.52743
G1 X143.574 Y131.696 E139.57749
G1 X144.08 Y131.368 E139.6275
G1 X144.624 Y131.109 E139.67748
G1 X145.198 Y130.924 E139.7275
G1 X145.792 Y130.817 E139.77756
G1 X146.3 Y130.789 E139.81976
G1 X156.3 Y130.789 E140.64918
G1 X156.902 Y130.829 E140.69922
G1 X157.493 Y130.948 E140.74923
G1 X158.063 Y131.144 E140.79922
G1 X158.602 Y131.414 E140.84922
G1 X159.101 Y131.753 E140.89926
G1 X159.55 Y132.155 E140.94925
G1 X159.943 Y132.613 E140.9993
G1 X160.271 Y133.119 E141.04932
G1 X160.53 Y133.663 E141.09929
G1 X160.715 Y134.237 E141.14931
G1 X160.822 Y134.831 E141.19937
G1 X160.85 Y135.339 E141.24157
G1 X160.85 Y195.339 E146.21812
G1 X160.81 Y195.941 E146.26816
G1 X160.691 Y196.532 E146.31816
G1 X160.495 Y197.102 E146.36816
G1 X160.225 Y197.641 E146.41816
G1 X159.886 Y198.14 E146.46819
G1 X159.484 Y198.589 E146.51818
G1 X159.026 Y198.982 E146.56824
G1 X158.52 Y199.31 E146.61825
G1 X157.976 Y199.569 E146.66822
G1 X157.402 Y199.754 E146.71824
G1 X156.808 Y199.861 E146.76831
G1 X156.3 Y199.889 E146.8105
G1 X66.3 Y199.889 E154.27533
G1 X65.698 Y199.849 E154.32537
G1 X65.107 Y199.73 E154.37537
G1 X64.537 Y199.534 E154.42536
G1 X63.998 Y199.264 E154.47537
G1 X63.499 Y198.925 E154.5254
G1 X63.05 Y198.523 E154.57539
G1 X62.657 Y198.065 E154.62544
G1 X62.329 Y197.559 E154.67546
G1 X62.07 Y197.015 E154.72543
G1 X61.885 Y196.441 E154.77545
G1 X61.778 Y195.847 E154.82551
G1 X61.75 Y195.339 E154.86771
G1 X61.75 Y105.339 E162.33253
G1 X61.79 Y104.737 E162.38258
G1 X61.909 Y104.146 E162.43258
G1 X62.105 Y103.576 E162.48257
G1 X62.375 Y103.037 E162.53257
G1 X62.714 Y102.538 E162.58261
G1 X63.116 Y102.089 E162.6326
G1 X63.574 Y101.696 E162.68265
M204 S3000
M205 X10 Y10
G0 X64.25 Y102.08
M204 S2500
M205 X8 Y8
G1 X64.739 Y101.819 E162.72863
G1 X65.261 Y101.632 E162.77462
G1 X65.805 Y101.521 E162.82067
G1 X66.3 Y101.489 E162.86181
G1 X76.3 Y101.489 E163.69123
G1 X76.853 Y101.529 E163.73722
G1 X77.395 Y101.648 E163.78325
G1 X77.914 Y101.844 E163.82926
G1 X78.399 Y102.112 E163.87522
G1 X78.841 Y102.447 E163.92122
G1 X79.23 Y102.842 E163.9672
G1 X79.559 Y103.289 E164.01324
G1 X79.82 Y103.778 E164.05921
G1 X80.007 Y104.3 E164.1052
G1 X80.118 Y104.844 E164.15125
G1 X80.15 Y105.339 E164.1924
G1 X80.15 Y181.489 E170.50846
G1 X142.45 Y181.489 E175.67578
G1 X142.45 Y135.339 E179.50357
G1 X142.49 Y134.786 E179.54956
G1 X142.609 Y134.244 E179.59559
G1 X142.805 Y133.725 E179.6416
G1 X143.073 Y133.24 E179.68756
G1 X143.408 Y132.798 E179.73356
G1 X143.803 Y132.409 E179.77954
G1 X144.25 Y132.08 E179.82558
G1 X144.739 Y131.819 E179.87155
G1 X145.261 Y131.632 E179.91754
G1 X145.805 Y131.521 E179.9636
G1 X146.3 Y131.489 E180.00474
G1 X156.3 Y131.489 E180.83416
G1 X156.853 Y131.529 E180.88015
G1 X157.395 Y131.648 E180.92617
G1 X157.914 Y131.844 E180.97219
G1 X158.399 Y132.112 E181.01815
G1 X158.841 Y132.447 E181.06415
G1 X159.23 Y132.842 E181.11013
G1 X159.559 Y133.289 E181.15617
G1 X159.82 Y133.778 E181.20214
G1 X160.007 Y134.3 E181.24813
G1 X160.118 Y134.844 E181.29418
G1 X160.15 Y135.339 E181.33532
G1 X160.15 Y195.339 E186.31187
G1 X160.11 Y195.892 E186.35786
G1 X159.991 Y196.434 E186.40388
G1 X159.795 Y196.953 E186.4499
G1 X159.527 Y197.438 E186.49586
G1 X159.192 Y197.88 E186.54186
G1 X158.797 Y198.269 E186.58784
G1 X158.35 Y198.598 E186.63388
G1 X157.861 Y198.859 E186.67985
G1 X157.339 Y199.046 E186.72584
G1 X156.795 Y199.157 E186.77189
G1 X156.3 Y199.189 E186.81303
G1 X66.3 Y199.189 E194.27786
G1 X65.747 Y199.149 E194.32384
G1 X65.205 Y199.03 E194.36987
G1 X64.686 Y198.834 E194.41588
G1 X64.201 Y198.566 E194.46184
G1 X63.759 Y198.231 E194.50784
G1 X63.37 Y197.836 E194.55383
G1 X63.041 Y197.389 E194.59986
G1 X62.78 Y196.9 E194.64584
G1 X62.593 Y196.378 E194.69183
G1 X62.482 Y195.834 E194.73788
G1 X62.45 Y195.339 E194.77902
G1 X62.45 Y105.339 E202.24384
G1 X62.49 Y104.786 E202.28983
G1 X62.609 Y104.244 E202.33585
G1 X62.805 Y103.725 E202.38187
G1 X63.073 Y103.24 E202.42783
G1 X63.408 Y102.798 E202.47383
G1 X63.803 Y102.409 E202.51981
G1 X64.25 Y102.08 E202.56584
M204 S3000
M205 X10 Y10
G0 X64.484 Y102.765
M204 S2500
M205 X8 Y8
G1 X64.916 Y102.509 E202.60749
G1 X65.383 Y102.326 E202.6491
G1 X65.872 Y102.218 E202.69063
G1 X66.3 Y102.189 E202.72621
G1 X76.3 Y102.189 E203.55564
G1 X76.8 Y102.229 E203.59724
G1 X77.287 Y102.348 E203.63882
G1 X77.75 Y102.542 E203.68046
G1 X78.175 Y102.808 E203.72205
G1 X78.553 Y103.138 E203.76367
G1 X78.874 Y103.523 E203.80524
G1 X79.13 Y103.955 E203.84689
G1 X79.313 Y104.422 E203.88849
G1 X79.421 Y104.911 E203.93003
G1 X79.45 Y105.339 E203.96561
G1 X79.45 Y182.189 E210.33974
G1 X143.15 Y182.189 E215.62317
G1 X143.15 Y135.339 E219.50903
G1 X143.19 Y134.839 E219.55063
G1 X143.309 Y134.352 E219.59221
G1 X143.503 Y133.889 E219.63385
G1 X143.769 Y133.464 E219.67544
G1 X144.099 Y133.086 E219.71705
G1 X144.484 Y132.765 E219.75863
G1 X144.916 Y132.509 E219.80028
G1 X145.383 Y132.326 E219.84188
G1 X145.872 Y132.218 E219.88342
G1 X146.3 Y132.189 E219.919
G1 X156.3 Y132.189 E220.74842
G1 X156.8 Y132.229 E220.79003
G1 X157.287 Y132.348 E220.83161
G1 X157.75 Y132.542 E220.87325
G1 X158.175 Y132.808 E220.91483
G1 X158.553 Y133.138 E220.95645
G1 X158.874 Y133.523 E220.99803
G1 X159.13 Y133.955 E221.03968
G1 X159.313 Y134.422 E221.08128
G1 X159.421 Y134.911 E221.12282
G1 X159.45 Y135.339 E221.1584
G1 X159.45 Y195.339 E226.13494
G1 X159.41 Y195.839 E226.17655
G1 X159.291 Y196.326 E226.21813
G1 X159.097 Y196.789 E226.25977
G1 X158.831 Y197.214 E226.30135
G1 X158.501 Y197.592 E226.34297
G1 X158.116 Y197.913 E226.38455
G1 X157.684 Y198.169 E226.4262
G1 X157.217 Y198.352 E226.4678
G1 X156.728 Y198.46 E226.50934
G1 X156.3 Y198.489 E226.54492
G1 X66.3 Y198.489 E234.00974
G1 X65.8 Y198.449 E234.05134
G1 X65.313 Y198.33 E234.09292
G1 X64.85 Y198.136 E234.13456
G1 X64.425 Y197.87 E234.17615
G1 X64.047 Y197.54 E234.21776
G1 X63.726 Y197.155 E234.25934
G1 X63.47 Y196.723 E234.30099
G1 X63.287 Y196.256 E234.34259
G1 X63.179 Y195.767 E234.38413
G1 X63.15 Y195.339 E234.41971
G1 X63.15 Y105.339 E241.88453
G1 X63.19 Y104.839 E241.92613
G1 X63.309 Y104.352 E241.96772
