;FLAVOR:Marlin
;TIME:3217
;Filament used: 4.28921m
;Layer height: 0.2
;MINX:9.105
;MINY:16.891
;MINZ:0.3
;MAXX:112.605
;MAXY:120.391
;MAXZ:9.975
;Generated with Cura_SteamEngine 4.10.0
M104 S210
M105
M109 S210
M82 ;absolute extrusion mode
G21 ;metric values
G90 ;absolute positioning
M82 ;set extruder to absolute mode
M107 ;start with the fan off
G28 X0 Y0 ;move X/Y to min endstops
G28 Z0 ;move Z to min endstops
M501
M420 S1 ;Marlin Bed-leveling on
G1 Z15.0 F120 ;move the platform down 15mm
G92 E0 ;zero the extruded length
G1 F200 E3 ;extrude 3mm of feed stock
G92 E0 ;zero the extruded length again
G1 F120
M117 Printing...
G5
G92 E0
G92 E0
G1 F2400 E-6
;LAYER_COUNT:50
;LAYER:0
M107
M204 S3000
M205 X10 Y10
G1 F600 Z0.375
G0 F1200 X12.18 Y17.994 Z0.375
M204 S2500
M205 X8 Y8
;TYPE:SKIRT
G1 F600 Z0.3
G1 F2400 E0
G1 F1200 X12.816 Y17.627 E0.05962
G1 X13.489 Y17.332 E0.11929
G1 X14.189 Y17.111 E0.17889
G1 X14.91 Y16.968 E0.23857
G1 X15.675 Y16.903 E0.30091
G1 X16.185 Y16.891 E0.34233
G1 X105.148 Y16.891 E7.5658
G1 X105.943 Y16.902 E7.63036
G1 X106.676 Y16.952 E7.69001
G1 X107.399 Y17.082 E7.74966
G1 X108.103 Y17.29 E7.80926
G1 X108.781 Y17.573 E7.86892
G1 X109.424 Y17.927 E7.92852
G1 X110.025 Y18.35 E7.98819
G1 X110.576 Y18.836 E8.04785
G1 X111.071 Y19.378 E8.10745
G1 X111.505 Y19.971 E8.16711
G1 X111.871 Y20.608 E8.22676
G1 X112.166 Y21.281 E8.28643
G1 X112.386 Y21.982 E8.34608
G1 X112.529 Y22.702 E8.40569
G1 X112.593 Y23.461 E8.46753
G1 X112.605 Y23.971 E8.50896
G1 X112.604 Y33.03 E9.24451
G1 X112.594 Y33.733 E9.3016
G1 X112.544 Y34.466 E9.36126
G1 X112.414 Y35.189 E9.4209
G1 X112.207 Y35.894 E9.48056
G1 X111.924 Y36.571 E9.54014
G1 X111.569 Y37.215 E9.59985
G1 X111.146 Y37.815 E9.65946
G1 X110.654 Y38.374 E9.71992
G1 X109.862 Y39.177 E9.8115
G1 X109.432 Y39.602 E9.86059
G1 X107.593 Y41.522 E10.07646
G1 X105.842 Y43.456 E10.28829
G1 X104.112 Y45.481 E10.50455
G1 X102.469 Y47.516 E10.71692
G1 X100.858 Y49.634 E10.93299
G1 X99.34 Y51.749 E11.14437
G1 X97.851 Y53.955 E11.36047
G1 X96.441 Y56.175 E11.57401
G1 X95.079 Y58.46 E11.79001
G1 X93.807 Y60.738 E12.00185
G1 X92.587 Y63.076 E12.21598
G1 X91.429 Y65.457 E12.43096
G1 X90.341 Y67.865 E12.64551
G1 X89.318 Y70.306 E12.86042
G1 X88.376 Y72.755 E13.07347
G1 X87.498 Y75.242 E13.28762
G1 X86.688 Y77.759 E13.50231
G1 X85.957 Y80.278 E13.71528
G1 X85.288 Y82.844 E13.9306
G1 X84.693 Y85.422 E14.14542
G1 X84.179 Y87.989 E14.35799
G1 X83.73 Y90.61 E14.57391
G1 X83.363 Y93.186 E14.78518
G1 X83.065 Y95.811 E14.99969
G1 X82.839 Y98.467 E15.21613
G1 X82.689 Y101.094 E15.42978
G1 X82.615 Y103.722 E15.64325
G1 X82.605 Y105.097 E15.75489
G1 X82.604 Y113.007 E16.39716
G1 X82.593 Y113.734 E16.45619
G1 X82.542 Y114.467 E16.51585
G1 X82.412 Y115.19 E16.5755
G1 X82.204 Y115.894 E16.63511
G1 X81.92 Y116.572 E16.69479
G1 X81.565 Y117.215 E16.75443
G1 X81.141 Y117.815 E16.81408
G1 X80.656 Y118.366 E16.87369
G1 X80.113 Y118.861 E16.93335
G1 X79.519 Y119.294 E16.99303
G1 X78.882 Y119.66 E17.05268
G1 X78.209 Y119.954 E17.11231
G1 X77.508 Y120.174 E17.17197
G1 X76.787 Y120.316 E17.23164
G1 X76.034 Y120.379 E17.29299
G1 X75.525 Y120.391 E17.33433
G1 X16.475 Y120.39 E22.12897
G1 X15.777 Y120.381 E22.18565
G1 X15.044 Y120.332 E22.2453
G1 X14.321 Y120.203 E22.30493
G1 X13.616 Y119.997 E22.36457
G1 X12.938 Y119.715 E22.42419
G1 X12.294 Y119.361 E22.48386
G1 X11.693 Y118.939 E22.54349
G1 X11.141 Y118.454 E22.60315
G1 X10.645 Y117.912 E22.66281
G1 X10.21 Y117.32 E22.72246
G1 X9.843 Y116.684 E22.78208
G1 X9.547 Y116.011 E22.84178
G1 X9.326 Y115.311 E22.90138
G1 X9.182 Y114.59 E22.96108
G1 X9.116 Y113.814 E23.02432
G1 X9.105 Y113.299 E23.06614
G1 X9.106 Y24.224 E30.2987
G1 X9.115 Y23.559 E30.3527
G1 X9.165 Y22.826 E30.41236
G1 X9.294 Y22.103 E30.47199
G1 X9.501 Y21.398 E30.53165
G1 X9.783 Y20.72 E30.59127
G1 X10.138 Y20.076 E30.65098
G1 X10.56 Y19.475 E30.71061
G1 X11.045 Y18.924 E30.77021
G1 X11.587 Y18.428 E30.82987
G1 X12.18 Y17.994 E30.88953
M204 S3000
M205 X10 Y10
G0 X12.846 Y18.406
M204 S2500
M205 X8 Y8
G1 X13.468 Y18.095 E30.946
G1 X14.121 Y17.856 E31.00246
G1 X14.798 Y17.695 E31.05896
G1 X15.694 Y17.602 E31.1321
G1 X16.185 Y17.591 E31.17198
G1 X105.148 Y17.591 E38.39545
G1 X105.933 Y17.602 E38.45919
G1 X106.626 Y17.652 E38.51561
G1 X107.31 Y17.781 E38.57213
G1 X107.974 Y17.987 E38.62858
G1 X108.609 Y18.269 E38.68499
G1 X109.209 Y18.622 E38.74152
G1 X109.764 Y19.041 E38.79798
G1 X110.267 Y19.521 E38.85443
G1 X110.712 Y20.055 E38.91087
G1 X111.092 Y20.638 E38.96738
G1 X111.403 Y21.259 E39.02377
G1 X111.641 Y21.913 E39.08028
G1 X111.802 Y22.589 E39.1367
G1 X111.894 Y23.481 E39.20952
G1 X111.905 Y23.971 E39.24931
G1 X111.904 Y33.02 E39.98406
G1 X111.894 Y33.723 E40.04114
G1 X111.845 Y34.417 E40.09764
G1 X111.715 Y35.1 E40.15409
G1 X111.509 Y35.764 E40.21054
G1 X111.227 Y36.4 E40.26703
G1 X110.875 Y36.999 E40.32344
G1 X110.456 Y37.554 E40.3799
G1 X110.155 Y37.883 E40.41611
G1 X109.37 Y38.679 E40.50688
G1 X108.928 Y39.115 E40.5573
G1 X107.081 Y41.045 E40.7742
G1 X105.32 Y42.989 E40.98718
G1 X103.564 Y45.045 E41.20672
G1 X101.927 Y47.073 E41.41834
G1 X100.292 Y49.223 E41.63766
G1 X98.768 Y51.346 E41.84985
G1 X97.267 Y53.568 E42.06758
G1 X95.836 Y55.822 E42.28436
G1 X94.485 Y58.088 E42.49857
G1 X93.178 Y60.428 E42.7162
G1 X91.955 Y62.772 E42.93087
G1 X90.807 Y65.133 E43.14404
G1 X89.705 Y67.573 E43.36143
G1 X88.657 Y70.072 E43.58146
G1 X87.727 Y72.493 E43.79204
G1 X86.828 Y75.037 E44.01112
G1 X86.027 Y77.529 E44.22366
G1 X85.282 Y80.093 E44.44045
G1 X84.608 Y82.68 E44.65752
G1 X84.003 Y85.298 E44.8757
G1 X83.493 Y87.849 E45.08693
G1 X83.039 Y90.496 E45.30499
G1 X82.666 Y93.113 E45.51963
G1 X82.368 Y95.743 E45.73454
G1 X82.141 Y98.405 E45.95147
G1 X81.991 Y101.034 E46.16528
G1 X81.914 Y103.744 E46.38541
G1 X81.905 Y105.092 E46.49487
G1 X81.904 Y112.997 E47.13673
G1 X81.893 Y113.724 E47.19576
G1 X81.843 Y114.417 E47.25218
G1 X81.713 Y115.1 E47.30863
G1 X81.506 Y115.764 E47.3651
G1 X81.224 Y116.4 E47.42159
G1 X80.871 Y116.999 E47.47805
G1 X80.451 Y117.553 E47.5345
G1 X79.971 Y118.056 E47.59095
G1 X79.436 Y118.501 E47.64745
G1 X78.853 Y118.881 E47.70396
G1 X78.231 Y119.191 E47.76039
G1 X77.577 Y119.428 E47.81687
G1 X76.901 Y119.589 E47.87329
G1 X76.015 Y119.68 E47.94561
G1 X75.525 Y119.691 E47.98541
G1 X16.484 Y119.69 E52.77932
G1 X15.786 Y119.681 E52.836
G1 X15.092 Y119.633 E52.89248
G1 X14.409 Y119.504 E52.94892
G1 X13.745 Y119.299 E53.00535
G1 X13.108 Y119.018 E53.06188
G1 X12.508 Y118.666 E53.11836
G1 X11.953 Y118.248 E53.17477
G1 X11.449 Y117.769 E53.23123
G1 X11.004 Y117.235 E53.28767
G1 X10.622 Y116.653 E53.3442
G1 X10.31 Y116.032 E53.40063
G1 X10.072 Y115.378 E53.45714
G1 X9.909 Y114.702 E53.5136
G1 X9.816 Y113.795 E53.58763
G1 X9.805 Y113.299 E53.62791
G1 X9.806 Y24.233 E60.85974
G1 X9.815 Y23.568 E60.91374
G1 X9.864 Y22.874 E60.97023
G1 X9.993 Y22.191 E61.02667
G1 X10.199 Y21.527 E61.08312
G1 X10.48 Y20.891 E61.13958
G1 X10.832 Y20.291 E61.19606
G1 X11.251 Y19.736 E61.25252
G1 X11.73 Y19.232 E61.30898
G1 X12.265 Y18.787 E61.36548
G1 X12.846 Y18.406 E61.4219
M204 S3000
M205 X10 Y10
G0 X12.937 Y19.172
M204 S2500
M205 X8 Y8
G1 X13.505 Y18.848 E61.47499
G1 X14.109 Y18.596 E61.52813
G1 X14.739 Y18.42 E61.58124
G1 X15.385 Y18.321 E61.63431
G1 X16.035 Y18.293 E61.68714
G1 X16.185 Y18.291 E61.69932
G1 X105.148 Y18.291 E68.92278
G1 X105.923 Y18.302 E68.98572
G1 X106.575 Y18.351 E69.03881
G1 X107.216 Y18.479 E69.09188
G1 X107.837 Y18.685 E69.14501
G1 X108.428 Y18.965 E69.19811
G1 X108.98 Y19.315 E69.25118
G1 X109.485 Y19.73 E69.30425
G1 X109.937 Y20.203 E69.35737
G1 X110.327 Y20.728 E69.41048
G1 X110.65 Y21.296 E69.46353
G1 X110.901 Y21.9 E69.51664
G1 X111.077 Y22.53 E69.56975
G1 X111.194 Y23.501 E69.64916
G1 X111.205 Y23.971 E69.68734
G1 X111.204 Y33.01 E70.42127
G1 X111.194 Y33.713 E70.47836
G1 X111.145 Y34.365 E70.53145
G1 X111.017 Y35.006 E70.58452
G1 X110.811 Y35.627 E70.63764
G1 X110.531 Y36.218 E70.69074
G1 X110.181 Y36.77 E70.74382
G1 X109.656 Y37.392 E70.8099
G1 X108.878 Y38.181 E70.89988
G1 X108.425 Y38.628 E70.95155
G1 X106.588 Y40.547 E71.16725
G1 X104.763 Y42.562 E71.38799
G1 X103.066 Y44.549 E71.60016
G1 X101.351 Y46.673 E71.82182
G1 X99.747 Y48.782 E72.03696
G1 X98.18 Y50.966 E72.25522
G1 X96.673 Y53.197 E72.47382
G1 X95.257 Y55.427 E72.68831
G1 X93.876 Y57.744 E72.90732
G1 X92.565 Y60.091 E73.12561
G1 X91.331 Y62.455 E73.34213
G1 X90.165 Y64.852 E73.55857
G1 X89.055 Y67.312 E73.7777
G1 X88.019 Y69.782 E73.99518
G1 X87.066 Y72.263 E74.21098
G1 X86.166 Y74.811 E74.4304
G1 X85.356 Y77.329 E74.64517
G1 X84.602 Y79.924 E74.86458
G1 X83.931 Y82.499 E75.08065
G1 X83.323 Y85.133 E75.30014
G1 X82.802 Y87.738 E75.51585
G1 X82.347 Y90.388 E75.73417
G1 X81.975 Y93.004 E75.94871
G1 X81.671 Y95.677 E76.16715
G1 X81.441 Y98.376 E76.38709
G1 X81.291 Y101.009 E76.60123
G1 X81.215 Y103.718 E76.82128
G1 X81.205 Y105.088 E76.93252
G1 X81.204 Y112.986 E77.57381
G1 X81.193 Y113.713 E77.63284
G1 X81.144 Y114.365 E77.68593
G1 X81.015 Y115.006 E77.73902
G1 X80.808 Y115.627 E77.79217
G1 X80.528 Y116.217 E77.8452
G1 X80.178 Y116.769 E77.89827
G1 X79.762 Y117.275 E77.95146
G1 X79.289 Y117.725 E78.00447
G1 X78.764 Y118.115 E78.05757
G1 X78.195 Y118.438 E78.1107
G1 X77.591 Y118.689 E78.16381
G1 X76.961 Y118.864 E78.2169
G1 X75.995 Y118.98 E78.2959
G1 X75.525 Y118.991 E78.33407
G1 X16.493 Y118.991 E83.12725
G1 X15.795 Y118.982 E83.18393
G1 X15.143 Y118.933 E83.23702
G1 X14.502 Y118.806 E83.29008
G1 X13.881 Y118.601 E83.34317
G1 X13.289 Y118.322 E83.39631
G1 X12.736 Y117.973 E83.44941
G1 X12.23 Y117.559 E83.50249
G1 X11.778 Y117.086 E83.55562
G1 X11.387 Y116.562 E83.6087
G1 X11.063 Y115.994 E83.6618
G1 X10.811 Y115.39 E83.71494
G1 X10.634 Y114.761 E83.76799
G1 X10.536 Y114.114 E83.82113
G1 X10.507 Y113.444 E83.87558
G1 X10.505 Y113.299 E83.88735
G1 X10.505 Y24.243 E91.11837
G1 X10.514 Y23.578 E91.17237
G1 X10.563 Y22.926 E91.22546
G1 X10.691 Y22.284 E91.27862
G1 X10.897 Y21.663 E91.33174
G1 X11.176 Y21.072 E91.38481
G1 X11.525 Y20.52 E91.43783
G1 X11.94 Y20.014 E91.49097
G1 X12.413 Y19.562 E91.54409
G1 X12.937 Y19.172 E91.59713
M204 S3000
M205 X10 Y10
G1 F2400 E85.59713
;MESH:Cube-Part w Text Creation.stl
G0 F1200 X16.919 Y22.976
G0 X16.919 Y24.705
G0 X24.105 Y105.391
M204 S2500
M205 X8 Y8
;TYPE:WALL-INNER
G1 F2400 E91.59713
G1 F600 X74.105 Y105.391 E95.65694
G1 X74.105 Y111.891 E96.18472
G1 X17.605 Y111.891 E100.77231
G1 X17.605 Y25.391 E107.79579
G1 X104.105 Y25.391 E114.81927
G1 X104.105 Y31.891 E115.34705
G1 X24.105 Y31.891 E121.84275
G1 X24.105 Y105.391 E127.81068
M204 S3000
M205 X10 Y10
G0 F1200 X24.805 Y104.691
M204 S2500
M205 X8 Y8
G1 F600 X74.805 Y104.691 E131.8705
G1 X74.805 Y112.591 E132.51195
G1 X16.905 Y112.591 E137.21321
G1 X16.905 Y24.691 E144.35037
G1 X104.805 Y24.691 E151.48752
G1 X104.805 Y32.591 E152.12897
G1 X24.805 Y32.591 E158.62468
G1 X24.805 Y104.691 E164.47893
M204 S3000
M205 X10 Y10
G0 F1200 X25.455 Y104.041
M204 S2500
M205 X8 Y8
;TYPE:WALL-OUTER
G1 F600 X75.455 Y104.041 E168.53875
G1 X75.455 Y113.241 E169.28575
G1 X16.255 Y113.241 E174.09258
G1 X16.255 Y24.041 E181.33529
G1 X105.455 Y24.041 E188.578
G1 X105.455 Y33.241 E189.325
G1 X25.455 Y33.241 E195.82071
G1 X25.455 Y104.041 E201.5694
M204 S3000
M205 X10 Y10
G0 F1200 X25.755 Y104.041
G0 X25.755 Y104.791
G0 X23.415 Y106.081
M204 S2500
M205 X8 Y8
;TYPE:SKIN
G1 F600 X73.415 Y106.081 E205.62922
G1 X73.415 Y111.201 E206.04494
G1 X18.295 Y111.201 E210.52049
G1 X18.295 Y26.081 E217.43191
G1 X103.415 Y26.081 E224.34334
G1 X103.415 Y31.201 E224.75907
G1 X23.415 Y31.201 E231.25477
G1 X23.415 Y106.081 E237.33475
M204 S3000
M205 X10 Y10
G0 F1200 X18.809 Y110.875
M204 S2500
M205 X8 Y8
G1 F600 X18.62 Y110.685 E237.35651
M204 S3000
M205 X10 Y10
G0 F1200 X18.62 Y109.695
M204 S2500
M205 X8 Y8
G1 F600 X19.799 Y110.875 E237.49195
M204 S3000
M205 X10 Y10
G0 F1200 X20.789 Y110.875
M204 S2500
M205 X8 Y8
G1 F600 X18.62 Y108.705 E237.74108
M204 S3000
M205 X10 Y10
G0 F1200 X18.62 Y107.715
M204 S2500
M205 X8 Y8
G1 F600 X21.779 Y110.875 E238.10388
M204 S3000
M205 X10 Y10
G0 F1200 X22.769 Y110.875
M204 S2500
M205 X8 Y8
G1 F600 X18.62 Y106.725 E238.58036
M204 S3000
M205 X10 Y10
G0 F1200 X18.62 Y105.735
M204 S2500
M205 X8 Y8
G1 F600 X23.759 Y110.875 E239.17052
M204 S3000
M205 X10 Y10
G0 F1200 X24.749 Y110.875
M204 S2500
M205 X8 Y8
G1 F600 X18.62 Y104.745 E239.87437
M204 S3000
M205 X10 Y10
G0 F1200 X18.62 Y103.755
M204 S2500
M205 X8 Y8
G1 F600 X25.739 Y110.875 E240.69189
M204 S3000
M205 X10 Y10
G0 F1200 X26.729 Y110.875
M204 S2500
M205 X8 Y8
G1 F600 X18.62 Y102.765 E241.6231
M204 S3000
M205 X10 Y10
G0 F1200 X18.62 Y101.776
M204 S2500
M205 X8 Y8
G1 F600 X23.089 Y106.245 E242.13627
M204 S3000
M205 X10 Y10
G0 F1200 X23.249 Y106.405
M204 S2500
M205 X8 Y8
G1 F600 X27.719 Y110.875 E242.64955
M204 S3000
M205 X10 Y10
G0 F1200 X28.709 Y110.875
M204 S2500
M205 X8 Y8
G1 F600 X24.239 Y106.405 E243.16284
M204 S3000
M205 X10 Y10
G0 F1200 X25.229 Y106.405
M204 S2500
M205 X8 Y8
G1 F600 X29.699 Y110.875 E243.67612
M204 S3000
M205 X10 Y10
G0 F1200 X30.689 Y110.875
M204 S2500
M205 X8 Y8
G1 F600 X26.219 Y106.405 E244.18941
M204 S3000
M205 X10 Y10
G0 F1200 X27.209 Y106.405
M204 S2500
M205 X8 Y8
G1 F600 X31.679 Y110.875 E244.70269
M204 S3000
M205 X10 Y10
G0 F1200 X32.669 Y110.875
M204 S2500
M205 X8 Y8
G1 F600 X28.199 Y106.405 E245.21598
M204 S3000
M205 X10 Y10
G0 F1200 X29.189 Y106.405
M204 S2500
M205 X8 Y8
G1 F600 X33.658 Y110.875 E245.72921
M204 S3000
M205 X10 Y10
G0 F1200 X34.648 Y110.875
M204 S2500
M205 X8 Y8
G1 F600 X30.179 Y106.405 E246.24243
M204 S3000
M205 X10 Y10
G0 F1200 X31.169 Y106.405
M204 S2500
M205 X8 Y8
G1 F600 X35.638 Y110.875 E246.75566
M204 S3000
M205 X10 Y10
G0 F1200 X36.628 Y110.875
M204 S2500
M205 X8 Y8
G1 F600 X32.159 Y106.405 E247.26889
M204 S3000
M205 X10 Y10
G0 F1200 X33.149 Y106.405
M204 S2500
M205 X8 Y8
G1 F600 X37.618 Y110.875 E247.78212
M204 S3000
M205 X10 Y10
G0 F1200 X38.608 Y110.875
M204 S2500
M205 X8 Y8
G1 F600 X34.139 Y106.405 E248.29535
M204 S3000
M205 X10 Y10
G0 F1200 X35.129 Y106.405
M204 S2500
M205 X8 Y8
G1 F600 X39.598 Y110.875 E248.80857
M204 S3000
M205 X10 Y10
G0 F1200 X40.588 Y110.875
M204 S2500
M205 X8 Y8
G1 F600 X36.119 Y106.405 E249.3218
M204 S3000
M205 X10 Y10
G0 F1200 X37.108 Y106.405
M204 S2500
M205 X8 Y8
G1 F600 X41.578 Y110.875 E249.83509
M204 S3000
M205 X10 Y10
G0 F1200 X42.568 Y110.875
M204 S2500
M205 X8 Y8
G1 F600 X38.098 Y106.405 E250.34837
M204 S3000
M205 X10 Y10
G0 F1200 X39.088 Y106.405
M204 S2500
M205 X8 Y8
G1 F600 X43.558 Y110.875 E250.86166
M204 S3000
M205 X10 Y10
G0 F1200 X44.548 Y110.875
M204 S2500
M205 X8 Y8
G1 F600 X40.078 Y106.405 E251.37494
M204 S3000
M205 X10 Y10
G0 F1200 X41.068 Y106.405
M204 S2500
M205 X8 Y8
G1 F600 X45.538 Y110.875 E251.88823
M204 S3000
M205 X10 Y10
G0 F1200 X46.528 Y110.875
M204 S2500
M205 X8 Y8
G1 F600 X42.058 Y106.405 E252.40151
M204 S3000
M205 X10 Y10
G0 F1200 X43.048 Y106.405
M204 S2500
M205 X8 Y8
G1 F600 X47.518 Y110.875 E252.9148
M204 S3000
M205 X10 Y10
G0 F1200 X48.508 Y110.875
M204 S2500
M205 X8 Y8
G1 F600 X44.038 Y106.405 E253.42808
M204 S3000
M205 X10 Y10
G0 F1200 X45.028 Y106.405
M204 S2500
M205 X8 Y8
G1 F600 X49.498 Y110.875 E253.94137
M204 S3000
M205 X10 Y10
G0 F1200 X50.488 Y110.875
M204 S2500
M205 X8 Y8
G1 F600 X46.018 Y106.405 E254.45465
M204 S3000
M205 X10 Y10
G0 F1200 X47.008 Y106.405
M204 S2500
M205 X8 Y8
G1 F600 X51.478 Y110.875 E254.96794
M204 S3000
M205 X10 Y10
G0 F1200 X52.468 Y110.875
M204 S2500
M205 X8 Y8
G1 F600 X47.998 Y106.405 E255.48122
M204 S3000
M205 X10 Y10
G0 F1200 X48.988 Y106.405
M204 S2500
M205 X8 Y8
G1 F600 X53.457 Y110.875 E255.99445
M204 S3000
M205 X10 Y10
G0 F1200 X54.447 Y110.875
M204 S2500
M205 X8 Y8
G1 F600 X49.978 Y106.405 E256.50768
M204 S3000
M205 X10 Y10
G0 F1200 X50.968 Y106.405
M204 S2500
M205 X8 Y8
G1 F600 X55.437 Y110.875 E257.02091
M204 S3000
M205 X10 Y10
G0 F1200 X56.427 Y110.875
M204 S2500
M205 X8 Y8
G1 F600 X51.958 Y106.405 E257.53414
M204 S3000
M205 X10 Y10
G0 F1200 X52.948 Y106.405
M204 S2500
M205 X8 Y8
G1 F600 X57.417 Y110.875 E258.04736
M204 S3000
M205 X10 Y10
G0 F1200 X58.407 Y110.875
M204 S2500
M205 X8 Y8
