;FLAVOR:Marlin
;TIME:4327
;Filament used: 3.29914m
;Layer height: 0.2
;MINX:-37.012
;MINY:-47.115
;MINZ:0.3
;MAXX:60.188
;MAXY:50.085
;MAXZ:9.9
;Generated with Cura_SteamEngine 4.10.0
M104 S200
M105
M109 S200
M82 ;absolute extrusion mode
G21        ;metric values
G90        ;absolute positioning
M107       ;start with the fan off
G28   ;move to endstops

;Z-Offset Reset und dann Z +0,1 für PLA
;MacroZOffset0
;MacroZOffsetPlus0100

G92 E0                  ;zero the extruded length
G1 F200 E3              ;extrude 3mm of feed stock
G92 E0                  ;zero the extruded length again
G1 F150.0
;Put printing message on LCD screen
M117 Printing...
G92 E0
G92 E0
G1 F2400 E-6
;LAYER_COUNT:50
;LAYER:0
M107
M204 S3000
G0 F1800 X9.538 Y-25.12 Z0.3
M204 S2000
;TYPE:SKIRT
G1 F2400 E0
G1 F600 X12.061 Y-24.064 E0.12963
G1 X14.662 Y-23.06 E0.26177
G1 X17.167 Y-22.177 E0.38766
G1 X19.766 Y-21.342 E0.51704
G1 X22.393 Y-20.578 E0.64671
G1 X25.042 Y-19.888 E0.77645
G1 X27.688 Y-19.279 E0.90514
G1 X30.37 Y-18.739 E1.0348
G1 X33.06 Y-18.279 E1.16415
G1 X35.75 Y-17.896 E1.29293
G1 X38.459 Y-17.589 E1.42215
G1 X41.179 Y-17.357 E1.55153
G1 X43.876 Y-17.203 E1.67956
G1 X46.651 Y-17.125 E1.81114
G1 X48.022 Y-17.115 E1.87612
G1 X55.933 Y-17.115 E2.25107
G1 X56.631 Y-17.105 E2.28415
G1 X57.165 Y-17.057 E2.30956
G1 X57.686 Y-16.931 E2.33497
G1 X58.183 Y-16.728 E2.36041
G1 X58.644 Y-16.454 E2.38583
G1 X59.059 Y-16.115 E2.41123
G1 X59.419 Y-15.717 E2.43666
G1 X59.716 Y-15.271 E2.46206
G1 X59.944 Y-14.785 E2.4875
G1 X60.096 Y-14.271 E2.51291
G1 X60.178 Y-13.606 E2.54467
G1 X60.188 Y-13.185 E2.56462
G1 X60.188 Y45.794 E5.35997
G1 X60.179 Y46.521 E5.39443
G1 X60.132 Y47.055 E5.41984
G1 X60.007 Y47.576 E5.44524
G1 X59.805 Y48.073 E5.47066
G1 X59.532 Y48.535 E5.4961
G1 X59.194 Y48.951 E5.5215
G1 X58.797 Y49.312 E5.54693
G1 X58.351 Y49.61 E5.57236
G1 X57.866 Y49.838 E5.59776
G1 X57.352 Y49.992 E5.62319
G1 X56.68 Y50.075 E5.65528
G1 X56.258 Y50.085 E5.67529
G1 X-32.751 Y50.085 E9.89393
G1 X-33.449 Y50.076 E9.92701
G1 X-33.984 Y50.029 E9.95247
G1 X-34.505 Y49.903 E9.97787
G1 X-35.002 Y49.701 E10.0033
G1 X-35.463 Y49.428 E10.02869
G1 X-35.879 Y49.089 E10.05413
G1 X-36.24 Y48.693 E10.07952
G1 X-36.538 Y48.247 E10.10495
G1 X-36.766 Y47.761 E10.13039
G1 X-36.919 Y47.247 E10.15581
G1 X-37.002 Y46.573 E10.18799
G1 X-37.012 Y46.143 E10.20838
G1 X-37.012 Y-42.89 E14.42816
G1 X-37.003 Y-43.555 E14.45968
G1 X-36.955 Y-44.089 E14.48509
G1 X-36.829 Y-44.61 E14.5105
G1 X-36.627 Y-45.107 E14.53592
G1 X-36.354 Y-45.568 E14.56132
G1 X-36.015 Y-45.984 E14.58675
G1 X-35.618 Y-46.344 E14.61215
G1 X-35.171 Y-46.642 E14.63761
G1 X-34.686 Y-46.87 E14.66301
G1 X-34.172 Y-47.023 E14.68843
G1 X-33.504 Y-47.105 E14.72033
G1 X-33.082 Y-47.115 E14.74034
G1 X-24.068 Y-47.115 E15.16756
G1 X-23.365 Y-47.105 E15.20088
G1 X-22.831 Y-47.057 E15.2263
G1 X-22.309 Y-46.931 E15.25175
G1 X-21.813 Y-46.728 E15.27715
G1 X-21.352 Y-46.454 E15.30257
G1 X-20.893 Y-46.073 E15.33084
G1 X-20.115 Y-45.308 E15.38255
G1 X-19.659 Y-44.846 E15.41332
G1 X-17.691 Y-42.961 E15.54248
G1 X-15.651 Y-41.115 E15.67287
G1 X-13.599 Y-39.36 E15.80085
G1 X-11.468 Y-37.64 E15.93064
G1 X-9.3 Y-35.991 E16.05974
G1 X-7.099 Y-34.411 E16.18816
G1 X-4.836 Y-32.883 E16.31757
G1 X-2.524 Y-31.414 E16.4474
G1 X-.194 Y-30.026 E16.57594
G1 X2.213 Y-28.682 E16.7066
G1 X4.61 Y-27.431 E16.83475
G1 X7.066 Y-26.236 E16.9642
G1 X9.538 Y-25.12 E17.09275
M204 S3000
G0 F1800 X9.385 Y-24.751
M204 S2000
G1 F600 X11.941 Y-23.68 E17.2241
G1 X14.492 Y-22.696 E17.35369
G1 X17.049 Y-21.795 E17.48218
G1 X19.647 Y-20.96 E17.61152
G1 X22.285 Y-20.193 E17.74173
G1 X24.957 Y-19.497 E17.8726
G1 X27.591 Y-18.89 E18.00071
G1 X30.322 Y-18.34 E18.13274
G1 X32.978 Y-17.887 E18.26044
G1 X35.68 Y-17.502 E18.3898
G1 X38.448 Y-17.188 E18.52183
G1 X41.126 Y-16.96 E18.64922
G1 X43.876 Y-16.803 E18.77977
G1 X46.638 Y-16.725 E18.91073
G1 X48.019 Y-16.715 E18.97618
G1 X55.927 Y-16.715 E19.35099
G1 X56.625 Y-16.705 E19.38407
G1 X57.128 Y-16.658 E19.40802
G1 X57.618 Y-16.532 E19.432
G1 X58.082 Y-16.33 E19.45598
G1 X58.508 Y-16.058 E19.47994
G1 X58.886 Y-15.723 E19.50388
G1 X59.206 Y-15.332 E19.52782
G1 X59.461 Y-14.895 E19.5518
G1 X59.644 Y-14.424 E19.57575
G1 X59.751 Y-13.93 E19.59971
G1 X59.787 Y-13.275 E19.6308
G1 X59.788 Y45.789 E22.43018
G1 X59.779 Y46.516 E22.46464
G1 X59.733 Y47.019 E22.48858
G1 X59.608 Y47.509 E22.51255
G1 X59.407 Y47.973 E22.53651
G1 X59.136 Y48.4 E22.56048
G1 X58.801 Y48.779 E22.58446
G1 X58.411 Y49.1 E22.6084
G1 X57.975 Y49.356 E22.63236
G1 X57.504 Y49.539 E22.65631
G1 X57.01 Y49.647 E22.68028
G1 X56.348 Y49.684 E22.7117
G1 X-32.746 Y49.685 E26.93437
G1 X-33.444 Y49.676 E26.96746
G1 X-33.948 Y49.629 E26.99145
G1 X-34.438 Y49.504 E27.01542
G1 X-34.902 Y49.303 E27.03938
G1 X-35.328 Y49.032 E27.06331
G1 X-35.707 Y48.697 E27.08729
G1 X-36.028 Y48.306 E27.11126
G1 X-36.283 Y47.87 E27.1352
G1 X-36.467 Y47.399 E27.15917
G1 X-36.574 Y46.905 E27.18313
G1 X-36.611 Y46.229 E27.21521
G1 X-36.612 Y-42.884 E31.43878
G1 X-36.603 Y-43.549 E31.47031
G1 X-36.556 Y-44.053 E31.4943
G1 X-36.43 Y-44.542 E31.51823
G1 X-36.229 Y-45.006 E31.5422
G1 X-35.958 Y-45.433 E31.56617
G1 X-35.623 Y-45.811 E31.59011
G1 X-35.232 Y-46.132 E31.61408
G1 X-34.795 Y-46.387 E31.63806
G1 X-34.324 Y-46.571 E31.66203
G1 X-33.83 Y-46.677 E31.68598
G1 X-33.172 Y-46.714 E31.71721
G1 X-24.073 Y-46.715 E32.14846
G1 X-23.37 Y-46.705 E32.18179
G1 X-22.867 Y-46.658 E32.20573
G1 X-22.377 Y-46.532 E32.22971
G1 X-21.914 Y-46.33 E32.25365
G1 X-21.487 Y-46.059 E32.27762
G1 X-21.173 Y-45.788 E32.29728
G1 X-20.399 Y-45.027 E32.34873
G1 X-19.921 Y-44.542 E32.381
G1 X-17.953 Y-42.658 E32.51013
G1 X-15.934 Y-40.831 E32.63918
G1 X-13.864 Y-39.061 E32.76827
G1 X-11.716 Y-37.326 E32.89913
G1 X-9.552 Y-35.681 E33.02797
G1 X-7.311 Y-34.072 E33.15872
G1 X-5.044 Y-32.541 E33.28838
G1 X-2.737 Y-31.076 E33.4179
G1 X-.399 Y-29.683 E33.54689
G1 X2.012 Y-28.336 E33.67779
G1 X4.429 Y-27.075 E33.80699
G1 X6.905 Y-25.87 E33.93751
G1 X9.385 Y-24.751 E34.06646
M204 S3000
G1 F2400 E28.06646
;MESH:Cube-Part w Text - We adore chaos V2.stl
G0 F1800 X-22.747 Y-26.927
G0 X-27.726 Y-26.927
G0 X-27.706 Y-26.927
M204 S2000
;TYPE:WALL-OUTER
G1 F2400 E34.06646
G1 F600 X-28.783 Y-26.527 E34.11655
G1 X-28.783 Y-27.319 E34.15109
G1 X-27.706 Y-26.927 E34.20106
M204 S3000
G0 F1800 X-27.893 Y-26.858
G0 X-28.349 Y-26.935
M204 S2000
;TYPE:SKIN
G1 F600 X-28.556 Y-26.859 E34.20463
M204 S3000
G0 F1800 X-28.452 Y-27.077
G1 F2400 E28.20463
G0 F1800 X-28.812 Y-22.44
G0 X-28.725 Y-22.154
M204 S2000
;TYPE:WALL-INNER
G1 F2400 E34.20463
G1 F600 X-28.984 Y-22.093 E34.21623
G1 X-29.321 Y-22.095 E34.23092
G1 X-29.477 Y-22.135 E34.23795
G1 X-29.537 Y-22.151 E34.24065
G1 X-29.6 Y-22.2 E34.24413
G1 X-29.664 Y-22.25 E34.24767
G1 X-29.653 Y-22.358 E34.25241
G1 X-29.629 Y-22.368 E34.25251
G1 X-29.466 Y-22.437 E34.25772
G1 X-29.391 Y-22.469 E34.26053
G1 X-29.315 Y-22.468 E34.26331
G1 X-28.978 Y-22.462 E34.27694
G1 X-28.807 Y-22.459 E34.28303
G1 X-28.616 Y-22.333 E34.29301
G1 X-28.62 Y-22.227 E34.29763
G1 X-28.637 Y-22.215
G1 X-28.725 Y-22.154 E34.29945
M204 S3000
G0 F1800 X-28.558 Y-21.783
M204 S2000
;TYPE:WALL-OUTER
G1 F600 X-28.939 Y-21.693 E34.31652
G1 X-29.373 Y-21.695 E34.33544
G1 X-29.711 Y-21.783 E34.35067
G1 X-29.971 Y-21.97 E34.36464
G1 X-30.065 Y-22.158 E34.3738
G1 X-30.061 Y-22.424 E34.3854
G1 X-29.983 Y-22.601 E34.39384
G1 X-29.807 Y-22.754 E34.40401
G1 X-29.465 Y-22.865 E34.41968
G1 X-29.075 Y-22.889 E34.43672
G1 X-28.695 Y-22.85 E34.45338
G1 X-28.388 Y-22.701 E34.46826
G1 X-28.222 Y-22.469 E34.4807
G1 X-28.207 Y-22.167 E34.49388
G1 X-28.303 Y-21.96 E34.50383
G1 X-28.558 Y-21.783 E34.51737
M204 S3000
G0 F1800 X-28.752 Y-21.737
G1 F2400 E28.51737
G0 F1800 X-28.865 Y-22.224
G0 X-29.15 Y-18.202
G0 X-28.922 Y-17.684
M204 S2000
;TYPE:WALL-INNER
G1 F2400 E34.51737
G1 F600 X-29.141 Y-17.658 E34.52698
G1 X-29.374 Y-17.684 E34.53721
G1 X-29.41 Y-17.688 E34.53879
G1 X-29.575 Y-17.774 E34.5469
G1 X-29.64 Y-17.905 E34.55327
G1 X-29.653 Y-17.931 E34.55454
G1 X-29.64 Y-17.965 E34.55613
G1 X-29.585 Y-18.1 E34.56249
G1 X-29.41 Y-18.193 E34.57113
G1 X-29.381 Y-18.196 E34.5724
G1 X-29.15 Y-18.222 E34.58253
G1 X-28.923 Y-18.196 E34.5925
G1 X-28.89 Y-18.193 E34.59394
G1 X-28.73 Y-18.107 E34.60186
G1 X-28.66 Y-17.973 E34.60846
G1 X-28.645 Y-17.943 E34.60992
G1 X-28.658 Y-17.912 E34.61138
G1 X-28.718 Y-17.777 E34.61783
G1 X-28.889 Y-17.687 E34.62625
G1 X-28.922 Y-17.684 E34.6277
M204 S3000
G0 F1800 X-28.767 Y-17.299
M204 S2000
;TYPE:WALL-OUTER
G1 F600 X-29.144 Y-17.256 E34.64424
G1 X-29.528 Y-17.298 E34.66109
G1 X-29.845 Y-17.464 E34.67669
G1 X-30.02 Y-17.707 E34.68975
G1 X-30.061 Y-17.939 E34.70002
G1 X-29.998 Y-18.222 E34.71266
G1 X-29.846 Y-18.415 E34.72337
G1 X-29.531 Y-18.581 E34.7389
G1 X-29.15 Y-18.624 E34.75562
G1 X-28.769 Y-18.581 E34.77234
G1 X-28.453 Y-18.413 E34.78794
G1 X-28.273 Y-18.146 E34.80198
G1 X-28.239 Y-17.938 E34.81117
G1 X-28.291 Y-17.677 E34.82278
G1 X-28.454 Y-17.464 E34.83447
G1 X-28.767 Y-17.299 E34.8499
M204 S3000
G0 F1800 X-28.965 Y-17.277
G0 X-28.982 Y-17.951
M204 S2000
;TYPE:SKIN
G1 F600 X-29.245 Y-17.931 E34.85819
M204 S3000
G0 F1800 X-29.266 Y-18.074
G1 F2400 E28.85819
G0 F1800 X-28.629 Y-11.648
G0 X-28.504 Y-10.828
G0 X-28.451 Y-10.741
M204 S2000
;TYPE:WALL-OUTER
G1 F2400 E34.85819
G1 F600 X-28.64 Y-10.67 E34.86699
G1 X-28.64 Y-10.741
G1 X-28.64 Y-10.936 E34.87142
G1 X-28.64 Y-10.961 E34.87251
G1 X-28.64 Y-11.361 E34.88996
G1 X-28.64 Y-11.403 E34.89179
G1 X-28.64 Y-11.599 E34.90033
G1 X-28.64 Y-11.664 E34.90317
G1 X-28.46 Y-11.599 E34.90745
G1 X-28.25 Y-11.403 E34.91719
G1 X-28.241 Y-11.363 E34.91896
G1 X-28.192 Y-11.162 E34.92798
G1 X-28.241 Y-10.96 E34.93704
G1 X-28.246 Y-10.936 E34.9381
G1 X-28.451 Y-10.741 E34.94783
M204 S3000
G0 F1800 X-28.639 Y-10.671
G0 X-28.395 Y-11.141
M204 S2000
;TYPE:SKIN
G1 F600 X-28.444 Y-11.191 E34.94936
M204 S3000
G0 F1800 X-28.592 Y-11.108
G1 F2400 E28.94936
G0 F1800 X-28.54 Y-11.108
G0 X-34.077 Y-10.686
G0 X-34.077 Y3.758
G0 X-29.638 Y3.758
G0 X-29.509 Y4.23
M204 S2000
;TYPE:WALL-OUTER
G1 F2400 E34.94936
G1 F600 X-29.485 Y4.334 E34.95401
G1 X-29.824 Y4.304 E34.96383
G1 X-29.901 Y4.258 E34.96774
G1 X-29.983 Y4.209 E34.9719
G1 X-30.136 Y3.961 E34.98461
G1 X-30.151 Y3.698 E34.9961
G1 X-30.153 Y3.662 E34.99767
G1 X-30.085 Y3.57 E35.00266
G1 X-30.025 Y3.489 E35.00705
G1 X-29.876 Y3.444 E35.01384
G1 X-29.843 Y3.456 E35.01537
G1 X-29.748 Y3.491 E35.01978
G1 X-29.704 Y3.581 E35.02415
G1 X-29.62 Y3.752 E35.03246
G1 X-29.529 Y4.143 E35.04996
G1 X-29.509 Y4.23 E35.05041
M204 S3000
G0 F1800 X-29.485 Y4.334
G0 X-29.578 Y4.326
G0 X-29.793 Y3.865
M204 S2000
;TYPE:SKIN
G1 F600 X-29.946 Y3.711 E35.05514
M204 S3000
G0 F1800 X-30 Y3.882
G1 F2400 E29.05514
G0 F1800 X-29.15 Y7.804
G0 X-28.92 Y8.322
M204 S2000
;TYPE:WALL-INNER
G1 F2400 E35.05514
G1 F600 X-29.141 Y8.348 E35.06484
G1 X-29.376 Y8.321 E35.07516
G1 X-29.41 Y8.318 E35.07665
G1 X-29.58 Y8.229 E35.08501
G1 X-29.639 Y8.097 E35.09132
G1 X-29.652 Y8.067 E35.09274
G1 X-29.638 Y8.035 E35.09427
G1 X-29.58 Y7.903 E35.10055
G1 X-29.409 Y7.813 E35.10898
G1 X-29.377 Y7.81 E35.11038
G1 X-29.15 Y7.784 E35.12034
G1 X-28.923 Y7.81 E35.13031
G1 X-28.89 Y7.813 E35.13175
G1 X-28.73 Y7.899 E35.13967
G1 X-28.661 Y8.032 E35.14621
G1 X-28.645 Y8.063 E35.14773
G1 X-28.658 Y8.094 E35.14919
G1 X-28.719 Y8.23 E35.15569
G1 X-28.886 Y8.319 E35.16394
G1 X-28.92 Y8.322 E35.16543
M204 S3000
G0 F1800 X-28.766 Y8.707
M204 S2000
;TYPE:WALL-OUTER
G1 F600 X-29.144 Y8.75 E35.18202
G1 X-29.528 Y8.708 E35.19886
G1 X-29.845 Y8.542 E35.21447
G1 X-30.006 Y8.331 E35.22604
G1 X-30.061 Y8.068 E35.23776
G1 X-30.006 Y7.802 E35.2496
G1 X-29.844 Y7.59 E35.26123
G1 X-29.531 Y7.425 E35.27666
G1 X-29.15 Y7.382 E35.29338
G1 X-28.769 Y7.425 E35.3101
G1 X-28.453 Y7.593 E35.32571
G1 X-28.273 Y7.86 E35.33975
G1 X-28.239 Y8.068 E35.34894
G1 X-28.291 Y8.329 E35.36054
G1 X-28.453 Y8.541 E35.37217
G1 X-28.766 Y8.707 E35.38762
M204 S3000
G0 F1800 X-28.964 Y8.729
G0 X-28.995 Y8.056
M204 S2000
;TYPE:SKIN
G1 F600 X-29.261 Y8.073 E35.39601
M204 S3000
G0 F1800 X-29.279 Y7.93
G1 F2400 E29.39601
G0 F1800 X-27.735 Y17.746
G0 X-27.19 Y19.126
G0 X-27.123 Y19.206
M204 S2000
;TYPE:WALL-OUTER
G1 F2400 E35.39601
G1 F600 X-27.284 Y19.277 E35.40369
G1 X-27.309 Y19.275 E35.40478
G1 X-27.53 Y19.249 E35.41448
G1 X-27.681 Y19.093 E35.42395
G1 X-27.742 Y18.733 E35.43987
G1 X-27.75 Y18.222 E35.46215
G1 X-27.749 Y17.732 E35.48352
G1 X-26.993 Y17.732 E35.51648
G1 X-26.993 Y18.505 E35.55019
G1 X-27.025 Y19.015 E35.57247
G1 X-27.026 Y19.04 E35.57356
G1 X-27.123 Y19.206 E35.58195
M204 S3000
G0 F1800 X-27.284 Y19.277
G0 X-27.309 Y19.275
G0 X-27.416 Y18.969
M204 S2000
;TYPE:SKIN
G1 F600 X-27.38 Y18.722 E35.59332
G1 X-27.37 Y18.166 E35.61867
G1 X-27.257 Y17.997 E35.62793
M204 S3000
G0 F1800 X-27.393 Y18.132
G1 F2400 E29.62793
G0 F1800 X-29.4 Y18.542
G0 X-29.381 Y18.543
M204 S2000
;TYPE:WALL-INNER
G1 F2400 E35.62793
G1 F600 X-29.434 Y19.047 E35.65003
G1 X-29.494 Y19.033 E35.65272
G1 X-29.515 Y18.55 E35.65751
G1 X-29.519 Y18.476 E35.66074
G1 X-29.519 Y18.132 E35.67574
G1 X-29.382 Y18.132 E35.67897
G1 X-29.382 Y18.475 E35.68407
G1 X-29.381 Y18.543
M204 S3000
G0 F1800 X-29.139 Y19.342
M204 S2000
;TYPE:WALL-OUTER
G1 F600 X-29.31 Y19.447 E35.69282
G1 X-29.627 Y19.446 E35.70665
G1 X-29.811 Y19.312 E35.71657
G1 X-29.891 Y19.12 E35.72564
G1 X-29.919 Y18.494 E35.75297
G1 X-29.918 Y17.732 E35.78619
G1 X-28.982 Y17.732 E35.82701
G1 X-28.981 Y18.566 E35.86337
G1 X-29.046 Y19.186 E35.89055
G1 X-29.139 Y19.342 E35.89847
M204 S3000
G0 F1800 X-29.31 Y19.447
G1 F2400 E29.89847
G0 F1800 X-29.491 Y18.966
G0 X-28.629 Y22.51
G0 X-28.51 Y23.333
G0 X-28.458 Y23.42
M204 S2000
G1 F2400 E35.89847
G1 F600 X-28.64 Y23.488 E35.90694
G1 X-28.64 Y23.42
G1 X-28.64 Y23.227 E35.91131
G1 X-28.64 Y23.19 E35.91293
G1 X-28.64 Y22.801 E35.92989
G1 X-28.64 Y22.752 E35.93202
G1 X-28.64 Y22.559 E35.94044
G1 X-28.64 Y22.494 E35.94327
G1 X-28.46 Y22.559 E35.94757
G1 X-28.252 Y22.752 E35.95717
G1 X-28.241 Y22.799 E35.95924
G1 X-28.192 Y22.996 E35.96809
G1 X-28.241 Y23.191 E35.97686
G1 X-28.249 Y23.227 E35.97845
G1 X-28.458 Y23.42 E35.98814
M204 S3000
G0 F1800 X-28.64 Y23.488
G0 X-28.64 Y23.482
G0 X-28.415 Y23.061
M204 S2000
;TYPE:SKIN
G1 F600 X-28.444 Y23.033 E35.98902
M204 S3000
G0 F1800 X-28.592 Y22.946
G1 F2400 E29.98902
G0 F1800 X-28.54 Y22.946
G0 X-29.875 Y30.253
G0 X-29.622 Y30.539
M204 S2000
;TYPE:WALL-OUTER
G1 F2400 E35.98902
G1 F600 X-29.53 Y30.932 E36.00662
G1 X-29.51 Y31.02 E36.01055
G1 X-29.485 Y31.125 E36.01526
G1 X-29.824 Y31.094 E36.02504
G1 X-29.902 Y31.048 E36.02864
G1 X-29.983 Y31 E36.03274
G1 X-30.136 Y30.751 E36.04549
G1 X-30.151 Y30.488 E36.05697
G1 X-30.153 Y30.452 E36.05854
G1 X-30.03 Y30.284 E36.06762
G1 X-29.877 Y30.234 E36.07464
G1 X-29.875 Y30.234 E36.07473
G1 X-29.842 Y30.246 E36.07626
G1 X-29.747 Y30.283 E36.08071
G1 X-29.622 Y30.537 E36.09305
G1 X-29.622 Y30.539 E36.09314
M204 S3000
G0 F1800 X-29.577 Y30.734
G0 X-29.77 Y30.757
M204 S2000
;TYPE:SKIN
G1 F600 X-29.95 Y30.578 E36.09867
M204 S3000
G0 F1800 X-29.993 Y30.689
G1 F2400 E30.09867
G0 F1800 X-34.077 Y31.112
G0 X-34.065 Y47.138
G0 X-28.63 Y47.15
G0 X-28.63 Y42.315
G0 X-28.54 Y43.165
G0 X-28.507 Y43.253
M204 S2000
;TYPE:WALL-OUTER
G1 F2400 E36.09867
G1 F600 X-28.64 Y43.293 E36.10473
G1 X-28.64 Y43.253
G1 X-28.64 Y43.068 E36.109
G1 X-28.64 Y42.989 E36.11245
G1 X-28.64 Y42.617 E36.12867
G1 X-28.64 Y42.435 E36.1366
G1 X-28.64 Y42.299 E36.14253
G1 X-28.352 Y42.435 E36.15089
G1 X-28.25 Y42.585 E36.15774
G1 X-28.218 Y42.633 E36.16025
G1 X-28.206 Y42.916 E36.1726
G1 X-28.242 Y42.996 E36.17643
G1 X-28.274 Y43.068 E36.17972
G1 X-28.507 Y43.253 E36.1891
M204 S3000
G0 F1800 X-28.64 Y43.293
G0 X-28.64 Y43.253
G0 X-28.64 Y43.231
G0 X-28.402 Y42.874
M204 S2000
;TYPE:SKIN
G1 F600 X-28.444 Y42.831 E36.19041
M204 S3000
G0 F1800 X-28.61 Y42.845
G1 F2400 E30.19041
G0 F1800 X-28.54 Y42.845
G0 X-28.213 Y47.15
G0 X-2.755 Y43.077
G0 X0.253 Y41.605
G0 X0.302 Y41.616
M204 S2000
;TYPE:WALL-OUTER
G1 F2400 E36.19041
G1 F600 X0.237 Y41.616 E36.19325
G1 X0.302 Y41.436 E36.19783
G1 X0.495 Y41.229 E36.21017
