;FLAVOR:Marlin
;TIME:1521
;Filament used: 5.15235m
;Layer height: 0.4
;MINX:126.396
;MINY:126.393
;MINZ:0.4
;MAXX:173.607
;MAXY:173.598
;MAXZ:30.8
;Generated with Cura_SteamEngine 5.4.0
M104 S210
M105
M109 S210
M82 ;absolute extrusion mode
G28 ; home all axes
 M117 Purge extruder
 G92 E0 ; reset extruder
 G1 Z1.0 F3000 ; move z up little to prevent scratching of surface
 G1 X2 Y20 Z0.3 F5000.0 ; move to start-line position
 G1 X2 Y200.0 Z0.3 F1500.0 E15 ; draw 1st line
 G1 X2 Y200.0 Z0.4 F5000.0 ; move to side a little
 G1 X2 Y20 Z0.4 F1500.0 E30 ; draw 2nd line
 G92 E0 ; reset extruder
 G1 Z1.0 F3000 ; move z up little to prevent scratching of surface
G92 E0
G92 E0
G1 F1500 E-2
;LAYER_COUNT:77
;LAYER:0
M107
G0 F6000 X130.228 Y130.145 Z0.4
;TYPE:SKIRT
G1 F1500 E0
G1 F1200 X130.898 Y129.526 E0.12136
G1 X131.55 Y129.012 E0.23181
G1 X131.92 Y128.743 E0.29267
G1 X132.679 Y128.238 E0.41396
G1 X133.604 Y127.733 E0.55417
G1 X134.46 Y127.361 E0.67834
G1 X134.918 Y127.186 E0.74357
G1 X135.857 Y126.877 E0.87508
G1 X136.93 Y126.631 E1.02154
G1 X137.283 Y126.569 E1.06922
G1 X138.283 Y126.442 E1.20333
G1 X138.994 Y126.406 E1.29804
G1 X139.795 Y126.393 E1.40462
G1 X160.199 Y126.396 E4.11918
G1 X160.961 Y126.408 E4.22057
G1 X162.345 Y126.519 E4.40529
G1 X162.693 Y126.569 E4.45206
G1 X163.697 Y126.761 E4.58806
G1 X164.71 Y127.053 E4.72831
G1 X165.078 Y127.18 E4.78011
G1 X165.927 Y127.515 E4.90153
G1 X166.86 Y127.981 E5.04028
G1 X167.638 Y128.448 E5.161
G1 X168.497 Y129.036 E5.29949
G1 X169.48 Y129.868 E5.47083
G1 X169.814 Y130.188 E5.53237
G1 X170.489 Y130.9 E5.66289
G1 X171.099 Y131.667 E5.79327
G1 X171.578 Y132.383 E5.90788
G1 X171.831 Y132.795 E5.9722
G1 X172.323 Y133.686 E6.10761
G1 X172.719 Y134.583 E6.23806
G1 X173.016 Y135.445 E6.35936
G1 X173.265 Y136.436 E6.4953
G1 X173.381 Y137.015 E6.57386
G1 X173.53 Y137.989 E6.70495
G1 X173.596 Y139.038 E6.84479
G1 X173.607 Y139.887 E6.95775
G1 X173.606 Y152.933 E8.69339
G1 X173.595 Y153.799 E8.80862
G1 X173.577 Y154.299 E8.87518
G1 X173.542 Y154.889 E8.95381
G1 X173.461 Y155.721 E9.06502
G1 X173.373 Y156.37 E9.15216
G1 X173.298 Y156.843 E9.21587
G1 X173.165 Y157.576 E9.31498
G1 X172.931 Y158.584 E9.45265
G1 X172.697 Y159.405 E9.56623
G1 X172.376 Y160.359 E9.70014
G1 X171.994 Y161.336 E9.83971
G1 X171.473 Y162.47 E10.00573
G1 X171.003 Y163.352 E10.1387
G1 X170.721 Y163.846 E10.21437
G1 X170.24 Y164.607 E10.33415
G1 X169.892 Y165.106 E10.41508
G1 X169.416 Y165.752 E10.52184
G1 X169.027 Y166.249 E10.6058
G1 X168.548 Y166.813 E10.70425
G1 X168.285 Y167.106 E10.75663
G1 X167.701 Y167.708 E10.86821
G1 X167.1 Y168.282 E10.97878
G1 X166.443 Y168.861 E11.09529
G1 X165.898 Y169.305 E11.18881
G1 X165.376 Y169.705 E11.2763
G1 X165.02 Y169.96 E11.33456
G1 X164.539 Y170.286 E11.41187
G1 X163.688 Y170.816 E11.54525
G1 X163.274 Y171.053 E11.60871
G1 X162.547 Y171.433 E11.71785
G1 X161.793 Y171.792 E11.82895
G1 X161.062 Y172.108 E11.9349
G1 X160.394 Y172.368 E12.03027
G1 X159.579 Y172.649 E12.14496
G1 X159.107 Y172.792 E12.21057
G1 X158.352 Y172.992 E12.31448
G1 X157.622 Y173.158 E12.41408
G1 X156.802 Y173.312 E12.52508
G1 X155.983 Y173.433 E12.63522
G1 X155.218 Y173.517 E12.73761
G1 X154.279 Y173.577 E12.86279
G1 X153.418 Y173.598 E12.97737
G1 X139.613 Y173.591 E14.814
G1 X138.949 Y173.581 E14.90235
G1 X137.971 Y173.521 E15.03271
G1 X137.097 Y173.394 E15.1502
G1 X136.659 Y173.311 E15.20951
G1 X135.703 Y173.083 E15.34027
G1 X134.837 Y172.797 E15.4616
G1 X133.857 Y172.376 E15.6035
G1 X133.425 Y172.164 E15.66752
G1 X132.555 Y171.686 E15.79959
G1 X131.586 Y171.024 E15.95572
G1 X131.198 Y170.726 E16.0208
G1 X130.449 Y170.092 E16.15136
G1 X129.757 Y169.395 E16.28203
G1 X129.133 Y168.645 E16.41183
G1 X128.707 Y168.044 E16.50983
G1 X128.412 Y167.594 E16.58142
G1 X127.945 Y166.811 E16.70271
G1 X127.491 Y165.874 E16.84123
G1 X127.262 Y165.294 E16.92419
G1 X127.121 Y164.903 E16.97949
G1 X126.828 Y163.963 E17.11048
G1 X126.618 Y162.994 E17.24239
G1 X126.56 Y162.649 E17.28893
G1 X126.446 Y161.744 E17.41029
G1 X126.407 Y160.97 E17.51339
G1 X126.396 Y160.134 E17.62462
G1 X126.409 Y139.662 E20.34823
G1 X126.42 Y138.936 E20.44483
G1 X126.48 Y137.955 E20.57559
G1 X126.617 Y137.028 E20.70025
G1 X126.692 Y136.636 E20.75335
G1 X126.93 Y135.646 E20.88881
G1 X127.243 Y134.712 E21.01987
G1 X127.649 Y133.785 E21.1545
G1 X127.899 Y133.282 E21.22923
G1 X128.341 Y132.484 E21.3506
G1 X128.93 Y131.612 E21.49059
G1 X129.541 Y130.861 E21.6194
G1 X129.958 Y130.417 E21.70043
G1 X130.228 Y130.145 E21.75142
G0 F6000 X130.771 Y130.733
G1 F1200 X131.441 Y130.114 E21.87278
G1 X132.022 Y129.658 E21.97104
G1 X132.363 Y129.409 E22.02721
G1 X133.122 Y128.904 E22.1485
G1 X133.923 Y128.467 E22.26989
G1 X134.779 Y128.095 E22.39407
G1 X135.171 Y127.945 E22.44991
G1 X136.036 Y127.657 E22.5712
G1 X137.109 Y127.411 E22.71765
G1 X137.42 Y127.357 E22.75965
G1 X138.324 Y127.241 E22.8809
G1 X139.007 Y127.206 E22.97189
G1 X139.795 Y127.193 E23.07674
G1 X160.188 Y127.196 E25.78983
G1 X160.898 Y127.206 E25.8843
G1 X162.231 Y127.311 E26.06219
G1 X162.579 Y127.361 E26.10897
G1 X163.475 Y127.53 E26.23027
G1 X164.488 Y127.822 E26.37053
G1 X164.784 Y127.924 E26.41218
G1 X165.633 Y128.259 E26.53361
G1 X166.448 Y128.667 E26.65487
G1 X167.226 Y129.134 E26.77559
G1 X167.98 Y129.647 E26.89692
G1 X168.963 Y130.479 E27.06825
G1 X169.235 Y130.74 E27.1184
G1 X169.864 Y131.4 E27.2397
G1 X170.434 Y132.112 E27.36104
G1 X170.896 Y132.802 E27.47151
G1 X171.149 Y133.214 E27.53584
G1 X171.592 Y134.011 E27.65715
G1 X171.963 Y134.844 E27.77847
G1 X172.26 Y135.706 E27.89976
G1 X172.481 Y136.595 E28.02164
G1 X172.591 Y137.139 E28.09547
G1 X172.732 Y138.04 E28.2168
G1 X172.796 Y139.049 E28.35131
G1 X172.807 Y139.887 E28.46281
G1 X172.806 Y152.923 E30.19712
G1 X172.795 Y153.771 E30.30995
G1 X172.778 Y154.252 E30.37398
G1 X172.743 Y154.842 E30.45262
G1 X172.668 Y155.614 E30.55581
G1 X172.583 Y156.245 E30.64051
G1 X172.511 Y156.701 E30.70193
G1 X172.386 Y157.395 E30.79575
G1 X172.152 Y158.403 E30.93342
G1 X171.939 Y159.15 E31.03676
G1 X171.63 Y160.069 E31.16575
G1 X171.267 Y161.002 E31.29894
G1 X170.746 Y162.136 E31.46497
G1 X170.308 Y162.955 E31.58854
G1 X170.026 Y163.449 E31.66421
G1 X169.584 Y164.149 E31.77435
G1 X169.247 Y164.632 E31.85271
G1 X168.786 Y165.259 E31.95624
G1 X168.397 Y165.756 E32.04021
G1 X167.952 Y166.279 E32.13157
G1 X167.71 Y166.549 E32.17981
G1 X167.148 Y167.129 E32.28725
G1 X166.547 Y167.703 E32.39782
G1 X165.937 Y168.241 E32.50603
G1 X165.411 Y168.67 E32.59633
G1 X164.909 Y169.055 E32.68049
G1 X164.571 Y169.298 E32.73588
G1 X164.116 Y169.607 E32.80905
G1 X163.29 Y170.122 E32.93855
G1 X162.903 Y170.344 E32.99791
G1 X162.203 Y170.711 E33.10306
G1 X161.475 Y171.058 E33.21035
G1 X160.772 Y171.362 E33.31225
G1 X160.104 Y171.622 E33.40762
G1 X159.347 Y171.883 E33.51415
G1 X158.875 Y172.026 E33.57976
G1 X158.174 Y172.212 E33.67625
G1 X157.473 Y172.372 E33.77191
G1 X156.685 Y172.521 E33.8786
G1 X155.896 Y172.638 E33.98472
G1 X155.131 Y172.722 E34.08711
G1 X154.259 Y172.777 E34.20335
G1 X153.418 Y172.798 E34.31527
G1 X139.624 Y172.791 E36.15043
G1 X138.996 Y172.782 E36.23399
G1 X138.086 Y172.729 E36.35526
G1 X137.212 Y172.602 E36.47276
G1 X136.842 Y172.532 E36.52286
G1 X135.954 Y172.323 E36.64423
G1 X135.088 Y172.037 E36.76556
G1 X134.208 Y171.657 E36.89308
G1 X133.807 Y171.461 E36.95247
G1 X133.006 Y171.025 E37.0738
G1 X132.037 Y170.363 E37.22992
G1 X131.713 Y170.114 E37.28429
G1 X131.015 Y169.527 E37.40562
G1 X130.371 Y168.882 E37.52688
G1 X129.786 Y168.182 E37.64825
G1 X129.36 Y167.581 E37.74626
G1 X129.099 Y167.184 E37.80947
G1 X128.632 Y166.401 E37.93076
G1 X128.235 Y165.58 E38.05209
G1 X128.014 Y165.021 E38.13206
G1 X127.884 Y164.663 E38.18273
G1 X127.61 Y163.793 E38.30408
G1 X127.407 Y162.86 E38.43111
G1 X127.354 Y162.549 E38.47308
G1 X127.24 Y161.644 E38.59443
G1 X127.207 Y160.959 E38.68567
G1 X127.196 Y160.135 E38.79531
G1 X127.209 Y139.674 E41.51745
G1 X127.219 Y138.982 E41.60952
G1 X127.272 Y138.071 E41.73093
G1 X127.403 Y137.178 E41.85101
G1 X127.478 Y136.786 E41.9041
G1 X127.689 Y135.898 E42.02553
G1 X127.976 Y135.033 E42.14678
G1 X128.382 Y134.106 E42.28142
G1 X128.599 Y133.67 E42.34621
G1 X129.041 Y132.872 E42.46758
G1 X129.551 Y132.116 E42.5889
G1 X130.125 Y131.408 E42.71016
G1 X130.526 Y130.98 E42.78819
G1 X130.771 Y130.733 E42.83448
G1 F1500 E40.83448
;MESH:cornersupport042013_fixed.stl
G0 F6000 X152.156 Y157.483
;TYPE:WALL-INNER
G1 F1500 E42.83448
G1 F1200 X151.729 Y157.313 E42.89562
G1 X151.378 Y157.124 E42.94866
G1 X151.146 Y156.978 E42.98513
G1 X150.854 Y156.764 E43.03329
G1 X150.484 Y156.427 E43.09987
G1 X150.242 Y156.148 E43.14901
G1 X150.09 Y155.949 E43.18232
G1 X149.887 Y155.648 E43.23062
G1 X149.704 Y155.291 E43.284
G1 X149.528 Y154.858 E43.34618
G1 X149.452 Y154.609 E43.38082
G1 X149.366 Y154.235 E43.43187
G1 X149.306 Y153.762 E43.4953
G1 X149.307 Y153.244 E43.56422
G1 X149.365 Y152.759 E43.6292
G1 X149.481 Y152.276 E43.69529
G1 X149.708 Y151.663 E43.78225
G1 X149.857 Y151.409 E43.82143
G1 X150.229 Y150.842 E43.91165
G1 X150.431 Y150.627 E43.9509
G1 X150.827 Y150.26 E44.02273
G1 X151.345 Y149.886 E44.10773
G1 X152.078 Y149.549 E44.21506
G1 X152.635 Y149.388 E44.2922
G1 X152.931 Y149.324 E44.33249
G1 X153.57 Y149.301 E44.41756
G1 X154.12 Y149.341 E44.49092
G1 X154.608 Y149.445 E44.5573
G1 X155.059 Y149.595 E44.62054
G1 X155.329 Y149.702 E44.65918
G1 X155.901 Y150.052 E44.74839
G1 X156.302 Y150.368 E44.81631
G1 X156.59 Y150.661 E44.87097
G1 X156.758 Y150.855 E44.90512
G1 X156.992 Y151.163 E44.95658
G1 X157.252 Y151.607 E45.02503
G1 X157.466 Y152.126 E45.09972
G1 X157.576 Y152.475 E45.1484
G1 X157.666 Y152.946 E45.2122
G1 X157.703 Y153.507 E45.28699
G1 X157.672 Y153.984 E45.35059
G1 X157.58 Y154.499 E45.42019
G1 X157.444 Y154.943 E45.48197
G1 X157.236 Y155.428 E45.55218
G1 X156.987 Y155.839 E45.61611
G1 X156.694 Y156.24 E45.68218
G1 X156.326 Y156.61 E45.75161
G1 X155.975 Y156.895 E45.81176
G1 X155.496 Y157.198 E45.88717
G1 X155.043 Y157.406 E45.95348
G1 X154.619 Y157.553 E46.01319
G1 X154.103 Y157.66 E46.08329
G1 X153.78 Y157.7 E46.1266
G1 X153.251 Y157.69 E46.19699
G1 X153.001 Y157.668 E46.23037
G1 X152.635 Y157.612 E46.27963
G1 X152.156 Y157.483 E46.34563
G1 F1500 E44.34563
G0 F6000 X150.418 Y154.929
G1 F1500 E46.34563
G1 F1200 X150.249 Y154.506 E46.40623
G1 X150.154 Y154.097 E46.46209
G1 X150.104 Y153.695 E46.51599
G1 X150.115 Y153.232 E46.5776
G1 X150.171 Y152.829 E46.63173
G1 X150.273 Y152.441 E46.68511
G1 X150.471 Y151.93 E46.75802
G1 X150.894 Y151.287 E46.86041
G1 X151.373 Y150.853 E46.94641
G1 X151.739 Y150.585 E47.00676
G1 X152.356 Y150.299 E47.09723
G1 X152.998 Y150.123 E47.1858
G1 X153.57 Y150.101 E47.26195
G1 X154.018 Y150.136 E47.32174
G1 X154.461 Y150.239 E47.38225
G1 X154.965 Y150.416 E47.45331
G1 X155.385 Y150.674 E47.51889
G1 X155.762 Y150.961 E47.58193
G1 X156.079 Y151.282 E47.64195
G1 X156.358 Y151.663 E47.70477
G1 X156.554 Y152.013 E47.75814
G1 X156.703 Y152.369 E47.80948
G1 X156.814 Y152.718 E47.85821
G1 X156.868 Y153 E47.89641
G1 X156.902 Y153.497 E47.96268
G1 X156.876 Y153.895 E48.01575
G1 X156.803 Y154.307 E48.07141
G1 X156.691 Y154.671 E48.12208
G1 X156.502 Y155.095 E48.18384
G1 X156.321 Y155.395 E48.23045
G1 X156.086 Y155.715 E48.28327
G1 X155.788 Y156.016 E48.33962
G1 X155.498 Y156.252 E48.38937
G1 X155.123 Y156.49 E48.44846
G1 X154.759 Y156.658 E48.50179
G1 X154.394 Y156.781 E48.55303
G1 X153.822 Y156.902 E48.63082
G1 X153.186 Y156.888 E48.71545
G1 X152.739 Y156.811 E48.7758
G1 X152.365 Y156.71 E48.82734
G1 X152.109 Y156.608 E48.864
G1 X151.682 Y156.379 E48.92846
G1 X151.41 Y156.18 E48.9733
G1 X151.108 Y155.913 E49.02693
G1 X150.793 Y155.565 E49.08938
G1 X150.538 Y155.164 E49.1526
G1 X150.418 Y154.929 E49.1877
G1 F1500 E47.1877
G0 F6000 X159.826 Y156.252
G1 F1500 E49.1877
G1 F1200 X159.922 Y156.019 E49.22123
G1 X160.046 Y155.676 E49.26975
G1 X160.136 Y155.384 E49.31041
G1 X160.249 Y154.923 E49.37355
G1 X160.334 Y154.442 E49.43854
G1 X160.375 Y154.08 E49.487
G1 X160.412 Y153.566 E49.55556
G1 X160.407 Y139.598 E51.41388
G1 X139.608 Y139.595 E54.18099
G1 X139.597 Y160.393 E56.94796
G1 X153.668 Y160.399 E58.81998
G1 X154.285 Y160.354 E58.90228
G1 X154.596 Y160.312 E58.94403
G1 X155.118 Y160.207 E59.01487
G1 X155.452 Y160.117 E59.06089
G1 X155.775 Y160.015 E59.10595
G1 X156.09 Y159.895 E59.1508
G1 X156.574 Y159.677 E59.22142
G1 X156.879 Y159.516 E59.26731
G1 X157.189 Y159.331 E59.31533
G1 X157.488 Y159.13 E59.36327
G1 X157.746 Y158.938 E59.40605
G1 X157.993 Y158.734 E59.44867
G1 X158.314 Y158.443 E59.50631
G1 X158.592 Y158.156 E59.55947
G1 X158.821 Y157.892 E59.60597
G1 X159.1 Y157.527 E59.66709
G1 X159.383 Y157.102 E59.73502
G1 X159.632 Y156.659 E59.80263
G1 X159.826 Y156.252 E59.86261
G1 F1500 E57.86261
G0 F6000 X162.005 Y157.876
G0 X161.274 Y159.072
G0 X160.187 Y160.342
G0 X158.982 Y161.338
G0 X157.746 Y162.071
G0 X156.2 Y162.677
G0 X154.566 Y163.005
G0 X154.092 Y163.037
G0 X139.185 Y163.058
G0 X139.185 Y161.193
G1 F1500 E59.86261
G1 F1200 X153.686 Y161.199 E61.79183
G1 X153.975 Y161.185 E61.83033
G1 X154.374 Y161.15 E61.88361
G1 X154.729 Y161.102 E61.93127
G1 X155.301 Y160.986 E62.00892
G1 X155.677 Y160.885 E62.06072
G1 X156.037 Y160.771 E62.11096
G1 X156.397 Y160.634 E62.1622
G1 X156.925 Y160.396 E62.23925
G1 X157.271 Y160.214 E62.29127
G1 X157.615 Y160.008 E62.34461
G1 X157.92 Y159.805 E62.39335
G1 X158.239 Y159.568 E62.44623
G1 X158.516 Y159.34 E62.49396
G1 X158.872 Y159.017 E62.55791
G1 X159.21 Y158.666 E62.62274
G1 X159.442 Y158.396 E62.6701
G1 X159.751 Y157.993 E62.73766
G1 X160.066 Y157.52 E62.81326
G1 X160.343 Y157.028 E62.88838
G1 X160.557 Y156.578 E62.95467
G1 X160.669 Y156.308 E62.99356
G1 X160.805 Y155.93 E63.04701
G1 X160.907 Y155.598 E63.09321
G1 X161.024 Y155.127 E63.15778
G1 X161.082 Y154.841 E63.19661
G1 X161.128 Y154.549 E63.23593
G1 X161.172 Y154.153 E63.28894
G1 X161.212 Y153.583 E63.36496
G1 X161.207 Y139.316 E65.26305
G1 X161.167 Y139.122 E65.2894
G1 X161.067 Y138.967 E65.31394
G1 X160.924 Y138.859 E65.33778
G1 X160.696 Y138.798 E65.36918
G1 X139.31 Y138.794 E68.21439
G1 X139.068 Y138.862 E68.24783
G1 X138.897 Y139 E68.27707
G1 X138.808 Y139.238 E68.31087
G1 X138.796 Y160.697 E71.16579
G1 X138.86 Y160.931 E71.19806
G1 X138.938 Y161.048 E71.21677
G1 X139.185 Y161.193 E71.25488
G0 F6000 X138.147 Y161.303
;TYPE:WALL-OUTER
G1 F1200 X138.343 Y161.6 E71.30222
G1 X138.582 Y161.784 E71.34235
G1 X138.894 Y161.938 E71.38864
G1 X139.155 Y161.993 E71.42412
G1 X153.704 Y161.999 E73.35973
G1 X154.029 Y161.983 E73.40302
G1 X154.463 Y161.945 E73.46098
G1 X154.862 Y161.891 E73.51455
G1 X155.485 Y161.765 E73.59911
G1 X155.902 Y161.653 E73.65655
G1 X156.3 Y161.527 E73.71209
G1 X156.703 Y161.374 E73.76944
G1 X157.277 Y161.115 E73.85322
G1 X157.663 Y160.912 E73.91124
G1 X158.042 Y160.685 E73.97002
G1 X158.38 Y160.46 E74.02404
G1 X158.732 Y160.199 E74.08234
G1 X159.04 Y159.946 E74.13537
G1 X159.43 Y159.591 E74.20553
G1 X159.802 Y159.204 E74.27694
G1 X160.063 Y158.901 E74.33015
G1 X160.402 Y158.459 E74.40426
G1 X160.749 Y157.938 E74.48754
G1 X161.053 Y157.396 E74.57021
G1 X161.289 Y156.903 E74.64293
G1 X161.415 Y156.596 E74.68708
G1 X161.564 Y156.184 E74.74537
G1 X161.679 Y155.812 E74.79717
G1 X161.805 Y155.302 E74.86706
G1 X161.87 Y154.982 E74.9105
G1 X161.921 Y154.655 E74.95453
G1 X161.969 Y154.225 E75.0121
G1 X162.013 Y153.6 E75.09545
G1 X162.007 Y139.235 E77.00658
G1 X161.92 Y138.812 E77.06403
G1 X161.685 Y138.45 E77.12145
G1 X161.505 Y138.281 E77.1543
G1 X161.281 Y138.137 E77.18973
G1 X161 Y138.035 E77.2295
G1 X160.756 Y137.998 E77.26233
G1 X139.242 Y137.994 E80.12457
G1 X138.986 Y138.037 E80.1591
G1 X138.696 Y138.148 E80.20041
G1 X138.445 Y138.318 E80.24074
G1 X138.233 Y138.534 E80.28101
G1 X138.063 Y138.89 E80.3335
G1 X138.008 Y139.156 E80.36963
G1 X137.996 Y160.771 E83.2453
G1 X138.051 Y161.061 E83.28457
G1 X138.147 Y161.303 E83.31921
G1 F1500 E81.31921
G0 F6000 X151.506 Y151.812
G1 F1500 E83.31921
G1 F1200 X151.821 Y151.519 E83.37644
G1 X152.123 Y151.292 E83.42671
G1 X152.635 Y151.049 E83.50211
G1 X153.101 Y150.922 E83.56636
G1 X153.606 Y150.902 E83.6336
G1 X153.912 Y150.933 E83.67452
