;FLAVOR:Marlin
;TIME:14563
;Filament used: 17.6719m
;Layer height: 0.3
;MINX:123.282
;MINY:56.066
;MINZ:0.3
;MAXX:220.49
;MAXY:232.298
;MAXZ:20.4
;Generated with Cura_SteamEngine 4.10.0
M140 S80
M105
M190 S80
M104 S228
M105
M109 S228
M82 ;absolute extrusion mode
G28 ; home all axes
 M117 Purge extruder
 G92 E0 ; reset extruder
 G1 Z1.0 F3000 ; move z up little to prevent scratching of surface
 G1 X2 Y20 Z0.3 F5000.0 ; move to start-line position
 G1 X2 Y200.0 Z0.3 F1500.0 E15 ; draw 1st line
 G1 X2 Y200.0 Z0.4 F5000.0 ; move to side a little
 G1 X2 Y20 Z0.4 F1500.0 E30 ; draw 2nd line
 G92 E0 ; reset extruder
 G1 Z1.0 F3000 ; move z up little to prevent scratching of surface
G92 E0
G92 E0
G1 F2400 E-1.6
;LAYER_COUNT:69
;LAYER:0
M106 S89.3
G0 F6000 X149.508 Y67.499 Z0.3
;TYPE:SKIRT
G1 F2400 E0
G1 F900 X149.861 Y66.786 E0.05053
G1 X150.283 Y66.112 E0.10104
G1 X150.771 Y65.483 E0.1516
G1 X151.32 Y64.906 E0.20219
G1 X151.923 Y64.388 E0.25268
G1 X152.576 Y63.932 E0.30327
G1 X153.271 Y63.545 E0.35379
G1 X154.001 Y63.229 E0.40431
G1 X154.759 Y62.988 E0.45483
G1 X155.538 Y62.824 E0.50539
G1 X156.329 Y62.74 E0.55592
G1 X157.125 Y62.735 E0.60647
G1 X157.917 Y62.81 E0.657
G1 X158.41 Y62.897 E0.6888
G1 X177.509 Y66.923 E1.92852
G1 X178.278 Y67.126 E1.97903
G1 X179.023 Y67.406 E2.02958
G1 X179.737 Y67.758 E2.08014
G1 X180.411 Y68.181 E2.13068
G1 X181.039 Y68.668 E2.18116
G1 X181.616 Y69.217 E2.23174
G1 X182.134 Y69.821 E2.28228
G1 X182.59 Y70.473 E2.33282
G1 X182.977 Y71.168 E2.38334
G1 X183.293 Y71.899 E2.43392
G1 X183.534 Y72.657 E2.48444
G1 X183.698 Y73.436 E2.535
G1 X183.782 Y74.227 E2.58552
G1 X183.787 Y75.023 E2.63608
G1 X183.712 Y75.815 E2.68661
G1 X183.625 Y76.306 E2.71828
G1 X159.747 Y189.628 E10.07389
G1 X159.544 Y190.397 E10.1244
G1 X159.265 Y191.143 E10.17499
G1 X158.912 Y191.856 E10.22552
G1 X158.49 Y192.53 E10.27603
G1 X158.002 Y193.159 E10.32659
G1 X157.453 Y193.735 E10.37713
G1 X156.85 Y194.254 E10.42766
G1 X156.197 Y194.709 E10.47821
G1 X156.1 Y194.763 E10.48526
G1 X154.525 Y202.232 E10.97008
G1 X154.322 Y203.001 E11.0206
G1 X154.042 Y203.746 E11.07115
G1 X153.69 Y204.46 E11.12171
G1 X153.267 Y205.134 E11.17225
G1 X152.779 Y205.763 E11.22281
G1 X152.231 Y206.339 E11.27331
G1 X151.627 Y206.858 E11.32389
G1 X150.975 Y207.313 E11.37439
G1 X150.28 Y207.7 E11.42491
G1 X149.549 Y208.016 E11.47549
G1 X148.791 Y208.257 E11.52601
G1 X148.012 Y208.421 E11.57657
G1 X147.221 Y208.505 E11.6271
G1 X146.425 Y208.51 E11.67766
G1 X145.633 Y208.435 E11.72818
G1 X145.142 Y208.348 E11.75985
G1 X130.954 Y205.359 E12.68077
G1 X130.185 Y205.156 E12.73129
G1 X129.44 Y204.877 E12.78182
G1 X128.726 Y204.524 E12.83241
G1 X128.052 Y204.102 E12.88291
G1 X127.423 Y203.614 E12.93348
G1 X126.847 Y203.066 E12.98397
G1 X126.328 Y202.462 E13.03455
G1 X125.873 Y201.81 E13.08505
G1 X125.485 Y201.115 E13.13561
G1 X125.169 Y200.384 E13.18619
G1 X124.928 Y199.626 E13.23671
G1 X124.764 Y198.847 E13.28727
G1 X124.68 Y198.056 E13.33779
G1 X124.675 Y197.26 E13.38835
G1 X124.75 Y196.468 E13.43888
G1 X124.837 Y195.977 E13.47055
G1 X126.406 Y188.525 E13.95423
G1 X126.029 Y187.94 E13.99844
G1 X125.667 Y187.231 E14.049
G1 X125.378 Y186.49 E14.09952
G1 X125.165 Y185.723 E14.15007
G1 X125.029 Y184.939 E14.20061
G1 X124.974 Y184.145 E14.25116
G1 X124.998 Y183.35 E14.30168
G1 X125.142 Y182.354 E14.3656
G1 X149.026 Y69.014 E21.7224
G1 X149.229 Y68.244 E21.77298
G1 X149.508 Y67.499 E21.8235
G0 F6000 X149.968 Y67.647
G1 F900 X150.315 Y66.958 E21.8725
G1 X150.732 Y66.309 E21.9215
G1 X151.213 Y65.706 E21.97049
G1 X151.755 Y65.157 E22.01949
G1 X152.35 Y64.667 E22.06845
G1 X152.993 Y64.241 E22.11743
G1 X153.676 Y63.884 E22.16638
G1 X154.393 Y63.599 E22.21539
G1 X155.135 Y63.39 E22.26435
G1 X155.896 Y63.259 E22.3134
G1 X156.665 Y63.208 E22.36235
G1 X157.436 Y63.236 E22.41135
G1 X158.311 Y63.367 E22.46754
G1 X177.41 Y67.393 E23.70726
G1 X178.155 Y67.591 E23.75622
G1 X178.876 Y67.865 E23.80521
G1 X179.565 Y68.212 E23.85421
G1 X180.214 Y68.629 E23.9032
G1 X180.816 Y69.111 E23.95218
G1 X181.365 Y69.652 E24.00114
G1 X181.855 Y70.247 E24.05009
G1 X182.282 Y70.89 E24.09912
G1 X182.639 Y71.574 E24.14812
G1 X182.923 Y72.29 E24.19705
G1 X183.132 Y73.033 E24.24607
G1 X183.263 Y73.793 E24.29505
G1 X183.314 Y74.562 E24.344
G1 X183.286 Y75.333 E24.393
G1 X183.155 Y76.207 E24.44913
G1 X159.277 Y189.529 E31.80474
G1 X159.079 Y190.274 E31.8537
G1 X158.805 Y190.995 E31.90269
G1 X158.458 Y191.684 E31.95169
G1 X158.041 Y192.333 E32.00068
G1 X157.56 Y192.935 E32.04962
G1 X157.019 Y193.485 E32.09862
G1 X156.423 Y193.975 E32.14763
G1 X155.78 Y194.401 E32.19662
G1 X155.673 Y194.457 E32.20429
G1 X154.055 Y202.133 E32.70254
G1 X153.857 Y202.878 E32.7515
G1 X153.583 Y203.599 E32.80049
G1 X153.236 Y204.288 E32.84948
G1 X152.819 Y204.937 E32.89848
G1 X152.337 Y205.539 E32.94746
G1 X151.796 Y206.088 E32.99642
G1 X151.201 Y206.579 E33.04541
G1 X150.558 Y207.005 E33.0944
G1 X149.874 Y207.362 E33.14341
G1 X149.157 Y207.646 E33.19239
G1 X148.415 Y207.855 E33.24135
G1 X147.655 Y207.986 E33.29033
G1 X146.885 Y208.037 E33.33935
G1 X146.115 Y208.009 E33.38829
G1 X145.241 Y207.878 E33.44442
G1 X131.053 Y204.889 E34.36534
G1 X130.308 Y204.691 E34.4143
G1 X129.587 Y204.417 E34.46329
G1 X128.898 Y204.07 E34.51228
G1 X128.249 Y203.654 E34.56125
G1 X127.647 Y203.172 E34.61023
G1 X127.097 Y202.631 E34.65923
G1 X126.607 Y202.035 E34.70823
G1 X126.181 Y201.393 E34.75717
G1 X125.824 Y200.709 E34.80617
G1 X125.539 Y199.992 E34.85518
G1 X125.33 Y199.25 E34.90414
G1 X125.199 Y198.49 E34.95312
G1 X125.148 Y197.72 E35.00214
G1 X125.176 Y196.95 E35.05108
G1 X125.307 Y196.076 E35.10721
G1 X126.921 Y188.409 E35.60484
G1 X126.715 Y188.133 E35.62672
G1 X126.318 Y187.472 E35.67569
G1 X125.993 Y186.772 E35.72471
G1 X125.742 Y186.043 E35.77368
G1 X125.567 Y185.292 E35.82266
G1 X125.472 Y184.527 E35.87162
G1 X125.456 Y183.756 E35.9206
G1 X125.52 Y182.987 E35.96961
G1 X125.612 Y182.453 E36.00402
G1 X149.496 Y69.113 E43.36083
G1 X149.694 Y68.367 E43.40985
G1 X149.968 Y67.647 E43.45878
G0 F6000 X150.427 Y67.795
G1 F900 X150.769 Y67.132 E43.50616
G1 X151.179 Y66.51 E43.55348
G1 X151.654 Y65.934 E43.60089
G1 X152.188 Y65.413 E43.64828
G1 X152.774 Y64.952 E43.69564
G1 X153.407 Y64.557 E43.74303
G1 X154.078 Y64.231 E43.79041
G1 X154.78 Y63.979 E43.83778
G1 X155.505 Y63.804 E43.88515
G1 X156.245 Y63.707 E43.93255
G1 X156.99 Y63.69 E43.97988
G1 X157.734 Y63.753 E44.02731
G1 X158.212 Y63.837 E44.05813
G1 X177.311 Y67.863 E45.29785
G1 X178.031 Y68.055 E45.34518
G1 X178.727 Y68.324 E45.39257
G1 X179.39 Y68.666 E45.43995
G1 X180.013 Y69.077 E45.48736
G1 X180.588 Y69.551 E45.53469
G1 X181.109 Y70.085 E45.58207
G1 X181.57 Y70.672 E45.62948
G1 X181.965 Y71.304 E45.67681
G1 X182.291 Y71.975 E45.7242
G1 X182.543 Y72.677 E45.77157
G1 X182.718 Y73.402 E45.81894
G1 X182.815 Y74.142 E45.86634
G1 X182.832 Y74.888 E45.91373
G1 X182.769 Y75.631 E45.9611
G1 X182.685 Y76.108 E45.99186
G1 X158.807 Y189.43 E53.34746
G1 X158.615 Y190.151 E53.39485
G1 X158.346 Y190.846 E53.44218
G1 X158.004 Y191.51 E53.48962
G1 X157.594 Y192.132 E53.53694
G1 X157.119 Y192.707 E53.58431
G1 X156.585 Y193.229 E53.63174
G1 X155.999 Y193.69 E53.67909
G1 X155.366 Y194.085 E53.72649
G1 X155.249 Y194.142 E53.73475
G1 X153.585 Y202.034 E54.24703
G1 X153.393 Y202.754 E54.29435
G1 X153.124 Y203.45 E54.34175
G1 X152.782 Y204.113 E54.38913
G1 X152.371 Y204.736 E54.43653
G1 X151.896 Y205.311 E54.4839
G1 X151.363 Y205.832 E54.53124
G1 X150.776 Y206.293 E54.57865
G1 X150.144 Y206.688 E54.62599
G1 X149.472 Y207.014 E54.67342
G1 X148.77 Y207.266 E54.7208
G1 X148.045 Y207.441 E54.76817
G1 X147.306 Y207.538 E54.81551
G1 X146.56 Y207.555 E54.8629
G1 X145.817 Y207.492 E54.91026
G1 X145.34 Y207.409 E54.94101
G1 X131.152 Y204.42 E55.86193
G1 X130.432 Y204.227 E55.90928
G1 X129.736 Y203.958 E55.95667
G1 X129.073 Y203.617 E56.00402
G1 X128.45 Y203.206 E56.05143
G1 X127.875 Y202.731 E56.0988
G1 X127.354 Y202.197 E56.14618
G1 X126.893 Y201.611 E56.19354
G1 X126.497 Y200.979 E56.24091
G1 X126.171 Y200.307 E56.28835
G1 X125.919 Y199.605 E56.33572
G1 X125.744 Y198.88 E56.38309
G1 X125.647 Y198.141 E56.43043
G1 X125.63 Y197.395 E56.47782
G1 X125.693 Y196.652 E56.52519
G1 X125.776 Y196.175 E56.55594
G1 X127.434 Y188.303 E57.06689
G1 X127.407 Y188.272 E57.0695
G1 X126.98 Y187.66 E57.1169
G1 X126.621 Y187.006 E57.16428
G1 X126.334 Y186.318 E57.21163
G1 X126.122 Y185.603 E57.259
G1 X125.988 Y184.869 E57.30639
G1 X125.933 Y184.125 E57.35377
G1 X125.959 Y183.38 E57.40112
G1 X126.082 Y182.552 E57.45428
G1 X149.966 Y69.212 E64.81108
G1 X150.158 Y68.491 E64.85847
G1 X150.427 Y67.795 E64.90587
G0 F6000 X150.886 Y67.946
G1 F900 X151.222 Y67.309 E64.95161
G1 X151.626 Y66.714 E64.99729
G1 X152.094 Y66.167 E65.04301
G1 X152.62 Y65.676 E65.08871
G1 X153.197 Y65.245 E65.13446
G1 X153.818 Y64.882 E65.18014
G1 X154.475 Y64.589 E65.22583
G1 X155.161 Y64.371 E65.27155
G1 X155.867 Y64.231 E65.31727
G1 X156.584 Y64.17 E65.36297
G1 X157.304 Y64.189 E65.40872
G1 X158.113 Y64.306 E65.46063
G1 X177.212 Y68.332 E66.70035
G1 X177.907 Y68.52 E66.74608
G1 X178.576 Y68.783 E66.79173
G1 X179.213 Y69.119 E66.83748
G1 X179.808 Y69.523 E66.88316
G1 X180.355 Y69.991 E66.92888
G1 X180.847 Y70.517 E66.97462
G1 X181.277 Y71.094 E67.02033
G1 X181.64 Y71.715 E67.06602
G1 X181.933 Y72.373 E67.11176
G1 X182.151 Y73.059 E67.15748
G1 X182.291 Y73.765 E67.2032
G1 X182.352 Y74.482 E67.2489
G1 X182.333 Y75.201 E67.29458
G1 X182.216 Y76.009 E67.34644
G1 X158.338 Y189.331 E74.70204
G1 X158.15 Y190.026 E74.74777
G1 X157.887 Y190.696 E74.79349
G1 X157.551 Y191.332 E74.83917
G1 X157.147 Y191.928 E74.8849
G1 X156.679 Y192.475 E74.93063
G1 X156.154 Y192.966 E74.97628
G1 X155.577 Y193.397 E75.02202
G1 X154.955 Y193.76 E75.06777
G1 X154.828 Y193.817 E75.07661
G1 X153.116 Y201.935 E75.60356
G1 X152.928 Y202.63 E75.64929
G1 X152.665 Y203.3 E75.695
G1 X152.329 Y203.936 E75.74069
G1 X151.925 Y204.531 E75.78637
G1 X151.457 Y205.078 E75.83209
G1 X150.931 Y205.57 E75.87783
G1 X150.354 Y206 E75.92354
G1 X149.733 Y206.364 E75.96926
G1 X149.075 Y206.656 E76.01498
G1 X148.389 Y206.874 E76.0607
G1 X147.683 Y207.014 E76.10641
G1 X146.966 Y207.075 E76.15212
G1 X146.247 Y207.056 E76.1978
G1 X145.439 Y206.939 E76.24965
G1 X131.251 Y203.95 E77.17057
G1 X130.556 Y203.763 E77.21629
G1 X129.886 Y203.499 E77.26203
G1 X129.25 Y203.164 E77.30768
G1 X128.654 Y202.759 E77.35345
G1 X128.107 Y202.291 E77.39917
G1 X127.616 Y201.766 E77.44483
G1 X127.186 Y201.189 E77.49053
G1 X126.822 Y200.568 E77.53625
G1 X126.529 Y199.91 E77.582
G1 X126.312 Y199.224 E77.6277
G1 X126.171 Y198.518 E77.67342
G1 X126.11 Y197.801 E77.71913
G1 X126.128 Y197.082 E77.76481
G1 X126.246 Y196.274 E77.81667
G1 X127.953 Y188.168 E78.34281
G1 X127.649 Y187.795 E78.37337
G1 X127.259 Y187.19 E78.41909
G1 X126.938 Y186.545 E78.46485
G1 X126.691 Y185.869 E78.51056
G1 X126.521 Y185.17 E78.55625
G1 X126.429 Y184.456 E78.60198
G1 X126.417 Y183.736 E78.64771
G1 X126.485 Y183.02 E78.6934
G1 X126.551 Y182.651 E78.7172
G1 X150.435 Y69.311 E86.074
G1 X150.623 Y68.616 E86.11973
G1 X150.886 Y67.946 E86.16545
G0 F6000 X151.344 Y68.099
G1 F900 X151.674 Y67.49 E86.20944
G1 X152.072 Y66.923 E86.25344
G1 X152.532 Y66.406 E86.2974
G1 X153.049 Y65.945 E86.34139
G1 X153.616 Y65.547 E86.38539
G1 X154.225 Y65.216 E86.42941
G1 X154.867 Y64.959 E86.47334
G1 X155.536 Y64.777 E86.51737
G1 X156.22 Y64.673 E86.56131
G1 X156.912 Y64.649 E86.60529
G1 X157.603 Y64.704 E86.64932
G1 X158.014 Y64.776 E86.67582
G1 X177.113 Y68.802 E87.91554
G1 X177.781 Y68.984 E87.95951
G1 X178.424 Y69.241 E88.00349
G1 X179.033 Y69.571 E88.04749
G1 X179.6 Y69.969 E88.09149
G1 X180.117 Y70.429 E88.13544
G1 X180.577 Y70.946 E88.17939
G1 X180.976 Y71.513 E88.22343
G1 X181.306 Y72.122 E88.26742
G1 X181.563 Y72.765 E88.3114
G1 X181.745 Y73.433 E88.35538
G1 X181.849 Y74.118 E88.39938
G1 X181.873 Y74.81 E88.44336
G1 X181.818 Y75.5 E88.48732
G1 X181.746 Y75.91 E88.51376
G1 X157.868 Y189.232 E95.86937
G1 X157.686 Y189.9 E95.91334
G1 X157.429 Y190.543 E95.95732
G1 X157.099 Y191.152 E96.00132
G1 X156.701 Y191.719 E96.04531
G1 X156.241 Y192.236 E96.08927
G1 X155.724 Y192.697 E96.13326
G1 X155.157 Y193.095 E96.17726
G1 X154.548 Y193.425 E96.22126
G1 X154.407 Y193.481 E96.23089
G1 X152.646 Y201.836 E96.77321
G1 X152.464 Y202.504 E96.81719
G1 X152.207 Y203.147 E96.86117
G1 X151.877 Y203.756 E96.90516
G1 X151.479 Y204.323 E96.94916
G1 X151.018 Y204.84 E96.99315
G1 X150.501 Y205.301 E97.03715
G1 X149.935 Y205.699 E97.0811
G1 X149.326 Y206.029 E97.12509
G1 X148.683 Y206.287 E97.1691
G1 X148.015 Y206.468 E97.21305
G1 X147.33 Y206.572 E97.25706
G1 X146.638 Y206.596 E97.30104
G1 X145.948 Y206.541 E97.345
G1 X145.538 Y206.469 E97.37144
G1 X131.35 Y203.48 E98.29236
G1 X130.682 Y203.298 E98.33633
G1 X130.039 Y203.041 E98.38032
G1 X129.43 Y202.711 E98.42431
G1 X128.863 Y202.313 E98.46831
G1 X128.346 Y201.853 E98.51226
G1 X127.885 Y201.336 E98.55626
G1 X127.487 Y200.769 E98.60026
G1 X127.157 Y200.161 E98.64419
G1 X126.899 Y199.518 E98.6882
G1 X126.717 Y198.85 E98.73217
G1 X126.613 Y198.165 E98.77618
G1 X126.589 Y197.473 E98.82016
G1 X126.644 Y196.783 E98.86412
G1 X126.716 Y196.373 E98.89056
G1 X128.472 Y188.032 E99.43194
G1 X128.32 Y187.872 E99.44596
G1 X127.902 Y187.319 E99.48999
G1 X127.552 Y186.722 E99.53394
G1 X127.272 Y186.089 E99.57791
G1 X127.067 Y185.427 E99.62192
G1 X126.94 Y184.746 E99.66592
G1 X126.892 Y184.055 E99.70991
G1 X126.924 Y183.364 E99.75385
G1 X127.021 Y182.75 E99.79333
G1 X150.905 Y69.41 E107.15013
G1 X151.087 Y68.742 E107.19411
G1 X151.344 Y68.099 E107.23809
G0 F6000 X151.802 Y68.253
G1 F900 X152.125 Y67.673 E107.28025
G1 X152.516 Y67.136 E107.32244
G1 X152.969 Y66.65 E107.36464
G1 X153.476 Y66.222 E107.40678
G1 X154.032 Y65.857 E107.44903
G1 X154.627 Y65.562 E107.49121
G1 X155.253 Y65.341 E107.53337
G1 X155.902 Y65.197 E107.57559
G1 X156.563 Y65.131 E107.61779
G1 X157.227 Y65.145 E107.65997
G1 X157.915 Y65.246 E107.70414
G1 X177.014 Y69.272 E108.94385
G1 X177.654 Y69.448 E108.98601
G1 X178.269 Y69.699 E109.0282
G1 X178.849 Y70.023 E109.0704
G1 X179.386 Y70.414 E109.11259
G1 X179.872 Y70.866 E109.15474
G1 X180.301 Y71.374 E109.19697
G1 X180.665 Y71.929 E109.23913
G1 X180.96 Y72.524 E109.28131
G1 X181.181 Y73.151 E109.32353
G1 X181.325 Y73.799 E109.36569
G1 X181.391 Y74.46 E109.40789
G1 X181.377 Y75.124 E109.45007
G1 X181.276 Y75.811 E109.49417
G1 X157.398 Y189.133 E116.84977
G1 X157.223 Y189.774 E116.89198
G1 X156.971 Y190.388 E116.93413
G1 X156.648 Y190.969 E116.97635
G1 X156.257 Y191.506 E117.01854
G1 X155.804 Y191.992 E117.06074
G1 X155.297 Y192.42 E117.10288
G1 X154.741 Y192.785 E117.14513
G1 X154.146 Y193.079 E117.18728
G1 X153.99 Y193.134 E117.19778
G1 X152.176 Y201.737 E117.75621
G1 X152 Y202.377 E117.79837
G1 X151.749 Y202.992 E117.84056
G1 X151.425 Y203.572 E117.88276
G1 X151.034 Y204.109 E117.92495
G1 X150.582 Y204.595 E117.9671
G1 X150.074 Y205.024 E118.00933
G1 X149.519 Y205.388 E118.05149
G1 X148.923 Y205.683 E118.09373
G1 X148.297 Y205.904 E118.13589
G1 X147.649 Y206.048 E118.17805
G1 X146.988 Y206.114 E118.22024
G1 X146.324 Y206.1 E118.26243
G1 X145.637 Y205.999 E118.30653
G1 X131.449 Y203.01 E119.22745
G1 X130.809 Y202.835 E119.26959
G1 X130.194 Y202.583 E119.3118
G1 X129.614 Y202.26 E119.35397
G1 X129.077 Y201.869 E119.39616
G1 X128.59 Y201.416 E119.4384
G1 X128.162 Y200.909 E119.48055
G1 X127.798 Y200.353 E119.52275
G1 X127.503 Y199.758 E119.56494
G1 X127.281 Y199.132 E119.60712
G1 X127.137 Y198.484 E119.64928
G1 X127.071 Y197.823 E119.69147
G1 X127.085 Y197.159 E119.73366
G1 X127.185 Y196.472 E119.77775
G1 X128.992 Y187.892 E120.33466
G1 X128.548 Y187.393 E120.37708
G1 X128.17 Y186.847 E120.41926
G1 X127.861 Y186.259 E120.46145
G1 X127.625 Y185.638 E120.50364
G1 X127.465 Y184.993 E120.54585
G1 X127.383 Y184.334 E120.58803
G1 X127.381 Y183.67 E120.6302
G1 X127.491 Y182.849 E120.68281
G1 X151.375 Y69.509 E128.03962
G1 X151.55 Y68.868 E128.08182
G1 X151.802 Y68.253 E128.12403
G0 F6000 X152.259 Y68.411
G1 F900 X152.576 Y67.861 E128.16435
G1 X152.96 Y67.355 E128.2047
G1 X153.403 Y66.902 E128.24494
G1 X153.901 Y66.507 E128.28531
