;FLAVOR:Marlin
;TIME:8420
;Filament used: 8.76966m
;Layer height: 0.2
;MINX:119.816
;MINY:119.81
;MINZ:0.3
;MAXX:180.184
;MAXY:178.907
;MAXZ:40.1
;Generated with Cura_SteamEngine 4.10.0
M140 S90
M105
M190 S90
M104 S230
M105
M109 S230
M82 ;absolute extrusion mode
G28 ; home all axes
 M117 Purge extruder
 G92 E0 ; reset extruder
 G1 Z1.0 F3000 ; move z up little to prevent scratching of surface
 G1 X2 Y20 Z0.3 F5000.0 ; move to start-line position
 G1 X2 Y200.0 Z0.3 F1500.0 E15 ; draw 1st line
 G1 X2 Y200.0 Z0.4 F5000.0 ; move to side a little
 G1 X2 Y20 Z0.4 F1500.0 E30 ; draw 2nd line
 G92 E0 ; reset extruder
 G1 Z1.0 F3000 ; move z up little to prevent scratching of surface
G92 E0
G92 E0
G1 F2100 E-2
;LAYER_COUNT:200
;LAYER:0
M107
G1 F300 Z0.5
G0 F6000 X129.948 Y127.442 Z0.5
;TYPE:SKIRT
G1 F300 Z0.3
G1 F2100 E0
G1 F1200 X130.531 Y126.917 E0.05726
G1 X131.455 Y126.168 E0.14408
G1 X132.024 Y125.749 E0.19566
G1 X134.471 Y124.113 E0.4105
G1 X135.349 Y123.606 E0.4845
G1 X138.009 Y122.296 E0.70092
G1 X138.942 Y121.911 E0.77459
G1 X141.707 Y120.975 E0.98766
G1 X142.477 Y120.758 E1.04605
G1 X142.755 Y120.698 E1.06681
G1 X145.529 Y120.145 E1.27326
G1 X146.079 Y120.055 E1.31394
G1 X146.143 Y120.047 E1.31865
G1 X146.6 Y120.004 E1.35215
G1 X149.499 Y119.816 E1.56419
G1 X150.385 Y119.81 E1.62886
G1 X150.598 Y119.821 E1.64443
G1 X153.427 Y120.006 E1.85136
G1 X154.191 Y120.095 E1.9075
G1 X154.494 Y120.149 E1.92996
G1 X157.327 Y120.715 E2.14083
G1 X158.29 Y120.974 E2.21362
G1 X161.081 Y121.92 E2.42871
G1 X162.015 Y122.306 E2.50248
G1 X164.655 Y123.608 E2.71733
G1 X165.53 Y124.114 E2.79111
G1 X167.986 Y125.757 E3.00678
G1 X168.555 Y126.176 E3.05836
G1 X169.47 Y126.918 E3.14434
G1 X170.053 Y127.443 E3.20161
G1 X170.58 Y128.024 E3.25886
G1 X171.046 Y128.656 E3.31617
G1 X171.444 Y129.332 E3.37343
G1 X171.772 Y130.045 E3.43071
G1 X172.025 Y130.787 E3.48793
G1 X172.201 Y131.552 E3.54523
G1 X172.299 Y132.33 E3.60246
G1 X172.317 Y133.115 E3.65977
G1 X172.255 Y133.897 E3.71703
G1 X172.114 Y134.669 E3.77431
G1 X171.895 Y135.422 E3.83155
G1 X171.6 Y136.149 E3.88881
G1 X171.233 Y136.843 E3.94612
G1 X170.798 Y137.495 E4.00332
G1 X170.298 Y138.1 E4.06061
G1 X169.855 Y138.537 E4.10603
G1 X170.458 Y138.371 E4.15168
G1 X171.232 Y138.241 E4.20897
G1 X172.015 Y138.19 E4.26624
G1 X172.799 Y138.219 E4.3235
G1 X173.576 Y138.328 E4.38077
G1 X174.338 Y138.515 E4.43804
G1 X175.076 Y138.779 E4.49525
G1 X175.785 Y139.116 E4.55254
G1 X176.455 Y139.524 E4.6098
G1 X177.08 Y139.999 E4.6671
G1 X177.654 Y140.534 E4.72437
G1 X178.17 Y141.125 E4.78163
G1 X178.623 Y141.765 E4.83887
G1 X179.009 Y142.448 E4.89613
G1 X179.324 Y143.167 E4.95342
G1 X179.563 Y143.914 E5.01067
G1 X179.725 Y144.677 E5.0676
G1 X179.912 Y145.85 E5.1543
G1 X179.992 Y146.56 E5.20645
G1 X180.184 Y149.497 E5.42128
G1 X180.184 Y150.502 E5.49463
G1 X179.991 Y153.451 E5.71034
G1 X179.858 Y154.458 E5.78448
G1 X179.283 Y157.334 E5.99855
G1 X179.115 Y158.011 E6.04946
G1 X179 Y158.378 E6.07753
G1 X178.109 Y161.005 E6.28
G1 X177.966 Y161.392 E6.31012
G1 X177.922 Y161.502 E6.31876
G1 X177.679 Y162.048 E6.36238
G1 X176.397 Y164.647 E6.57391
G1 X175.891 Y165.522 E6.64768
G1 X174.243 Y167.986 E6.86405
G1 X173.635 Y168.778 E6.93692
G1 X171.715 Y170.97 E7.14961
G1 X171.001 Y171.685 E7.22337
G1 X168.776 Y173.637 E7.43941
G1 X167.977 Y174.251 E7.51295
G1 X165.528 Y175.888 E7.72796
G1 X164.65 Y176.394 E7.80193
G1 X162.001 Y177.698 E8.01743
G1 X161.364 Y177.977 E8.06819
G1 X160.264 Y178.4 E8.15421
G1 X159.518 Y178.644 E8.2115
G1 X158.751 Y178.811 E8.26879
G1 X157.972 Y178.899 E8.32601
G1 X157.187 Y178.907 E8.38331
G1 X156.406 Y178.835 E8.44056
G1 X155.636 Y178.684 E8.49783
G1 X154.885 Y178.455 E8.55514
G1 X154.162 Y178.152 E8.61236
G1 X153.473 Y177.776 E8.66965
G1 X152.826 Y177.332 E8.72692
G1 X152.228 Y176.825 E8.78415
G1 X151.684 Y176.259 E8.84145
G1 X151.201 Y175.641 E8.8987
G1 X150.783 Y174.977 E8.95596
G1 X150.434 Y174.274 E9.01325
G1 X150.16 Y173.539 E9.0705
G1 X150 Y172.929 E9.11653
G1 X149.843 Y173.531 E9.16194
G1 X149.569 Y174.266 E9.2192
G1 X149.221 Y174.97 E9.27652
G1 X148.804 Y175.634 E9.33375
G1 X148.321 Y176.253 E9.39105
G1 X147.778 Y176.819 E9.4483
G1 X147.18 Y177.327 E9.50557
G1 X146.534 Y177.772 E9.56283
G1 X145.845 Y178.148 E9.62012
G1 X145.122 Y178.453 E9.67739
G1 X144.372 Y178.682 E9.73463
G1 X143.602 Y178.834 E9.79192
G1 X142.821 Y178.906 E9.84916
G1 X142.036 Y178.899 E9.90646
G1 X141.257 Y178.812 E9.96368
G1 X140.49 Y178.646 E10.02095
G1 X139.738 Y178.4 E10.0787
G1 X138.627 Y177.973 E10.16558
G1 X137.985 Y177.693 E10.2167
G1 X135.347 Y176.393 E10.43136
G1 X134.47 Y175.886 E10.5053
G1 X132.009 Y174.24 E10.7214
G1 X131.212 Y173.628 E10.79474
G1 X129.011 Y171.697 E11.00845
G1 X128.513 Y171.219 E11.05884
G1 X128.235 Y170.918 E11.08874
G1 X126.374 Y168.792 E11.29497
G1 X126.022 Y168.359 E11.3357
G1 X125.982 Y168.306 E11.34055
G1 X125.724 Y167.942 E11.37311
G1 X124.11 Y165.524 E11.58531
G1 X123.605 Y164.649 E11.65905
G1 X122.294 Y161.985 E11.87576
G1 X121.912 Y161.06 E11.9488
G1 X120.99 Y158.344 E12.15816
G1 X120.871 Y157.961 E12.18743
G1 X120.717 Y157.33 E12.23484
G1 X120.141 Y154.442 E12.44978
G1 X120.008 Y153.439 E12.52363
G1 X119.816 Y150.504 E12.73831
G1 X119.816 Y149.499 E12.81167
G1 X120.008 Y146.562 E13.02649
G1 X120.088 Y145.854 E13.0785
G1 X120.275 Y144.679 E13.16534
G1 X120.437 Y143.911 E13.22263
G1 X120.677 Y143.164 E13.2799
G1 X120.992 Y142.445 E13.33719
G1 X121.378 Y141.762 E13.39446
G1 X121.832 Y141.122 E13.45173
G1 X122.348 Y140.532 E13.50894
G1 X122.922 Y139.997 E13.56621
G1 X123.547 Y139.523 E13.62346
G1 X124.218 Y139.115 E13.68078
G1 X124.926 Y138.778 E13.73801
G1 X125.665 Y138.514 E13.79529
G1 X126.427 Y138.327 E13.85256
G1 X127.204 Y138.219 E13.90982
G1 X127.988 Y138.19 E13.96708
G1 X128.771 Y138.241 E14.02435
G1 X129.545 Y138.371 E14.08164
G1 X130.145 Y138.537 E14.12708
G1 X129.701 Y138.099 E14.1726
G1 X129.201 Y137.494 E14.22989
G1 X128.766 Y136.841 E14.28716
G1 X128.399 Y136.148 E14.34439
G1 X128.105 Y135.42 E14.4017
G1 X127.886 Y134.667 E14.45894
G1 X127.745 Y133.895 E14.51622
G1 X127.683 Y133.113 E14.57347
G1 X127.701 Y132.329 E14.63071
G1 X127.799 Y131.55 E14.68802
G1 X127.976 Y130.786 E14.74526
G1 X128.229 Y130.043 E14.80255
G1 X128.557 Y129.33 E14.85983
G1 X128.956 Y128.654 E14.91713
G1 X129.421 Y128.023 E14.97434
G1 X129.948 Y127.442 E15.03159
G0 F6000 X130.243 Y128.021
G1 F1200 X130.919 Y127.396 E15.09879
G1 X131.843 Y126.647 E15.18561
G1 X132.367 Y126.261 E15.23311
G1 X134.814 Y124.625 E15.44795
G1 X135.621 Y124.159 E15.51597
G1 X138.281 Y122.849 E15.73239
G1 X139.14 Y122.494 E15.80023
G1 X141.905 Y121.558 E16.0133
G1 X142.613 Y121.359 E16.06698
G1 X142.875 Y121.302 E16.08655
G1 X145.649 Y120.749 E16.293
G1 X146.155 Y120.667 E16.33042
G1 X146.219 Y120.659 E16.33513
G1 X146.64 Y120.619 E16.36599
G1 X149.539 Y120.431 E16.57803
G1 X150.354 Y120.425 E16.63752
G1 X150.558 Y120.436 E16.65243
G1 X153.387 Y120.621 E16.85936
G1 X154.09 Y120.702 E16.91101
G1 X154.373 Y120.753 E16.932
G1 X157.206 Y121.319 E17.14287
G1 X158.092 Y121.557 E17.20983
G1 X160.883 Y122.503 E17.42492
G1 X161.742 Y122.859 E17.49279
G1 X164.382 Y124.161 E17.70765
G1 X165.188 Y124.626 E17.77556
G1 X167.644 Y126.269 E17.99124
G1 X168.167 Y126.655 E18.03868
G1 X169.082 Y127.397 E18.12467
G1 X169.64 Y127.901 E18.17955
G1 X170.142 Y128.462 E18.2345
G1 X170.582 Y129.073 E18.28945
G1 X170.954 Y129.727 E18.34437
G1 X171.255 Y130.417 E18.39932
G1 X171.481 Y131.134 E18.45419
G1 X171.629 Y131.872 E18.50913
G1 X171.699 Y132.622 E18.56411
G1 X171.688 Y133.374 E18.619
G1 X171.598 Y134.121 E18.67392
G1 X171.429 Y134.854 E18.72882
G1 X171.183 Y135.566 E18.78381
G1 X170.863 Y136.247 E18.83873
G1 X170.473 Y136.89 E18.89362
G1 X170.016 Y137.489 E18.94861
G1 X169.499 Y138.035 E19.00349
G1 X168.927 Y138.524 E19.05842
G1 X168.162 Y139.034 E19.12553
G1 X153.542 Y147.475 E20.35772
G1 X152.871 Y147.816 E20.41265
G1 X152.168 Y148.084 E20.46757
G1 X151.44 Y148.276 E20.52252
G1 X150.697 Y148.39 E20.57739
G1 X149.945 Y148.424 E20.63233
G1 X149.194 Y148.378 E20.68725
G1 X148.452 Y148.253 E20.74217
G1 X147.727 Y148.049 E20.79714
G1 X147.028 Y147.77 E20.85208
G1 X146.458 Y147.475 E20.89892
G1 X131.838 Y139.034 E22.13111
G1 X131.207 Y138.624 E22.18604
G1 X130.623 Y138.149 E22.24098
G1 X130.093 Y137.614 E22.29595
G1 X129.623 Y137.027 E22.35084
G1 X129.218 Y136.393 E22.40575
G1 X128.882 Y135.72 E22.46065
G1 X128.619 Y135.014 E22.51564
G1 X128.433 Y134.285 E22.57055
G1 X128.325 Y133.54 E22.6255
G1 X128.297 Y132.788 E22.68043
G1 X128.349 Y132.038 E22.7353
G1 X128.48 Y131.297 E22.79022
G1 X128.689 Y130.574 E22.84515
G1 X128.973 Y129.877 E22.90009
G1 X129.33 Y129.214 E22.95505
G1 X129.755 Y128.593 E23.00998
G1 X130.243 Y128.021 E23.06486
G0 F6000 X130.571 Y128.574
G1 F1200 X131.307 Y127.874 E23.13899
G1 X132.231 Y127.125 E23.22581
G1 X132.709 Y126.773 E23.26914
G1 X135.156 Y125.137 E23.48398
G1 X135.893 Y124.711 E23.54612
G1 X138.553 Y123.401 E23.76253
G1 X139.337 Y123.078 E23.82442
G1 X142.102 Y122.142 E24.03749
G1 X142.749 Y121.959 E24.08657
G1 X142.995 Y121.906 E24.10493
G1 X145.769 Y121.353 E24.31139
G1 X146.232 Y121.278 E24.34563
G1 X146.296 Y121.27 E24.35033
G1 X146.679 Y121.234 E24.37841
G1 X149.578 Y121.046 E24.59045
G1 X150.323 Y121.04 E24.64483
G1 X150.518 Y121.051 E24.65909
G1 X153.347 Y121.236 E24.86601
G1 X153.988 Y121.31 E24.91311
G1 X154.252 Y121.357 E24.93268
G1 X157.085 Y121.923 E25.14355
G1 X157.894 Y122.14 E25.20468
G1 X160.685 Y123.086 E25.41978
G1 X161.47 Y123.411 E25.48179
G1 X164.11 Y124.713 E25.69665
G1 X164.845 Y125.138 E25.75862
G1 X167.301 Y126.781 E25.97429
G1 X167.779 Y127.133 E26.01762
G1 X168.694 Y127.875 E26.1036
G1 X169.226 Y128.358 E26.15605
G1 X169.702 Y128.898 E26.20859
G1 X170.115 Y129.487 E26.2611
G1 X170.459 Y130.118 E26.31355
G1 X170.732 Y130.783 E26.36602
G1 X170.929 Y131.475 E26.41854
G1 X171.048 Y132.184 E26.47101
G1 X171.088 Y132.902 E26.5235
G1 X171.048 Y133.62 E26.57599
G1 X170.928 Y134.329 E26.62847
G1 X170.73 Y135.02 E26.68094
G1 X170.457 Y135.685 E26.73341
G1 X170.112 Y136.316 E26.7859
G1 X169.699 Y136.904 E26.83834
G1 X169.223 Y137.443 E26.89083
G1 X168.69 Y137.926 E26.94333
G1 X167.854 Y138.5 E27.01735
G1 X153.234 Y146.941 E28.24954
G1 X152.592 Y147.266 E28.30206
G1 X151.919 Y147.517 E28.35449
G1 X151.221 Y147.692 E28.40701
G1 X150.508 Y147.788 E28.45952
G1 X149.79 Y147.805 E28.51194
G1 X149.073 Y147.741 E28.56449
G1 X148.369 Y147.599 E28.6169
G1 X147.684 Y147.379 E28.66942
G1 X146.766 Y146.941 E28.74366
G1 X132.146 Y138.5 E29.97585
G1 X131.544 Y138.107 E30.02832
G1 X130.99 Y137.649 E30.08079
G1 X130.49 Y137.132 E30.13328
G1 X130.05 Y136.563 E30.18578
G1 X129.676 Y135.949 E30.23826
G1 X129.373 Y135.297 E30.29074
G1 X129.144 Y134.615 E30.34325
G1 X128.992 Y133.913 E30.39567
G1 X128.919 Y133.197 E30.4482
G1 X128.926 Y132.478 E30.50068
G1 X129.012 Y131.764 E30.55318
G1 X129.178 Y131.065 E30.60561
G1 X129.42 Y130.388 E30.65809
G1 X129.735 Y129.741 E30.71061
G1 X130.12 Y129.134 E30.76308
G1 X130.571 Y128.574 E30.81556
G0 F6000 X131.404 Y128.605
G1 F1200 X131.695 Y128.353 E30.84366
G1 X132.619 Y127.604 E30.93047
G1 X133.051 Y127.285 E30.96967
G1 X135.498 Y125.649 E31.18452
G1 X136.166 Y125.264 E31.24079
G1 X138.826 Y123.954 E31.45721
G1 X139.535 Y123.661 E31.5132
G1 X142.3 Y122.725 E31.72627
G1 X142.885 Y122.56 E31.77063
G1 X143.116 Y122.51 E31.78789
G1 X145.89 Y121.957 E31.99434
G1 X146.308 Y121.889 E32.02525
G1 X146.372 Y121.881 E32.02996
G1 X146.719 Y121.848 E32.0554
G1 X149.618 Y121.66 E32.26744
G1 X150.292 Y121.655 E32.31664
G1 X150.478 Y121.665 E32.33023
G1 X153.307 Y121.85 E32.53716
G1 X153.887 Y121.918 E32.57979
G1 X154.132 Y121.961 E32.59794
G1 X156.965 Y122.527 E32.80881
G1 X157.697 Y122.724 E32.86414
G1 X160.488 Y123.67 E33.07923
G1 X161.197 Y123.964 E33.13526
G1 X163.837 Y125.266 E33.35011
G1 X164.503 Y125.65 E33.40622
G1 X166.959 Y127.293 E33.6219
G1 X167.391 Y127.612 E33.66109
G1 X168.306 Y128.354 E33.74708
G1 X168.811 Y128.815 E33.79698
G1 X169.259 Y129.332 E33.84692
G1 X169.643 Y129.897 E33.89678
G1 X169.959 Y130.504 E33.94673
G1 X170.202 Y131.143 E33.99663
G1 X170.369 Y131.806 E34.04653
G1 X170.457 Y132.485 E34.0965
G1 X170.466 Y133.169 E34.14643
G1 X170.394 Y133.849 E34.19634
G1 X170.244 Y134.516 E34.24624
G1 X170.017 Y135.161 E34.29615
G1 X169.716 Y135.775 E34.34606
G1 X169.346 Y136.35 E34.39597
G1 X168.911 Y136.878 E34.4459
G1 X168.417 Y137.352 E34.49587
G1 X167.872 Y137.764 E34.54574
G1 X167.546 Y137.967 E34.57377
G1 X152.926 Y146.408 E35.80596
G1 X152.315 Y146.715 E35.85587
G1 X151.672 Y146.948 E35.90579
G1 X151.006 Y147.105 E35.95573
G1 X150.327 Y147.183 E36.00562
G1 X149.643 Y147.181 E36.05554
G1 X148.964 Y147.1 E36.10545
G1 X148.299 Y146.939 E36.15539
G1 X147.657 Y146.703 E36.20532
G1 X147.074 Y146.408 E36.25301
G1 X132.454 Y137.967 E37.4852
G1 X131.883 Y137.591 E37.5351
G1 X131.359 Y137.151 E37.58504
G1 X130.891 Y136.653 E37.63492
G1 X130.483 Y136.103 E37.68491
G1 X130.143 Y135.51 E37.7348
G1 X129.874 Y134.881 E37.78473
G1 X129.68 Y134.225 E37.83466
G1 X129.564 Y133.551 E37.88458
G1 X129.528 Y132.868 E37.9345
G1 X129.572 Y132.186 E37.98439
G1 X129.695 Y131.513 E38.03432
G1 X129.895 Y130.859 E38.08424
G1 X130.171 Y130.233 E38.13417
G1 X130.517 Y129.643 E38.1841
G1 X130.93 Y129.098 E38.23401
G1 X131.404 Y128.605 E38.28392
G0 F6000 X131.759 Y129.117
G1 F1200 X132.083 Y128.831 E38.31547
G1 X133.007 Y128.082 E38.40229
G1 X133.394 Y127.797 E38.43737
G1 X135.841 Y126.161 E38.65221
G1 X136.438 Y125.817 E38.7025
G1 X139.098 Y124.507 E38.91892
G1 X139.732 Y124.244 E38.96902
G1 X142.497 Y123.308 E39.18209
G1 X143.021 Y123.161 E39.22181
G1 X143.236 Y123.114 E39.23787
G1 X146.01 Y122.561 E39.44433
G1 X146.385 Y122.5 E39.47206
G1 X146.449 Y122.492 E39.47677
G1 X146.759 Y122.463 E39.49949
G1 X149.658 Y122.275 E39.71153
G1 X150.261 Y122.271 E39.75555
G1 X150.438 Y122.28 E39.76848
G1 X153.267 Y122.465 E39.97541
G1 X153.786 Y122.525 E40.01354
G1 X154.011 Y122.565 E40.03022
G1 X156.844 Y123.131 E40.24109
G1 X157.499 Y123.307 E40.29059
G1 X160.29 Y124.253 E40.50569
G1 X160.925 Y124.516 E40.55586
G1 X163.565 Y125.818 E40.77071
G1 X164.16 Y126.162 E40.82087
G1 X166.616 Y127.805 E41.03655
G1 X167.003 Y128.09 E41.07163
G1 X167.918 Y128.832 E41.15761
G1 X168.394 Y129.27 E41.20483
G1 X168.813 Y129.763 E41.25205
G1 X169.168 Y130.304 E41.29928
G1 X169.453 Y130.885 E41.34651
G1 X169.664 Y131.496 E41.3937
G1 X169.799 Y132.129 E41.44094
G1 X169.854 Y132.773 E41.48811
G1 X169.83 Y133.42 E41.53537
G1 X169.726 Y134.058 E41.58255
G1 X169.544 Y134.679 E41.62978
G1 X169.287 Y135.273 E41.67702
G1 X168.959 Y135.83 E41.7242
G1 X168.564 Y136.343 E41.77146
G1 X168.11 Y136.803 E41.81864
G1 X167.602 Y137.203 E41.86583
G1 X167.238 Y137.433 E41.89726
G1 X152.618 Y145.874 E43.12945
G1 X152.039 Y146.163 E43.17668
G1 X151.429 Y146.377 E43.22386
G1 X150.797 Y146.515 E43.27108
G1 X150.152 Y146.574 E43.31835
G1 X149.506 Y146.553 E43.36553
G1 X148.867 Y146.452 E43.41275
G1 X148.245 Y146.273 E43.45999
G1 X147.382 Y145.874 E43.52939
G1 X132.762 Y137.433 E44.76158
G1 X132.223 Y137.076 E44.80877
G1 X131.732 Y136.655 E44.85598
G1 X131.297 Y136.176 E44.9032
G1 X130.924 Y135.648 E44.95039
G1 X130.619 Y135.077 E44.99764
G1 X130.386 Y134.473 E45.04489
G1 X130.23 Y133.846 E45.09205
G1 X130.153 Y133.203 E45.13932
G1 X130.155 Y132.557 E45.18647
G1 X130.237 Y131.915 E45.23371
G1 X130.398 Y131.288 E45.28096
G1 X130.635 Y130.686 E45.32818
G1 X130.944 Y130.118 E45.37537
G1 X131.32 Y129.592 E45.42257
G1 X131.759 Y129.117 E45.46978
G0 F6000 X132.146 Y129.6
G1 F1200 X132.471 Y129.31 E45.50157
G1 X133.395 Y128.561 E45.58839
G1 X133.736 Y128.309 E45.61933
G1 X136.183 Y126.673 E45.83418
G1 X136.71 Y126.369 E45.87859
G1 X139.37 Y125.059 E46.09501
G1 X139.93 Y124.828 E46.13922
G1 X142.695 Y123.892 E46.35229
G1 X143.157 Y123.762 E46.38732
G1 X143.357 Y123.718 E46.40226
G1 X146.131 Y123.165 E46.60872
G1 X146.461 Y123.112 E46.63312
G1 X146.525 Y123.104 E46.63782
G1 X146.799 Y123.078 E46.65791
G1 X149.698 Y122.89 E46.86995
G1 X150.23 Y122.886 E46.90878
G1 X150.397 Y122.895 E46.92099
G1 X153.226 Y123.08 E47.12792
