;FLAVOR:Marlin
;TIME:1761
;Filament used: 1.13786m
;Layer height: 0.2
;MINX:131.22
;MINY:128.345
;MINZ:0.2
;MAXX:171.664
;MAXY:168.78
;MAXZ:20.2
;Generated with Cura_SteamEngine 4.10.0
M104 S205
M105
M109 S205
M82 ;absolute extrusion mode
G28 ; home all axes
 M117 Purge extruder
 G92 E0 ; reset extruder
 G1 Z1.0 F3000 ; move z up little to prevent scratching of surface
 G1 X2 Y20 Z0.3 F5000.0 ; move to start-line position
 G1 X2 Y200.0 Z0.3 F1500.0 E15 ; draw 1st line
 G1 X2 Y200.0 Z0.4 F5000.0 ; move to side a little
 G1 X2 Y20 Z0.4 F1500.0 E30 ; draw 2nd line
 G92 E0 ; reset extruder
 G1 Z1.0 F3000 ; move z up little to prevent scratching of surface
G92 E0
G92 E0
G1 F1500 E-1.6
;LAYER_COUNT:100
;LAYER:0
M106 S255
G1 F300 Z0.4
G0 F6000 X134.782 Y134.615 Z0.4
;TYPE:SKIRT
G1 F300 Z0.2
G1 F1500 E0
G1 F1200 X134.878 Y134.522 E0.00491
G1 X135.599 Y133.879 E0.04038
G1 X136.372 Y133.297 E0.07591
G1 X137.189 Y132.782 E0.11137
G1 X138.046 Y132.336 E0.14685
G1 X138.938 Y131.962 E0.18236
G1 X139.857 Y131.663 E0.21785
G1 X140.797 Y131.442 E0.25331
G1 X141.316 Y131.354 E0.27264
G1 X142.231 Y131.22 E0.30659
G1 X144.854 Y130.802 E0.40412
G1 X147.287 Y130.344 E0.49503
G1 X149.772 Y129.801 E0.58843
G1 X152.132 Y129.218 E0.67769
G1 X153.274 Y128.901 E0.72121
G1 X153.973 Y128.718 E0.74774
G1 X154.918 Y128.514 E0.78324
G1 X155.876 Y128.389 E0.81872
G1 X156.603 Y128.348 E0.84545
G1 X156.719 Y128.345 E0.84971
G1 X157.685 Y128.36 E0.88519
G1 X158.647 Y128.455 E0.92069
G1 X159.598 Y128.629 E0.95618
G1 X160.531 Y128.881 E0.99167
G1 X161.44 Y129.209 E1.02716
G1 X162.318 Y129.611 E1.06261
G1 X163.161 Y130.085 E1.09813
G1 X164.331 Y130.911 E1.15071
G1 X164.493 Y131.041 E1.15834
G1 X165.35 Y131.801 E1.2004
G1 X165.714 Y132.158 E1.21912
G1 X167.812 Y134.256 E1.32807
G1 X168.336 Y134.795 E1.35567
G1 X168.98 Y135.516 E1.39117
G1 X169.563 Y136.287 E1.42666
G1 X170.08 Y137.103 E1.46213
G1 X170.527 Y137.96 E1.49763
G1 X170.903 Y138.85 E1.5331
G1 X171.203 Y139.769 E1.5686
G1 X171.349 Y140.34 E1.59024
G1 X171.375 Y140.454 E1.59453
G1 X171.55 Y141.404 E1.63
G1 X171.647 Y142.366 E1.66551
G1 X171.664 Y143.332 E1.70098
G1 X171.6 Y144.296 E1.73646
G1 X171.458 Y145.252 E1.77195
G1 X171.251 Y146.142 E1.8055
G1 X171.057 Y146.849 E1.83242
G1 X170.419 Y149.304 E1.92556
G1 X169.852 Y151.776 E2.01869
G1 X169.36 Y154.235 E2.11077
G1 X168.946 Y156.659 E2.20106
G1 X168.724 Y158.21 E2.2586
G1 X168.633 Y158.793 E2.28026
G1 X168.445 Y159.741 E2.31575
G1 X168.179 Y160.67 E2.35123
G1 X167.837 Y161.574 E2.38672
G1 X167.421 Y162.447 E2.42223
G1 X166.935 Y163.282 E2.45771
G1 X166.381 Y164.074 E2.4932
G1 X165.437 Y165.165 E2.54617
G1 X165.341 Y165.263 E2.55121
G1 X164.636 Y165.925 E2.58672
G1 X163.88 Y166.527 E2.62221
G1 X163.076 Y167.063 E2.65769
G1 X162.231 Y167.532 E2.69318
G1 X161.35 Y167.929 E2.72866
G1 X160.439 Y168.251 E2.76414
G1 X159.504 Y168.498 E2.79965
G1 X158.553 Y168.666 E2.83511
G1 X157.324 Y168.765 E2.88038
G1 X156.967 Y168.775 E2.8935
G1 X156.641 Y168.78 E2.90547
G1 X143.528 Y168.78 E3.38697
G1 X142.821 Y168.769 E3.41293
G1 X141.856 Y168.714 E3.44842
G1 X140.899 Y168.579 E3.48391
G1 X139.957 Y168.366 E3.51937
G1 X139.035 Y168.075 E3.55487
G1 X138.14 Y167.71 E3.59037
G1 X137.279 Y167.271 E3.62585
G1 X136.457 Y166.763 E3.66134
G1 X135.68 Y166.189 E3.69681
G1 X134.953 Y165.552 E3.7323
G1 X134.45 Y165.044 E3.75855
G1 X134.357 Y164.944 E3.76356
G1 X133.729 Y164.21 E3.79904
G1 X133.163 Y163.426 E3.83454
G1 X132.665 Y162.598 E3.87002
G1 X132.236 Y161.732 E3.90551
G1 X131.88 Y160.833 E3.94101
G1 X131.6 Y159.908 E3.9765
G1 X131.398 Y158.964 E4.01195
G1 X131.274 Y158.005 E4.04745
G1 X131.234 Y157.292 E4.07367
G1 X131.224 Y156.905 E4.08789
G1 X131.22 Y156.604 E4.09894
G1 X131.22 Y143.525 E4.57919
G1 X131.23 Y142.835 E4.60453
G1 X131.284 Y141.87 E4.64002
G1 X131.418 Y140.913 E4.67551
G1 X131.63 Y139.97 E4.711
G1 X131.919 Y139.048 E4.74647
G1 X132.284 Y138.153 E4.78197
G1 X132.722 Y137.291 E4.81747
G1 X133.229 Y136.468 E4.85296
G1 X133.802 Y135.69 E4.88844
G1 X134.438 Y134.963 E4.92391
G1 X134.782 Y134.615 E4.94188
G0 F6000 X135.116 Y134.96
G1 F1200 X135.212 Y134.867 E4.94679
G1 X135.919 Y134.238 E4.98153
G1 X136.677 Y133.67 E5.01632
G1 X137.479 Y133.169 E5.05104
G1 X138.321 Y132.737 E5.08579
G1 X139.197 Y132.378 E5.12055
G1 X140.1 Y132.094 E5.15531
G1 X141.386 Y131.829 E5.20352
G1 X142.374 Y131.685 E5.24018
G1 X144.911 Y131.28 E5.33452
G1 X147.378 Y130.815 E5.4267
G1 X149.874 Y130.271 E5.5205
G1 X152.267 Y129.679 E5.61102
G1 X153.584 Y129.315 E5.66119
G1 X154.093 Y129.183 E5.6805
G1 X155.019 Y128.984 E5.71528
G1 X155.958 Y128.864 E5.75004
G1 X156.615 Y128.828 E5.7742
G1 X156.731 Y128.825 E5.77846
G1 X157.678 Y128.84 E5.81324
G1 X158.619 Y128.936 E5.84797
G1 X159.549 Y129.11 E5.88271
G1 X160.461 Y129.363 E5.91746
G1 X161.349 Y129.691 E5.95222
G1 X162.206 Y130.093 E5.98698
G1 X163.025 Y130.566 E6.02171
G1 X164.031 Y131.286 E6.06714
G1 X164.193 Y131.416 E6.07476
G1 X165.014 Y132.144 E6.11505
G1 X165.375 Y132.497 E6.13359
G1 X167.468 Y134.591 E6.24231
G1 X167.992 Y135.13 E6.26991
G1 X168.622 Y135.836 E6.30465
G1 X169.191 Y136.592 E6.3394
G1 X169.693 Y137.394 E6.37414
G1 X170.126 Y138.235 E6.40887
G1 X170.487 Y139.11 E6.44363
G1 X170.881 Y140.447 E6.49481
G1 X170.907 Y140.561 E6.4991
G1 X171.078 Y141.491 E6.53383
G1 X171.17 Y142.433 E6.56858
G1 X171.182 Y143.379 E6.60332
G1 X171.114 Y144.323 E6.63807
G1 X170.967 Y145.258 E6.67283
G1 X170.788 Y146.015 E6.70139
G1 X170.58 Y146.773 E6.73025
G1 X169.952 Y149.194 E6.82209
G1 X169.39 Y151.641 E6.91428
G1 X168.886 Y154.162 E7.00868
G1 X168.471 Y156.589 E7.09909
G1 X168.25 Y158.136 E7.15647
G1 X168.159 Y158.719 E7.17814
G1 X167.974 Y159.647 E7.21289
G1 X167.711 Y160.556 E7.24763
G1 X167.372 Y161.44 E7.2824
G1 X166.96 Y162.292 E7.31715
G1 X166.477 Y163.106 E7.3519
G1 X165.927 Y163.876 E7.38665
G1 X165.094 Y164.83 E7.43315
G1 X164.998 Y164.928 E7.43819
G1 X164.308 Y165.575 E7.47292
G1 X163.565 Y166.162 E7.50769
G1 X162.776 Y166.684 E7.54243
G1 X161.945 Y167.138 E7.5772
G1 X161.079 Y167.519 E7.61194
G1 X160.184 Y167.827 E7.6467
G1 X159.267 Y168.058 E7.68142
G1 X158.333 Y168.21 E7.71617
G1 X157.311 Y168.286 E7.7538
G1 X156.954 Y168.296 E7.76691
G1 X156.641 Y168.3 E7.77841
G1 X143.536 Y168.3 E8.25961
G1 X142.829 Y168.289 E8.28558
G1 X141.884 Y168.234 E8.32033
G1 X140.947 Y168.1 E8.35509
G1 X140.025 Y167.887 E8.38984
G1 X139.124 Y167.597 E8.42459
G1 X138.251 Y167.232 E8.45934
G1 X137.412 Y166.795 E8.49407
G1 X136.613 Y166.288 E8.52882
G1 X135.859 Y165.716 E8.56357
G1 X135.156 Y165.082 E8.59833
G1 X134.802 Y164.717 E8.617
G1 X134.709 Y164.617 E8.62202
G1 X134.094 Y163.898 E8.65676
G1 X133.542 Y163.129 E8.69152
G1 X133.057 Y162.316 E8.72628
G1 X132.643 Y161.465 E8.76103
G1 X132.302 Y160.583 E8.79575
G1 X132.036 Y159.674 E8.83053
G1 X131.849 Y158.747 E8.86525
G1 X131.74 Y157.807 E8.9
G1 X131.714 Y157.279 E8.91941
G1 X131.704 Y156.892 E8.93363
G1 X131.7 Y156.604 E8.9442
G1 X131.7 Y143.532 E9.42419
G1 X131.71 Y142.842 E9.44953
G1 X131.764 Y141.897 E9.48429
G1 X131.897 Y140.96 E9.51904
G1 X132.109 Y140.038 E9.55378
G1 X132.398 Y139.136 E9.58856
G1 X132.762 Y138.263 E9.62329
G1 X133.198 Y137.423 E9.65804
G1 X133.704 Y136.623 E9.6928
G1 X134.276 Y135.869 E9.72755
G1 X135.116 Y134.96 E9.773
G0 F6000 X135.45 Y135.304
G1 F1200 X135.546 Y135.211 E9.7779
G1 X136.238 Y134.597 E9.81187
G1 X136.981 Y134.044 E9.84588
G1 X137.769 Y133.557 E9.8799
G1 X138.595 Y133.14 E9.91388
G1 X139.455 Y132.796 E9.94789
G1 X140.341 Y132.527 E9.98189
G1 X141.455 Y132.304 E10.0236
G1 X142.439 Y132.16 E10.06012
G1 X145.008 Y131.751 E10.15564
G1 X147.461 Y131.288 E10.2473
G1 X149.984 Y130.738 E10.34212
G1 X152.378 Y130.146 E10.43267
G1 X153.705 Y129.779 E10.48323
G1 X154.214 Y129.647 E10.50254
G1 X155.119 Y129.454 E10.53651
G1 X156.038 Y129.339 E10.57052
G1 X156.628 Y129.308 E10.59222
G1 X156.744 Y129.305 E10.59648
G1 X157.67 Y129.321 E10.63049
G1 X158.59 Y129.417 E10.66445
G1 X159.5 Y129.591 E10.69847
G1 X160.39 Y129.844 E10.73244
G1 X161.256 Y130.173 E10.76646
G1 X162.09 Y130.575 E10.80046
G1 X162.886 Y131.048 E10.83446
G1 X163.73 Y131.66 E10.87274
G1 X163.892 Y131.79 E10.88036
G1 X164.679 Y132.487 E10.91897
G1 X165.035 Y132.837 E10.9373
G1 X167.123 Y134.926 E11.04575
G1 X167.647 Y135.465 E11.07335
G1 X168.263 Y136.156 E11.10735
G1 X168.818 Y136.897 E11.14134
G1 X169.306 Y137.684 E11.17534
G1 X169.724 Y138.51 E11.20933
G1 X170.07 Y139.369 E11.24334
G1 X170.413 Y140.553 E11.2886
G1 X170.439 Y140.667 E11.2929
G1 X170.605 Y141.578 E11.3269
G1 X170.693 Y142.5 E11.36091
G1 X170.7 Y143.426 E11.39491
G1 X170.628 Y144.349 E11.4289
G1 X170.477 Y145.262 E11.46288
G1 X170.325 Y145.888 E11.48654
G1 X170.144 Y146.547 E11.51163
G1 X169.481 Y149.099 E11.60845
G1 X168.919 Y151.547 E11.70068
G1 X168.416 Y154.061 E11.79482
G1 X167.998 Y156.513 E11.88615
G1 X167.776 Y158.062 E11.94361
G1 X167.685 Y158.645 E11.96528
G1 X167.503 Y159.553 E11.99928
G1 X167.243 Y160.442 E12.03329
G1 X166.907 Y161.305 E12.0673
G1 X166.499 Y162.135 E12.10126
G1 X166.02 Y162.928 E12.13528
G1 X165.474 Y163.676 E12.16928
G1 X164.751 Y164.494 E12.20937
G1 X164.655 Y164.592 E12.21441
G1 X163.979 Y165.224 E12.24839
G1 X163.251 Y165.797 E12.28241
G1 X162.477 Y166.304 E12.31638
G1 X161.661 Y166.742 E12.35039
G1 X160.811 Y167.109 E12.38438
G1 X159.932 Y167.4 E12.41838
G1 X159.032 Y167.615 E12.45236
G1 X158.116 Y167.751 E12.48636
G1 X157.297 Y167.806 E12.5165
G1 X156.94 Y167.816 E12.52962
G1 X156.641 Y167.82 E12.5406
G1 X143.543 Y167.82 E13.02155
G1 X142.836 Y167.809 E13.04751
G1 X141.912 Y167.754 E13.0815
G1 X140.996 Y167.62 E13.11549
G1 X140.095 Y167.408 E13.14948
G1 X139.215 Y167.119 E13.18349
G1 X138.364 Y166.754 E13.21749
G1 X137.547 Y166.318 E13.2515
G1 X136.772 Y165.813 E13.28546
G1 X136.042 Y165.243 E13.31947
G1 X135.153 Y164.39 E13.36471
G1 X135.06 Y164.29 E13.36972
G1 X134.459 Y163.586 E13.40371
G1 X133.922 Y162.832 E13.4377
G1 X133.451 Y162.035 E13.4717
G1 X133.051 Y161.2 E13.50569
G1 X132.725 Y160.333 E13.5397
G1 X132.474 Y159.442 E13.57369
G1 X132.302 Y158.532 E13.6077
G1 X132.194 Y157.267 E13.65432
G1 X132.184 Y156.88 E13.66853
G1 X132.18 Y156.604 E13.67867
G1 X132.18 Y143.539 E14.15841
G1 X132.19 Y142.849 E14.18375
G1 X132.244 Y141.924 E14.21777
G1 X132.376 Y141.008 E14.25175
G1 X132.588 Y140.107 E14.28574
G1 X132.876 Y139.227 E14.31974
G1 X133.24 Y138.375 E14.35376
G1 X133.675 Y137.558 E14.38774
G1 X134.18 Y136.782 E14.42174
G1 X134.749 Y136.052 E14.45573
G1 X135.45 Y135.304 E14.49337
G0 F6000 X135.784 Y135.649
G1 F1200 X135.88 Y135.556 E14.49828
G1 X136.557 Y134.956 E14.53149
G1 X137.285 Y134.418 E14.56473
G1 X138.057 Y133.946 E14.59796
G1 X138.867 Y133.544 E14.63116
G1 X139.711 Y133.215 E14.66442
G1 X140.579 Y132.962 E14.69762
G1 X141.524 Y132.779 E14.73297
G1 X142.517 Y132.634 E14.76982
G1 X145.065 Y132.228 E14.86456
G1 X147.579 Y131.754 E14.9585
G1 X150.093 Y131.205 E15.05298
G1 X152.513 Y130.607 E15.14452
G1 X153.825 Y130.244 E15.1945
G1 X154.334 Y130.112 E15.21381
G1 X155.22 Y129.924 E15.24707
G1 X156.118 Y129.814 E15.28029
G1 X156.64 Y129.787 E15.29948
G1 X156.756 Y129.784 E15.30374
G1 X157.661 Y129.801 E15.33698
G1 X158.561 Y129.897 E15.37021
G1 X159.448 Y130.073 E15.40342
G1 X160.317 Y130.326 E15.43665
G1 X161.16 Y130.655 E15.46988
G1 X161.971 Y131.057 E15.50312
G1 X162.743 Y131.529 E15.53634
G1 X163.43 Y132.035 E15.56767
G1 X163.592 Y132.165 E15.5753
G1 X164.343 Y132.831 E15.61216
G1 X164.696 Y133.176 E15.63028
G1 X166.779 Y135.26 E15.73848
G1 X167.303 Y135.799 E15.76608
G1 X167.905 Y136.475 E15.79932
G1 X168.444 Y137.202 E15.83255
G1 X168.917 Y137.973 E15.86576
G1 X169.321 Y138.783 E15.899
G1 X169.651 Y139.625 E15.93221
G1 X169.945 Y140.66 E15.97171
G1 X169.971 Y140.774 E15.97601
G1 X170.133 Y141.664 E16.00922
G1 X170.215 Y142.565 E16.04244
G1 X170.218 Y143.47 E16.07568
G1 X170.141 Y144.372 E16.10892
G1 X169.985 Y145.263 E16.14213
G1 X169.862 Y145.761 E16.16097
G1 X169.667 Y146.473 E16.18807
G1 X169.014 Y148.987 E16.28345
G1 X168.449 Y151.446 E16.37609
G1 X167.947 Y153.959 E16.47019
G1 X167.524 Y156.438 E16.56254
G1 X167.322 Y157.853 E16.61502
G1 X167.21 Y158.571 E16.6417
G1 X167.032 Y159.458 E16.67492
G1 X166.775 Y160.326 E16.70816
G1 X166.443 Y161.168 E16.7414
G1 X166.038 Y161.977 E16.77462
G1 X165.563 Y162.747 E16.80784
G1 X165.022 Y163.472 E16.84105
G1 X164.408 Y164.158 E16.87486
G1 X164.312 Y164.256 E16.8799
G1 X163.651 Y164.874 E16.91312
G1 X162.938 Y165.431 E16.94635
G1 X162.178 Y165.922 E16.97957
G1 X161.378 Y166.345 E17.0128
G1 X160.544 Y166.696 E17.04602
G1 X159.682 Y166.972 E17.07926
G1 X158.799 Y167.17 E17.11249
G1 X157.902 Y167.29 E17.14572
G1 X157.284 Y167.326 E17.16845
G1 X156.927 Y167.336 E17.18156
G1 X156.641 Y167.34 E17.19207
G1 X143.551 Y167.34 E17.67272
G1 X142.844 Y167.329 E17.69868
G1 X141.94 Y167.275 E17.73194
G1 X141.045 Y167.141 E17.76517
G1 X140.166 Y166.929 E17.79837
G1 X139.308 Y166.64 E17.83161
G1 X138.48 Y166.277 E17.86481
G1 X137.686 Y165.842 E17.89805
G1 X136.934 Y165.338 E17.93129
G1 X136.23 Y164.77 E17.96451
G1 X135.505 Y164.064 E18.00167
G1 X135.412 Y163.964 E18.00668
G1 X134.825 Y163.274 E18.03995
G1 X134.302 Y162.536 E18.07316
G1 X133.846 Y161.755 E18.10637
G1 X133.461 Y160.936 E18.1396
G1 X133.149 Y160.086 E18.17285
G1 X132.914 Y159.212 E18.20608
G1 X132.757 Y158.321 E18.2393
G1 X132.673 Y157.255 E18.27856
G1 X132.663 Y156.868 E18.29278
G1 X132.66 Y156.604 E18.30247
G1 X132.66 Y143.546 E18.78195
G1 X132.67 Y142.856 E18.80729
G1 X132.723 Y141.952 E18.84054
G1 X132.856 Y141.057 E18.87377
G1 X133.067 Y140.177 E18.90699
G1 X133.355 Y139.319 E18.94023
G1 X133.717 Y138.49 E18.97344
G1 X134.152 Y137.697 E19.00665
G1 X134.655 Y136.944 E19.03991
G1 X135.222 Y136.239 E19.07313
G1 X135.784 Y135.649 E19.10305
G1 F1500 E17.50305
G1 F300 Z0.4
G0 F6000 X157.411 Y141.391 Z0.4
G1 F300 Z0.2
G1 F1500 E19.10305
G1 F1200 X158.609 Y142.588 E19.16523
G1 X158.01 Y142.709 E19.18767
G1 X157.787 Y142.795 E19.19645
G1 X157.595 Y142.96 E19.20574
G1 X157.526 Y143.045 E19.20976
G1 X157.198 Y142.941 E19.2224
G1 X157.051 Y142.941 E19.22779
G1 X157.049 Y142.701 E19.23661
G1 X156.962 Y142.468 E19.24574
G1 X157.197 Y142.224 E19.25818
G1 X157.29 Y141.99 E19.26742
G1 X157.411 Y141.391 E19.28986
G0 F6000 X156.819 Y141.895
G1 F1200 X157.117 Y140.419 E19.34515
G1 X159.581 Y142.882 E19.47308
G1 X158.105 Y143.18 E19.52837
G1 X157.967 Y143.263 E19.53429
G1 X157.715 Y143.572 E19.54893
G1 X157.661 Y143.762 E19.55618
G1 X157.326 Y143.477 E19.57233
G1 X157.134 Y143.423 E19.57965
G1 X156.502 Y143.522 E19.60314
G1 X156.478 Y143.498 E19.60439
G1 X156.577 Y142.866 E19.62788
G1 X156.523 Y142.674 E19.6352
G1 X156.238 Y142.339 E19.65135
G1 X156.428 Y142.285 E19.65861
G1 X156.736 Y142.033 E19.67322
G1 X156.819 Y141.895 E19.67913
G1 F1500 E18.07913
G1 F300 Z0.4
;MESH:cubePart_ARHESZ_NoHoles.stl
G0 F6000 X148.152 Y150.482 Z0.4
;TYPE:WALL-INNER
G1 F300 Z0.2
G1 F1500 E19.67913
G1 F1200 X149.899 Y149.825 E19.74767
G1 X149.899 Y151.136 E19.7958
G1 X148.152 Y150.482 E19.8643
G0 F6000 X147.419 Y150.245
;TYPE:WALL-OUTER
G1 F1200 X150.379 Y149.132 E19.98042
G1 X150.379 Y151.829 E20.07945
G1 X147.767 Y150.851 E20.18186
G1 X147.291 Y150.689 E20.20033
G1 X147.051 Y150.612 E20.20958
G1 X146.807 Y150.539 E20.21893
G1 X146.677 Y150.504 E20.22388
G1 X146.898 Y150.431 E20.23242
G1 X147.419 Y150.245 E20.25274
G1 F1500 E18.65274
G1 F300 Z0.4
G0 F6000 X149.012 Y150.37 Z0.4
;TYPE:SKIN
G1 F300 Z0.2
G1 F1500 E20.25274
G1 F1200 X149.363 Y150.721 E20.27096
G0 F6000 X149.698 Y150.377
G1 F1200 X149.507 Y150.185 E20.28091
G1 F1500 E18.68091
G1 F300 Z0.4
G0 F6000 X152.417 Y152.052 Z0.4
;TYPE:WALL-INNER
G1 F300 Z0.2
G1 F1500 E20.28091
G1 F1200 X152.417 Y148.871 E20.39771
G1 X155.446 Y147.703 E20.51692
G1 X155.446 Y145.036 E20.61485
G1 X155.446 Y145.035 E20.61488
G1 X155.446 Y144.964 E20.61749
G1 X155.51 Y144.996 E20.619
G1 X155.943 Y145.215 E20.63682
G1 X156.38 Y145.285 E20.65307
G1 X156.381 Y156.141 E21.05169
G1 X156.381 Y156.38 E21.06047
G1 X156.142 Y156.38 E21.06615
G1 X155.447 Y156.38 E21.09167
G1 X154.892 Y156.38 E21.11205
G1 X143.62 Y156.381 E21.52595
G1 X143.62 Y151.782 E21.69482
G1 X143.62 Y151.715 E21.69728
