;FLAVOR:Marlin
;TIME:5289
;Filament used: 3.42321m
;Layer height: 0.2
;MINX:98.848
;MINY:60.699
;MINZ:0.2
;MAXX:209.621
;MAXY:209.381
;MAXZ:25
;Generated with Cura_SteamEngine 4.10.0
M104 S205
M105
M109 S205
M82 ;absolute extrusion mode
G28 ; home all axes
 M117 Purge extruder
 G92 E0 ; reset extruder
 G1 Z1.0 F3000 ; move z up little to prevent scratching of surface
 G1 X2 Y20 Z0.3 F5000.0 ; move to start-line position
 G1 X2 Y200.0 Z0.3 F1500.0 E15 ; draw 1st line
 G1 X2 Y200.0 Z0.4 F5000.0 ; move to side a little
 G1 X2 Y20 Z0.4 F1500.0 E30 ; draw 2nd line
 G92 E0 ; reset extruder
 G1 Z1.0 F3000 ; move z up little to prevent scratching of surface
G92 E0
G92 E0
G1 F1500 E-1.6
;LAYER_COUNT:100
;LAYER:0
M106 S255
G1 F300 Z0.4
G0 F6000 X167.067 Y172.415 Z0.4
;TYPE:SKIRT
G1 F300 Z0.2
G1 F1500 E0
G1 F1200 X167.775 Y171.756 E0.03552
G1 X168.534 Y171.159 E0.07097
G1 X169.341 Y170.626 E0.10649
G1 X170.188 Y170.161 E0.14197
G1 X171.071 Y169.769 E0.17744
G1 X171.984 Y169.45 E0.21295
G1 X172.919 Y169.208 E0.24842
G1 X173.872 Y169.045 E0.28392
G1 X174.686 Y168.968 E0.31394
G1 X174.839 Y168.959 E0.31957
G1 X175.383 Y168.94 E0.33956
G1 X175.936 Y168.934 E0.35986
G1 X188.661 Y168.933 E0.82711
G1 X189.533 Y168.944 E0.85914
G1 X190.498 Y168.998 E0.89463
G1 X191.456 Y169.131 E0.93014
G1 X192.398 Y169.343 E0.96559
G1 X193.321 Y169.632 E1.00111
G1 X194.216 Y169.997 E1.0366
G1 X195.078 Y170.434 E1.07209
G1 X195.901 Y170.941 E1.10758
G1 X196.679 Y171.514 E1.14306
G1 X197.627 Y172.364 E1.18981
G1 X197.721 Y172.458 E1.1947
G1 X198.376 Y173.169 E1.23019
G1 X198.969 Y173.932 E1.26568
G1 X199.497 Y174.741 E1.30115
G1 X199.957 Y175.591 E1.33664
G1 X200.345 Y176.476 E1.37212
G1 X200.658 Y177.391 E1.40763
G1 X200.895 Y178.328 E1.44312
G1 X201.053 Y179.281 E1.47859
G1 X201.137 Y180.374 E1.51884
G1 X201.149 Y180.834 E1.53574
G1 X201.152 Y181.14 E1.54698
G1 X201.151 Y194.173 E2.02554
G1 X201.141 Y194.875 E2.05132
G1 X201.087 Y195.84 E2.08681
G1 X200.954 Y196.798 E2.12232
G1 X200.742 Y197.74 E2.15777
G1 X200.453 Y198.663 E2.19329
G1 X200.088 Y199.558 E2.22878
G1 X199.651 Y200.42 E2.26427
G1 X199.144 Y201.242 E2.29973
G1 X198.571 Y202.02 E2.33521
G1 X197.935 Y202.748 E2.37071
G1 X197.429 Y203.25 E2.39688
G1 X197.325 Y203.347 E2.4021
G1 X196.591 Y203.977 E2.43762
G1 X195.808 Y204.543 E2.47309
G1 X194.981 Y205.043 E2.50858
G1 X194.116 Y205.473 E2.54405
G1 X193.217 Y205.83 E2.57957
G1 X192.293 Y206.111 E2.61503
G1 X191.095 Y206.356 E2.65993
G1 X189.587 Y206.582 E2.71592
G1 X189.279 Y206.625 E2.72734
G1 X186.837 Y207.032 E2.81825
G1 X184.392 Y207.512 E2.90974
G1 X182.009 Y208.051 E2.99945
G1 X179.228 Y208.781 E3.10503
G1 X178.331 Y209.012 E3.13904
G1 X177.386 Y209.214 E3.17452
G1 X176.427 Y209.337 E3.21002
G1 X175.462 Y209.381 E3.24549
G1 X174.496 Y209.345 E3.28099
G1 X173.537 Y209.228 E3.31646
G1 X172.59 Y209.033 E3.35197
G1 X171.663 Y208.761 E3.38744
G1 X170.761 Y208.413 E3.42294
G1 X169.892 Y207.991 E3.45841
G1 X169.125 Y207.541 E3.49107
G1 X168.953 Y207.431 E3.49856
G1 X168.161 Y206.877 E3.53405
G1 X167.077 Y205.939 E3.58669
G1 X166.659 Y205.529 E3.60819
G1 X164.494 Y203.362 E3.72067
G1 X164.024 Y202.877 E3.74547
G1 X163.381 Y202.156 E3.78094
G1 X162.8 Y201.384 E3.81642
G1 X162.284 Y200.567 E3.8519
G1 X161.838 Y199.709 E3.88741
G1 X161.464 Y198.818 E3.92289
G1 X161.235 Y198.14 E3.94917
G1 X161.208 Y198.051 E3.95258
G1 X160.966 Y197.115 E3.98808
G1 X160.802 Y196.163 E4.02355
G1 X160.717 Y195.2 E4.05905
G1 X160.713 Y194.234 E4.09452
G1 X160.788 Y193.27 E4.13003
G1 X160.943 Y192.316 E4.16552
G1 X161.124 Y191.559 E4.1941
G1 X161.313 Y190.874 E4.22019
G1 X161.963 Y188.371 E4.31514
G1 X162.52 Y185.952 E4.40629
G1 X163.008 Y183.502 E4.49802
G1 X163.428 Y181.046 E4.58951
G1 X163.628 Y179.638 E4.64173
G1 X163.748 Y178.878 E4.66998
G1 X163.94 Y177.931 E4.70547
G1 X164.209 Y177.003 E4.74094
G1 X164.554 Y176.1 E4.77644
G1 X164.973 Y175.229 E4.81193
G1 X165.462 Y174.396 E4.8474
G1 X166.018 Y173.606 E4.88287
G1 X166.638 Y172.864 E4.91837
G1 X166.977 Y172.506 E4.93648
G1 X167.067 Y172.415 E4.94118
G0 F6000 X167.409 Y172.752
G1 F1200 X168.102 Y172.108 E4.97592
G1 X168.847 Y171.525 E5.01065
G1 X169.639 Y171.006 E5.04542
G1 X170.472 Y170.557 E5.08017
G1 X171.34 Y170.179 E5.11493
G1 X172.236 Y169.876 E5.14966
G1 X173.155 Y169.65 E5.18441
G1 X174.09 Y169.502 E5.21917
G1 X174.714 Y169.447 E5.24217
G1 X174.867 Y169.438 E5.2478
G1 X175.389 Y169.42 E5.26698
G1 X175.936 Y169.414 E5.28707
G1 X188.661 Y169.413 E5.75432
G1 X189.527 Y169.424 E5.78612
G1 X190.471 Y169.477 E5.82084
G1 X191.408 Y169.61 E5.85559
G1 X192.331 Y169.822 E5.89036
G1 X193.232 Y170.111 E5.92511
G1 X194.106 Y170.474 E5.95986
G1 X194.946 Y170.911 E5.99463
G1 X195.746 Y171.416 E6.02937
G1 X196.5 Y171.987 E6.06409
G1 X197.288 Y172.703 E6.10319
G1 X197.382 Y172.797 E6.10807
G1 X198.022 Y173.494 E6.14282
G1 X198.601 Y174.243 E6.17758
G1 X199.115 Y175.037 E6.21231
G1 X199.56 Y175.873 E6.24709
G1 X199.933 Y176.742 E6.28181
G1 X200.231 Y177.64 E6.31655
G1 X200.452 Y178.561 E6.35133
G1 X200.595 Y179.496 E6.38606
G1 X200.657 Y180.388 E6.41889
G1 X200.669 Y180.841 E6.43553
G1 X200.672 Y181.14 E6.44651
G1 X200.671 Y194.167 E6.92485
G1 X200.661 Y194.869 E6.95063
G1 X200.607 Y195.813 E6.98535
G1 X200.474 Y196.75 E7.0201
G1 X200.263 Y197.673 E7.05487
G1 X199.974 Y198.574 E7.08961
G1 X199.61 Y199.448 E7.12438
G1 X199.174 Y200.287 E7.1591
G1 X198.668 Y201.087 E7.19386
G1 X198.097 Y201.842 E7.22861
G1 X197.464 Y202.545 E7.26335
G1 X197.101 Y202.899 E7.28197
G1 X196.997 Y202.996 E7.28719
G1 X196.278 Y203.612 E7.32196
G1 X195.51 Y204.165 E7.35671
G1 X194.698 Y204.651 E7.39145
G1 X193.848 Y205.067 E7.4262
G1 X192.966 Y205.409 E7.46094
G1 X192.058 Y205.676 E7.49569
G1 X191.023 Y205.881 E7.53443
G1 X189.521 Y206.107 E7.59021
G1 X189.207 Y206.15 E7.60184
G1 X186.739 Y206.563 E7.69373
G1 X184.302 Y207.041 E7.78492
G1 X181.864 Y207.592 E7.8767
G1 X179.108 Y208.316 E7.98133
G1 X178.211 Y208.547 E8.01534
G1 X177.286 Y208.744 E8.05007
G1 X176.347 Y208.862 E8.08482
G1 X175.401 Y208.901 E8.11958
G1 X174.456 Y208.86 E8.15432
G1 X173.517 Y208.738 E8.18909
G1 X172.592 Y208.539 E8.22383
G1 X171.687 Y208.261 E8.25859
G1 X170.809 Y207.909 E8.29332
G1 X169.964 Y207.483 E8.32807
G1 X169.384 Y207.136 E8.35289
G1 X169.212 Y207.026 E8.36039
G1 X168.437 Y206.483 E8.39513
G1 X167.412 Y205.596 E8.44491
G1 X166.998 Y205.19 E8.4662
G1 X164.962 Y203.154 E8.57193
G1 X164.369 Y202.543 E8.60319
G1 X163.74 Y201.836 E8.63794
G1 X163.172 Y201.079 E8.67269
G1 X162.671 Y200.276 E8.70744
G1 X162.239 Y199.434 E8.74219
G1 X161.88 Y198.559 E8.77692
G1 X161.694 Y198 E8.79855
G1 X161.667 Y197.911 E8.80197
G1 X161.431 Y196.995 E8.8367
G1 X161.273 Y196.062 E8.87145
G1 X161.194 Y195.119 E8.9062
G1 X161.196 Y194.173 E8.94093
G1 X161.277 Y193.23 E8.97569
G1 X161.437 Y192.297 E9.01044
G1 X161.587 Y191.687 E9.03351
G1 X161.779 Y190.99 E9.06006
G1 X162.417 Y188.534 E9.15323
G1 X162.997 Y186.013 E9.24822
G1 X163.477 Y183.604 E9.33842
G1 X163.908 Y181.087 E9.43218
G1 X164.132 Y179.518 E9.49038
G1 X164.222 Y178.954 E9.51135
G1 X164.41 Y178.027 E9.54608
G1 X164.677 Y177.119 E9.58084
G1 X165.018 Y176.236 E9.61559
G1 X165.433 Y175.386 E9.65032
G1 X165.919 Y174.573 E9.6851
G1 X166.471 Y173.805 E9.71983
G1 X167.319 Y172.843 E9.76692
G1 X167.409 Y172.752 E9.77162
G0 F6000 X167.75 Y173.09
G1 F1200 X168.429 Y172.46 E9.80563
G1 X169.16 Y171.892 E9.83963
G1 X169.937 Y171.388 E9.87363
G1 X170.754 Y170.954 E9.9076
G1 X171.606 Y170.591 E9.94161
G1 X172.486 Y170.304 E9.9756
G1 X173.388 Y170.093 E10.00961
G1 X174.742 Y169.926 E10.05971
G1 X174.895 Y169.917 E10.06533
G1 X175.395 Y169.9 E10.0837
G1 X175.936 Y169.894 E10.10357
G1 X188.661 Y169.893 E10.57082
G1 X189.52 Y169.904 E10.60237
G1 X190.444 Y169.957 E10.63635
G1 X191.36 Y170.09 E10.67034
G1 X192.262 Y170.301 E10.70435
G1 X193.142 Y170.589 E10.73835
G1 X193.993 Y170.952 E10.77232
G1 X194.811 Y171.387 E10.80634
G1 X195.587 Y171.891 E10.84032
G1 X196.317 Y172.461 E10.87433
G1 X196.948 Y173.043 E10.90585
G1 X197.042 Y173.137 E10.91073
G1 X197.668 Y173.819 E10.94472
G1 X198.233 Y174.553 E10.97873
G1 X198.732 Y175.333 E11.01273
G1 X199.162 Y176.153 E11.04673
G1 X199.519 Y177.007 E11.08072
G1 X199.802 Y177.888 E11.1147
G1 X200.008 Y178.791 E11.14871
G1 X200.134 Y179.708 E11.1827
G1 X200.177 Y180.402 E11.20823
G1 X200.189 Y180.847 E11.22457
G1 X200.192 Y181.14 E11.23533
G1 X200.191 Y194.16 E11.71342
G1 X200.181 Y194.862 E11.7392
G1 X200.128 Y195.786 E11.77318
G1 X199.995 Y196.702 E11.80717
G1 X199.784 Y197.604 E11.84118
G1 X199.495 Y198.484 E11.87519
G1 X199.132 Y199.335 E11.90917
G1 X198.697 Y200.152 E11.94315
G1 X198.193 Y200.929 E11.97716
G1 X197.624 Y201.659 E12.01115
G1 X196.774 Y202.548 E12.05631
G1 X196.67 Y202.645 E12.06153
G1 X195.966 Y203.247 E12.09554
G1 X195.213 Y203.786 E12.12955
G1 X194.416 Y204.258 E12.16356
G1 X193.582 Y204.659 E12.19754
G1 X192.716 Y204.986 E12.23153
G1 X191.825 Y205.238 E12.26553
G1 X190.952 Y205.407 E12.29818
G1 X189.455 Y205.631 E12.35376
G1 X189.17 Y205.67 E12.36432
G1 X186.634 Y206.094 E12.45874
G1 X184.177 Y206.576 E12.55067
G1 X181.78 Y207.118 E12.64091
G1 X178.988 Y207.851 E12.74691
G1 X178.091 Y208.082 E12.78092
G1 X177.186 Y208.274 E12.81489
G1 X176.267 Y208.387 E12.84889
G1 X175.342 Y208.421 E12.88288
G1 X174.417 Y208.374 E12.91689
G1 X173.5 Y208.248 E12.95087
G1 X172.597 Y208.043 E12.98487
G1 X171.715 Y207.761 E13.01888
G1 X170.861 Y207.404 E13.05286
G1 X170.04 Y206.975 E13.08688
G1 X169.642 Y206.732 E13.104
G1 X169.47 Y206.622 E13.1115
G1 X168.713 Y206.09 E13.14547
G1 X167.748 Y205.252 E13.1924
G1 X167.338 Y204.85 E13.21349
G1 X165.184 Y202.694 E13.32539
G1 X164.714 Y202.209 E13.35019
G1 X164.099 Y201.517 E13.38419
G1 X163.546 Y200.775 E13.41817
G1 X163.059 Y199.987 E13.45218
G1 X162.642 Y199.16 E13.48619
G1 X162.154 Y197.861 E13.53714
G1 X162.127 Y197.772 E13.54056
G1 X161.896 Y196.875 E13.57457
G1 X161.744 Y195.962 E13.60855
G1 X161.672 Y195.039 E13.64255
G1 X161.679 Y194.113 E13.67655
G1 X161.766 Y193.191 E13.71056
G1 X161.932 Y192.281 E13.74452
G1 X162.05 Y191.814 E13.76221
G1 X162.232 Y191.152 E13.78742
G1 X162.89 Y188.621 E13.88345
G1 X163.467 Y186.115 E13.97787
G1 X163.947 Y183.706 E14.06807
G1 X164.385 Y181.14 E14.16365
G1 X164.606 Y179.594 E14.221
G1 X164.696 Y179.03 E14.24197
G1 X164.881 Y178.123 E14.27596
G1 X165.144 Y177.235 E14.30996
G1 X165.482 Y176.373 E14.34396
G1 X165.894 Y175.544 E14.37796
G1 X166.376 Y174.753 E14.41197
G1 X166.924 Y174.007 E14.44596
G1 X167.66 Y173.181 E14.48658
G1 X167.75 Y173.09 E14.49128
G0 F6000 X168.091 Y173.427
G1 F1200 X168.755 Y172.813 E14.52449
G1 X169.471 Y172.259 E14.55773
G1 X170.233 Y171.771 E14.59096
G1 X171.035 Y171.352 E14.62418
G1 X171.871 Y171.005 E14.65742
G1 X172.734 Y170.734 E14.69063
G1 X173.618 Y170.539 E14.72387
G1 X174.771 Y170.406 E14.76649
G1 X174.924 Y170.397 E14.77212
G1 X175.401 Y170.38 E14.78964
G1 X175.936 Y170.374 E14.80929
G1 X188.661 Y170.373 E15.27654
G1 X189.513 Y170.384 E15.30783
G1 X190.416 Y170.437 E15.34104
G1 X191.312 Y170.569 E15.3743
G1 X192.191 Y170.78 E15.40749
G1 X193.049 Y171.068 E15.44073
G1 X193.879 Y171.43 E15.47397
G1 X194.673 Y171.864 E15.5072
G1 X195.425 Y172.367 E15.54042
G1 X196.13 Y172.933 E15.57362
G1 X196.609 Y173.382 E15.59773
G1 X196.703 Y173.476 E15.60261
G1 X197.314 Y174.144 E15.63585
G1 X197.863 Y174.863 E15.66907
G1 X198.347 Y175.627 E15.70228
G1 X198.762 Y176.431 E15.7355
G1 X199.104 Y177.269 E15.76873
G1 X199.371 Y178.134 E15.80197
G1 X199.56 Y179.019 E15.8352
G1 X199.671 Y179.917 E15.86843
G1 X199.698 Y180.416 E15.88678
G1 X199.709 Y180.853 E15.90283
G1 X199.712 Y181.14 E15.91337
G1 X199.711 Y194.153 E16.39119
G1 X199.701 Y194.855 E16.41697
G1 X199.648 Y195.758 E16.45019
G1 X199.516 Y196.653 E16.48341
G1 X199.305 Y197.533 E16.51664
G1 X199.017 Y198.391 E16.54987
G1 X198.655 Y199.22 E16.58309
G1 X198.221 Y200.014 E16.61631
G1 X197.718 Y200.767 E16.64956
G1 X197.151 Y201.472 E16.68278
G1 X196.446 Y202.197 E16.71992
G1 X196.342 Y202.294 E16.72514
G1 X195.654 Y202.882 E16.75837
G1 X194.917 Y203.406 E16.79157
G1 X194.136 Y203.863 E16.8248
G1 X193.317 Y204.25 E16.85806
G1 X192.468 Y204.562 E16.89128
G1 X191.595 Y204.799 E16.92449
G1 X190.881 Y204.932 E16.95116
G1 X189.389 Y205.156 E17.00656
G1 X189.064 Y205.201 E17.01861
G1 X186.571 Y205.617 E17.11141
G1 X184.08 Y206.106 E17.20463
G1 X181.668 Y206.651 E17.29543
G1 X178.869 Y207.386 E17.40169
G1 X177.972 Y207.617 E17.4357
G1 X177.086 Y207.804 E17.46895
G1 X176.188 Y207.912 E17.50216
G1 X175.283 Y207.94 E17.53541
G1 X174.38 Y207.888 E17.56862
G1 X173.485 Y207.757 E17.60183
G1 X172.605 Y207.547 E17.63505
G1 X171.746 Y207.26 E17.66831
G1 X170.917 Y206.899 E17.70151
G1 X169.901 Y206.328 E17.74431
G1 X169.729 Y206.218 E17.7518
G1 X168.989 Y205.697 E17.78503
G1 X168.084 Y204.909 E17.8291
G1 X167.677 Y204.511 E17.85
G1 X165.528 Y202.36 E17.96165
G1 X165.058 Y201.875 E17.98644
G1 X164.458 Y201.198 E18.01966
G1 X163.92 Y200.471 E18.05287
G1 X163.448 Y199.699 E18.0861
G1 X163.046 Y198.888 E18.11933
G1 X162.613 Y197.722 E18.165
G1 X162.586 Y197.633 E18.16842
G1 X162.362 Y196.756 E18.20166
G1 X162.216 Y195.863 E18.23488
G1 X162.149 Y194.961 E18.26809
G1 X162.163 Y194.056 E18.30133
G1 X162.256 Y193.156 E18.33455
G1 X162.512 Y191.941 E18.38015
G1 X162.721 Y191.182 E18.40905
G1 X163.357 Y188.733 E18.50196
G1 X163.929 Y186.248 E18.59559
G1 X164.429 Y183.737 E18.68961
G1 X164.85 Y181.278 E18.78121
G1 X165.08 Y179.669 E18.84089
G1 X165.17 Y179.105 E18.86187
G1 X165.352 Y178.219 E18.89508
G1 X165.611 Y177.352 E18.9283
G1 X165.946 Y176.512 E18.96151
G1 X166.354 Y175.704 E18.99475
G1 X166.832 Y174.935 E19.02799
G1 X167.375 Y174.212 E19.0612
G1 X168.001 Y173.518 E19.09551
G1 X168.091 Y173.427 E19.10021
G1 F1500 E17.50021
G1 F300 Z0.4
G0 F6000 X174.573 Y195.227 Z0.4
G1 F300 Z0.2
G1 F1500 E19.10021
G1 F1200 X174.713 Y195.116 E19.10677
G1 X174.808 Y195.172 E19.11082
G1 X174.706 Y195.36 E19.11868
G1 X174.573 Y195.227 E19.12558
G0 F6000 X174.392 Y194.765
G1 F1200 X174.595 Y194.539 E19.13674
G1 X174.63 Y194.477 E19.13935
G1 X174.852 Y194.647 E19.14962
G1 X175.064 Y194.759 E19.15842
G1 X175.274 Y194.791 E19.16622
G1 X175.276 Y195.011 E19.1743
G1 X175.379 Y195.269 E19.1845
G1 X175.172 Y195.489 E19.1956
G1 X175.079 Y195.723 E19.20484
G1 X174.961 Y196.295 E19.22629
G1 X173.788 Y195.122 E19.2872
G1 X174.07 Y194.998 E19.29851
G1 X174.392 Y194.765 E19.31311
G0 F6000 X174.111 Y194.376
G1 F1200 X174.178 Y194.301 E19.3168
G1 X174.486 Y193.762 E19.33959
G1 X175.144 Y194.266 E19.37003
G1 X175.352 Y194.307 E19.37781
G1 X175.782 Y194.192 E19.39416
G1 X175.85 Y194.207 E19.39671
G1 X175.748 Y194.847 E19.42051
G1 X175.802 Y195.041 E19.42791
G1 X176.089 Y195.378 E19.44416
G1 X175.943 Y195.43 E19.44985
G1 X175.633 Y195.682 E19.46452
G1 X175.549 Y195.82 E19.47045
G1 X175.252 Y197.264 E19.52458
G1 X172.815 Y194.827 E19.65113
G1 X173.695 Y194.65 E19.68409
G1 X173.789 Y194.609 E19.68786
G1 X174.111 Y194.376 E19.70245
G1 F1500 E18.10245
G1 F300 Z0.4
;MESH:cubePart_UNKQYX_Holes.stl(2)
G0 F6000 X177.043 Y186.793 Z0.4
;TYPE:WALL-INNER
G1 F300 Z0.2
G1 F1500 E19.70245
G1 F1200 X177.013 Y187.14 E19.71524
G1 X176.99 Y187.517 E19.72911
G1 X177.012 Y187.891 E19.74287
G1 X177.041 Y188.234 E19.75551
G1 X177.087 Y188.595 E19.76887
G1 X177.163 Y188.962 E19.78263
G1 X177.271 Y189.323 E19.79647
G1 X177.402 Y189.663 E19.80985
G1 X177.501 Y189.891 E19.81898
G1 X177.375 Y190.068 E19.82695
G1 X177.189 Y190.344 E19.83917
G1 X177.008 Y190.639 E19.85188
G1 X176.842 Y190.945 E19.86467
G1 X176.696 Y191.251 E19.87712
G1 X176.565 Y191.549 E19.88907
G1 X176.46 Y191.794 E19.89886
G1 X176.178 Y192.458 E19.92535
G1 X175.995 Y192.434 E19.93212
G1 X175.995 Y191.713 E19.95061
G1 X175.991 Y187.472 E20.10633
G1 X175.992 Y181.334 E20.33172
G1 X188.512 Y181.333 E20.79144
G1 X188.752 Y181.333 E20.80025
G1 X188.752 Y181.573 E20.80595
G1 X188.737 Y185.139 E20.9369
G1 X188.737 Y185.378 E20.94567
G1 X188.735 Y185.722 E20.9583
G1 X188.733 Y186.085 E20.97163
G1 X188.731 Y186.457 E20.98529
G1 X188.729 Y186.821 E20.99866
G1 X188.682 Y186.457 E20.99944
G1 X188.605 Y186.085 E21.00218
G1 X188.494 Y185.722 E21.00782
