; generated by PrusaSlicer 2.8.1+win64 on 2024-11-11 at 17:53:23 UTC


;
;
; 

; external perimeters extrusion width = 0.40mm
; perimeters extrusion width = 0.40mm
; infill extrusion width = 0.40mm
; solid infill extrusion width = 0.40mm
; top infill extrusion width = 0.40mm
; first layer extrusion width = 0.40mm

M73 P0 R25
;TYPE:Custom
G90 ; use absolute coordinates
M83 ; extruder relative mode
M140 S40 ; set bed temp
M190 S40 ; wait for bed temp
M104 S230 ; set extruder temp
M109 S230 ; wait for extruder temp
G28                                        ; move X/Y/Z to min endstops
G1 Z0.28                                   ; lift nozzle a bit 
G92 E0 
G1 Y3 F2400                                    ; zero the extruded length 
G1 X180  E40 F500                       ; Extrude 25mm of filament in a 5cm line. 
G92 E0                                     ; zero the extruded length again 
G1 E-0.2 F3000                                ; Retract a little 
M73 P1 R24
G1 X181 F4000                              ; Quickly wipe away from the filament line
M117
G21 ; set units to millimeters
G90 ; use absolute coordinates
M82 ; use absolute distances for extrusion
G92 E0
; Filament gcode
M107
;LAYER_CHANGE
;Z:0.2
;HEIGHT:0.2
G1 E-2 F2400
G92 E0
G1 Z.2 F12000
G1 X20.499 Y150.534
G1 E2 F2400
;TYPE:Skirt/Brim
;WIDTH:0.4
G1 F1200
G1 X51.389 Y150.534 E2.87131
G1 X53.567 Y150.931 E2.93376
G1 X55.758 Y152.343 E3.00728
G1 X60.444 Y157.03 E3.19423
G1 X61.95 Y159.485 E3.27547
G1 X65.419 Y170.135 E3.59141
G1 X65.723 Y172.049 E3.64607
G1 X65.723 Y203.744 E4.54008
G1 X65.658 Y205.321 E4.5846
G1 X65.34 Y207.606 E4.64967
G1 X64.724 Y209.951 E4.71806
G1 X64.005 Y211.822 E4.7746
G1 X62.3 Y215.491 E4.88872
G1 X61.02 Y217.298 E4.95118
G1 X58.364 Y218.833 E5.03771
G1 X51.279 Y220.816 E5.24523
G1 X49.614 Y221.045 E5.29264
G1 X22.282 Y221.033 E6.06359
G1 X20.651 Y220.811 E6.11002
G1 X13.598 Y218.869 E6.31637
M73 P2 R24
G1 X11.603 Y217.909 E6.37882
G1 X9.66 Y215.569 E6.46461
G1 X7.989 Y212.059 E6.57426
G1 X7.45 Y210.765 E6.6138
G1 X6.889 Y209.044 E6.66486
G1 X6.515 Y207.43 E6.71159
G1 X6.249 Y205.531 E6.76568
G1 X6.165 Y203.744 E6.81614
G1 X6.165 Y172.049 E7.71015
G1 X6.469 Y170.135 E7.76481
G1 X9.938 Y159.485 E8.08075
G1 X11.444 Y157.03 E8.16199
G1 X16.13 Y152.343 E8.34894
G1 X17.951 Y151.084 E8.41139
G1 X20.441 Y150.546 E8.48325
;WIPE_START
G1 F9600
G1 X20.499 Y150.534 E8.46918
G1 X28.861 Y150.534 E6.48325
;WIPE_END
G92 E0
G1 X22.399 Y157.169 F12000
G1 E2 F2400
G1 F1200
G1 X22.603 Y157.109 E2.006
G1 X29.545 Y157.075 E2.20181
G1 X31.249 Y157.48 E2.25121
G1 X32.789 Y158.26 E2.2999
G1 X34.424 Y159.706 E2.36147
G1 X35.578 Y161.494 E2.4215
G1 X35.783 Y162.185 E2.44183
G1 X36.052 Y162.182 E2.44942
G1 X36.125 Y161.918 E2.45715
G1 X37.039 Y160.242 E2.511
G1 X38.393 Y158.789 E2.56702
G1 X40.251 Y157.639 E2.62865
G1 X42.409 Y157.067 E2.69162
G1 X49.165 Y157.089 E2.88219
G1 X50.864 Y157.523 E2.93165
G1 X52.41 Y158.343 E2.98101
G1 X53.944 Y159.729 E3.03932
G1 X55.07 Y161.479 E3.09802
G1 X55.727 Y163.839 E3.16712
G1 X55.658 Y168.926 E3.31062
G1 X56.599 Y169.548 E3.34244
G1 X57.875 Y170.972 E3.39637
G1 X58.78 Y172.701 E3.45142
G1 X59.202 Y174.607 E3.50648
G1 X59.18 Y180.372 E3.66909
G1 X59.02 Y181.631 E3.70489
G1 X58.74 Y182.889 E3.74124
G1 X58.317 Y184.172 E3.77935
G1 X57.461 Y185.987 E3.83595
G1 X56.626 Y187.064 E3.87439
G1 X55.671 Y187.939 E3.91092
G1 X55.712 Y193.04 E4.05481
G1 X55.657 Y193.322 E4.06291
G1 X56.607 Y193.951 E4.09505
G1 X57.84 Y195.317 E4.14696
G1 X58.811 Y197.183 E4.20629
G1 X59.215 Y199.127 E4.2623
G1 X59.221 Y203.816 E4.39456
G1 X59.018 Y206.037 E4.45747
G1 X58.726 Y207.334 E4.49497
G1 X58.304 Y208.601 E4.53264
G1 X57.512 Y210.298 E4.58546
G1 X56.73 Y211.345 E4.62232
G1 X55.79 Y212.23 E4.65874
G1 X54.303 Y213.132 E4.7078
G1 X52.063 Y213.806 E4.77378
G1 X50.54 Y213.878 E4.81679
G1 X49.043 Y213.639 E4.85955
G1 X47.477 Y213.019 E4.90706
G1 X45.685 Y211.834 E4.96766
G1 X43.916 Y213.014 E5.02764
G1 X42.569 Y213.578 E5.06883
G1 X41.095 Y213.859 E5.11116
G1 X39.395 Y213.816 E5.15913
G1 X37.494 Y213.303 E5.21467
G1 X35.918 Y212.48 E5.26482
G1 X34.613 Y213.216 E5.30708
G1 X32.913 Y213.741 E5.35727
G1 X31.014 Y213.878 E5.41097
G1 X29.541 Y213.639 E5.45306
G1 X28.144 Y213.106 E5.49524
G1 X26.201 Y211.836 E5.56071
G1 X24.639 Y212.892 E5.61389
G1 X23.31 Y213.501 E5.65513
G1 X21.675 Y213.851 E5.70229
G1 X20.051 Y213.838 E5.7481
G1 X17.999 Y213.304 E5.80791
G1 X16.646 Y212.622 E5.85065
G1 X15.3 Y211.498 E5.90011
G1 X14.236 Y210.062 E5.95052
G1 X13.531 Y208.463 E5.99981
G1 X13.141 Y207.257 E6.03556
G1 X12.872 Y206.052 E6.07039
G1 X12.721 Y204.913 E6.1028
G1 X12.696 Y198.891 E6.27266
G1 X13.149 Y196.982 E6.328
G1 X14.115 Y195.231 E6.38441
G1 X15.534 Y193.755 E6.44216
G1 X16.237 Y193.274 E6.46619
G1 X16.157 Y192.869 E6.47783
G1 X16.139 Y188.483 E6.60155
G1 X16.248 Y187.914 E6.61789
G1 X15.344 Y187.148 E6.65131
G1 X14.355 Y185.867 E6.69696
G1 X13.533 Y184.073 E6.75262
G1 X13.12 Y182.783 E6.79083
G1 X12.859 Y181.579 E6.82558
G1 X12.714 Y180.434 E6.85813
G1 X12.667 Y174.773 E7.01781
G1 X13.086 Y172.758 E7.07586
G1 X14.157 Y170.779 E7.13933
G1 X15.537 Y169.357 E7.19522
G1 X16.242 Y168.876 E7.21929
G1 X16.151 Y168.413 E7.2326
G1 X16.165 Y163.848 E7.36136
G1 X16.542 Y162.145 E7.41056
G1 X17.329 Y160.545 E7.46085
G1 X18.884 Y158.797 E7.52684
G1 X20.627 Y157.693 E7.58504
G1 X22.341 Y157.186 E7.63546
G1 X22.341 Y157.186 F12000
G1 X22.443 Y157.529
G1 F1200
G1 X22.68 Y157.459 E7.64243
G1 X29.525 Y157.432 E7.83551
G1 X31.107 Y157.808 E7.88138
G1 X32.571 Y158.543 E7.92759
G1 X34.137 Y159.92 E7.98641
G1 X35.262 Y161.664 E8.04495
G1 X35.816 Y163.617 E8.10221
M73 P3 R24
G1 X36.093 Y163.61 E8.11003
G1 X36.452 Y162.064 E8.1548
G1 X37.342 Y160.433 E8.20721
G1 X38.637 Y159.051 E8.26063
G1 X40.369 Y157.977 E8.31811
G1 X42.432 Y157.424 E8.37835
G1 X49.141 Y157.446 E8.56759
G1 X50.716 Y157.849 E8.61345
G1 X52.187 Y158.623 E8.66034
G1 X53.686 Y159.978 E8.71734
G1 X54.755 Y161.648 E8.77327
G1 X55.37 Y163.863 E8.83811
G1 X55.354 Y168.628 E8.97252
G1 X55.255 Y169.09 E8.98585
G1 X56.35 Y169.805 E9.02274
G1 X57.569 Y171.158 E9.07411
G1 X58.452 Y172.845 E9.12782
G1 X58.85 Y174.664 E9.18034
G1 X58.864 Y179.397 E9.31384
G1 X58.667 Y181.578 E9.37561
G1 X58.393 Y182.803 E9.41102
G1 X57.989 Y184.03 E9.44746
G1 X57.147 Y185.816 E9.50315
G1 X56.354 Y186.832 E9.5395
G1 X55.262 Y187.755 E9.57983
G1 X55.363 Y188.213 E9.59306
G1 X55.355 Y193.019 E9.72862
G1 X55.254 Y193.486 E9.7421
G1 X56.358 Y194.208 E9.77931
G1 X57.534 Y195.502 E9.82863
G1 X58.483 Y197.326 E9.88663
G1 X58.858 Y199.145 E9.93902
G1 X58.816 Y204.825 E10.09924
G1 X58.665 Y205.983 E10.13218
G1 X58.38 Y207.246 E10.1687
G1 X57.968 Y208.478 E10.20534
G1 X57.197 Y210.13 E10.25676
G1 X56.454 Y211.118 E10.29163
G1 X55.588 Y211.936 E10.32523
G1 X54.178 Y212.797 E10.37183
G1 X52.023 Y213.45 E10.43534
G1 X50.577 Y213.523 E10.47618
G1 X49.155 Y213.299 E10.51678
G1 X47.658 Y212.711 E10.56215
G1 X45.684 Y211.405 E10.62891
G1 X43.761 Y212.692 E10.69418
G1 X42.482 Y213.231 E10.73333
G1 X41.084 Y213.501 E10.77349
G1 X39.467 Y213.465 E10.81911
G1 X37.605 Y212.963 E10.87351
G1 X36.262 Y212.269 E10.91615
G1 X35.971 Y212.039 E10.92661
G1 X34.489 Y212.88 E10.97467
G1 X32.827 Y213.394 E11.02374
G1 X31.05 Y213.522 E11.07399
G1 X29.617 Y213.289 E11.11494
G1 X28.29 Y212.779 E11.15504
G1 X26.198 Y211.407 E11.22561
G1 X24.451 Y212.587 E11.28507
G1 X23.18 Y213.168 E11.32449
G1 X21.657 Y213.493 E11.36842
G1 X20.119 Y213.487 E11.4118
G1 X18.108 Y212.963 E11.47042
G1 X16.827 Y212.313 E11.51094
G1 X15.546 Y211.238 E11.55811
G1 X14.555 Y209.899 E11.6051
G1 X13.861 Y208.327 E11.65357
G1 X13.484 Y207.156 E11.68827
G1 X13.223 Y205.982 E11.72219
G1 X13.025 Y203.809 E11.78374
G1 X13.048 Y198.953 E11.92071
G1 X13.491 Y197.088 E11.97478
G1 X14.415 Y195.425 E12.02844
G1 X15.778 Y194.017 E12.08372
G1 X16.638 Y193.436 E12.11299
G1 X16.514 Y192.848 E12.12994
G1 X16.496 Y188.5 E12.25258
G1 X16.64 Y187.776 E12.2734
G1 X15.614 Y186.914 E12.3112
G1 X14.671 Y185.7 E12.35456
G1 X13.862 Y183.934 E12.40935
G1 X13.463 Y182.683 E12.44639
G1 X13.209 Y181.511 E12.48022
G1 X13.07 Y180.41 E12.51152
G1 X13.024 Y174.791 E12.67002
G1 X13.413 Y172.905 E12.72434
G1 X14.459 Y170.971 E12.78636
G1 X15.779 Y169.62 E12.83964
G1 X16.641 Y169.037 E12.86899
G1 X16.508 Y168.395 E12.88748
G1 X16.518 Y163.905 E13.01413
G1 X16.872 Y162.283 E13.06096
G1 X17.639 Y160.724 E13.10997
G1 X19.097 Y159.084 E13.17187
G1 X20.752 Y158.029 E13.22723
G1 X22.385 Y157.546 E13.27526
G1 X22.385 Y157.546 F12000
G1 X22.485 Y157.888
G1 F1200
G1 X22.756 Y157.808 E13.28323
G1 X29.464 Y157.784 E13.47244
G1 X30.966 Y158.137 E13.51596
G1 X32.39 Y158.852 E13.56091
G1 X33.882 Y160.171 E13.61708
G1 X34.947 Y161.834 E13.67278
G1 X35.506 Y163.837 E13.73144
G1 X35.497 Y168.605 E13.86593
G1 X35.35 Y169.254 E13.8847
G1 X35.915 Y169.597 E13.90334
G1 X36.541 Y169.197 E13.92429
G1 X36.365 Y168.378 E13.94792
G1 X36.362 Y164.037 E14.07037
G1 X36.778 Y162.212 E14.12317
G1 X37.619 Y160.659 E14.17299
G1 X38.846 Y159.342 E14.22376
G1 X40.534 Y158.294 E14.2798
G1 X42.454 Y157.781 E14.33586
G1 X49.117 Y157.803 E14.5238
G1 X50.607 Y158.19 E14.56722
G1 X51.965 Y158.903 E14.61048
G1 X53.399 Y160.191 E14.66485
G1 X54.439 Y161.818 E14.71932
G1 X55.013 Y163.886 E14.77986
G1 X54.997 Y168.606 E14.913
G1 X54.85 Y169.254 E14.93174
G1 X56.101 Y170.063 E14.97376
G1 X57.264 Y171.345 E15.02258
G1 X58.109 Y172.945 E15.07362
G1 X58.497 Y174.722 E15.12492
G1 X58.467 Y180.327 E15.28302
G1 X58.314 Y181.524 E15.31706
G1 X58.047 Y182.716 E15.35152
G1 X57.661 Y183.888 E15.38633
G1 X56.853 Y185.613 E15.44006
G1 X56.102 Y186.579 E15.47457
G1 X55.306 Y187.306 E15.50498
G1 X54.853 Y187.585 E15.51999
G1 X55.006 Y188.234 E15.5388
G1 X54.997 Y192.998 E15.67318
G1 X54.85 Y193.65 E15.69203
G1 X56.111 Y194.467 E15.73441
G1 X57.228 Y195.688 E15.78109
G1 X58.155 Y197.468 E15.8377
G1 X58.5 Y199.164 E15.88652
G1 X58.507 Y203.792 E16.01706
G1 X58.312 Y205.929 E16.07759
G1 X58.038 Y207.142 E16.11267
G1 X57.633 Y208.355 E16.14874
G1 X56.881 Y209.961 E16.19876
G1 X56.178 Y210.891 E16.23164
G1 X55.384 Y211.641 E16.26245
G1 X54.051 Y212.463 E16.30662
G1 X51.982 Y213.095 E16.36764
G1 X50.613 Y213.167 E16.40631
G1 X49.266 Y212.96 E16.44475
G1 X47.839 Y212.403 E16.48796
G1 X45.682 Y210.976 E16.56091
G1 X43.606 Y212.37 E16.63144
M73 P4 R24
G1 X42.395 Y212.885 E16.66856
G1 X41.071 Y213.144 E16.70661
G1 X39.539 Y213.115 E16.74983
G1 X37.717 Y212.623 E16.80306
G1 X36.444 Y211.962 E16.84352
G1 X35.946 Y211.557 E16.86163
G1 X35.599 Y211.853 E16.8745
G1 X34.366 Y212.545 E16.91438
G1 X32.741 Y213.047 E16.96235
G1 X31.086 Y213.166 E17.00915
G1 X29.728 Y212.949 E17.04794
G1 X28.436 Y212.453 E17.08698
G1 X26.196 Y210.977 E17.16265
G1 X24.264 Y212.283 E17.22843
G1 X23.049 Y212.835 E17.26607
G1 X21.638 Y213.136 E17.30677
G1 X20.187 Y213.135 E17.3477
G1 X18.217 Y212.623 E17.40511
G1 X17.007 Y212.004 E17.44345
G1 X15.82 Y211.008 E17.48716
G1 X14.874 Y209.737 E17.53185
G1 X14.192 Y208.192 E17.57949
G1 X13.826 Y207.055 E17.61318
G1 X13.431 Y204.835 E17.67678
G1 X13.4 Y199.014 E17.84097
G1 X13.815 Y197.24 E17.89236
G1 X14.716 Y195.62 E17.94465
G1 X16.02 Y194.28 E17.99739
G1 X17.039 Y193.597 E18.03199
G1 X16.871 Y192.827 E18.05422
G1 X16.853 Y188.517 E18.17579
G1 X17.034 Y187.639 E18.20108
G1 X15.884 Y186.68 E18.24332
G1 X14.966 Y185.497 E18.28556
G1 X14.192 Y183.796 E18.33827
G1 X13.806 Y182.583 E18.37418
G1 X13.426 Y180.387 E18.43704
G1 X13.381 Y174.809 E18.59438
G1 X13.739 Y173.051 E18.64499
G1 X14.761 Y171.163 E18.70555
G1 X16.02 Y169.884 E18.75617
G1 X17.042 Y169.199 E18.79087
G1 X16.865 Y168.375 E18.81464
G1 X16.871 Y163.961 E18.93914
G1 X17.202 Y162.42 E18.9836
G1 X17.949 Y160.903 E19.0313
G1 X19.31 Y159.372 E19.08908
G1 X20.923 Y158.343 E19.14305
G1 X22.427 Y157.904 E19.18724
G1 X22.427 Y157.904 F12000
G1 X22.526 Y158.246
G1 F1200
G1 X22.83 Y158.158 E19.19617
G1 X29.404 Y158.137 E19.3816
G1 X30.826 Y158.466 E19.42277
G1 X32.172 Y159.136 E19.46518
G1 X33.595 Y160.385 E19.51859
G1 X34.632 Y162.004 E19.57282
G1 X35.149 Y163.86 E19.62716
G1 X35.14 Y168.583 E19.76038
G1 X34.959 Y169.35 E19.78261
G1 X35.181 Y169.569 E19.79141
G1 X35.919 Y170.017 E19.81576
G1 X36.945 Y169.363 E19.85008
G1 X36.722 Y168.358 E19.87912
G1 X36.72 Y164.057 E20.00044
G1 X37.104 Y162.36 E20.04952
G1 X37.896 Y160.886 E20.09672
G1 X39.091 Y159.602 E20.1462
G1 X40.653 Y158.632 E20.19806
G1 X42.477 Y158.138 E20.25136
G1 X49.051 Y158.154 E20.43679
G1 X50.46 Y158.516 E20.47782
G1 X51.745 Y159.185 E20.51868
G1 X53.112 Y160.405 E20.57036
G1 X54.103 Y161.941 E20.62192
G1 X54.656 Y163.91 E20.67961
G1 X54.64 Y168.584 E20.81145
G1 X54.459 Y169.35 E20.83365
G1 X54.686 Y169.574 E20.84265
G1 X55.854 Y170.321 E20.88176
G1 X56.959 Y171.532 E20.928
G1 X57.781 Y173.09 E20.97769
G1 X58.14 Y174.741 E21.02535
G1 X58.112 Y180.289 E21.18184
G1 X57.963 Y181.455 E21.215
G1 X57.705 Y182.613 E21.24846
G1 X57.325 Y183.766 E21.2827
G1 X56.538 Y185.443 E21.33495
G1 X55.85 Y186.325 E21.3665
G1 X55.078 Y187.03 E21.39599
G1 X54.442 Y187.414 E21.41695
G1 X54.649 Y188.256 E21.44141
G1 X54.64 Y192.976 E21.57455
G1 X54.459 Y193.746 E21.59686
G1 X54.687 Y193.97 E21.60588
G1 X55.863 Y194.725 E21.6453
G1 X56.948 Y195.912 E21.69066
G1 X57.826 Y197.61 E21.74458
G1 X58.143 Y199.182 E21.78981
G1 X58.15 Y203.788 E21.91973
G1 X57.959 Y205.874 E21.97882
G1 X57.692 Y207.054 E22.01295
G1 X57.305 Y208.213 E22.04742
G1 X56.566 Y209.792 E22.09659
G1 X55.903 Y210.662 E22.12744
G1 X55.153 Y211.369 E22.15651
G1 X53.924 Y212.128 E22.19725
G1 X51.94 Y212.739 E22.25581
G1 X50.649 Y212.811 E22.29228
G1 X49.34 Y212.61 E22.32964
G1 X48.021 Y212.095 E22.36958
G1 X45.68 Y210.546 E22.44876
G1 X43.45 Y212.048 E22.5246
G1 X42.273 Y212.549 E22.56068
G1 X41.022 Y212.79 E22.59662
G1 X39.611 Y212.764 E22.63643
G1 X37.829 Y212.284 E22.68849
G1 X36.627 Y211.654 E22.72677
G1 X35.939 Y211.087 E22.75192
G1 X35.406 Y211.552 E22.77187
G1 X34.242 Y212.209 E22.80957
G1 X32.655 Y212.7 E22.85643
G1 X31.122 Y212.81 E22.89978
G1 X29.803 Y212.6 E22.93745
G1 X28.583 Y212.127 E22.97436
G1 X26.194 Y210.548 E23.05513
G1 X24.076 Y211.979 E23.12723
G1 X22.92 Y212.502 E23.16302
G1 X21.619 Y212.779 E23.20054
G1 X20.21 Y212.778 E23.24028
G1 X18.327 Y212.283 E23.2952
G1 X17.189 Y211.696 E23.33132
G1 X16.066 Y210.748 E23.37277
G1 X15.192 Y209.574 E23.41405
G1 X14.529 Y208.073 E23.46033
G1 X14.173 Y206.969 E23.49305
G1 X13.926 Y205.858 E23.52515
G1 X13.738 Y203.794 E23.58361
G1 X13.757 Y199.037 E23.71779
G1 X14.157 Y197.347 E23.76678
G1 X15.015 Y195.816 E23.81628
G1 X16.262 Y194.544 E23.86652
G1 X17.443 Y193.758 E23.90654
G1 X17.228 Y192.805 E23.9341
G1 X17.211 Y188.535 E24.05454
G1 X17.442 Y187.436 E24.08622
G1 X17.1 Y187.241 E24.09732
G1 X16.154 Y186.446 E24.13217
G1 X15.261 Y185.295 E24.17326
G1 X14.522 Y183.659 E24.2239
G1 X14.153 Y182.499 E24.25824
G1 X13.913 Y181.391 E24.29022
G1 X13.738 Y179.386 E24.34699
G1 X13.738 Y174.827 E24.47558
G1 X14.084 Y173.149 E24.52391
G1 X15.033 Y171.396 E24.58014
G1 X16.262 Y170.148 E24.62955
G1 X17.444 Y169.361 E24.6696
G1 X17.222 Y168.356 E24.69863
G1 X17.228 Y163.981 E24.82203
G1 X17.547 Y162.518 E24.86427
G1 X18.232 Y161.122 E24.90813
G1 X19.56 Y159.628 E24.96451
G1 X21.092 Y158.659 E25.01564
G1 X22.468 Y158.263 E25.05603
G1 X22.468 Y158.263 F12000
G1 X22.565 Y158.605
G1 F1200
G1 X22.904 Y158.509 E25.06597
G1 X29.345 Y158.489 E25.24765
G1 X30.688 Y158.796 E25.28651
M73 P5 R24
G1 X31.954 Y159.42 E25.32632
M73 P5 R23
G1 X33.34 Y160.636 E25.37833
G1 X34.316 Y162.173 E25.42969
G1 X34.792 Y163.884 E25.47978
G1 X34.783 Y168.56 E25.61167
G1 X34.564 Y169.462 E25.63785
G1 X34.96 Y169.853 E25.65355
G1 X35.965 Y170.463 E25.68671
G1 X37.041 Y169.738 E25.72331
G1 X37.331 Y169.452 E25.7348
G1 X37.079 Y168.337 E25.76704
G1 X37.077 Y164.076 E25.88723
G1 X37.43 Y162.506 E25.93262
G1 X38.173 Y161.112 E25.97718
G1 X39.336 Y159.863 E26.02532
G1 X40.818 Y158.949 E26.07443
G1 X42.501 Y158.495 E26.1236
G1 X48.985 Y158.506 E26.30649
G1 X50.315 Y158.843 E26.34519
G1 X51.525 Y159.467 E26.38359
G1 X52.827 Y160.621 E26.43266
G1 X53.767 Y162.065 E26.48126
G1 X54.299 Y163.934 E26.53607
