; generated by PrusaSlicer 2.6.1+win64 on 2024-02-15 at 19:29:03 UTC


;
;
; 

; external perimeters extrusion width = 0.80mm
; perimeters extrusion width = 0.80mm
; infill extrusion width = 0.45mm
; solid infill extrusion width = 0.45mm
; top infill extrusion width = 0.42mm
; first layer extrusion width = 0.50mm

;TYPE:Custom
G90 ; use absolute coordinates
M83 ; extruder relative mode
M140 S85 ; set bed temp
M190 S85 ; wait for bed temp
M104 S230 ; set extruder temp
M109 S230 ; wait for extruder temp
G28                                        ; move X/Y/Z to min endstops
G1 Z0.28                                   ; lift nozzle a bit 
G92 E0 
G1 Y3 F2400                                    ; zero the extruded length 
G1 X180  E40 F500                       ; Extrude 25mm of filament in a 5cm line. 
G92 E0                                     ; zero the extruded length again 
G1 E-0.2 F3000                                ; Retract a little 
G1 X181 F4000                              ; Quickly wipe away from the filament line
M117
G21 ; set units to millimeters
G90 ; use absolute coordinates
M82 ; use absolute distances for extrusion
G92 E0
; Filament gcode
M107
;LAYER_CHANGE
;Z:0.15
;HEIGHT:0.15
; BEFORE_LAYER_CHANGE 0 @ 0.15mm
G1 Z-1.53 F18000
; AFTER_LAYER_CHANGE 0 @ 0.15mm
G1 E-2.5 F4800
G92 E0
M204 S20000
G1 X76.144 Y76.074 F18000
G1 E2.5 F4800
M204 S5000
;TYPE:External perimeter
;WIDTH:0.5
G1 F4320
G1 X76.207 Y76.048 E2.50179
G1 X90.293 Y74.194 E2.87483
G1 X90.449 Y74.129 E2.87927
G1 X104.435 Y72.288 E3.24966
G1 X104.499 Y72.314 E3.25147
G1 X115.77 Y80.963 E3.6245
G1 X115.926 Y81.027 E3.62893
G1 X127.118 Y89.615 E3.99934
G1 X127.144 Y89.679 E4.00115
G1 X128.999 Y103.764 E4.37417
G1 X129.063 Y103.92 E4.3786
G1 X130.904 Y117.907 E4.74902
G1 X130.878 Y117.97 E4.75081
G1 X122.229 Y129.241 E5.12384
G1 X122.165 Y129.397 E5.12827
G1 X113.577 Y140.589 E5.49868
G1 X113.513 Y140.616 E5.5005
G1 X99.428 Y142.47 E5.87351
G1 X99.272 Y142.535 E5.87795
G1 X85.286 Y144.376 E6.24834
G1 X85.222 Y144.35 E6.25015
G1 X73.951 Y135.701 E6.62318
G1 X73.795 Y135.636 E6.62762
G1 X62.603 Y127.048 E6.99803
G1 X62.577 Y126.985 E6.99982
G1 X60.722 Y112.899 E7.37286
G1 X60.658 Y112.744 E7.37726
G1 X58.816 Y98.757 E7.74768
G1 X58.843 Y98.693 E7.7495
G1 X67.491 Y87.422 E8.12251
G1 X67.556 Y87.266 E8.12695
G1 X76.107 Y76.122 E8.49577
M204 S20000
;WIPE_START
G1 F14400
G1 X76.207 Y76.048 E8.45638
G1 X83.911 Y75.034 E5.99577
;WIPE_END
G92 E0
G1 X122.873 Y86.535 F18000
G1 E2.5 F4800
M204 S5000
;TYPE:Solid infill
;WIDTH:0.501798
G1 F2880
G1 X126.908 Y90.57 E2.6504
G1 X127.008 Y91.334 E2.67071
G1 X121.159 Y85.485 E2.88873
G1 X118.305 Y83.295 E2.98355
G1 X127.109 Y92.099 E3.31172
G1 X127.21 Y92.864 E3.33206
G1 X115.63 Y81.285 E3.76369
G1 X112.833 Y79.151 E3.85642
G1 X127.31 Y93.629 E4.39607
G1 X127.411 Y94.394 E4.41641
G1 X109.978 Y76.961 E5.06623
G1 X107.124 Y74.771 E5.16105
G1 X127.512 Y95.158 E5.921
G1 X127.612 Y95.923 E5.94133
G1 X104.343 Y72.654 E6.80868
G1 X103.756 Y72.731 E6.82428
G1 X127.713 Y96.688 E7.71728
G1 X127.814 Y97.453 E7.73762
G1 X103.169 Y72.808 E8.65626
G1 X102.582 Y72.886 E8.67187
G1 X127.914 Y98.218 E9.61612
G1 X128.015 Y98.983 E9.63646
G1 X101.996 Y72.963 E10.60634
G1 X101.409 Y73.04 E10.62194
G1 X128.116 Y99.747 E11.61744
G1 X128.217 Y100.512 E11.63778
G1 X100.822 Y73.117 E12.65893
G1 X100.235 Y73.195 E12.67454
G1 X128.317 Y101.277 E13.7213
G1 X128.418 Y102.042 E13.74164
G1 X99.648 Y73.272 E14.81404
G1 X99.061 Y73.349 E14.82964
G1 X128.519 Y102.807 E15.92769
G1 X128.619 Y103.571 E15.948
G1 X98.474 Y73.426 E17.07166
G1 X97.887 Y73.504 E17.08727
G1 X128.771 Y104.387 E18.23845
G1 X128.871 Y105.152 E18.25878
G1 X97.301 Y73.581 E19.43557
G1 X96.714 Y73.658 E19.45117
G1 X128.972 Y105.917 E20.65361
G1 X129.073 Y106.681 E20.67392
G1 X96.127 Y73.736 E21.90197
G1 X95.54 Y73.813 E21.91757
G1 X129.173 Y107.446 E23.17124
G1 X129.274 Y108.211 E23.19158
G1 X94.953 Y73.89 E24.4709
G1 X94.366 Y73.967 E24.4865
G1 X129.375 Y108.976 E25.79146
G1 X129.475 Y109.741 E25.81179
G1 X93.779 Y74.045 E27.14236
G1 X93.193 Y74.122 E27.15794
G1 X129.576 Y110.505 E28.51412
G1 X129.677 Y111.27 E28.53446
G1 X92.606 Y74.199 E29.91628
G1 X92.019 Y74.276 E29.93188
G1 X129.778 Y112.035 E31.33935
G1 X129.878 Y112.8 E31.35968
G1 X91.432 Y74.354 E32.79276
G1 X90.845 Y74.431 E32.80836
G1 X129.979 Y113.565 E34.26708
G1 X130.08 Y114.33 E34.28742
G1 X90.297 Y74.547 E35.77033
G1 X89.71 Y74.624 E35.78593
G1 X130.18 Y115.094 E37.29445
G1 X130.281 Y115.859 E37.31479
G1 X89.123 Y74.702 E38.84894
G1 X88.537 Y74.779 E38.86452
G1 X130.382 Y116.624 E40.42429
G1 X130.482 Y117.389 E40.44462
G1 X87.95 Y74.856 E42.03002
G1 X87.363 Y74.933 E42.04562
G1 X130.42 Y117.991 E43.65059
G1 X130.132 Y118.367 E43.66307
G1 X86.776 Y75.011 E45.27917
G1 X86.189 Y75.088 E45.29477
G1 X129.843 Y118.742 E46.92198
G1 X129.555 Y119.118 E46.93446
G1 X85.602 Y75.165 E48.57281
G1 X85.015 Y75.242 E48.58841
G1 X129.267 Y119.494 E50.23791
G1 X128.978 Y119.87 E50.25041
G1 X84.428 Y75.32 E51.91101
G1 X83.842 Y75.397 E51.92659
G1 X128.69 Y120.245 E53.5983
G1 X128.402 Y120.621 E53.61078
G1 X83.255 Y75.474 E55.29364
G1 X82.668 Y75.551 E55.30924
G1 X128.113 Y120.997 E57.00322
G1 X127.825 Y121.373 E57.0157
G1 X82.081 Y75.629 E58.72081
G1 X81.494 Y75.706 E58.73641
G1 X127.537 Y121.749 E60.45267
G1 X127.248 Y122.124 E60.46515
G1 X80.907 Y75.783 E62.19251
G1 X80.32 Y75.861 E62.20812
G1 X126.96 Y122.5 E63.94661
G1 X126.672 Y122.876 E63.95909
G1 X79.734 Y75.938 E65.70871
G1 X79.147 Y76.015 E65.72431
G1 X126.383 Y123.252 E67.48505
G1 X126.095 Y123.627 E67.49751
G1 X78.56 Y76.092 E69.26938
G1 X77.973 Y76.17 E69.28499
G1 X125.807 Y124.003 E71.06799
G1 X125.518 Y124.379 E71.08049
G1 X77.386 Y76.247 E72.87461
G1 X76.799 Y76.324 E72.89021
G1 X125.23 Y124.755 E74.69548
G1 X124.942 Y125.131 E74.70796
G1 X76.282 Y76.471 E76.52176
G1 X75.994 Y76.847 E76.53424
G1 X124.653 Y125.506 E78.34801
G1 X124.365 Y125.882 E78.36049
G1 X75.705 Y77.222 E80.17429
G1 X75.417 Y77.598 E80.18677
G1 X124.077 Y126.258 E82.00057
G1 X123.788 Y126.634 E82.01307
G1 X75.129 Y77.974 E83.82686
G1 X74.84 Y78.35 E83.83936
G1 X123.5 Y127.009 E85.65315
G1 X123.212 Y127.385 E85.66563
G1 X74.552 Y78.726 E87.47942
G1 X74.264 Y79.101 E87.49188
G1 X122.923 Y127.761 E89.30567
G1 X122.635 Y128.137 E89.31815
G1 X73.975 Y79.477 E91.13195
G1 X73.687 Y79.853 E91.14443
G1 X122.346 Y128.513 E92.95822
G1 X122.058 Y128.888 E92.97068
G1 X73.398 Y80.229 E94.78447
G1 X73.11 Y80.604 E94.79693
G1 X121.801 Y129.295 E96.61189
G1 X121.513 Y129.671 E96.62437
G1 X72.822 Y80.98 E98.43933
G1 X72.533 Y81.356 E98.45183
G1 X121.224 Y130.047 E100.26679
G1 X120.936 Y130.423 E100.27927
G1 X72.245 Y81.732 E102.09423
G1 X71.957 Y82.108 E102.10671
G1 X120.648 Y130.798 E103.92165
G1 X120.359 Y131.174 E103.93415
G1 X71.668 Y82.483 E105.74911
G1 X71.38 Y82.859 E105.76159
G1 X120.071 Y131.55 E107.57655
G1 X119.782 Y131.926 E107.58905
G1 X71.092 Y83.235 E109.40399
G1 X70.803 Y83.611 E109.41649
G1 X119.494 Y132.301 E111.23143
G1 X119.206 Y132.677 E111.24391
G1 X70.515 Y83.986 E113.05887
G1 X70.227 Y84.362 E113.07135
G1 X118.917 Y133.053 E114.88629
G1 X118.629 Y133.429 E114.89877
G1 X69.938 Y84.738 E116.71373
G1 X69.65 Y85.114 E116.72621
G1 X118.341 Y133.805 E118.54117
G1 X118.052 Y134.18 E118.55365
G1 X69.362 Y85.49 E120.36857
G1 X69.073 Y85.865 E120.38105
G1 X117.764 Y134.556 E122.19601
G1 X117.476 Y134.932 E122.20849
G1 X68.785 Y86.241 E124.02345
G1 X68.497 Y86.617 E124.03593
G1 X117.187 Y135.308 E125.85087
G1 X116.899 Y135.684 E125.86335
G1 X68.208 Y86.993 E127.67831
G1 X67.92 Y87.369 E127.69079
G1 X116.611 Y136.059 E129.50573
G1 X116.322 Y136.435 E129.51823
G1 X67.663 Y87.775 E131.33202
G1 X67.374 Y88.151 E131.34452
G1 X116.034 Y136.811 E133.15832
G1 X115.746 Y137.187 E133.1708
G1 X67.086 Y88.527 E134.9846
G1 X66.798 Y88.903 E134.99708
G1 X115.457 Y137.562 E136.81085
G1 X115.169 Y137.938 E136.82333
G1 X66.509 Y89.279 E138.63712
G1 X66.221 Y89.654 E138.64958
G1 X114.881 Y138.314 E140.46338
G1 X114.592 Y138.69 E140.47588
G1 X65.933 Y90.03 E142.28967
G1 X65.644 Y90.406 E142.30217
G1 X114.304 Y139.066 E144.11597
G1 X114.016 Y139.441 E144.12843
G1 X65.356 Y90.782 E145.94222
G1 X65.068 Y91.157 E145.95468
G1 X113.727 Y139.817 E147.76847
G1 X113.439 Y140.193 E147.78095
G1 X64.779 Y91.533 E149.59475
G1 X64.491 Y91.909 E149.60723
G1 X112.922 Y140.34 E151.4125
G1 X112.335 Y140.417 E151.4281
G1 X64.203 Y92.285 E153.22222
G1 X63.914 Y92.661 E153.23472
G1 X111.748 Y140.494 E155.01772
G1 X111.161 Y140.571 E155.03332
G1 X63.626 Y93.036 E156.80519
G1 X63.337 Y93.412 E156.81769
G1 X110.574 Y140.649 E158.57845
G1 X109.987 Y140.726 E158.59405
G1 X63.049 Y93.788 E160.34367
G1 X62.761 Y94.164 E160.35615
G1 X109.4 Y140.803 E162.09462
G1 X108.813 Y140.88 E162.11022
G1 X62.472 Y94.539 E163.83758
G1 X62.184 Y94.915 E163.85006
G1 X108.227 Y140.958 E165.56632
G1 X107.64 Y141.035 E165.58192
G1 X61.896 Y95.291 E167.28703
G1 X61.607 Y95.667 E167.29953
G1 X107.053 Y141.112 E168.99351
G1 X106.466 Y141.19 E169.00912
G1 X61.319 Y96.043 E170.69198
G1 X61.031 Y96.418 E170.70444
G1 X105.879 Y141.267 E172.37617
G1 X105.292 Y141.344 E172.39177
G1 X60.742 Y96.794 E174.05237
G1 X60.454 Y97.17 E174.06485
G1 X104.705 Y141.421 E175.71431
G1 X104.119 Y141.499 E175.72989
G1 X60.166 Y97.546 E177.36824
G1 X59.877 Y97.921 E177.38072
G1 X103.532 Y141.576 E179.00796
G1 X102.945 Y141.653 E179.02356
G1 X59.589 Y98.297 E180.63966
G1 X59.301 Y98.673 E180.65214
G1 X102.358 Y141.73 E182.25709
G1 X101.771 Y141.808 E182.2727
G1 X59.238 Y99.275 E183.85812
G1 X59.339 Y100.04 E183.87846
G1 X101.184 Y141.885 E185.43823
G1 X100.597 Y141.962 E185.45383
G1 X59.44 Y100.805 E186.98796
G1 X59.541 Y101.569 E187.00827
G1 X100.01 Y142.039 E188.51677
G1 X99.424 Y142.117 E188.53235
G1 X59.641 Y102.334 E190.01526
G1 X59.742 Y103.099 E190.0356
G1 X98.876 Y142.233 E191.49432
G1 X98.289 Y142.31 E191.50992
G1 X59.843 Y103.864 E192.943
G1 X59.943 Y104.629 E192.96333
G1 X97.702 Y142.387 E194.37078
G1 X97.115 Y142.465 E194.38639
G1 X60.044 Y105.394 E195.76821
G1 X60.145 Y106.158 E195.78852
G1 X96.528 Y142.542 E197.14472
G1 X95.941 Y142.619 E197.16032
G1 X60.245 Y106.923 E198.49089
G1 X60.346 Y107.688 E198.51123
G1 X95.354 Y142.696 E199.81616
G1 X94.768 Y142.774 E199.83174
G1 X60.447 Y108.453 E201.11106
G1 X60.547 Y109.218 E201.13139
G1 X94.181 Y142.851 E202.38508
G1 X93.594 Y142.928 E202.40068
G1 X60.648 Y109.982 E203.62874
G1 X60.749 Y110.747 E203.64908
G1 X93.007 Y143.005 E204.8515
G1 X92.42 Y143.083 E204.86711
G1 X60.85 Y111.512 E206.0439
G1 X60.95 Y112.277 E206.06423
G1 X91.833 Y143.16 E207.2154
G1 X91.246 Y143.237 E207.231
G1 X61.102 Y113.092 E208.35464
G1 X61.202 Y113.857 E208.37497
G1 X90.66 Y143.314 E209.473
G1 X90.073 Y143.392 E209.48861
G1 X61.303 Y114.622 E210.56101
G1 X61.404 Y115.387 E210.58135
G1 X89.486 Y143.469 E211.62811
G1 X88.899 Y143.546 E211.64371
G1 X61.504 Y116.152 E212.66484
G1 X61.605 Y116.916 E212.68515
G1 X88.312 Y143.624 E213.68067
G1 X87.725 Y143.701 E213.69627
G1 X61.706 Y117.681 E214.66615
G1 X61.806 Y118.446 E214.68648
G1 X87.138 Y143.778 E215.63073
G1 X86.552 Y143.855 E215.64631
G1 X61.907 Y119.211 E216.56494
G1 X62.008 Y119.976 E216.58528
G1 X85.965 Y143.933 E217.47828
G1 X85.378 Y144.01 E217.49388
G1 X62.109 Y120.741 E218.36123
G1 X62.209 Y121.505 E218.38154
G1 X82.596 Y141.893 E219.14149
G1 X79.742 Y139.702 E219.23632
G1 X62.31 Y122.27 E219.8861
G1 X62.411 Y123.035 E219.90644
G1 X76.888 Y137.512 E220.44607
G1 X74.09 Y135.379 E220.5388
G1 X62.511 Y123.8 E220.97041
G1 X62.612 Y124.565 E220.99075
G1 X71.416 Y133.368 E221.3189
G1 X68.561 Y131.178 E221.41374
G1 X62.713 Y125.329 E221.63174
G1 X62.813 Y126.094 E221.65207
G1 X66.847 Y130.128 E221.80244
M204 S20000
;LAYER_CHANGE
;Z:0.3
;HEIGHT:0.15
; BEFORE_LAYER_CHANGE 1 @ 0.3mm
G1 Z-1.38 F18000
; AFTER_LAYER_CHANGE 1 @ 0.3mm
M104 S240 ; set temperature
M140 S90 ; set bed temperature
G1 X66.743 Y130.264
M204 S8000
;TYPE:External perimeter
;WIDTH:0.8
G1 F14400
G1 X62.753 Y127.202 E222.01918
G1 X62.62 Y126.882 E222.03411
G1 X60.803 Y113.081 E222.63399
G1 X60.61 Y112.614 E222.65577
G1 X58.814 Y98.971 E223.24878
G1 X58.946 Y98.652 E223.26366
G1 X67.42 Y87.608 E223.86355
G1 X67.614 Y87.141 E223.88534
G1 X75.99 Y76.224 E224.47832
G1 X76.31 Y76.092 E224.49324
G1 X90.111 Y74.275 E225.09312
G1 X90.578 Y74.081 E225.11491
G1 X104.221 Y72.285 E225.70792
G1 X104.541 Y72.417 E225.72284
G1 X115.584 Y80.891 E226.3227
G1 X116.052 Y81.085 E226.34453
G1 X126.968 Y89.462 E226.9375
G1 X127.101 Y89.781 E226.95239
G1 X128.918 Y103.582 E227.55227
G1 X129.111 Y104.05 E227.57409
G1 X130.907 Y117.692 E228.16706
G1 X130.775 Y118.012 E228.18198
G1 X122.301 Y129.056 E228.78187
G1 X122.107 Y129.523 E228.80366
G1 X113.731 Y140.44 E229.39664
G1 X113.411 Y140.572 E229.41156
G1 X99.61 Y142.389 E230.01144
G1 X99.142 Y142.583 E230.03327
G1 X85.5 Y144.379 E230.62624
G1 X85.18 Y144.246 E230.64117
G1 X74.137 Y135.772 E231.24103
G1 X73.669 Y135.579 E231.26285
G1 X66.791 Y130.301 E231.63647
M204 S20000
;WIPE_START
G1 X62.753 Y127.202 E230.0246
G1 X62.62 Y126.882 E229.91486
G1 X62.299 Y124.445 E229.13647
;WIPE_END
G92 E0
G1 X76.204 Y76.502 F18000
G1 E2.5 F4800
M204 S10000
;TYPE:Solid infill
;WIDTH:0.37219
G1 F9600
G1 X75.674 Y77.107 E2.51535
M204 S20000
;WIPE_START
G1 F14400
G1 X76.204 Y76.502 E2.26065
;WIPE_END
G1 E.01535 F4800
G92 E0
G1 X76.652 Y76.495 F18000
G1 E2.5 F4800
M204 S10000
;WIDTH:0.449999
G1 F9600
G1 X75.192 Y77.973 E2.54872
;WIDTH:0.424295
G1 X75.063 Y78.121 E2.55304
;WIDTH:0.39859
G1 X73.725 Y79.646 E2.59476
M204 S20000
;WIPE_START
G1 F14400
G1 X75.063 Y78.121 E1.95232
G1 X75.192 Y77.973 E1.89015
G1 X75.322 Y77.825 E1.82777
G1 X76.652 Y76.495 E1.23215
;WIPE_END
G1 E.09476 F4800
G92 E0
G1 X71.776 Y82.186 F18000
G1 E2.5 F4800
M204 S10000
G1 F9600
G1 X73.114 Y80.66 E2.54174
;WIDTH:0.424295
G1 X73.244 Y80.513 E2.54606
;WIDTH:0.449999
G1 X73.373 Y80.365 E2.55066
G1 X77.333 Y76.405 E2.68199
G1 X78.013 Y76.316 E2.69807
G1 X71.425 Y82.904 E2.91655
G1 X71.295 Y83.052 E2.92117
;WIDTH:0.424295
G1 X71.166 Y83.2 E2.92549
;WIDTH:0.39859
G1 X69.828 Y84.725 E2.96721
M204 S20000
;WIPE_START
G1 F14400
G1 X71.166 Y83.2 E2.32477
G1 X71.295 Y83.052 E2.2626
G1 X71.425 Y82.904 E2.20022
G1 X75.295 Y79.034 E.46721
;WIPE_END
G92 E0
G1 X67.879 Y87.265 F18000
G1 E2.5 F4800
M204 S10000
G1 F9600
G1 X69.217 Y85.739 E2.54174
;WIDTH:0.424295
G1 X69.347 Y85.592 E2.54606
;WIDTH:0.449999
G1 X69.476 Y85.444 E2.55066
G1 X78.694 Y76.226 E2.85636
G1 X79.374 Y76.137 E2.87244
G1 X67.9 Y87.611 E3.25296
G1 X67.791 Y87.758 E3.25725
;WIDTH:0.411095
G1 X67.683 Y87.906 E3.26115
;WIDTH:0.37219
G1 X66.64 Y89.095 E3.29133
M204 S20000
;WIPE_START
G1 F14400
G1 X67.683 Y87.906 E2.79048
G1 X67.791 Y87.758 E2.73246
G1 X67.9 Y87.611 E2.67451
G1 X72.105 Y83.406 E.79133
;WIPE_END
G92 E0
G1 X64.691 Y91.634 F18000
G1 E2.5 F4800
M204 S10000
;WIDTH:0.39859
G1 F9600
G1 X66.029 Y90.109 E2.54172
;WIDTH:0.424295
G1 X66.159 Y89.961 E2.54606
;WIDTH:0.449999
G1 X66.288 Y89.814 E2.55065
G1 X80.055 Y76.047 E3.00721
G1 X80.735 Y75.957 E3.0233
G1 X64.34 Y92.353 E3.56703
G1 X64.21 Y92.501 E3.57165
;WIDTH:0.424295
G1 X64.08 Y92.648 E3.57597
;WIDTH:0.39859
G1 X62.743 Y94.174 E3.61769
M204 S20000
;WIPE_START
G1 F14400
G1 X64.08 Y92.648 E2.97522
G1 X64.21 Y92.501 E2.91308
G1 X64.34 Y92.353 E2.8507
G1 X68.21 Y88.483 E1.11769
;WIPE_END
G92 E0
G1 X60.794 Y96.713 F18000
G1 E2.5 F4800
M204 S10000
G1 F9600
G1 X62.132 Y95.188 E2.54172
;WIDTH:0.424295
G1 X62.261 Y95.04 E2.54604
;WIDTH:0.449999
G1 X62.391 Y94.893 E2.55064
G1 X81.416 Y75.868 E3.18158
G1 X82.096 Y75.778 E3.19767
G1 X60.442 Y97.432 E3.91579
G1 X60.313 Y97.58 E3.92039
;WIDTH:0.424295
G1 X60.183 Y97.727 E3.92471
;WIDTH:0.39859
G1 X59.229 Y98.815 E3.95447
;WIDTH:0.449999
G1 X59.289 Y99.176 E3.96305
G1 X82.776 Y75.689 E4.74196
G1 X83.457 Y75.599 E4.75807
G1 X59.358 Y99.698 E5.55728
G1 X59.426 Y100.22 E5.56962
G1 X84.137 Y75.51 E6.38911
G1 X84.818 Y75.42 E6.40522
G1 X59.495 Y100.743 E7.24502
G1 X59.564 Y101.265 E7.25737
G1 X85.498 Y75.33 E8.11745
G1 X86.179 Y75.241 E8.13356
G1 X59.633 Y101.787 E9.01392
G1 X59.701 Y102.309 E9.02626
