; generated by PrusaSlicer 2.6.1+win64 on 2024-02-10 at 15:40:12 UTC


;
;
; 

; external perimeters extrusion width = 0.80mm
; perimeters extrusion width = 0.45mm
; infill extrusion width = 0.45mm
; solid infill extrusion width = 0.45mm
; top infill extrusion width = 0.42mm
; first layer extrusion width = 0.50mm

;TYPE:Custom
G90 ; use absolute coordinates
M83 ; extruder relative mode
M140 S60 ; set bed temp
M190 S60 ; wait for bed temp
M104 S210 ; set extruder temp
M109 S210 ; wait for extruder temp
G28                                        ; move X/Y/Z to min endstops
G1 Z0.28                                   ; lift nozzle a bit 
G92 E0 
G1 Y3 F2400                                    ; zero the extruded length 
G1 X180  E40 F500                       ; Extrude 25mm of filament in a 5cm line. 
G92 E0                                     ; zero the extruded length again 
G1 E-0.2 F3000                                ; Retract a little 
G1 X181 F4000                              ; Quickly wipe away from the filament line
M117
G21 ; set units to millimeters
G90 ; use absolute coordinates
M82 ; use absolute distances for extrusion
G92 E0
; Filament gcode
M107
;LAYER_CHANGE
;Z:0.3
;HEIGHT:0.3
; BEFORE_LAYER_CHANGE 0 @ 0.3mm
G1 Z-1.38 F18000
; AFTER_LAYER_CHANGE 0 @ 0.3mm
G1 E-2.5 F4800
G92 E0
M204 S20000
G1 X76.502 Y76.774 F18000
G1 E2.5 F4800
M204 S5000
;TYPE:External perimeter
;WIDTH:0.5
G1 F1440
G1 X90.363 Y74.944 E3.33561
G1 X90.703 Y74.811 E3.35743
G1 X104.21 Y73.042 E4.17158
G1 X115.289 Y81.543 E5.00619
G1 X115.623 Y81.689 E5.02798
G1 X126.419 Y89.973 E5.84128
G1 X128.248 Y103.834 E6.67688
G1 X128.381 Y104.174 E6.6987
G1 X130.157 Y117.665 E7.51196
G1 X121.649 Y128.76 E8.34759
G1 X121.503 Y129.094 E8.36938
G1 X113.219 Y139.89 E9.18268
G1 X99.358 Y141.719 E10.01828
G1 X99.018 Y141.852 E10.0401
G1 X85.527 Y143.628 E10.85336
G1 X74.432 Y135.121 E11.68895
G1 X74.098 Y134.974 E11.71076
G1 X63.302 Y126.69 E12.52406
G1 X61.473 Y112.829 E13.35966
G1 X61.34 Y112.489 E13.38148
G1 X59.564 Y98.998 E14.19474
G1 X68.072 Y87.903 E15.03037
G1 X68.218 Y87.569 E15.05216
G1 X76.465 Y76.821 E15.86184
M204 S20000
;WIPE_START
G1 F14400
G1 X84.289 Y75.764 E13.36184
;WIPE_END
G92 E0
G1 X122.45 Y87.092 F18000
G1 E2.5 F4800
M204 S5000
;TYPE:Solid infill
;WIDTH:0.501432
G1 F2880
G1 X126.204 Y90.847 E2.81838
G1 X126.298 Y91.559 E2.86144
G1 X120.855 Y86.116 E3.32301
G1 X118.199 Y84.078 E3.52375
G1 X126.392 Y92.271 E4.21852
G1 X126.486 Y92.983 E4.26158
G1 X115.542 Y82.039 E5.18963
G1 X115.457 Y81.974 E5.19605
G1 X115.11 Y81.817 E5.21889
G1 X113.359 Y80.474 E5.35121
G1 X126.58 Y93.695 E6.47235
G1 X126.674 Y94.408 E6.51547
G1 X110.702 Y78.435 E7.86994
G1 X108.046 Y76.397 E8.07068
G1 X126.768 Y95.12 E9.65835
G1 X126.862 Y95.832 E9.70141
G1 X105.389 Y74.359 E11.52232
G1 X104.118 Y73.384 E11.61837
G1 X103.833 Y73.421 E11.6356
G1 X126.956 Y96.544 E13.59643
G1 X127.05 Y97.256 E13.63949
G1 X103.287 Y73.492 E15.65463
G1 X102.74 Y73.564 E15.68771
G1 X127.144 Y97.968 E17.75717
G1 X127.238 Y98.68 E17.80023
G1 X102.194 Y73.636 E19.92396
G1 X101.647 Y73.707 E19.95703
G1 X127.332 Y99.392 E22.13511
G1 X127.426 Y100.104 E22.17817
G1 X101.101 Y73.779 E24.41053
G1 X100.554 Y73.85 E24.4436
G1 X127.52 Y100.816 E26.73031
G1 X127.614 Y101.528 E26.77337
G1 X100.008 Y73.922 E29.11435
G1 X99.461 Y73.994 E29.14743
G1 X127.708 Y102.24 E31.54273
G1 X127.802 Y102.952 E31.58579
G1 X98.915 Y74.065 E34.0354
G1 X98.368 Y74.137 E34.06848
G1 X127.896 Y103.664 E36.57241
G1 X127.926 Y103.892 E36.5862
G1 X128.062 Y104.258 E36.60961
G1 X128.091 Y104.478 E36.62292
G1 X97.822 Y74.208 E39.18977
G1 X97.275 Y74.28 E39.22285
G1 X128.185 Y105.189 E41.84397
G1 X128.279 Y105.901 E41.88703
G1 X96.729 Y74.352 E44.56242
G1 X96.182 Y74.423 E44.59549
G1 X128.372 Y106.613 E47.3252
G1 X128.466 Y107.325 E47.36826
G1 X95.636 Y74.495 E50.15224
G1 X95.09 Y74.566 E50.18526
G1 X128.56 Y108.037 E53.02355
G1 X128.653 Y108.748 E53.06655
G1 X94.543 Y74.638 E55.95907
G1 X93.997 Y74.71 E55.99209
G1 X128.747 Y109.46 E58.93889
G1 X128.841 Y110.172 E58.98195
G1 X93.45 Y74.781 E61.9831
G1 X92.904 Y74.853 E62.01612
G1 X128.935 Y110.884 E65.07154
G1 X129.028 Y111.596 E65.1146
G1 X92.357 Y74.924 E68.22434
G1 X91.811 Y74.996 E68.25736
G1 X129.122 Y112.307 E71.42133
G1 X129.216 Y113.019 E71.46439
G1 X91.264 Y75.067 E74.68271
G1 X90.786 Y75.13 E74.71162
G1 X90.73 Y75.151 E74.71521
G1 X129.309 Y113.731 E77.98675
G1 X129.403 Y114.443 E78.02981
G1 X90.249 Y75.289 E81.35006
G1 X89.703 Y75.361 E81.38308
G1 X129.497 Y115.155 E84.75761
G1 X129.591 Y115.866 E84.80061
G1 X89.157 Y75.433 E88.22937
G1 X88.611 Y75.505 E88.26239
G1 X129.684 Y116.578 E91.74537
G1 X129.778 Y117.29 E91.78843
G1 X88.065 Y75.577 E95.32569
G1 X87.519 Y75.649 E95.35871
G1 X129.654 Y117.784 E98.93175
G1 X129.386 Y118.134 E98.95818
G1 X86.973 Y75.721 E102.5548
G1 X86.427 Y75.793 E102.58782
G1 X129.118 Y118.484 E106.20801
G1 X128.849 Y118.834 E106.23448
G1 X85.881 Y75.865 E109.8782
G1 X85.335 Y75.937 E109.91122
G1 X128.581 Y119.183 E113.57847
G1 X128.313 Y119.533 E113.6049
G1 X84.789 Y76.009 E117.29573
G1 X84.243 Y76.082 E117.32876
G1 X128.045 Y119.883 E121.04312
G1 X127.776 Y120.233 E121.06959
G1 X83.697 Y76.154 E124.80748
G1 X83.151 Y76.226 E124.8405
G1 X127.508 Y120.583 E128.60197
G1 X127.24 Y120.933 E128.6284
G1 X82.605 Y76.298 E132.41344
G1 X82.059 Y76.37 E132.44646
G1 X126.972 Y121.282 E136.25503
G1 X126.703 Y121.632 E136.2815
G1 X81.513 Y76.442 E140.11361
G1 X80.967 Y76.514 E140.14663
G1 X126.435 Y121.982 E144.00231
G1 X126.167 Y122.332 E144.02874
G1 X80.421 Y76.586 E147.90799
G1 X79.875 Y76.658 E147.94101
G1 X125.899 Y122.682 E151.84384
G1 X125.63 Y123.032 E151.87031
G1 X79.329 Y76.73 E155.79667
G1 X78.783 Y76.802 E155.82969
G1 X125.362 Y123.381 E159.77958
G1 X125.094 Y123.731 E159.80601
G1 X78.237 Y76.874 E163.77948
G1 X77.691 Y76.946 E163.8125
G1 X124.826 Y124.081 E167.80954
G1 X124.557 Y124.431 E167.83601
G1 X77.145 Y77.018 E171.85658
G1 X76.679 Y77.08 E171.88477
G1 X76.639 Y77.131 E171.88866
G1 X124.289 Y124.781 E175.92937
G1 X124.021 Y125.131 E175.9558
G1 X76.371 Y77.481 E179.99651
G1 X76.103 Y77.83 E180.0229
G1 X123.753 Y125.48 E184.06361
G1 X123.484 Y125.83 E184.09008
G1 X75.834 Y78.18 E188.13079
G1 X75.566 Y78.53 E188.15722
G1 X123.216 Y126.18 E192.19793
G1 X122.948 Y126.53 E192.22436
G1 X75.298 Y78.88 E196.26507
G1 X75.029 Y79.229 E196.29149
G1 X122.68 Y126.88 E200.33229
G1 X122.411 Y127.23 E200.35876
G1 X74.761 Y79.579 E204.39952
G1 X74.493 Y79.929 E204.42595
G1 X122.143 Y127.579 E208.46666
G1 X121.875 Y127.929 E208.49309
G1 X74.224 Y80.279 E212.53385
G1 X73.956 Y80.628 E212.56024
G1 X121.607 Y128.279 E216.60104
G1 X121.381 Y128.573 E216.62328
G1 X121.35 Y128.641 E216.62776
G1 X73.687 Y80.978 E220.66958
G1 X73.419 Y81.328 E220.69601
G1 X121.132 Y129.041 E224.74207
G1 X120.864 Y129.391 E224.7685
G1 X73.151 Y81.678 E228.81456
G1 X72.882 Y82.027 E228.84098
G1 X120.595 Y129.74 E232.88704
G1 X120.327 Y130.09 E232.91347
G1 X72.614 Y82.377 E236.95953
G1 X72.346 Y82.727 E236.98596
G1 X120.059 Y130.44 E241.03202
G1 X119.79 Y130.789 E241.05844
G1 X72.077 Y83.076 E245.1045
G1 X71.809 Y83.426 E245.13093
G1 X119.522 Y131.139 E249.17699
G1 X119.254 Y131.489 E249.20342
G1 X71.541 Y83.776 E253.24948
G1 X71.272 Y84.126 E253.27595
G1 X118.985 Y131.839 E257.32201
G1 X118.717 Y132.188 E257.3484
G1 X71.004 Y84.475 E261.39446
G1 X70.736 Y84.825 E261.42089
G1 X118.449 Y132.538 E265.46695
G1 X118.18 Y132.888 E265.49342
G1 X70.467 Y85.175 E269.53948
G1 X70.199 Y85.525 E269.56591
G1 X117.912 Y133.238 E273.61197
G1 X117.644 Y133.587 E273.63836
G1 X69.93 Y85.874 E277.68446
G1 X69.662 Y86.224 E277.71089
G1 X117.375 Y133.937 E281.75695
G1 X117.107 Y134.287 E281.78338
G1 X69.394 Y86.574 E285.82944
G1 X69.125 Y86.923 E285.85586
G1 X116.838 Y134.636 E289.90192
G1 X116.57 Y134.986 E289.92835
G1 X68.857 Y87.273 E293.97441
G1 X68.589 Y87.623 E294.00084
G1 X116.302 Y135.336 E298.0469
G1 X116.033 Y135.686 E298.07337
G1 X68.371 Y88.023 E302.11514
G1 X68.34 Y88.091 E302.11962
G1 X68.114 Y88.385 E302.14186
G1 X115.765 Y136.035 E306.18262
G1 X115.497 Y136.385 E306.20905
G1 X67.846 Y88.734 E310.24985
G1 X67.578 Y89.084 E310.27628
G1 X115.228 Y136.735 E314.31704
G1 X114.96 Y137.085 E314.34347
G1 X67.31 Y89.434 E318.38423
G1 X67.041 Y89.784 E318.4107
G1 X114.692 Y137.434 E322.45146
G1 X114.423 Y137.784 E322.47793
G1 X66.773 Y90.134 E326.51864
G1 X66.505 Y90.484 E326.54507
G1 X114.155 Y138.134 E330.58578
G1 X113.887 Y138.483 E330.61217
G1 X66.237 Y90.833 E334.65288
G1 X65.968 Y91.183 E334.67935
G1 X113.618 Y138.833 E338.72006
G1 X113.35 Y139.183 E338.74649
G1 X65.7 Y91.533 E342.7872
G1 X65.432 Y91.883 E342.81363
G1 X113.081 Y139.533 E346.8543
G1 X113.042 Y139.584 E346.85815
G1 X112.576 Y139.645 E346.88633
G1 X65.164 Y92.233 E350.90686
G1 X64.895 Y92.583 E350.93333
G1 X112.03 Y139.717 E354.93033
G1 X111.484 Y139.789 E354.96335
G1 X64.627 Y92.932 E358.93682
G1 X64.359 Y93.282 E358.96325
G1 X110.938 Y139.862 E362.91319
G1 X110.392 Y139.934 E362.94621
G1 X64.091 Y93.632 E366.87257
G1 X63.822 Y93.982 E366.89904
G1 X109.846 Y140.006 E370.80187
G1 X109.3 Y140.078 E370.83489
G1 X63.554 Y94.332 E374.71414
G1 X63.286 Y94.682 E374.74057
G1 X108.754 Y140.15 E378.59625
G1 X108.208 Y140.222 E378.62927
G1 X63.018 Y95.031 E382.46142
G1 X62.749 Y95.381 E382.48789
G1 X107.662 Y140.294 E386.29651
G1 X107.116 Y140.366 E386.32953
G1 X62.481 Y95.731 E390.11457
G1 X62.213 Y96.081 E390.141
G1 X106.57 Y140.438 E393.90247
G1 X106.024 Y140.51 E393.93549
G1 X61.944 Y96.431 E397.67343
G1 X61.676 Y96.781 E397.69986
G1 X105.478 Y140.582 E401.41422
G1 X104.932 Y140.654 E401.44724
G1 X61.408 Y97.13 E405.13807
G1 X61.14 Y97.48 E405.1645
G1 X104.386 Y140.726 E408.83175
G1 X103.84 Y140.798 E408.86477
G1 X60.871 Y97.83 E412.50849
G1 X60.603 Y98.18 E412.53492
G1 X103.294 Y140.87 E416.15507
G1 X102.748 Y140.943 E416.1881
G1 X60.335 Y98.53 E419.78472
G1 X60.067 Y98.88 E419.81115
G1 X102.202 Y141.015 E423.38419
G1 X101.656 Y141.087 E423.41721
G1 X59.943 Y99.374 E426.95447
G1 X60.037 Y100.086 E426.99753
G1 X101.11 Y141.159 E430.48051
G1 X100.564 Y141.231 E430.51353
G1 X60.13 Y100.797 E433.94233
G1 X60.224 Y101.509 E433.98539
G1 X100.018 Y141.303 E437.35992
G1 X99.472 Y141.375 E437.39294
G1 X60.318 Y102.221 E440.71319
G1 X60.411 Y102.933 E440.75625
G1 X98.991 Y141.513 E444.02783
G1 X98.935 Y141.534 E444.03142
G1 X98.457 Y141.597 E444.06033
G1 X60.505 Y103.645 E447.27865
G1 X60.599 Y104.356 E447.32165
G1 X97.911 Y141.668 E450.4857
G1 X97.365 Y141.74 E450.51872
G1 X60.693 Y105.068 E453.6285
G1 X60.786 Y105.78 E453.67156
G1 X96.819 Y141.812 E456.72711
G1 X96.272 Y141.884 E456.76019
G1 X60.88 Y106.492 E459.76143
G1 X60.974 Y107.204 E459.80449
G1 X95.726 Y141.956 E462.75145
G1 X95.18 Y142.028 E462.78447
G1 X61.067 Y107.915 E465.67725
G1 X61.161 Y108.627 E465.72031
G1 X94.634 Y142.1 E468.55882
G1 X94.088 Y142.172 E468.59184
G1 X61.255 Y109.339 E471.37607
G1 X61.349 Y110.051 E471.41913
G1 X93.542 Y142.244 E474.14909
G1 X92.995 Y142.316 E474.18217
G1 X61.442 Y110.762 E476.8579
G1 X61.536 Y111.474 E476.90096
G1 X92.449 Y142.388 E479.52242
G1 X91.903 Y142.459 E479.55544
G1 X61.63 Y112.186 E482.12259
G1 X61.659 Y112.406 E482.1359
G1 X61.795 Y112.772 E482.15931
G1 X61.825 Y112.999 E482.17304
G1 X91.357 Y142.531 E484.67735
G1 X90.811 Y142.603 E484.71037
G1 X61.919 Y113.711 E487.16041
G1 X62.013 Y114.423 E487.20347
G1 X90.264 Y142.675 E489.59919
G1 X89.718 Y142.747 E489.63221
G1 X62.107 Y115.135 E491.97366
G1 X62.201 Y115.848 E492.01678
G1 X89.172 Y142.819 E494.30392
G1 X88.626 Y142.891 E494.33694
G1 X62.295 Y116.56 E496.56981
G1 X62.389 Y117.272 E496.61287
G1 X88.08 Y142.963 E498.79146
G1 X87.534 Y143.035 E498.82448
G1 X62.483 Y117.984 E500.9488
G1 X62.577 Y118.696 E500.99186
G1 X86.987 Y143.107 E503.06187
G1 X86.441 Y143.178 E503.09489
G1 X62.671 Y119.408 E505.11058
G1 X62.765 Y120.12 E505.15364
G1 X85.895 Y143.25 E507.11506
G1 X85.618 Y143.287 E507.13182
G1 X84.31 Y142.284 E507.23066
G1 X62.859 Y120.832 E509.04974
G1 X62.953 Y121.544 E509.0928
G1 X81.66 Y140.251 E510.67915
G1 X79.009 Y138.219 E510.87944
G1 X63.047 Y122.256 E512.23306
G1 X63.141 Y122.968 E512.27612
G1 X76.359 Y136.186 E513.397
G1 X74.619 Y134.853 E513.52843
G1 X74.264 Y134.69 E513.55185
G1 X74.179 Y134.624 E513.5583
G1 X63.234 Y123.68 E514.48639
G1 X63.328 Y124.392 E514.52945
G1 X71.522 Y132.586 E515.2243
G1 X68.866 Y130.548 E515.42504
G1 X63.422 Y125.104 E515.88669
G1 X63.516 Y125.816 E515.92975
G1 X67.271 Y129.571 E516.24817
M204 S20000
;LAYER_CHANGE
;Z:0.6
;HEIGHT:0.3
; BEFORE_LAYER_CHANGE 1 @ 0.6mm
G1 Z-1.08 F18000
; AFTER_LAYER_CHANGE 1 @ 0.6mm
M104 S200 ; set temperature
G1 E513.74817 F4800
G92 E0
G1 X66.576 Y130.478 F18000
G1 E2.5 F4800
M204 S5000
;TYPE:External perimeter
;WIDTH:0.8
G1 X62.792 Y127.574 E2.9814
G1 X62.466 Y126.787 E3.06737
G1 X60.687 Y113.368 E4.43354
G1 X60.318 Y112.478 E4.53078
G1 X58.578 Y99.263 E5.87602
G1 X58.904 Y98.475 E5.96209
G1 X67.135 Y87.729 E7.32823
G1 X67.503 Y86.839 E7.42543
G1 X75.618 Y76.264 E8.77075
G1 X76.405 Y75.938 E8.85672
G1 X89.824 Y74.158 E10.2229
G1 X90.714 Y73.79 E10.3201
G1 X103.93 Y72.05 E11.66544
G1 X104.717 Y72.376 E11.75141
G1 X115.464 Y80.606 E13.11757
G1 X116.354 Y80.975 E13.21481
G1 X126.929 Y89.09 E14.56013
G1 X127.255 Y89.877 E14.6461
G1 X129.034 Y103.295 E16.01217
G1 X129.403 Y104.185 E16.10941
G1 X131.142 Y117.401 E17.45474
G1 X130.816 Y118.188 E17.54071
G1 X122.586 Y128.935 E18.90687
G1 X122.217 Y129.825 E19.00411
G1 X114.103 Y140.4 E20.34937
G1 X113.316 Y140.726 E20.43534
G1 X99.897 Y142.505 E21.80151
G1 X99.007 Y142.874 E21.89875
G1 X85.791 Y144.614 E23.24409
G1 X85.004 Y144.288 E23.33006
G1 X74.957 Y136.579 E24.60816
G1 X74.257 Y136.057 E24.69629
G1 X73.367 Y135.689 E24.79349
G1 X66.624 Y130.514 E25.65135
M204 S20000
;WIPE_START
G1 F14400
G1 X62.792 Y127.574 E24.12189
G1 X62.466 Y126.787 E23.85214
G1 X62.175 Y124.593 E23.15135
;WIPE_END
G92 E0
G1 X75.793 Y76.494 F18000
G1 E2.5 F4800
M204 S10000
;TYPE:Solid infill
;WIDTH:0.404381
G1 F9600
G1 X75.344 Y77.006 E2.53177
M204 S20000
;WIPE_START
G1 F14400
G1 X75.793 Y76.494 E2.31612
;WIPE_END
G1 E.03177 F4800
G92 E0
G1 X76.309 Y76.385 F18000
G1 E2.5 F4800
M204 S10000
;WIDTH:0.45
G1 F9600
G1 X74.98 Y77.714 E2.59944
G1 X74.741 Y77.987 E2.61864
;WIDTH:0.404381
G1 X73.545 Y79.35 E2.70323
M204 S20000
;WIPE_START
G1 F14400
G1 X74.741 Y77.987 E2.12901
G1 X74.98 Y77.714 E2.01411
G1 X76.309 Y76.385 E1.41894
;WIPE_END
G1 E.20323 F4800
G92 E0
G1 X71.747 Y81.694 F18000
G1 E2.5 F4800
M204 S10000
G1 F9600
G1 X72.942 Y80.33 E2.58459
;WIDTH:0.45
G1 X73.182 Y80.058 E2.60378
G1 X77 Y76.239 E2.88948
G1 X76.809 Y76.121 E2.90136
;WIDTH:0.404381
G1 X76.47 Y76.179 E2.9174
M204 S20000
;WIPE_START
G1 F14400
G1 X76.809 Y76.121 E2.80849
G1 X77 Y76.239 E2.73739
G1 X73.182 Y80.058 E1.02733
G1 X72.942 Y80.33 E.91246
G1 X71.912 Y81.506 E.4174
;WIPE_END
G92 E0
G1 X77.628 Y76.156 F18000
G1 E2.5 F4800
M204 S10000
;WIDTH:0.45
G1 F9600
G1 X71.383 Y82.402 E2.96729
G1 X71.144 Y82.674 E2.98645
;WIDTH:0.404381
G1 X69.948 Y84.038 E3.07107
M204 S20000
;WIPE_START
G1 F14400
G1 X71.144 Y82.674 E2.49661
G1 X71.383 Y82.402 E2.38195
G1 X75.426 Y78.358 E.57107
;WIPE_END
G92 E0
G1 X68.15 Y86.381 F18000
G1 E2.5 F4800
M204 S10000
G1 F9600
G1 X69.345 Y85.018 E2.58456
;WIDTH:0.45
G1 X69.585 Y84.745 E2.60379
G1 X78.256 Y76.074 E3.25256
G1 X78.884 Y75.991 E3.28607
G1 X67.823 Y87.053 E4.1137
G1 X67.684 Y87.314 E4.12934
;WIDTH:0.404381
G1 X67.613 Y87.295 E4.13277
G1 X67.632 Y87.367 E4.13624
G1 X67.673 Y87.356 E4.13822
M204 S20000
;WIPE_START
G1 F14400
G1 X67.632 Y87.367 E4.12478
G1 X67.613 Y87.295 E4.1012
G1 X67.684 Y87.314 E4.07793
G1 X67.823 Y87.053 E3.98429
G1 X73.061 Y81.814 E1.63822
;WIPE_END
G92 E0
G1 X65.97 Y89.652 F18000
G1 E2.5 F4800
M204 S10000
G1 F9600
G1 X67.162 Y88.293 E2.58432
;WIDTH:0.45
G1 X67.401 Y88.02 E2.60352
G1 X79.512 Y75.908 E3.50971
G1 X80.14 Y75.826 E3.54322
G1 X65.607 Y90.36 E4.63063
G1 X65.367 Y90.632 E4.64982
;WIDTH:0.404381
G1 X64.172 Y91.995 E4.73438
M204 S20000
;WIPE_START
G1 F14400
G1 X65.367 Y90.632 E4.16037
G1 X65.607 Y90.36 E4.0455
G1 X69.651 Y86.316 E2.23438
