; generated by PrusaSlicer 2.8.1+win64 on 2024-11-14 at 18:27:02 UTC


;
;
; 

; external perimeters extrusion width = 0.40mm
; perimeters extrusion width = 0.40mm
; infill extrusion width = 0.40mm
; solid infill extrusion width = 0.40mm
; top infill extrusion width = 0.40mm
; support material extrusion width = 0.44mm
; first layer extrusion width = 0.44mm

M73 P0 R51
;TYPE:Custom
G90 ; use absolute coordinates
M83 ; extruder relative mode
M140 S100 ; set bed temp
M190 S100 ; wait for bed temp
M104 S260 ; set extruder temp
M109 S260 ; wait for extruder temp
G28                                        ; move X/Y/Z to min endstops
G1 Z0.28                                   ; lift nozzle a bit 
G92 E0 
G1 Y3 F2400                                    ; zero the extruded length 
G1 X180  E40 F500                       ; Extrude 25mm of filament in a 5cm line. 
G92 E0                                     ; zero the extruded length again 
G1 E-0.2 F3000                                ; Retract a little 
G1 X181 F4000                              ; Quickly wipe away from the filament line
M117
G21 ; set units to millimeters
G90 ; use absolute coordinates
M82 ; use absolute distances for extrusion
G92 E0
; Filament gcode
M107
;LAYER_CHANGE
;Z:0.3
;HEIGHT:0.3
G1 E-2 F2400
G92 E0
G1 Z.3 F9000
G92 E0
G1 X98.627 Y116.695
G1 E2 F2400
M204 S5000
;TYPE:External perimeter
;WIDTH:0.44
G1 X98.47 Y116.316 E2.01883
G1 X98.322 Y115.194 E2.07079
G1 X98.47 Y114.023 E2.12498
G1 X98.94 Y112.887 E2.18142
G1 X99.664 Y111.955 E2.2356
G1 X100.561 Y111.266 E2.28753
G1 X101.697 Y110.796 E2.34397
G1 X102.819 Y110.648 E2.39593
G1 X103.99 Y110.796 E2.45012
G1 X105.125 Y111.266 E2.50652
G1 X106.058 Y111.99 E2.56074
G1 X106.747 Y112.887 E2.61267
G1 X107.217 Y114.023 E2.66911
G1 X107.365 Y115.194 E2.7233
G1 X107.217 Y116.316 E2.77526
G1 X106.747 Y117.451 E2.83166
G1 X106.023 Y118.384 E2.88588
G1 X105.125 Y119.073 E2.93785
G1 X104.037 Y119.53 E2.99203
G1 X102.819 Y119.691 E3.04844
G1 X101.697 Y119.543 E3.1004
G1 X100.604 Y119.097 E3.1546
G1 X99.664 Y118.384 E3.20877
G1 X98.94 Y117.451 E3.26299
G1 X98.65 Y116.751 E3.29778
M204 S20000
G1 X98.65 Y116.751 F9000
G1 X98.274 Y116.842
M204 S5000
;TYPE:Perimeter
G1 F2400
G1 X98.135 Y116.507 E3.31443
G1 X98.097 Y116.365 E3.32118
G1 X97.95 Y115.243 E3.37313
G1 X97.95 Y115.096 E3.37988
G1 X98.097 Y113.974 E3.43183
G1 X98.135 Y113.832 E3.43858
G1 X98.568 Y112.786 E3.49056
G1 X98.642 Y112.659 E3.49731
G1 X99.331 Y111.761 E3.54928
G1 X99.435 Y111.657 E3.55603
G1 X100.333 Y110.968 E3.608
G1 X100.46 Y110.894 E3.61475
G1 X101.506 Y110.461 E3.66673
G1 X101.648 Y110.423 E3.67348
G1 X102.77 Y110.276 E3.72543
G1 X104.039 Y110.423 E3.78408
G1 X104.181 Y110.461 E3.79083
G1 X105.227 Y110.895 E3.84282
G1 X105.354 Y110.968 E3.84955
G1 X106.252 Y111.657 E3.90152
G1 X106.356 Y111.761 E3.90827
G1 X107.045 Y112.659 E3.96024
G1 X107.118 Y112.786 E3.96697
G1 X107.551 Y113.832 E4.01895
G1 X107.589 Y113.974 E4.0257
G1 X107.737 Y115.096 E4.07766
G1 X107.737 Y115.243 E4.08441
G1 X107.589 Y116.365 E4.13637
G1 X107.551 Y116.507 E4.14312
G1 X107.118 Y117.552 E4.19505
G1 X107.045 Y117.68 E4.20182
G1 X106.356 Y118.578 E4.25379
G1 X106.252 Y118.682 E4.26054
G1 X105.354 Y119.371 E4.31251
G1 X105.227 Y119.444 E4.31924
G1 X104.181 Y119.877 E4.37122
G1 X103.343 Y120.007 E4.41015
G1 X102.77 Y120.063 E4.43658
G1 X101.648 Y119.915 E4.48854
G1 X101.506 Y119.877 E4.49529
G1 X100.46 Y119.444 E4.54727
G1 X100.267 Y119.32 E4.5578
G1 X99.435 Y118.682 E4.60594
G1 X99.331 Y118.578 E4.61269
G1 X98.642 Y117.68 E4.66466
G1 X98.568 Y117.552 E4.67145
G1 X98.297 Y116.897 E4.70399
M204 S20000
;WIPE_START
G1 F7200
G1 X98.274 Y116.842 E4.68511
G1 X98.135 Y116.507 E4.57026
G1 X98.097 Y116.365 E4.52371
G1 X97.95 Y115.243 E4.16537
G1 X97.95 Y115.096 E4.11882
G1 X98.097 Y113.974 E3.76048
G1 X98.135 Y113.832 E3.71393
G1 X98.568 Y112.786 E3.35544
G1 X98.642 Y112.659 E3.30889
G1 X99.331 Y111.761 E2.95047
G1 X99.435 Y111.657 E2.9039
G1 X99.936 Y111.273 E2.70399
;WIPE_END
G92 E0
G1 X114.246 Y123.62 F9000
G1 E2 F2400
M204 S5000
;TYPE:External perimeter
G1 X114.246 Y137.606 E2.64213
G1 X114.304 Y137.741 E2.64888
G1 X114.434 Y137.794 E2.65533
G1 X116.645 Y137.794 E2.75684
G1 X116.645 Y144.354 E3.05802
G1 X104.97 Y144.354 E3.59405
G1 X101.522 Y141.215 E3.80813
G1 X98.397 Y137.536 E4.02975
G1 X95.767 Y133.488 E4.25138
G1 X93.675 Y129.138 E4.47299
G1 X92.156 Y124.556 E4.69462
G1 X91.235 Y119.817 E4.91627
G1 X90.926 Y115 E5.13788
G1 X91.235 Y110.183 E5.35949
G1 X92.156 Y105.444 E5.58114
G1 X93.675 Y100.862 E5.80277
G1 X95.767 Y96.512 E6.02438
G1 X98.397 Y92.464 E6.24601
G1 X101.522 Y88.785 E6.46763
G1 X104.97 Y85.646 E6.68171
G1 X116.685 Y85.646 E7.21957
G1 X116.685 Y89.016 E7.37429
G1 X116.685 Y92.206 E7.52075
G1 X114.434 Y92.206 E7.6241
G1 X114.305 Y92.257 E7.63047
G1 X114.246 Y92.392 E7.63723
G1 X114.246 Y123.56 E9.06822
M204 S20000
G1 X114.246 Y123.56 F9000
G1 X113.871 Y123.62
M204 S5000
;TYPE:Perimeter
G1 F2400
G1 X113.871 Y137.606 E9.71035
G1 X113.876 Y137.682 E9.71385
G1 X113.972 Y137.929 E9.72602
G1 X114.136 Y138.084 E9.73638
G1 X114.434 Y138.17 E9.75062
G1 X116.269 Y138.17 E9.83487
G1 X116.269 Y143.978 E10.10153
G1 X105.115 Y143.978 E10.61364
G1 X101.793 Y140.954 E10.81989
G1 X98.699 Y137.311 E11.03933
G1 X96.095 Y133.304 E11.25874
G1 X94.024 Y128.997 E11.47816
G1 X92.521 Y124.46 E11.6976
G1 X91.608 Y119.769 E11.91702
G1 X91.303 Y115 E12.13642
G1 X91.608 Y110.231 E12.35582
G1 X92.521 Y105.54 E12.57524
G1 X94.024 Y101.003 E12.79468
G1 X96.095 Y96.696 E13.0141
G1 X98.699 Y92.689 E13.23351
G1 X101.793 Y89.046 E13.45295
G1 X105.115 Y86.022 E13.6592
G1 X116.309 Y86.022 E14.17314
G1 X116.309 Y89.016 E14.3106
M73 P1 R51
G1 X116.309 Y91.83 E14.4398
G1 X114.434 Y91.83 E14.52589
G1 X114.257 Y91.859 E14.53412
G1 X114.047 Y91.985 E14.54536
G1 X113.924 Y92.155 E14.55499
G1 X113.871 Y92.389 E14.56601
G1 X113.871 Y123.56 E15.99714
M204 S20000
;WIPE_START
G1 F7200
G1 X113.871 Y123.62 E15.97814
G1 X113.871 Y129.876 E13.99714
;WIPE_END
G92 E0
G1 X116.159 Y86.937 F9000
G1 E2 F2400
M204 S5000
;TYPE:Solid infill
;WIDTH:0.442597
G1 X115.563 Y86.341 E2.03897
G1 X115.029 Y86.341 E2.06366
G1 X115.99 Y87.303 E2.12652
G1 X115.99 Y87.837 E2.15121
G1 X114.494 Y86.341 E2.24902
G1 X113.959 Y86.341 E2.27375
G1 X115.99 Y88.372 E2.40653
G1 X115.99 Y88.907 E2.43126
G1 X113.424 Y86.341 E2.59902
G1 X112.889 Y86.341 E2.62375
G1 X115.99 Y89.442 E2.82649
G1 X115.99 Y89.977 E2.85122
G1 X112.354 Y86.341 E3.08894
G1 X111.819 Y86.341 E3.11367
G1 X115.99 Y90.512 E3.38636
G1 X115.99 Y91.047 E3.41109
G1 X111.284 Y86.341 E3.71876
G1 X110.749 Y86.341 E3.74349
G1 X115.92 Y91.511 E4.08153
G1 X115.385 Y91.511 E4.10626
G1 X110.215 Y86.341 E4.44427
G1 X109.68 Y86.341 E4.469
G1 X114.85 Y91.511 E4.80701
G1 X114.424 Y91.511 E4.8267
G1 X114.33 Y91.526 E4.8311
G1 X109.145 Y86.341 E5.17009
G1 X108.61 Y86.341 E5.19482
G1 X113.937 Y91.668 E5.54309
G1 X113.827 Y91.752 E5.54949
G1 X113.71 Y91.887 E5.55775
G1 X113.681 Y91.947 E5.56083
G1 X108.075 Y86.341 E5.92734
G1 X107.54 Y86.341 E5.95207
G1 X113.555 Y92.356 E6.34532
G1 X113.551 Y92.887 E6.36987
G1 X107.005 Y86.341 E6.79784
G1 X106.47 Y86.341 E6.82257
G1 X113.551 Y93.422 E7.28552
G1 X113.551 Y93.957 E7.31025
G1 X105.936 Y86.341 E7.80814
G1 X105.401 Y86.341 E7.83287
G1 X113.551 Y94.492 E8.36574
G1 X113.551 Y95.026 E8.39043
G1 X105.044 Y86.519 E8.94661
G1 X104.764 Y86.774 E8.96412
G1 X113.551 Y95.561 E9.5386
G1 X113.551 Y96.096 E9.56333
G1 X104.484 Y87.028 E10.15615
G1 X104.204 Y87.283 E10.17366
G1 X113.551 Y96.631 E10.78479
G1 X113.551 Y97.166 E10.80952
G1 X103.924 Y87.538 E11.43895
G1 X103.644 Y87.793 E11.45646
G1 X113.551 Y97.701 E12.1042
G1 X113.551 Y98.236 E12.12893
G1 X103.364 Y88.048 E12.79498
G1 X103.084 Y88.303 E12.81249
G1 X113.551 Y98.771 E13.49684
G1 X113.551 Y99.306 E13.52157
G1 X102.804 Y88.558 E14.22423
G1 X102.524 Y88.813 E14.24174
G1 X113.551 Y99.84 E14.96267
G1 X113.551 Y100.375 E14.9874
G1 X102.244 Y89.068 E15.72664
G1 X101.971 Y89.33 E15.74413
G1 X113.551 Y100.91 E16.50122
G1 X113.551 Y101.445 E16.52595
G1 X101.725 Y89.619 E17.29912
G1 X101.48 Y89.908 E17.31664
G1 X113.551 Y101.98 E18.10586
G1 X113.551 Y102.515 E18.13059
G1 X101.234 Y90.197 E18.93589
G1 X100.988 Y90.487 E18.95347
G1 X113.551 Y103.05 E19.77482
G1 X113.551 Y103.585 E19.79955
G1 X100.743 Y90.776 E20.63695
G1 X100.497 Y91.065 E20.6545
G1 X113.551 Y104.119 E21.50795
G1 X113.551 Y104.654 E21.53268
G1 X100.251 Y91.354 E22.40222
G1 X100.006 Y91.643 E22.41974
G1 X113.551 Y105.189 E23.30533
G1 X113.551 Y105.724 E23.33006
G1 X99.76 Y91.933 E24.2317
G1 X99.514 Y92.222 E24.24925
G1 X113.551 Y106.259 E25.16697
G1 X113.551 Y106.794 E25.1917
M73 P1 R50
G1 X99.269 Y92.511 E26.12547
G1 X99.023 Y92.8 E26.14302
G1 X113.551 Y107.329 E27.09287
G1 X113.551 Y107.864 E27.1176
G1 X98.803 Y93.115 E28.08184
G1 X98.592 Y93.439 E28.09971
G1 X113.551 Y108.398 E29.07771
G1 X113.551 Y108.933 E29.10244
G1 X98.381 Y93.763 E30.09423
G1 X98.171 Y94.087 E30.11208
G1 X113.551 Y109.468 E31.11764
G1 X113.551 Y110.003 E31.14237
G1 X97.96 Y94.412 E32.16169
G1 X97.749 Y94.736 E32.17956
G1 X113.551 Y110.538 E33.21267
G1 X113.551 Y111.073 E33.2374
G1 X97.539 Y95.06 E34.28428
G1 X97.328 Y95.384 E34.30215
G1 X113.551 Y111.608 E35.36282
G1 X113.551 Y112.143 E35.38755
G1 X97.117 Y95.709 E36.46198
G1 X96.907 Y96.033 E36.47983
G1 X113.551 Y112.677 E37.56799
G1 X113.551 Y113.212 E37.59272
G1 X96.696 Y96.357 E38.69468
G1 X96.485 Y96.681 E38.71255
G1 X113.551 Y113.747 E39.8283
G1 X113.551 Y114.282 E39.85303
G1 X96.292 Y97.023 E40.9814
G1 X96.119 Y97.384 E40.99991
G1 X113.551 Y114.817 E42.13962
G1 X113.551 Y115.352 E42.16435
G1 X95.945 Y97.745 E43.31544
G1 X95.771 Y98.107 E43.33401
G1 X113.551 Y115.887 E44.49644
G1 X113.551 Y116.422 E44.52117
G1 X95.598 Y98.468 E45.69495
G1 X95.424 Y98.829 E45.71348
G1 X113.551 Y116.957 E46.89863
G1 X113.551 Y117.491 E46.92332
G1 X95.25 Y99.19 E48.11982
G1 X95.077 Y99.551 E48.13833
G1 X113.551 Y118.026 E49.34617
G1 X113.551 Y118.561 E49.3709
G1 X94.903 Y99.913 E50.59008
G1 X94.729 Y100.274 E50.60861
G1 X104.853 Y110.397 E51.27047
G1 X104.295 Y110.163 E51.29844
G1 X104.019 Y110.099 E51.31154
G1 X94.556 Y100.635 E51.93025
G1 X94.382 Y100.996 E51.94878
G1 X103.403 Y110.018 E52.53859
G1 X102.949 Y109.958 E52.55976
G1 X102.809 Y109.958 E52.56623
G1 X94.235 Y101.384 E53.12679
G1 X94.101 Y101.785 E53.14634
G1 X102.33 Y110.014 E53.68434
G1 X101.86 Y110.079 E53.70627
G1 X93.968 Y102.187 E54.22224
G1 X93.835 Y102.589 E54.24182
G1 X101.408 Y110.161 E54.7369
G1 X101.028 Y110.317 E54.75589
G1 X93.702 Y102.991 E55.23485
G1 X93.569 Y103.392 E55.25438
G1 X100.649 Y110.472 E55.71726
G1 X100.276 Y110.634 E55.73606
G1 X93.436 Y103.794 E56.18325
G1 X93.302 Y104.196 E56.20284
M73 P2 R50
G1 X99.96 Y110.853 E56.6381
G1 X99.659 Y111.087 E56.65573
G1 X93.169 Y104.597 E57.08004
G1 X93.036 Y104.999 E57.09962
G1 X99.357 Y111.32 E57.51288
G1 X99.154 Y111.478 E57.52477
G1 X99.078 Y111.576 E57.5305
G1 X92.903 Y105.401 E57.93421
G1 X92.83 Y105.621 E57.94493
G1 X92.791 Y105.823 E57.95444
G1 X98.846 Y111.878 E58.35031
G1 X98.613 Y112.18 E58.36794
G1 X92.704 Y106.271 E58.75426
G1 X92.616 Y106.719 E58.77537
G1 X98.38 Y112.483 E59.15221
G1 X98.335 Y112.541 E59.1556
G1 X98.207 Y112.844 E59.17081
G1 X92.529 Y107.167 E59.542
G1 X92.442 Y107.615 E59.5631
G1 X98.048 Y113.22 E59.92958
G1 X97.889 Y113.596 E59.94845
G1 X92.355 Y108.062 E60.31026
G1 X92.268 Y108.51 E60.33136
G1 X97.77 Y114.012 E60.69107
G1 X97.708 Y114.485 E60.71312
G1 X92.181 Y108.958 E61.07447
G1 X92.094 Y109.406 E61.09557
G1 X97.646 Y114.958 E61.45855
G1 X97.627 Y115.224 E61.47088
G1 X97.665 Y115.512 E61.48431
G1 X92.007 Y109.854 E61.85422
G1 X91.923 Y110.305 E61.87543
G1 X97.748 Y116.13 E62.25626
G1 X97.798 Y116.502 E62.27361
G1 X97.943 Y116.859 E62.29142
G1 X91.732 Y110.649 E62.69745
M204 S20000
;WIPE_START
G1 F7200
G1 X96.198 Y115.115 E60.69745
;WIPE_END
G92 E0
G1 X107.309 Y112.853 F9000
G1 E2 F2400
M204 S5000
G1 X113.551 Y119.096 E2.40813
G1 X113.551 Y119.631 E2.43286
G1 X107.914 Y113.993 E2.80143
G1 X107.991 Y114.605 E2.82995
G1 X113.551 Y120.166 E3.19349
G1 X113.551 Y120.701 E3.21822
G1 X108.058 Y115.207 E3.57738
G1 X107.997 Y115.681 E3.59947
G1 X113.551 Y121.236 E3.96262
G1 X113.551 Y121.77 E3.98731
G1 X107.937 Y116.156 E4.35435
G1 X107.9 Y116.448 E4.36796
G1 X107.853 Y116.607 E4.37562
G1 X113.551 Y122.305 E4.74815
G1 X113.551 Y122.84 E4.77288
G1 X107.698 Y116.987 E5.15554
G1 X107.541 Y117.365 E5.17446
G1 X113.551 Y123.375 E5.56739
G1 X113.551 Y123.91 E5.59212
G1 X107.379 Y117.737 E5.99567
G1 X107.303 Y117.868 E6.00267
G1 X107.159 Y118.053 E6.01351
G1 X113.551 Y124.445 E6.43141
G1 X113.551 Y124.98 E6.45614
G1 X106.926 Y118.354 E6.88931
G1 X106.692 Y118.655 E6.90694
G1 X113.551 Y125.515 E7.35541
G1 X113.551 Y126.049 E7.3801
G1 X106.437 Y118.935 E7.8452
G1 X106.136 Y119.169 E7.86283
G1 X113.551 Y126.584 E8.34761
G1 X113.551 Y127.119 E8.37234
G1 X105.834 Y119.402 E8.87687
G1 X105.532 Y119.635 E8.8945
G1 X113.551 Y127.654 E9.41877
G1 X113.551 Y128.189 E9.4435
G1 X105.174 Y119.811 E9.99121
G1 X104.795 Y119.967 E10.01016
G1 X113.551 Y128.724 E10.58265
G1 X113.551 Y129.259 E10.60738
G1 X104.415 Y120.123 E11.20468
G1 X104.221 Y120.202 E11.21436
G1 X103.992 Y120.234 E11.22505
G1 X113.551 Y129.794 E11.85004
G1 X113.551 Y130.328 E11.87473
G1 X103.521 Y120.298 E12.53048
G1 X103.051 Y120.363 E12.55241
G1 X113.551 Y130.863 E13.23889
G1 X113.551 Y131.398 E13.26362
G1 X102.495 Y120.342 E13.98645
G1 X101.885 Y120.266 E14.01487
G1 X113.551 Y131.933 E14.77761
G1 X113.551 Y132.468 E14.80234
G1 X100.847 Y119.763 E15.63294
M204 S20000
;WIPE_START
G1 F7200
G1 X105.313 Y124.229 E13.63294
;WIPE_END
G92 E0
G1 X91.7 Y111.151 F9000
G1 E2 F2400
M204 S5000
G1 X98.339 Y117.79 E2.43405
G1 X99.155 Y118.861 E2.4963
G1 X100.241 Y119.692 E2.55952
G1 X113.551 Y133.003 E3.42974
G1 X113.551 Y133.538 E3.45447
G1 X91.827 Y111.813 E4.87479
G1 X91.795 Y112.316 E4.89809
G1 X113.551 Y134.073 E6.3205
G1 X113.551 Y134.608 E6.34523
G1 X91.762 Y112.818 E7.7698
G1 X91.73 Y113.321 E7.7931
G1 X113.551 Y135.142 E9.21973
G1 X113.551 Y135.677 E9.24446
G1 X91.698 Y113.824 E10.67318
G1 X91.666 Y114.326 E10.69643
G1 X113.551 Y136.212 E12.12728
G1 X113.551 Y136.747 E12.15201
G1 X91.633 Y114.829 E13.58498
G1 X91.623 Y115 E13.5929
G1 X91.647 Y115.377 E13.61036
G1 X113.72 Y137.451 E15.0535
M204 S20000
;WIPE_START
G1 F7200
G1 X109.254 Y132.985 E13.0535
;WIPE_END
G92 E0
G1 X115.659 Y138.32 F9000
G1 E2 F2400
M204 S5000
G1 X115.95 Y138.61 E2.01899
G1 X115.95 Y139.145 E2.04372
G1 X115.293 Y138.489 E2.08664
G1 X114.758 Y138.489 E2.11137
G1 X115.95 Y139.68 E2.18927
G1 X115.95 Y140.215 E2.214
G1 X91.683 Y115.949 E3.80051
G1 X91.72 Y116.52 E3.82696
G1 X115.95 Y140.75 E5.41109
G1 X115.95 Y141.285 E5.43582
G1 X91.757 Y117.092 E7.01753
G1 X91.793 Y117.663 E7.04398
G1 X115.95 Y141.82 E8.62333
G1 X115.95 Y142.354 E8.64802
G1 X91.83 Y118.235 E10.22492
G1 X91.867 Y118.806 E10.25137
G1 X115.95 Y142.889 E11.82589
G1 X115.95 Y143.424 E11.85062
G1 X91.903 Y119.378 E13.42275
G1 X91.926 Y119.728 E13.43897
G1 X91.976 Y119.985 E13.45107
G1 X115.65 Y143.659 E14.99885
G1 X115.115 Y143.659 E15.02358
G1 X92.105 Y120.649 E16.52794
G1 X92.234 Y121.313 E16.55921
G1 X114.58 Y143.659 E18.02016
G1 X114.045 Y143.659 E18.04489
G1 X92.363 Y121.977 E19.46243
G1 X92.492 Y122.641 E19.4937
G1 X113.51 Y143.659 E20.86783
G1 X112.975 Y143.659 E20.89256
G1 X92.621 Y123.305 E22.22328
G1 X92.75 Y123.969 E22.25455
G1 X112.44 Y143.659 E23.54186
G1 X111.906 Y143.659 E23.56655
G1 X92.931 Y124.685 E24.80708
G1 X93.197 Y125.485 E24.84605
M73 P3 R50
G1 X111.371 Y143.659 E26.03424
G1 X110.836 Y143.659 E26.05897
G1 X93.462 Y126.285 E27.19486
G1 X93.727 Y127.085 E27.23382
G1 X110.301 Y143.659 E28.31741
G1 X109.766 Y143.659 E28.34214
G1 X93.992 Y127.885 E29.37342
G1 X94.258 Y128.686 E29.41244
G1 X109.231 Y143.659 E30.39136
G1 X108.696 Y143.659 E30.41609
G1 X94.698 Y129.661 E31.33126
G1 X95.193 Y130.691 E31.38409
G1 X108.161 Y143.659 E32.23192
G1 X107.627 Y143.659 E32.25661
G1 X95.688 Y131.721 E33.03713
G1 X96.183 Y132.751 E33.08996
G1 X107.092 Y143.659 E33.80314
