; generated by PrusaSlicer 2.8.1+win64 on 2024-11-14 at 20:27:29 UTC

; 

; external perimeters extrusion width = 0.42mm
; perimeters extrusion width = 0.45mm
; infill extrusion width = 0.45mm
; solid infill extrusion width = 0.45mm
; top infill extrusion width = 0.42mm
; first layer extrusion width = 0.50mm

M201 X1000 Y1000 Z1000 E5000 ; sets maximum accelerations, mm/sec^2
M203 X200 Y200 Z12 E120 ; sets maximum feedrates, mm / sec
M204 S1250 T1250 ; sets acceleration (S) and retract acceleration (R), mm/sec^2
M205 X8.00 Y8.00 Z0.40 E1.50 ; sets the jerk limits, mm/sec
M205 S0 T0 ; sets the minimum extruding and travel feed rate, mm/sec
;TYPE:Custom
; Initial setups
G90 ; use absolute coordinates
M83 ; extruder relative mode
M220 S100 ; reset speed factor to 100%
M221 S100 ; reset extrusion rate to 100%

; Set the heating
M190 S0 ; wait for bed to heat up
M104 S205 ; start nozzle heating but don't wait

; Home
G1 Z3 F3000 ; move z up little to prevent scratching of surface
G28 ; home all axes
G1 X3 Y3 F5000 ; move to corner of the bed to avoid ooze over centre

; Wait for final heating
M109 S205 ; wait for the nozzle to heat up
M190 S0 ; wait for the bed to heat up

; Return to prime position, Prime line routine
G92 E0 ; Reset Extruder
G1 Z3 F3000 ; move z up little to prevent scratching of surface
G1 X10 Y.5 Z0.25 F5000.0 ; Move to start position
G1 X100 Y.5 Z0.25 F1500.0 E15 ; Draw the first line
G1 X100 Y.2 Z0.25 F5000.0 ; Move to side a little
G1 X10 Y.2 Z0.25 F1500.0 E30 ; Draw the second line
G92 E0 ; Reset Extruder
M221 S95
G21 ; set units to millimeters
G90 ; use absolute coordinates
M83 ; use relative distances for extrusion
; Filament gcode
M107
;LAYER_CHANGE
;Z:0.4
;HEIGHT:0.4
G1 E-.8 F2400
G1 Z1 F4800
G1 X152.977 Y75.051
G1 Z.4
G1 E.8 F2400
M204 S1250
;TYPE:External perimeter
;WIDTH:0.5
G1 F1200
G1 X153.548 Y75.234 E.03923
G1 X154.066 Y75.553 E.0398
G1 X154.512 Y76.017 E.04211
G1 X154.78 Y76.499 E.03609
G1 X154.976 Y77.156 E.04486
G1 X154.983 Y77.796 E.04188
G1 X154.835 Y78.39 E.04005
G1 X154.543 Y78.942 E.04086
G1 X154.106 Y79.414 E.04209
G1 X153.58 Y79.753 E.04095
G1 X152.989 Y79.952 E.0408
G1 X152.363 Y79.997 E.04107
G1 X151.746 Y79.882 E.04107
G1 X151.166 Y79.613 E.04183
G1 X150.693 Y79.223 E.04011
G1 X150.328 Y78.733 E.03998
G1 X150.086 Y78.14 E.04191
G1 X150.004 Y77.518 E.04105
G1 X150.073 Y76.912 E.03991
G1 X150.303 Y76.315 E.04186
G1 X150.659 Y75.816 E.04011
G1 X151.135 Y75.411 E.04089
G1 X151.711 Y75.132 E.04188
G1 X152.311 Y75.01 E.04006
G1 X152.859 Y75.038 E.0359
M204 S20000
G1 X152.859 Y75.038 F4800
G1 X153.054 Y74.653
M204 S1250
;TYPE:Perimeter
G1 F1200
G1 X153.679 Y74.841 E.0427
G1 X154.287 Y75.203 E.0463
G1 X154.813 Y75.733 E.04886
G1 X155.144 Y76.302 E.04307
G1 X155.236 Y76.508 E.01476
G1 X155.377 Y77.051 E.03671
G1 X155.397 Y77.796 E.04876
G1 X155.235 Y78.494 E.04688
G1 X154.907 Y79.139 E.04735
G1 X154.407 Y79.698 E.04907
G1 X153.801 Y80.103 E.04769
G1 X153.118 Y80.346 E.04743
G1 X152.388 Y80.41 E.04795
G1 X151.665 Y80.288 E.04798
G1 X150.964 Y79.975 E.05023
G1 X150.428 Y79.541 E.04513
G1 X149.994 Y78.976 E.04662
G1 X149.701 Y78.293 E.04863
G1 X149.592 Y77.568 E.04797
G1 X149.662 Y76.861 E.04649
G1 X149.918 Y76.162 E.04871
G1 X150.324 Y75.572 E.04686
G1 X150.869 Y75.093 E.04748
G1 X151.535 Y74.757 E.04881
G1 X152.234 Y74.603 E.04683
G1 X152.938 Y74.628 E.04609
;WIPE_START
G1 F3840
G1 X153.054 Y74.653 E-.07046
G1 X153.679 Y74.841 E-.38752
G1 X154.174 Y75.136 E-.34202
;WIPE_END
M204 S20000
G1 Z1 F4800
G1 X153.569 Y150.245
G1 Z.4
G1 E.8 F2400
M204 S1250
;TYPE:External perimeter
G1 F1200
G1 X154.067 Y150.556 E.03842
G1 X154.511 Y151.016 E.04183
G1 X154.816 Y151.564 E.04104
G1 X154.976 Y152.156 E.04013
G1 X154.983 Y152.794 E.04175
G1 X154.835 Y153.391 E.04024
G1 X154.543 Y153.942 E.0408
G1 X154.158 Y154.361 E.03723
G1 X153.696 Y154.683 E.03685
G1 X153.546 Y154.771 E.01138
G1 X152.989 Y154.95 E.03828
G1 X152.377 Y154.996 E.04016
G1 X151.762 Y154.888 E.04086
G1 X151.191 Y154.627 E.04108
G1 X150.704 Y154.237 E.04082
G1 X150.329 Y153.735 E.041
G1 X150.073 Y153.089 E.04547
G1 X150.004 Y152.518 E.03763
G1 X150.073 Y151.912 E.03991
G1 X150.303 Y151.313 E.04198
G1 X150.659 Y150.814 E.04011
G1 X151.147 Y150.401 E.04183
G1 X151.698 Y150.134 E.04006
G1 X152.312 Y150.01 E.04099
G1 X152.952 Y150.045 E.04194
G1 X153.457 Y150.203 E.03462
M204 S20000
G1 X153.457 Y150.203 F4800
G1 X153.743 Y149.878
M204 S1250
;TYPE:Perimeter
G1 F1200
G1 X154.29 Y150.207 E.04177
G1 X154.812 Y150.731 E.0484
G1 X155.18 Y151.366 E.04802
G1 X155.377 Y152.052 E.0467
G1 X155.397 Y152.794 E.04857
G1 X155.236 Y153.495 E.04706
G1 X154.907 Y154.14 E.04738
G1 X154.46 Y154.645 E.04413
G1 X154.303 Y154.785 E.01376
G1 X153.818 Y155.096 E.0377
G1 X153.326 Y155.277 E.0343
G1 X152.965 Y155.373 E.02444
G1 X152.404 Y155.409 E.03678
G1 X151.687 Y155.296 E.04749
G1 X151.014 Y155.002 E.04805
G1 X150.442 Y154.557 E.04742
G1 X149.995 Y153.98 E.04776
G1 X149.701 Y153.292 E.04895
G1 X149.662 Y153.139 E.01033
G1 X149.592 Y152.568 E.03764
G1 X149.662 Y151.861 E.04649
G1 X149.918 Y151.161 E.04877
G1 X150.324 Y150.57 E.04692
G1 X150.882 Y150.082 E.0485
G1 X151.522 Y149.759 E.04691
G1 X152.234 Y149.603 E.04769
G1 X152.978 Y149.631 E.04872
G1 X153.636 Y149.826 E.0449
;WIPE_START
G1 F3840
G1 X153.743 Y149.878 E-.07064
G1 X154.29 Y150.207 E-.379
G1 X154.706 Y150.625 E-.35036
;WIPE_END
M204 S20000
G1 Z1 F4800
G1 X78.57 Y150.247
G1 Z.4
G1 E.8 F2400
M204 S1250
;TYPE:External perimeter
G1 F1200
G1 X79.08 Y150.565 E.03933
G1 X79.502 Y151.006 E.03994
G1 X79.812 Y151.549 E.04091
G1 X79.976 Y152.171 E.04209
G1 X79.982 Y152.78 E.03985
G1 X79.837 Y153.389 E.04096
G1 X79.532 Y153.955 E.04207
G1 X79.12 Y154.404 E.03987
G1 X78.596 Y154.748 E.04101
G1 X77.986 Y154.951 E.04207
G1 X77.363 Y154.995 E.04087
G1 X76.747 Y154.884 E.04095
G1 X76.282 Y154.671 E.03347
G1 X75.811 Y154.326 E.0382
G1 X75.666 Y154.198 E.01266
G1 X75.321 Y153.722 E.03847
G1 X75.09 Y153.154 E.04012
G1 X75.002 Y152.534 E.04097
G1 X75.077 Y151.898 E.0419
G1 X75.297 Y151.325 E.04016
G1 X75.656 Y150.815 E.04081
G1 X76.147 Y150.4 E.04206
G1 X76.698 Y150.134 E.04003
G1 X77.312 Y150.01 E.04099
G1 X77.936 Y150.042 E.04088
G1 X78.46 Y150.202 E.03585
M204 S20000
G1 X78.46 Y150.202 F4800
G1 X78.743 Y149.88
M204 S1250
;TYPE:Perimeter
G1 F1200
G1 X79.303 Y150.216 E.04273
G1 X79.804 Y150.723 E.04664
G1 X80.174 Y151.347 E.04747
G1 X80.378 Y152.07 E.04915
G1 X80.397 Y152.78 E.04647
G1 X80.239 Y153.489 E.04753
G1 X79.894 Y154.156 E.04914
G1 X79.422 Y154.687 E.04649
G1 X78.82 Y155.096 E.04762
G1 X78.112 Y155.345 E.04911
G1 X77.388 Y155.408 E.04755
G1 X76.889 Y155.333 E.03302
G1 X76.52 Y155.242 E.02487
G1 X76.013 Y155.001 E.03673
G1 X75.55 Y154.647 E.03813
G1 X75.33 Y154.441 E.01972
G1 X74.986 Y153.965 E.03843
G1 X74.705 Y153.306 E.04688
G1 X74.591 Y152.588 E.04757
G1 X74.666 Y151.845 E.04886
G1 X74.911 Y151.173 E.0468
G1 X75.32 Y150.573 E.04751
G1 X75.883 Y150.081 E.04892
G1 X76.522 Y149.759 E.04682
G1 X77.234 Y149.603 E.04769
G1 X77.961 Y149.629 E.0476
G1 X78.638 Y149.824 E.0461
;WIPE_START
G1 F3840
G1 X78.743 Y149.88 E-.07066
G1 X79.303 Y150.216 E-.38776
G1 X79.707 Y150.625 E-.34158
;WIPE_END
M204 S20000
G1 Z1 F4800
G1 X79.823 Y76.592
G1 Z.4
G1 E.8 F2400
M204 S1250
;TYPE:External perimeter
G1 F1200
G1 X79.976 Y77.171 E.03919
G1 X79.982 Y77.782 E.03998
G1 X79.837 Y78.388 E.04077
G1 X79.532 Y78.955 E.04213
G1 X79.12 Y79.404 E.03987
G1 X78.596 Y79.746 E.04094
G1 X77.988 Y79.952 E.042
G1 X77.363 Y79.997 E.041
G1 X76.76 Y79.886 E.04012
G1 X76.191 Y79.628 E.04088
G1 X75.702 Y79.234 E.04109
G1 X75.321 Y78.72 E.04186
G1 X75.09 Y78.154 E.04
G1 X75.002 Y77.481 E.04441
G1 X75.077 Y76.898 E.03846
G1 X75.304 Y76.314 E.041
G1 X75.656 Y75.816 E.0399
G1 X76.147 Y75.402 E.04202
G1 X76.712 Y75.131 E.041
G1 X77.311 Y75.01 E.03998
G1 X77.949 Y75.043 E.0418
G1 X78.549 Y75.234 E.0412
G1 X79.08 Y75.563 E.04087
G1 X79.502 Y76.006 E.04003
G1 X79.774 Y76.483 E.03593
M204 S20000
G1 X79.774 Y76.483 F4800
G1 X80.201 Y76.443
M204 S1250
;TYPE:Perimeter
G1 F1200
G1 X80.378 Y77.069 E.04257
G1 X80.397 Y77.782 E.04667
G1 X80.239 Y78.488 E.04734
G1 X79.894 Y79.155 E.04914
G1 X79.422 Y79.687 E.04653
G1 X78.819 Y80.095 E.04764
G1 X78.116 Y80.346 E.04884
G1 X77.388 Y80.41 E.04782
G1 X76.68 Y80.293 E.04695
G1 X76.016 Y80.003 E.04741
G1 X75.439 Y79.555 E.0478
G1 X74.986 Y78.963 E.04877
G1 X74.705 Y78.307 E.04669
G1 X74.591 Y77.588 E.04763
G1 X74.591 Y77.428 E.01047
G1 X74.666 Y76.845 E.03846
G1 X74.919 Y76.16 E.04778
G1 X75.321 Y75.573 E.04655
G1 X75.883 Y75.083 E.04879
G1 X76.537 Y74.756 E.04784
G1 X77.234 Y74.603 E.04669
G1 X77.974 Y74.629 E.04845
G1 X78.679 Y74.84 E.04815
G1 X79.302 Y75.213 E.04751
G1 X79.805 Y75.724 E.04692
G1 X80.163 Y76.33 E.04605
;WIPE_START
G1 F3840
G1 X80.201 Y76.443 E-.07079
G1 X80.378 Y77.069 E-.38626
G1 X80.393 Y77.647 E-.34295
;WIPE_END
M204 S20000
G1 Z1 F4800
G1 X159.198 Y67.754
G1 Z.4
G1 E.8 F2400
M204 S1250
;TYPE:External perimeter
G1 F1200
G1 X160.08 Y68.378 E.07069
G1 X160.895 Y69.107 E.07155
G1 X161.624 Y69.922 E.07155
G1 X162.256 Y70.813 E.07148
G1 X162.786 Y71.771 E.07164
G1 X163.204 Y72.781 E.07152
G1 X163.506 Y73.832 E.07155
G1 X163.646 Y74.658 E.05482
G1 X163.707 Y75.227 E.03744
G1 X163.75 Y76.132 E.05928
G1 X163.75 Y153.995 E5.09467
G1 X163.689 Y155.092 E.07189
G1 X163.506 Y156.17 E.07154
G1 X163.204 Y157.221 E.07155
G1 X162.786 Y158.231 E.07152
G1 X162.256 Y159.187 E.07152
G1 X161.624 Y160.08 E.07158
G1 X160.895 Y160.895 E.07155
G1 X160.08 Y161.624 E.07155
G1 X159.187 Y162.256 E.07158
G1 X158.231 Y162.786 E.07152
G1 X157.221 Y163.204 E.07152
G1 X156.17 Y163.506 E.07155
G1 X155.092 Y163.689 E.07154
G1 X153.995 Y163.75 E.07189
G1 X76.009 Y163.75 E5.10272
G1 X74.91 Y163.689 E.07202
G1 X73.832 Y163.506 E.07154
G1 X72.781 Y163.204 E.07155
G1 X71.771 Y162.786 E.07152
G1 X70.813 Y162.256 E.07164
G1 X69.922 Y161.624 E.07148
G1 X69.107 Y160.895 E.07155
G1 X68.378 Y160.08 E.07155
G1 X67.746 Y159.187 E.07158
G1 X67.218 Y158.231 E.07146
G1 X66.798 Y157.221 E.07157
G1 X66.496 Y156.17 E.07155
G1 X66.313 Y155.092 E.07154
G1 X66.252 Y153.995 E.07189
G1 X66.252 Y76.009 E5.10272
G1 X66.313 Y74.91 E.07202
G1 X66.496 Y73.832 E.07154
G1 X66.798 Y72.781 E.07155
G1 X67.218 Y71.771 E.07157
G1 X67.746 Y70.813 E.07157
G1 X68.378 Y69.922 E.07148
G1 X69.107 Y69.107 E.07155
G1 X69.922 Y68.378 E.07155
G1 X70.813 Y67.746 E.07148
G1 X71.771 Y67.218 E.07157
G1 X72.781 Y66.798 E.07157
G1 X73.832 Y66.496 E.07155
G1 X74.91 Y66.313 E.07154
G1 X76.009 Y66.252 E.07202
G1 X154.022 Y66.252 E5.10448
G1 X155.092 Y66.313 E.07013
G1 X156.17 Y66.496 E.07154
G1 X157.221 Y66.798 E.07155
G1 X158.231 Y67.218 E.07157
G1 X159.094 Y67.695 E.06452
M204 S20000
G1 X159.094 Y67.695 F4800
G1 X158.996 Y68.119
M204 S1250
;TYPE:Perimeter
G1 F1200
G1 X159.821 Y68.702 E.0661
G1 X160.602 Y69.4 E.06854
G1 X161.3 Y70.181 E.06854
G1 X161.905 Y71.034 E.06843
G1 X162.413 Y71.951 E.06859
G1 X162.812 Y72.917 E.06839
G1 X163.101 Y73.924 E.06855
G1 X163.238 Y74.727 E.0533
G1 X163.293 Y75.25 E.03441
G1 X163.336 Y76.132 E.05778
G1 X163.336 Y153.984 E5.09395
G1 X163.277 Y155.046 E.0696
G1 X163.101 Y156.078 E.0685
G1 X162.812 Y157.085 E.06855
G1 X162.413 Y158.051 E.06839
G1 X161.905 Y158.966 E.06848
G1 X161.3 Y159.821 E.06853
G1 X160.602 Y160.602 E.06854
G1 X159.821 Y161.3 E.06854
G1 X158.966 Y161.905 E.06853
G1 X158.051 Y162.413 E.06848
G1 X157.085 Y162.812 E.06839
G1 X156.078 Y163.101 E.06855
G1 X155.046 Y163.277 E.0685
G1 X153.984 Y163.336 E.0696
G1 X76.02 Y163.336 E5.10128
G1 X74.956 Y163.277 E.06973
G1 X73.924 Y163.101 E.0685
G1 X72.917 Y162.812 E.06855
G1 X71.951 Y162.413 E.06839
G1 X71.034 Y161.905 E.06859
G1 X70.181 Y161.3 E.06843
G1 X69.4 Y160.602 E.06854
G1 X68.702 Y159.821 E.06854
G1 X68.097 Y158.966 E.06853
G1 X67.591 Y158.051 E.06841
G1 X67.19 Y157.084 E.0685
G1 X66.901 Y156.078 E.06849
G1 X66.725 Y155.046 E.0685
G1 X66.666 Y153.984 E.0696
G1 X66.666 Y76.02 E5.10128
G1 X66.725 Y74.956 E.06973
G1 X66.901 Y73.924 E.0685
G1 X67.19 Y72.918 E.06849
G1 X67.591 Y71.951 E.0685
G1 X68.097 Y71.034 E.06853
G1 X68.702 Y70.181 E.06843
G1 X69.4 Y69.4 E.06854
G1 X70.181 Y68.702 E.06854
G1 X71.034 Y68.097 E.06843
G1 X71.951 Y67.591 E.06853
G1 X72.918 Y67.19 E.0685
G1 X73.924 Y66.901 E.06849
G1 X74.956 Y66.725 E.0685
G1 X76.02 Y66.666 E.06973
G1 X154.01 Y66.666 E5.10298
G1 X155.045 Y66.725 E.06783
G1 X156.078 Y66.901 E.06856
G1 X157.084 Y67.19 E.06849
G1 X158.051 Y67.591 E.0685
G1 X158.893 Y68.057 E.06297
M204 S20000
G1 X158.893 Y68.057 F4800
G1 X159.09 Y68.388
M204 S1250
;TYPE:Solid infill
;WIDTH:0.500962
G1 F1200
G1 X160.355 Y69.653 E.11733
G1 X161.024 Y70.401 E.06581
G1 X161.606 Y71.222 E.066
G1 X161.941 Y71.826 E.0453
G1 X158.18 Y68.065 E.34883
G1 X157.898 Y67.909 E.02114
G1 X157.11 Y67.582 E.05595
G1 X162.421 Y72.893 E.49259
G1 X162.479 Y73.033 E.00994
G1 X162.683 Y73.742 E.04838
G1 X156.26 Y67.319 E.59572
G1 X156 Y67.244 E.01775
G1 X155.516 Y67.162 E.03219
G1 X162.84 Y74.486 E.67929
G1 X162.927 Y74.996 E.03393
G1 X162.936 Y75.169 E.01136
G1 X154.832 Y67.065 E.75163
G1 X154.21 Y67.03 E.04086
G1 X162.971 Y75.791 E.81257
G1 X162.984 Y76.391 E.03936
G1 X153.617 Y67.024 E.86878
G1 X153.03 Y67.024 E.0385
G1 X162.984 Y76.978 E.92322
G1 X162.984 Y77.565 E.0385
G1 X152.443 Y67.024 E.97766
G1 X151.856 Y67.024 E.0385
G1 X162.984 Y78.152 E1.03211
G1 X162.984 Y78.739 E.0385
G1 X151.268 Y67.024 E1.0866
G1 X150.681 Y67.024 E.0385
G1 X162.984 Y79.326 E1.14104
G1 X162.984 Y79.913 E.0385
G1 X150.094 Y67.024 E1.19548
G1 X149.507 Y67.024 E.0385
G1 X162.984 Y80.5 E1.24993
G1 X162.984 Y81.087 E.0385
G1 X148.92 Y67.024 E1.30437
G1 X148.333 Y67.024 E.0385
G1 X162.984 Y81.675 E1.35886
G1 X162.984 Y82.262 E.0385
G1 X147.746 Y67.024 E1.4133
G1 X147.159 Y67.023 E.0385
G1 X162.984 Y82.849 E1.46779
G1 X162.984 Y83.436 E.0385
G1 X146.571 Y67.023 E1.52228
G1 X145.984 Y67.023 E.0385
G1 X153.308 Y74.347 E.67929
G1 X153.007 Y74.278 E.02025
G1 X152.629 Y74.255 E.02484
G1 X145.397 Y67.023 E.67076
G1 X144.81 Y67.023 E.0385
G1 X152.064 Y74.278 E.67284
G1 X151.575 Y74.375 E.0327
G1 X144.223 Y67.023 E.68189
G1 X143.636 Y67.023 E.0385
G1 X151.158 Y74.545 E.69765
G1 X150.767 Y74.742 E.02871
G1 X143.049 Y67.023 E.71588
G1 X142.462 Y67.023 E.0385
G1 X150.435 Y74.996 E.73948
G1 X150.124 Y75.273 E.02731
G1 X141.875 Y67.023 E.76513
G1 X141.287 Y67.023 E.03856
G1 X149.869 Y75.604 E.79592
G1 X149.629 Y75.952 E.02772
G1 X140.7 Y67.023 E.82815
G1 X140.113 Y67.023 E.0385
G1 X149.461 Y76.371 E.86701
G1 X149.343 Y76.666 E.02084
G1 X149.323 Y76.82 E.01018
G1 X139.526 Y67.023 E.90866
G1 X138.939 Y67.023 E.0385
G1 X149.255 Y77.339 E.95679
G1 X149.235 Y77.497 E.01044
G1 X149.287 Y77.958 E.03043
G1 X138.166 Y66.836 E1.0315
;WIPE_START
G1 F3840
G1 X139.119 Y67.789 E-.8
;WIPE_END
M204 S20000
G1 Z1 F4800
G1 X163.17 Y84.209
G1 Z.4
G1 E.8 F2400
M204 S1250
G1 F1200
G1 X155.64 Y76.679 E.6984
G1 X155.724 Y76.989 E.02106
G1 X155.749 Y77.375 E.02537
G1 X162.984 Y84.61 E.67104
G1 X162.984 Y85.197 E.0385
G1 X155.731 Y77.944 E.67271
G1 X155.619 Y78.419 E.03201
G1 X162.984 Y85.784 E.68309
G1 X162.984 Y86.371 E.0385
G1 X155.463 Y78.85 E.69756
G1 X155.253 Y79.228 E.02836
G1 X162.984 Y86.958 E.71699
G1 X162.984 Y87.545 E.0385
G1 X155.006 Y79.568 E.7399
G1 X154.721 Y79.869 E.02719
G1 X162.984 Y88.132 E.76638
G1 X162.984 Y88.719 E.0385
G1 X154.401 Y80.136 E.79606
G1 X154.043 Y80.366 E.02791
G1 X162.984 Y89.306 E.82922
G1 X162.984 Y89.894 E.03856
G1 X153.635 Y80.545 E.86711
G1 X153.186 Y80.683 E.03081
G1 X162.984 Y90.481 E.90875
G1 X162.984 Y91.068 E.0385
G1 X152.658 Y80.741 E.95777
G1 X152.277 Y80.762 E.02503
G1 X152.048 Y80.718 E.01529
G1 X162.984 Y91.655 E1.01434
G1 X162.984 Y92.242 E.0385
G1 X151.233 Y80.491 E1.08989
G1 X150.722 Y80.24 E.03734
G1 X150.124 Y79.74 E.05112
G1 X149.692 Y79.16 E.04743
G1 X149.607 Y79.008 E.01142
G1 X149.512 Y78.77 E.01681
G1 X137.765 Y67.023 E1.08952
G1 X137.178 Y67.023 E.0385
G1 X162.984 Y92.829 E2.39347
G1 X162.984 Y93.416 E.0385
G1 X136.591 Y67.023 E2.44791
G1 X136.003 Y67.023 E.03856
G1 X162.984 Y94.003 E2.5024
G1 X162.984 Y94.59 E.0385
G1 X135.416 Y67.023 E2.55685
G1 X134.829 Y67.023 E.0385
