; generated by PrusaSlicer 2.8.1+win64 on 2024-11-24 at 17:27:08 UTC

; 

; external perimeters extrusion width = 0.42mm
; perimeters extrusion width = 0.45mm
; infill extrusion width = 0.45mm
; solid infill extrusion width = 0.45mm
; top infill extrusion width = 0.42mm
; support material extrusion width = 0.42mm
; first layer extrusion width = 0.50mm

M201 X1000 Y1000 Z1000 E5000 ; sets maximum accelerations, mm/sec^2
M203 X200 Y200 Z12 E120 ; sets maximum feedrates, mm / sec
M204 S1250 T1250 ; sets acceleration (S) and retract acceleration (R), mm/sec^2
M205 X8.00 Y8.00 Z0.40 E1.50 ; sets the jerk limits, mm/sec
M205 S0 T0 ; sets the minimum extruding and travel feed rate, mm/sec
;TYPE:Custom
; Initial setups
G90 ; use absolute coordinates
M83 ; extruder relative mode
M220 S100 ; reset speed factor to 100%
M221 S100 ; reset extrusion rate to 100%

; Set the heating
M190 S0 ; wait for bed to heat up
M104 S205 ; start nozzle heating but don't wait

; Home
G1 Z3 F3000 ; move z up little to prevent scratching of surface
G28 ; home all axes
G1 X3 Y3 F5000 ; move to corner of the bed to avoid ooze over centre

; Wait for final heating
M109 S205 ; wait for the nozzle to heat up
M190 S0 ; wait for the bed to heat up

; Return to prime position, Prime line routine
G92 E0 ; Reset Extruder
G1 Z3 F3000 ; move z up little to prevent scratching of surface
G1 X10 Y.5 Z0.25 F5000.0 ; Move to start position
G1 X100 Y.5 Z0.25 F1500.0 E15 ; Draw the first line
G1 X100 Y.2 Z0.25 F5000.0 ; Move to side a little
G1 X10 Y.2 Z0.25 F1500.0 E30 ; Draw the second line
G92 E0 ; Reset Extruder
M221 S95
G21 ; set units to millimeters
G90 ; use absolute coordinates
M83 ; use relative distances for extrusion
; Filament gcode
M107
;LAYER_CHANGE
;Z:0.4
;HEIGHT:0.4
G1 E-.8 F2400
G1 Z1 F4800
G1 X167.264 Y120.168
G1 Z.4
G1 E.8 F2400
M204 S1250
;TYPE:External perimeter
;WIDTH:0.5
G1 F1200
G1 X167.271 Y120.23 E.00408
G1 X163.477 Y126.811 E.49704
G1 X163.339 Y126.909 E.01107
G1 X163.298 Y126.913 E.0027
G1 X155.703 Y126.908 E.49695
G1 X155.57 Y126.81 E.01081
G1 X151.739 Y120.239 E.49768
G1 X151.72 Y120.072 E.011
G1 X151.739 Y120.03 E.00302
G1 X155.571 Y113.525 E.49399
G1 X155.711 Y113.426 E.01122
G1 X163.299 Y113.423 E.49649
G1 X163.452 Y113.491 E.01096
G1 X167.245 Y120.051 E.49581
M204 S20000
G1 X167.245 Y120.051 F4800
G1 X167.688 Y120.171
M204 S1250
;TYPE:Perimeter
G1 F1200
G1 X167.611 Y120.479 E.02077
G1 X163.833 Y127.022 E.49436
G1 X163.632 Y127.23 E.01893
G1 X163.298 Y127.327 E.02276
G1 X155.749 Y127.327 E.49394
G1 X155.612 Y127.312 E.00902
G1 X155.357 Y127.188 E.01855
G1 X155.164 Y126.936 E.02077
G1 X151.381 Y120.448 E.49141
G1 X151.297 Y120.158 E.01976
G1 X151.351 Y119.88 E.01853
G1 X151.382 Y119.82 E.00442
G1 X155.214 Y113.315 E.49399
G1 X155.411 Y113.109 E.01865
G1 X155.68 Y113.013 E.01869
G1 X155.749 Y113.009 E.00452
G1 X163.299 Y113.009 E.49401
G1 X163.574 Y113.073 E.01847
G1 X163.799 Y113.261 E.01918
G1 X167.611 Y119.857 E.49847
G1 X167.668 Y120.055 E.01348
;WIPE_START
G1 F3840
G1 X167.688 Y120.171 E-.06989
G1 X167.611 Y120.479 E-.1885
G1 X167.155 Y121.269 E-.54161
;WIPE_END
M204 S20000
G1 Z1 F4800
G1 X120.369 Y155.018
G1 Z.4
G1 E.8 F2400
M204 S1250
;TYPE:External perimeter
G1 F1200
G1 X121.064 Y154.723 E.0494
G1 X121.815 Y154.617 E.04963
G1 X122.614 Y154.709 E.05262
G1 X123.342 Y155.002 E.05135
G1 X124.005 Y155.511 E.05469
G1 X124.449 Y156.09 E.04774
G1 X124.755 Y156.81 E.05119
G1 X124.865 Y157.585 E.05122
G1 X124.769 Y158.362 E.05123
G1 X124.476 Y159.088 E.05123
G1 X124.005 Y159.714 E.05126
G1 X123.389 Y160.196 E.05118
G1 X122.668 Y160.502 E.05125
G1 X121.893 Y160.611 E.05121
G1 X121.116 Y160.516 E.05122
G1 X120.39 Y160.223 E.05123
G1 X119.765 Y159.752 E.05121
G1 X119.283 Y159.135 E.05123
G1 X118.977 Y158.415 E.05119
G1 X118.867 Y157.639 E.05128
G1 X118.963 Y156.862 E.05123
G1 X119.256 Y156.136 E.05123
G1 X119.727 Y155.511 E.05121
G1 X120.27 Y155.086 E.04512
M204 S20000
G1 X120.27 Y155.086 F4800
G1 X120.166 Y154.667
M204 S1250
;TYPE:Perimeter
G1 F1200
G1 X120.905 Y154.34 E.05288
G1 X121.761 Y154.206 E.05669
G1 X122.665 Y154.298 E.05946
G1 X123.5 Y154.619 E.05853
G1 X124.219 Y155.144 E.05825
G1 X124.334 Y155.259 E.01064
G1 X124.778 Y155.838 E.04774
G1 X125.138 Y156.652 E.05824
G1 X125.275 Y157.531 E.05821
G1 X125.18 Y158.416 E.05824
G1 X124.859 Y159.247 E.05829
G1 X124.334 Y159.966 E.05825
G1 X123.641 Y160.524 E.05822
G1 X122.827 Y160.884 E.05824
G1 X121.947 Y161.022 E.05828
G1 X121.062 Y160.926 E.05825
G1 X120.232 Y160.605 E.05823
G1 X119.513 Y160.08 E.05825
G1 X119.134 Y159.621 E.03895
G1 X118.873 Y159.247 E.02984
G1 X118.594 Y158.573 E.04773
G1 X118.457 Y157.693 E.05827
G1 X118.552 Y156.808 E.05824
G1 X118.873 Y155.978 E.05823
G1 X119.398 Y155.259 E.05825
G1 X120.062 Y154.724 E.05579
;WIPE_START
G1 F3840
G1 X120.166 Y154.667 E-.07042
G1 X120.905 Y154.34 E-.47982
G1 X121.321 Y154.275 E-.24976
;WIPE_END
M204 S20000
G1 Z1 F4800
G1 X119.272 Y84.11
G1 Z.4
G1 E.8 F2400
M204 S1250
;TYPE:External perimeter
G1 F1200
G1 X118.977 Y83.415 E.0494
G1 X118.867 Y82.639 E.05128
G1 X118.963 Y81.862 E.05123
G1 X119.246 Y81.159 E.04959
G1 X119.725 Y80.513 E.05262
G1 X120.343 Y80.029 E.05136
G1 X121.064 Y79.723 E.05125
G1 X121.815 Y79.617 E.04963
G1 X122.614 Y79.709 E.05262
G1 X123.342 Y80.002 E.05135
G1 X123.967 Y80.473 E.05121
G1 X124.449 Y81.09 E.05123
G1 X124.755 Y81.81 E.05119
G1 X124.865 Y82.585 E.05122
G1 X124.769 Y83.362 E.05123
G1 X124.476 Y84.088 E.05123
G1 X124.005 Y84.714 E.05126
G1 X123.475 Y85.129 E.04404
G1 X123.342 Y85.223 E.01066
G1 X122.668 Y85.502 E.04773
G1 X121.893 Y85.611 E.05121
G1 X121.116 Y85.516 E.05122
G1 X120.39 Y85.223 E.05123
G1 X119.765 Y84.752 E.05121
G1 X119.34 Y84.208 E.04517
M204 S20000
G1 X119.34 Y84.208 F4800
G1 X118.921 Y84.312
M204 S1250
;TYPE:Perimeter
G1 F1200
G1 X118.594 Y83.573 E.05288
G1 X118.457 Y82.693 E.05827
G1 X118.552 Y81.808 E.05824
G1 X118.864 Y81 E.05667
G1 X119.158 Y80.577 E.03371
G1 X119.513 Y80.144 E.03664
G1 X120.091 Y79.7 E.04769
G1 X120.905 Y79.34 E.05824
G1 X121.761 Y79.206 E.05669
G1 X122.665 Y79.298 E.05946
G1 X123.5 Y79.619 E.05853
G1 X124.219 Y80.144 E.05825
G1 X124.778 Y80.838 E.05831
G1 X125.138 Y81.652 E.05824
G1 X125.275 Y82.531 E.05821
G1 X125.18 Y83.416 E.05824
G1 X124.859 Y84.247 E.05829
G1 X124.334 Y84.966 E.05825
G1 X123.727 Y85.458 E.05112
G1 X123.5 Y85.605 E.0177
G1 X122.827 Y85.884 E.04767
G1 X121.947 Y86.022 E.05828
G1 X121.062 Y85.926 E.05825
G1 X120.232 Y85.605 E.05823
G1 X119.513 Y85.08 E.05825
G1 X118.978 Y84.417 E.05574
;WIPE_START
G1 F3840
G1 X118.921 Y84.312 E-.07094
G1 X118.594 Y83.573 E-.47982
G1 X118.529 Y83.158 E-.24924
;WIPE_END
M204 S20000
G1 Z1 F4800
G1 X194.272 Y84.11
G1 Z.4
G1 E.8 F2400
M204 S1250
;TYPE:External perimeter
G1 F1200
G1 X193.977 Y83.415 E.0494
G1 X193.867 Y82.639 E.05128
G1 X193.963 Y81.862 E.05123
G1 X194.246 Y81.159 E.04959
G1 X194.725 Y80.513 E.05262
G1 X195.343 Y80.029 E.05136
G1 X196.064 Y79.723 E.05125
G1 X196.815 Y79.617 E.04963
G1 X197.614 Y79.709 E.05262
G1 X198.342 Y80.002 E.05135
G1 X198.967 Y80.473 E.05121
G1 X199.449 Y81.09 E.05123
G1 X199.755 Y81.81 E.05119
G1 X199.865 Y82.585 E.05122
G1 X199.769 Y83.362 E.05123
G1 X199.476 Y84.088 E.05123
G1 X199.005 Y84.714 E.05126
G1 X198.389 Y85.196 E.05118
G1 X197.668 Y85.502 E.05125
G1 X196.864 Y85.613 E.05311
G1 X196.116 Y85.516 E.04935
G1 X195.39 Y85.223 E.05123
G1 X194.765 Y84.752 E.05121
G1 X194.34 Y84.208 E.04517
M204 S20000
G1 X194.34 Y84.208 F4800
G1 X193.921 Y84.312
M204 S1250
;TYPE:Perimeter
G1 F1200
G1 X193.594 Y83.573 E.05288
G1 X193.457 Y82.693 E.05827
G1 X193.552 Y81.808 E.05824
G1 X193.864 Y81 E.05667
G1 X194.395 Y80.263 E.05944
G1 X195.091 Y79.7 E.05857
G1 X195.905 Y79.34 E.05824
G1 X196.761 Y79.206 E.05669
G1 X197.665 Y79.298 E.05946
G1 X198.5 Y79.619 E.05853
G1 X199.219 Y80.144 E.05825
G1 X199.598 Y80.603 E.03895
G1 X199.859 Y80.978 E.02989
G1 X200.138 Y81.652 E.04773
G1 X200.275 Y82.531 E.05821
G1 X200.18 Y83.416 E.05824
G1 X199.859 Y84.247 E.05829
G1 X199.334 Y84.966 E.05825
G1 X198.641 Y85.524 E.05822
G1 X197.827 Y85.884 E.05824
G1 X196.861 Y86.027 E.0639
G1 X196.062 Y85.926 E.0527
G1 X195.232 Y85.605 E.05823
G1 X194.513 Y85.08 E.05825
G1 X193.978 Y84.417 E.05574
;WIPE_START
G1 F3840
G1 X193.921 Y84.312 E-.07094
G1 X193.594 Y83.573 E-.47982
G1 X193.529 Y83.158 E-.24924
;WIPE_END
M204 S20000
G1 Z1 F4800
G1 X198.364 Y160.207
G1 Z.4
G1 E.8 F2400
M204 S1250
;TYPE:External perimeter
G1 F1200
G1 X198.342 Y160.223 E.00178
G1 X197.668 Y160.502 E.04773
G1 X196.893 Y160.611 E.05121
G1 X196.116 Y160.516 E.05122
G1 X195.39 Y160.223 E.05123
G1 X194.765 Y159.752 E.05121
G1 X194.283 Y159.135 E.05123
G1 X193.977 Y158.415 E.05119
G1 X193.867 Y157.639 E.05128
G1 X193.963 Y156.862 E.05123
G1 X194.256 Y156.136 E.05123
G1 X194.727 Y155.511 E.05121
G1 X195.343 Y155.029 E.05118
G1 X196.064 Y154.723 E.05125
G1 X196.815 Y154.617 E.04963
G1 X197.614 Y154.709 E.05262
G1 X198.342 Y155.002 E.05135
G1 X198.967 Y155.473 E.05121
G1 X199.449 Y156.09 E.05123
G1 X199.755 Y156.81 E.05119
G1 X199.865 Y157.585 E.05122
G1 X199.769 Y158.362 E.05123
G1 X199.476 Y159.088 E.05123
G1 X199.005 Y159.714 E.05126
G1 X198.623 Y160.016 E.03186
G1 X198.461 Y160.135 E.01315
M204 S20000
G1 X198.461 Y160.135 F4800
G1 X198.567 Y160.559
M204 S1250
;TYPE:Perimeter
G1 F1200
G1 X198.5 Y160.605 E.00532
G1 X197.827 Y160.884 E.04767
G1 X196.947 Y161.022 E.05828
G1 X196.062 Y160.926 E.05825
G1 X195.232 Y160.605 E.05823
G1 X194.513 Y160.08 E.05825
G1 X193.954 Y159.387 E.05826
G1 X193.594 Y158.573 E.05824
G1 X193.457 Y157.693 E.05827
G1 X193.552 Y156.808 E.05824
G1 X193.873 Y155.978 E.05823
G1 X194.398 Y155.259 E.05825
G1 X195.091 Y154.7 E.05826
G1 X195.905 Y154.34 E.05824
G1 X196.761 Y154.206 E.05669
G1 X197.665 Y154.298 E.05946
G1 X198.5 Y154.619 E.05853
G1 X199.219 Y155.144 E.05825
G1 X199.778 Y155.838 E.05831
G1 X200.138 Y156.652 E.05824
G1 X200.275 Y157.531 E.05821
G1 X200.18 Y158.416 E.05824
G1 X199.859 Y159.247 E.05829
G1 X199.334 Y159.966 E.05825
G1 X198.875 Y160.345 E.03895
G1 X198.666 Y160.49 E.01664
;WIPE_START
G1 F3840
G1 X198.567 Y160.559 E-.07165
G1 X198.5 Y160.605 E-.04825
G1 X197.827 Y160.884 E-.43257
G1 X197.415 Y160.948 E-.24753
;WIPE_END
M204 S20000
G1 Z1 F4800
G1 X113.176 Y166.303
G1 Z.4
G1 E.8 F2400
M204 S1250
;TYPE:External perimeter
G1 F1200
G1 X111.788 Y164.494 E.14919
G1 X110.916 Y162.388 E.14914
G1 X110.616 Y160.111 E.15027
G1 X110.616 Y80.113 E5.23436
G1 X110.916 Y77.837 E.15021
G1 X111.788 Y75.731 E.14914
G1 X113.176 Y73.922 E.14919
G1 X114.984 Y72.534 E.14914
G1 X117.091 Y71.662 E.1492
G1 X119.367 Y71.362 E.15021
G1 X199.443 Y71.373 E5.23947
G1 X201.642 Y71.662 E.14512
G1 X203.748 Y72.534 E.14914
G1 X205.556 Y73.922 E.14914
G1 X206.944 Y75.731 E.14919
G1 X207.816 Y77.837 E.14914
G1 X208.079 Y79.834 E.13179
G1 X208.116 Y80.395 E.03679
G1 X208.116 Y160.111 E5.21591
G1 X207.816 Y162.388 E.15027
G1 X206.944 Y164.494 E.14914
G1 X205.556 Y166.303 E.14919
G1 X203.748 Y167.69 E.1491
G1 X201.642 Y168.563 E.14917
G1 X199.365 Y168.862 E.15027
G1 X119.367 Y168.862 E5.23436
G1 X117.091 Y168.563 E.1502
G1 X114.984 Y167.69 E.14923
G1 X113.271 Y166.376 E.14126
M204 S20000
G1 X113.271 Y166.376 F4800
G1 X113.471 Y166.007
M204 S1250
;TYPE:Perimeter
G1 F1200
G1 X112.15 Y164.285 E.14201
G1 X111.319 Y162.28 E.14201
G1 X111.03 Y160.084 E.14493
G1 X111.03 Y80.14 E5.23083
G1 X111.319 Y77.945 E.14486
G1 X112.15 Y75.94 E.14201
G1 X113.471 Y74.218 E.14201
G1 X115.193 Y72.896 E.14205
G1 X117.199 Y72.066 E.14205
G1 X119.394 Y71.777 E.14486
G1 X199.415 Y71.787 E5.23587
G1 X201.533 Y72.066 E.13978
G1 X203.539 Y72.896 E.14205
G1 X205.261 Y74.218 E.14205
G1 X206.582 Y75.94 E.14201
G1 X207.413 Y77.945 E.14201
G1 X207.669 Y79.888 E.12823
G1 X207.702 Y80.395 E.03324
G1 X207.702 Y160.084 E5.21414
G1 X207.413 Y162.28 E.14493
G1 X206.582 Y164.285 E.14201
G1 X205.261 Y166.007 E.14201
G1 X203.539 Y167.329 E.14205
G1 X201.533 Y168.159 E.14205
G1 X199.338 Y168.448 E.14486
G1 X119.394 Y168.448 E5.23083
G1 X117.199 Y168.159 E.14486
G1 X115.193 Y167.329 E.14205
G1 X113.566 Y166.08 E.13421
;WIPE_START
G1 F3840
G1 X113.471 Y166.007 E-.07114
G1 X112.724 Y165.033 E-.72886
;WIPE_END
M204 S20000
G1 Z1 F4800
G1 X206.762 Y76.806
G1 Z.4
G1 E.8 F2400
M204 S1250
;TYPE:Solid infill
;WIDTH:0.500961
G1 F1200
G1 X203.017 Y73.061 E.34734
G1 X202.015 Y72.646 E.07113
G1 X206.832 Y77.464 E.44682
G1 X207.07 Y78.037 E.04069
G1 X207.108 Y78.326 E.01912
G1 X201.152 Y72.37 E.55241
G1 X200.476 Y72.281 E.04472
G1 X207.197 Y79.002 E.62336
G1 X207.286 Y79.678 E.04472
G1 X199.8 Y72.192 E.69431
G1 X199.392 Y72.139 E.02698
G1 X199.159 Y72.139 E.01528
G1 X207.35 Y80.329 E.75966
G1 X207.35 Y80.916 E.0385
G1 X198.572 Y72.139 E.8141
G1 X197.985 Y72.139 E.0385
G1 X207.35 Y81.504 E.86859
G1 X207.35 Y82.091 E.0385
G1 X197.398 Y72.138 E.92308
G1 X196.811 Y72.138 E.0385
G1 X207.35 Y82.678 E.97752
G1 X207.35 Y83.265 E.0385
G1 X196.223 Y72.138 E1.03201
G1 X195.636 Y72.138 E.0385
G1 X207.35 Y83.852 E1.08645
G1 X207.35 Y84.439 E.0385
G1 X195.049 Y72.138 E1.1409
G1 X194.462 Y72.138 E.0385
G1 X207.35 Y85.026 E1.19534
G1 X207.35 Y85.613 E.0385
G1 X193.875 Y72.138 E1.24978
G1 X193.288 Y72.138 E.0385
G1 X207.35 Y86.2 E1.30423
G1 X207.35 Y86.787 E.0385
G1 X192.701 Y72.138 E1.35867
G1 X192.113 Y72.138 E.03856
G1 X207.35 Y87.374 E1.41316
G1 X207.35 Y87.961 E.0385
G1 X191.526 Y72.138 E1.4676
G1 X190.939 Y72.138 E.0385
G1 X197.762 Y78.96 E.63278
G1 X197.086 Y78.872 E.04471
G1 X190.352 Y72.138 E.62457
G1 X189.765 Y72.138 E.0385
G1 X196.512 Y78.884 E.62573
G1 X195.993 Y78.953 E.03434
G1 X189.178 Y72.137 E.63213
G1 X188.591 Y72.137 E.0385
G1 X195.557 Y79.104 E.64613
G1 X195.142 Y79.276 E.02946
G1 X188.003 Y72.137 E.66213
G1 X187.416 Y72.137 E.0385
G1 X194.778 Y79.499 E.68281
G1 X194.448 Y79.756 E.02743
G1 X186.829 Y72.137 E.70665
G1 X186.242 Y72.137 E.0385
G1 X194.137 Y80.032 E.73225
G1 X193.885 Y80.367 E.02749
G1 X185.655 Y72.137 E.76332
G1 X185.068 Y72.137 E.0385
G1 X193.632 Y80.701 E.7943
G1 X193.59 Y80.757 E.00459
G1 X193.445 Y81.101 E.02448
G1 X184.481 Y72.137 E.8314
G1 X183.893 Y72.137 E.03856
G1 X193.27 Y81.514 E.8697
G1 X193.204 Y81.754 E.01632
G1 X193.174 Y82.004 E.01651
G1 X183.306 Y72.137 E.91519
G1 X182.719 Y72.137 E.0385
G1 X193.11 Y82.527 E.9637
G1 X193.098 Y82.62 E.00615
G1 X193.171 Y83.176 E.03678
G1 X181.946 Y71.95 E1.04115
;WIPE_START
G1 F3840
G1 X182.899 Y72.903 E-.8
;WIPE_END
M204 S20000
G1 Z1 F4800
G1 X200.22 Y81.418
G1 Z.4
G1 E.8 F2400
M204 S1250
G1 F1200
G1 X207.35 Y88.548 E.6613
G1 X207.35 Y89.135 E.0385
G1 X200.607 Y82.392 E.6254
G1 X200.634 Y82.612 E.01454
G1 X200.59 Y82.963 E.0232
G1 X207.35 Y89.722 E.62693
G1 X207.35 Y90.31 E.03856
G1 X200.525 Y83.485 E.63301
G1 X200.466 Y83.7 E.01462
G1 X200.375 Y83.922 E.01574
G1 X207.35 Y90.897 E.64692
G1 X207.35 Y91.484 E.0385
G1 X200.203 Y84.337 E.66287
G1 X200.063 Y84.595 E.01925
G1 X199.98 Y84.701 E.00883
G1 X207.35 Y92.071 E.68356
G1 X207.35 Y92.658 E.0385
G1 X199.722 Y85.03 E.70748
G1 X199.528 Y85.279 E.0207
G1 X199.446 Y85.341 E.00674
G1 X207.35 Y93.245 E.73308
G1 X207.35 Y93.832 E.0385
G1 X199.114 Y85.596 E.76388
G1 X198.781 Y85.851 E.02751
G1 X207.35 Y94.419 E.79471
G1 X207.35 Y95.006 E.0385
G1 X198.377 Y86.034 E.83218
G1 X197.965 Y86.208 E.02933
G1 X207.35 Y95.593 E.87044
G1 X207.35 Y96.18 E.0385
G1 X197.474 Y86.305 E.91594
G1 X196.951 Y86.369 E.03456
G1 X207.35 Y96.767 E.96444
G1 X207.35 Y97.354 E.0385
G1 X196.087 Y86.091 E1.04462
;WIPE_START
G1 F3840
G1 X197.04 Y87.044 E-.8
;WIPE_END
M204 S20000
G1 Z1 F4800
G1 X207.536 Y98.128
G1 Z.4
G1 E.8 F2400
M204 S1250
G1 F1200
G1 X195.502 Y86.093 E1.11618
G1 X195.089 Y85.928 E.02917
G1 X194.893 Y85.816 E.0148
G1 X194.202 Y85.277 E.05747
G1 X193.651 Y84.57 E.05879
G1 X193.551 Y84.388 E.01362
G1 X193.385 Y83.977 E.02907
G1 X181.545 Y72.136 E1.09819
G1 X180.958 Y72.136 E.0385
G1 X207.35 Y98.528 E2.44781
G1 X207.35 Y99.116 E.03856
G1 X180.371 Y72.136 E2.5023
G1 X179.783 Y72.136 E.03856
G1 X207.35 Y99.703 E2.55679
G1 X207.35 Y100.29 E.0385
G1 X179.196 Y72.136 E2.61124
G1 X178.609 Y72.136 E.0385
G1 X207.35 Y100.877 E2.66568
G1 X207.35 Y101.464 E.0385
G1 X178.022 Y72.136 E2.72012
