; generated by PrusaSlicer 2.8.1+win64 on 2024-11-24 at 17:10:56 UTC

; 

; external perimeters extrusion width = 0.44mm
; perimeters extrusion width = 0.44mm
; infill extrusion width = 0.44mm
; solid infill extrusion width = 0.44mm
; top infill extrusion width = 0.40mm
; support material extrusion width = 0.44mm
; first layer extrusion width = 0.44mm

M73 P0 R36
;TYPE:Custom
;G28 ; home all axes
;G1 Z5 F5000 ; lift nozzle
M109 S205
G28 ;home
G92 E0 ;Reset Extruder
G1 Z4.0 F3000 ;Move Z Axis up
G92 E0 ;Reset Extruder
G1 X3.1 Y20 Z0.28 F5000.0 ;Move to start position
G1 X3.1 Y80.0 Z0.28 F1500.0 E10 ;Draw the first line
G1 X3.4 Y80.0 Z0.28 F5000.0 ;Move to side a little
G1 X3.4 Y20 Z0.28 F1500.0 E20 ;Draw the second line
G92 E0 ;Reset Extruder
G1 Z2.0 F3000 ;Move Z Axis up
G21 ; set units to millimeters
G90 ; use absolute coordinates
M82 ; use absolute distances for extrusion
G92 E0
; Filament gcode
M107
;LAYER_CHANGE
;Z:0.3
;HEIGHT:0.3
G1 E-2 F2400
G1 Z.7 F9000
G1 X86.946 Y93.535
G1 Z.3
G1 E0 F2400
;TYPE:Skirt/Brim
;WIDTH:0.44
G1 F1800
G1 X88.682 Y92.158 E.09862
G1 X91.595 Y91.428 E.23228
G1 X143.401 Y91.412 E2.538
G1 X145.581 Y91.808 E2.63661
G1 X147.482 Y92.947 E2.73524
G1 X148.86 Y94.683 E2.83389
G1 X149.59 Y97.6 E2.96772
G1 X149.59 Y137.4 E4.73909
G1 X149.194 Y139.58 E4.8377
G1 X148.054 Y141.481 E4.93635
G1 X146.318 Y142.858 E5.03497
G1 X143.403 Y143.588 E5.16871
G1 X91.597 Y143.588 E7.47443
G1 X89.417 Y143.191 E7.57305
G1 X87.517 Y142.052 E7.67164
G1 X86.14 Y140.316 E7.77026
G1 X85.41 Y137.4 E7.90405
G1 X85.41 Y97.616 E9.67471
G1 X85.806 Y95.436 E9.77332
G1 X86.915 Y93.587 E9.86928
G1 E7.86928 F2400
G92 E0
G1 X86.915 Y93.587 Z.7 F9000
G92 E0
G1 X112.984 Y117.497
G1 Z.3
G1 E2 F2400
;TYPE:External perimeter
;WIDTH:0.44
G1 F420
G1 X113.137 Y116.339 E2.05199
G1 X113.589 Y115.264 E2.10389
G1 X114.27 Y114.376 E2.1537
G1 X115.235 Y113.636 E2.20782
G1 X116.268 Y113.208 E2.25759
G1 X117.424 Y113.049 E2.30952
G1 X118.63 Y113.208 E2.36366
G1 X119.663 Y113.636 E2.41343
G1 X120.593 Y114.342 E2.4654
G1 X121.333 Y115.306 E2.51949
G1 X121.761 Y116.34 E2.5693
G1 X121.92 Y117.496 E2.62123
G1 X121.761 Y118.701 E2.67533
G1 X121.333 Y119.734 E2.7251
G1 X120.627 Y120.664 E2.77707
G1 X119.663 Y121.404 E2.83116
G1 X118.63 Y121.832 E2.88093
G1 X117.473 Y121.991 E2.93291
G1 X116.268 Y121.832 E2.98701
G1 X115.192 Y121.38 E3.03895
G1 X114.305 Y120.699 E3.08872
G1 X113.565 Y119.734 E3.14284
G1 X113.137 Y118.701 E3.19261
G1 X112.979 Y117.556 E3.24405
G1 X113.029 Y117.159 F9000
G1 E1.24405 F2400
G92 E0
G1 Z.7 F9000
G1 X91.967 Y137.03
G1 Z.3
G1 E2 F2400
G1 F1080
G1 X91.967 Y97.97 E3.73844
G1 X143.033 Y97.97 E6.01122
G1 X143.033 Y109.576 E6.52777
M73 P1 R36
G1 X143.033 Y137.03 E7.74966
G1 X92.027 Y137.03 E10.01977
G1 X91.968 Y136.634 F9000
G1 X92.862 Y136.899
;TYPE:Solid infill
;WIDTH:0.441818
G1 F1800
G1 X92.268 Y136.304 E10.05737
G1 X92.268 Y135.771 E10.08121
G1 X93.227 Y136.729 E10.14183
G1 X93.76 Y136.729 E10.16567
G1 X92.268 Y135.237 E10.26003
G1 X92.268 Y134.703 E10.28391
G1 X94.294 Y136.729 E10.41205
G1 X94.828 Y136.729 E10.43593
G1 X92.268 Y134.169 E10.59784
G1 X92.268 Y133.636 E10.62168
G1 X95.362 Y136.729 E10.81733
G1 X95.896 Y136.729 E10.84121
G1 X92.268 Y133.102 E11.07064
G1 X92.268 Y132.568 E11.09452
G1 X96.429 Y136.729 E11.35769
G1 X96.963 Y136.729 E11.38157
G1 X92.268 Y132.034 E11.67851
G1 X92.268 Y131.5 E11.70239
G1 X97.497 Y136.729 E12.03311
G1 X98.031 Y136.729 E12.05699
G1 X92.268 Y130.967 E12.42145
G1 X92.268 Y130.433 E12.44533
G1 X98.564 Y136.729 E12.84353
G1 X99.098 Y136.729 E12.86741
G1 X92.268 Y129.899 E13.29939
G1 X92.268 Y129.365 E13.32327
G1 X99.632 Y136.729 E13.78902
G1 X100.166 Y136.729 E13.8129
G1 X92.268 Y128.832 E14.31239
G1 X92.268 Y128.298 E14.33627
G1 X100.7 Y136.729 E14.86954
G1 X101.233 Y136.729 E14.89338
G1 X92.268 Y127.764 E15.46039
G1 X92.268 Y127.23 E15.48427
G1 X101.767 Y136.729 E16.08505
G1 X102.301 Y136.729 E16.10893
G1 X92.268 Y126.696 E16.74348
G1 X92.268 Y126.163 E16.76732
G1 X102.835 Y136.729 E17.43562
G1 X103.368 Y136.729 E17.45946
G1 X92.268 Y125.629 E18.1615
G1 X92.268 Y125.095 E18.18538
G1 X103.902 Y136.729 E18.92119
G1 X104.436 Y136.729 E18.94507
G1 X92.268 Y124.561 E19.71466
G1 X92.268 Y124.028 E19.7385
G1 X104.97 Y136.729 E20.54183
G1 X105.504 Y136.729 E20.56571
G1 X92.268 Y123.494 E21.40281
G1 X92.268 Y122.96 E21.42669
G1 X106.037 Y136.729 E22.29753
G1 X106.571 Y136.729 E22.32141
G1 X92.268 Y122.426 E23.22603
G1 X92.268 Y121.892 E23.24991
G1 X107.105 Y136.729 E24.1883
G1 X107.639 Y136.729 E24.21218
M73 P1 R35
G1 X92.268 Y121.359 E25.18431
G1 X92.268 Y120.825 E25.20819
G1 X108.172 Y136.729 E26.21407
G1 X108.706 Y136.729 E26.23795
G1 X92.268 Y120.291 E27.2776
G1 X92.268 Y119.757 E27.30148
G1 X109.24 Y136.729 E28.3749
G1 X109.774 Y136.729 E28.39878
G1 X92.268 Y119.224 E29.50595
G1 X92.268 Y118.69 E29.52983
G1 X110.308 Y136.729 E30.67077
G1 X110.841 Y136.729 E30.69461
M73 P2 R35
G1 X92.268 Y118.156 E31.86929
G1 X92.268 Y117.622 E31.89317
G1 X111.375 Y136.729 E33.10163
G1 X111.909 Y136.729 E33.12551
G1 X92.268 Y117.089 E34.36771
G1 X92.268 Y116.555 E34.39159
G1 X112.443 Y136.729 E35.66756
G1 X112.976 Y136.729 E35.6914
G1 X92.268 Y116.021 E37.00111
G1 X92.268 Y115.487 E37.02499
G1 X113.51 Y136.729 E38.36848
G1 X114.044 Y136.729 E38.39236
G1 X92.268 Y114.953 E39.76962
G1 X92.268 Y114.42 E39.79346
G1 X114.578 Y136.729 E41.20446
G1 X115.112 Y136.729 E41.22834
G1 X92.268 Y113.886 E42.67312
G1 X92.268 Y113.352 E42.697
G1 X115.645 Y136.729 E44.17552
G1 X116.179 Y136.729 E44.1994
G1 X92.268 Y112.818 E45.71169
G1 X92.268 Y112.285 E45.73553
G1 X116.713 Y136.729 E47.28157
G1 X117.247 Y136.729 E47.30545
G1 X92.268 Y111.751 E48.88526
G1 X92.268 Y111.217 E48.90914
G1 X117.78 Y136.73 E50.52272
G1 X118.314 Y136.73 E50.5466
G1 X92.268 Y110.683 E52.19396
G1 X92.268 Y110.149 E52.21784
G1 X118.848 Y136.73 E53.89897
G1 X119.382 Y136.73 E53.92285
G1 X92.268 Y109.616 E55.63772
G1 X92.268 Y109.082 E55.6616
G1 X119.916 Y136.73 E57.41025
G1 X120.449 Y136.73 E57.43409
G1 X92.268 Y108.548 E59.21648
G1 X92.268 Y108.014 E59.24036
M73 P3 R35
G1 X120.983 Y136.73 E61.05652
G1 X121.517 Y136.73 E61.0804
G1 X92.268 Y107.481 E62.9303
G1 X92.268 Y106.947 E62.95418
G1 X122.051 Y136.73 E64.83786
G1 X122.584 Y136.73 E64.8617
G1 X92.268 Y106.413 E66.77912
G1 X92.268 Y105.879 E66.803
G1 X123.118 Y136.73 E68.75419
G1 X123.652 Y136.73 E68.77807
G1 X92.268 Y105.345 E70.76304
G1 X92.268 Y104.812 E70.78688
G1 X124.186 Y136.73 E72.80559
G1 X124.719 Y136.73 E72.82943
G1 X92.268 Y104.278 E74.88188
G1 X92.268 Y103.744 E74.90576
G1 X125.253 Y136.73 E76.99199
G1 X125.787 Y136.73 E77.01587
G1 X92.268 Y103.21 E79.13587
G1 X92.268 Y102.677 E79.15971
G1 X126.321 Y136.73 E81.31345
G1 X126.855 Y136.73 E81.33733
G1 X92.268 Y102.143 E83.52485
G1 X92.268 Y101.609 E83.54873
G1 X127.388 Y136.73 E85.76999
G1 X127.922 Y136.73 E85.79387
G1 X92.268 Y101.075 E88.0489
G1 X92.268 Y100.541 E88.07278
G1 X128.456 Y136.73 E90.36159
G1 X128.99 Y136.73 E90.38547
M73 P4 R35
G1 X92.268 Y100.008 E92.70802
G1 X92.268 Y99.474 E92.7319
G1 X129.693 Y136.899 E95.09891
G1 E93.09891 F2400
G92 E0
G1 X129.693 Y136.899 Z.7 F9000
G1 X142.901 Y136.763
G1 Z.3
G1 E2 F2400
G1 F1800
G1 X121.807 Y115.668 E3.33416
G1 X122.06 Y116.284 E3.36394
G1 X122.086 Y116.481 E3.37283
G1 X142.334 Y136.73 E4.65348
G1 X141.8 Y136.73 E4.67736
G1 X122.167 Y117.096 E5.91912
G1 X122.223 Y117.52 E5.93825
G1 X122.203 Y117.666 E5.94484
G1 X141.267 Y136.73 E7.15058
G1 X140.733 Y136.73 E7.17446
G1 X122.141 Y118.138 E8.35034
G1 X122.079 Y118.61 E8.37163
G1 X140.199 Y136.73 E9.51766
G1 X139.665 Y136.73 E9.54154
G1 X121.953 Y119.017 E10.6618
G1 X121.797 Y119.395 E10.68009
M73 P4 R34
G1 X139.131 Y136.73 E11.77644
G1 X138.598 Y136.73 E11.80028
G1 X121.642 Y119.774 E12.87269
G1 X121.605 Y119.863 E12.877
G1 X121.429 Y120.095 E12.89002
G1 X138.064 Y136.73 E13.94213
G1 X137.53 Y136.73 E13.96601
G1 X121.199 Y120.398 E14.99892
G1 X120.969 Y120.702 E15.01597
G1 X136.996 Y136.73 E16.02966
G1 X136.463 Y136.73 E16.0535
G1 X120.715 Y120.982 E17.04951
G1 X120.413 Y121.214 E17.06654
G1 X135.929 Y136.73 E18.04788
G1 X135.395 Y136.73 E18.07176
G1 X120.111 Y121.446 E19.03842
G1 X119.799 Y121.667 E19.05552
G1 X134.861 Y136.73 E20.00817
G1 X134.327 Y136.73 E20.03205
G1 X119.423 Y121.825 E20.97471
G1 X119.047 Y121.983 E20.99295
G1 X133.794 Y136.73 E21.92565
G1 X133.26 Y136.73 E21.94953
G1 X118.656 Y122.126 E22.87319
G1 X118.188 Y122.191 E22.89432
G1 X132.726 Y136.73 E23.81383
G1 X132.192 Y136.73 E23.83771
G1 X117.719 Y122.257 E24.75308
G1 X117.449 Y122.294 E24.76527
M73 P5 R34
G1 X117.187 Y122.258 E24.7771
G1 X131.659 Y136.73 E25.69241
G1 X131.125 Y136.73 E25.71629
G1 X116.567 Y122.171 E26.63707
G1 X116.166 Y122.116 E26.65517
G1 X115.84 Y121.979 E26.67098
G1 X130.591 Y136.73 E27.60393
G1 X130.057 Y136.73 E27.62781
G1 X92.268 Y98.94 E30.01787
G1 X92.268 Y98.406 E30.04175
G1 X112.991 Y119.13 E31.35244
G1 X112.838 Y118.756 E31.37051
G1 X112.79 Y118.395 E31.3868
G1 X92.666 Y98.271 E32.65958
G1 X93.2 Y98.271 E32.68346
G1 X112.709 Y117.78 E33.91734
G1 X112.675 Y117.52 E33.92907
G1 X112.711 Y117.248 E33.94134
G1 X93.733 Y98.271 E35.14161
G1 X94.267 Y98.271 E35.16549
G1 X112.773 Y116.776 E36.3359
G1 X112.835 Y116.305 E36.35715
G1 X94.801 Y98.271 E37.49774
G1 X95.335 Y98.271 E37.52162
G1 X112.986 Y115.922 E38.63799
G1 X113.142 Y115.544 E38.65628
G1 X95.868 Y98.271 E39.74877
G1 X96.402 Y98.271 E39.77265
G1 X113.3 Y115.168 E40.84136
G1 X113.53 Y114.865 E40.85837
G1 X96.936 Y98.271 E41.90789
G1 X97.47 Y98.271 E41.93177
G1 X113.76 Y114.561 E42.96206
G1 X113.99 Y114.257 E42.97911
G1 X98.004 Y98.271 E43.99017
G1 X98.537 Y98.271 E44.01401
G1 X114.265 Y113.998 E45.00872
G1 X114.569 Y113.769 E45.02574
G1 X99.071 Y98.271 E46.00594
G1 X99.605 Y98.271 E46.02982
G1 X114.874 Y113.539 E46.9955
G1 X115.107 Y113.364 E47.00853
G1 X115.196 Y113.327 E47.01284
G1 X100.139 Y98.271 E47.96512
G1 X100.672 Y98.271 E47.98896
G1 X115.575 Y113.173 E48.9315
G1 X115.954 Y113.018 E48.94981
G1 X101.206 Y98.271 E49.88254
G1 X101.74 Y98.271 E49.90642
G1 X116.358 Y112.888 E50.83093
G1 X116.829 Y112.826 E50.85218
G1 X102.274 Y98.271 E51.77274
G1 X102.808 Y98.271 E51.79662
G1 X117.301 Y112.764 E52.71326
G1 X117.433 Y112.747 E52.71921
G1 X117.879 Y112.808 E52.73934
G1 X103.341 Y98.271 E53.65879
G1 X103.875 Y98.271 E53.68267
G1 X118.498 Y112.893 E54.6075
G1 X118.731 Y112.925 E54.61802
M73 P6 R34
G1 X119.304 Y113.165 E54.6458
G1 X104.409 Y98.271 E55.58783
G1 X104.943 Y98.271 E55.61171
G1 X142.732 Y136.06 E58.00174
G1 X142.732 Y135.526 E58.02562
G1 X105.476 Y98.271 E60.38191
G1 X106.01 Y98.271 E60.40579
G1 X142.732 Y134.992 E62.72831
G1 X142.732 Y134.459 E62.75215
G1 X106.544 Y98.271 E65.04092
G1 X107.078 Y98.271 E65.0648
G1 X142.732 Y133.925 E67.3198
G1 X142.732 Y133.391 E67.34368
G1 X107.612 Y98.271 E69.56491
G1 X108.145 Y98.271 E69.58875
G1 X142.732 Y132.857 E71.77623
G1 X142.732 Y132.324 E71.80007
G1 X108.679 Y98.271 E73.95381
G1 X109.213 Y98.271 E73.97769
G1 X142.732 Y131.79 E76.09766
G1 X142.732 Y131.256 E76.12154
G1 X109.747 Y98.271 E78.20773
G1 X110.28 Y98.271 E78.23157
G1 X142.732 Y130.722 E80.28402
G1 X142.732 Y130.188 E80.3079
G1 X110.814 Y98.271 E82.32658
G1 X111.348 Y98.271 E82.35046
G1 X142.732 Y129.655 E84.3354
G1 X142.732 Y129.121 E84.35928
M73 P7 R34
G1 X111.882 Y98.271 E86.31044
G1 X112.416 Y98.271 E86.33432
G1 X142.732 Y128.587 E88.25171
G1 X142.732 Y128.053 E88.27559
G1 X112.949 Y98.271 E90.15924
G1 X113.483 Y98.271 E90.18312
G1 X142.732 Y127.52 E92.03302
G1 X142.732 Y126.986 E92.0569
M73 P7 R33
G1 X114.017 Y98.271 E93.87303
G1 X114.551 Y98.271 E93.89691
G1 X142.732 Y126.452 E95.67927
G1 X142.732 Y125.918 E95.70315
G1 X115.084 Y98.271 E97.45177
G1 X115.618 Y98.271 E97.47565
G1 X142.732 Y125.384 E99.19049
G1 X142.732 Y124.851 E99.21433
G1 X116.152 Y98.271 E100.89543
G1 X116.686 Y98.271 E100.91931
G1 X142.732 Y124.317 E102.56664
G1 X142.732 Y123.783 E102.59052
G1 X117.22 Y98.271 E104.20407
G1 X117.753 Y98.271 E104.22791
G1 X142.732 Y123.249 E105.80772
G1 X142.732 Y122.716 E105.83156
G1 X118.287 Y98.271 E107.37763
G1 X118.821 Y98.271 E107.40151
G1 X142.732 Y122.182 E108.9138
G1 X142.732 Y121.648 E108.93768
G1 X119.355 Y98.271 E110.4162
G1 X119.888 Y98.271 E110.44004
G1 X142.732 Y121.114 E111.88482
G1 X142.732 Y120.58 E111.9087
G1 X120.422 Y98.271 E113.3197
G1 X120.956 Y98.271 E113.34358
M73 P8 R33
G1 X142.732 Y120.047 E114.72084
G1 X142.732 Y119.513 E114.74472
G1 X121.49 Y98.271 E116.08821
G1 X122.024 Y98.271 E116.11209
G1 X142.732 Y118.979 E117.4218
G1 X142.732 Y118.445 E117.44568
G1 X122.557 Y98.271 E118.72165
G1 X123.091 Y98.271 E118.74553
G1 X142.732 Y117.912 E119.98776
G1 X142.732 Y117.378 E120.01164
G1 X123.625 Y98.271 E121.2201
G1 X124.159 Y98.271 E121.24398
G1 X142.732 Y116.844 E122.41866
G1 X142.732 Y116.31 E122.44254
G1 X124.692 Y98.271 E123.58348
G1 X125.226 Y98.271 E123.60736
G1 X142.732 Y115.776 E124.71453
G1 X142.732 Y115.243 E124.73837
G1 X125.76 Y98.271 E125.81179
G1 X126.294 Y98.271 E125.83567
G1 X142.732 Y114.709 E126.87532
G1 X142.732 Y114.175 E126.8992
G1 X126.828 Y98.271 E127.90508
G1 X127.361 Y98.271 E127.92892
G1 X142.732 Y113.641 E128.90105
G1 X142.732 Y113.108 E128.92489
G1 X127.895 Y98.271 E129.86328
G1 X128.429 Y98.271 E129.88716
G1 X142.732 Y112.574 E130.79178
G1 X142.732 Y112.04 E130.81566
G1 X128.963 Y98.271 E131.6865
G1 X129.496 Y98.271 E131.71034
G1 X142.732 Y111.506 E132.54744
G1 X142.732 Y110.972 E132.57132
G1 X130.03 Y98.271 E133.37465
G1 X130.564 Y98.271 E133.39853
G1 X142.732 Y110.439 E134.16812
G1 X142.732 Y109.905 E134.192
G1 X131.098 Y98.271 E134.92781
G1 X131.632 Y98.271 E134.95169
G1 X142.732 Y109.371 E135.65373
G1 X142.732 Y108.837 E135.67761
G1 X132.165 Y98.271 E136.34591
G1 X132.699 Y98.271 E136.36979
G1 X142.732 Y108.304 E137.00434
G1 X142.732 Y107.77 E137.02822
G1 X133.233 Y98.271 E137.629
G1 X133.767 Y98.271 E137.65288
G1 X142.732 Y107.236 E138.21989
G1 X142.732 Y106.702 E138.24377
G1 X134.3 Y98.271 E138.77704
G1 X134.834 Y98.271 E138.80092
G1 X142.732 Y106.168 E139.30041
G1 X142.732 Y105.635 E139.32425
G1 X135.368 Y98.271 E139.79
G1 X135.902 Y98.271 E139.81388
G1 X142.732 Y105.101 E140.24586
G1 X142.732 Y104.567 E140.26974
G1 X136.435 Y98.271 E140.66797
G1 X136.969 Y98.271 E140.69185
G1 X142.732 Y104.033 E141.05631
G1 X142.732 Y103.5 E141.08015
G1 X137.503 Y98.271 E141.41087
G1 X138.037 Y98.271 E141.43475
G1 X142.732 Y102.966 E141.73169
G1 X142.732 Y102.432 E141.75557
G1 X138.571 Y98.271 E142.01874
G1 X139.104 Y98.271 E142.04258
M73 P9 R33
G1 X142.732 Y101.898 E142.27201
G1 X142.732 Y101.365 E142.29585
G1 X139.638 Y98.271 E142.49154
G1 X140.172 Y98.271 E142.51542
G1 X142.732 Y100.831 E142.67733
G1 X142.732 Y100.297 E142.70121
G1 X140.706 Y98.271 E142.82935
G1 X141.239 Y98.271 E142.85319
G1 X142.732 Y99.763 E142.94759
G1 X142.732 Y99.229 E142.97147
G1 X141.773 Y98.271 E143.03209
G1 X142.307 Y98.271 E143.05597
G1 X142.901 Y98.865 E143.09354
M106 S96.9
;LAYER_CHANGE
;Z:0.6
;HEIGHT:0.3
G1 Z.6 F9000
M104 S210 ; set temperature
G1 E141.09354 F2400
G92 E0
G1 X142.901 Y98.865 Z1 F9000
G1 X121.765 Y117.52
G1 Z.6
G1 E2 F2400
;TYPE:External perimeter
;WIDTH:0.44
G1 F2100
G1 X121.615 Y118.662 E2.05126
G1 X121.202 Y119.659 E2.09929
G1 X120.52 Y120.557 E2.14948
G1 X119.587 Y121.273 E2.20182
G1 X118.59 Y121.686 E2.24985
G1 X117.473 Y121.84 E2.30003
G1 X116.307 Y121.686 E2.35238
G1 X115.268 Y121.249 E2.40255
G1 X114.412 Y120.592 E2.45058
G1 X113.696 Y119.659 E2.50292
G1 X113.283 Y118.662 E2.55095
G1 X113.129 Y117.545 E2.60113
G1 X113.283 Y116.379 E2.65348
G1 X113.72 Y115.339 E2.70369
G1 X114.377 Y114.483 E2.75172
G1 X115.31 Y113.767 E2.80406
G1 X116.307 Y113.354 E2.85209
G1 X117.424 Y113.201 E2.90227
G1 X118.59 Y113.354 E2.95461
G1 X119.587 Y113.767 E3.00264
G1 X120.486 Y114.449 E3.05286
G1 X121.202 Y115.382 E3.1052
G1 X121.615 Y116.379 E3.15323
G1 X121.763 Y117.46 E3.20179
G1 X121.719 Y117.858 F9000
G1 X122.096 Y117.104
;TYPE:Perimeter
G1 F2100
G1 X122.141 Y117.447 E3.21719
G1 X122.141 Y117.594 E3.22373
G1 X122 Y118.664 E3.27176
G1 X121.962 Y118.806 E3.2783
G1 X121.549 Y119.803 E3.32633
