; generated by PrusaSlicer 2.8.1+win64 on 2024-11-15 at 07:17:26 UTC

; 

; external perimeters extrusion width = 0.44mm
; perimeters extrusion width = 0.44mm
; infill extrusion width = 0.44mm
; solid infill extrusion width = 0.44mm
; top infill extrusion width = 0.40mm
; first layer extrusion width = 0.44mm

; external perimeters extrusion width = 0.44mm
; perimeters extrusion width = 0.44mm
; infill extrusion width = 0.44mm
; solid infill extrusion width = 0.44mm
; top infill extrusion width = 0.40mm
; first layer extrusion width = 0.44mm

M73 P0 R49
;TYPE:Custom
;G28 ; home all axes
;G1 Z5 F5000 ; lift nozzle
M109 S205
G28 ;home
G92 E0 ;Reset Extruder
G1 Z4.0 F3000 ;Move Z Axis up
G92 E0 ;Reset Extruder
G1 X3.1 Y20 Z0.28 F5000.0 ;Move to start position
G1 X3.1 Y80.0 Z0.28 F1500.0 E10 ;Draw the first line
G1 X3.4 Y80.0 Z0.28 F5000.0 ;Move to side a little
G1 X3.4 Y20 Z0.28 F1500.0 E20 ;Draw the second line
G92 E0 ;Reset Extruder
G1 Z2.0 F3000 ;Move Z Axis up
G21 ; set units to millimeters
G90 ; use absolute coordinates
M82 ; use absolute distances for extrusion
G92 E0
; Filament gcode
M107
;LAYER_CHANGE
;Z:0.3
;HEIGHT:0.3
G1 E-2 F2400
G1 Z.7 F9000
G1 X102.12 Y79.275
G1 Z.3
G1 E0 F2400
;TYPE:Skirt/Brim
;WIDTH:0.44
G1 F1800
G1 X103.3 Y77.989 E.07768
G1 X104.481 Y76.943 E.14789
G1 X105.794 Y75.985 E.22023
G1 X107.57 Y74.959 E.31152
G1 X109.056 Y74.301 E.38385
G1 X111.522 Y73.557 E.49849
G1 X112.857 Y73.35 E.55862
G1 X117.562 Y73.35 E.76802
G1 X118.897 Y73.557 E.82815
G1 X120.298 Y73.932 E.8927
G1 X121.594 Y74.394 E.95394
G1 X123.448 Y75.274 E1.04528
G1 X139.429 Y84.494 E1.86643
G1 X140.79 Y85.383 E1.93878
G1 X142.379 Y86.68 E2.03007
G1 X143.404 Y87.706 E2.09462
G1 X144.251 Y88.759 E2.15477
G1 X146.27 Y92.165 E2.33099
G1 X146.841 Y93.39 E2.39114
G1 X147.365 Y95.055 E2.46883
G1 X147.716 Y96.848 E2.55015
G1 X147.881 Y98.893 E2.64146
G1 X147.822 Y100.718 E2.72273
G1 X147.648 Y102.083 E2.78397
G1 X147.301 Y103.67 E2.85627
G1 X146.841 Y105.095 E2.92291
G1 X146.27 Y106.32 E2.98306
G1 X144.663 Y109.103 E3.12609
G1 X143.888 Y110.21 E3.18623
G1 X142.379 Y111.805 E3.28395
G1 X140.588 Y113.248 E3.38632
G1 X139.429 Y113.99 E3.44757
G1 X123.666 Y123.091 E4.25767
G1 X122.217 Y123.826 E4.32998
G1 X120.06 Y124.627 E4.43239
G1 X118.162 Y125.062 E4.51905
G1 X116.816 Y125.18 E4.57919
G1 X112.857 Y125.135 E4.7554
G1 X111.522 Y124.928 E4.81553
G1 X110.552 Y124.683 E4.86006
G1 X108.202 Y123.826 E4.97139
G1 X106.365 Y122.861 E5.06374
G1 X104.481 Y121.542 E5.1661
G1 X103.124 Y120.32 E5.24738
G1 X101.756 Y118.726 E5.34087
G1 X99.738 Y115.32 E5.51707
G1 X99.167 Y114.095 E5.57722
G1 X98.707 Y112.67 E5.64386
G1 X98.404 Y111.328 E5.70509
G1 X98.211 Y109.966 E5.76631
G1 X98.127 Y108.592 E5.82758
G1 X98.122 Y90.142 E6.64873
G1 X98.185 Y88.767 E6.70999
G1 X98.359 Y87.402 E6.77123
G1 X98.707 Y85.815 E6.84354
G1 X99.167 Y84.39 E6.91018
G1 X99.738 Y83.165 E6.97033
G1 X101.344 Y80.382 E7.11334
G1 X102.085 Y79.324 E7.17083
G1 E5.17083 F2400
G92 E0
G1 X102.085 Y79.324 Z.7 F9000
G1 X107.195 Y83.328
G1 Z.3
G1 E2 F2400
G1 F1800
G1 X108.443 Y82.09 E2.07824
G1 X109.845 Y81.106 E2.15447
G1 X111.366 Y80.369 E2.22969
G1 X113.023 Y79.872 E2.30668
G1 X117.395 Y79.872 E2.50126
G1 X118.234 Y80.088 E2.53982
G1 X119.837 Y80.711 E2.61636
G1 X121.317 Y81.585 E2.69286
G1 X122.729 Y82.782 E2.77525
G1 X123.451 Y83.638 E2.82509
G1 X125.055 Y86.419 E2.96798
G1 X125.493 Y87.691 E3.02786
G1 X125.678 Y88.608 E3.0695
G1 X125.808 Y89.885 E3.12663
G1 X126.985 Y89.358 E3.18403
G1 X128.612 Y88.872 E3.2596
G1 X132.786 Y88.847 E3.44537
G1 X133.862 Y89.1 E3.49457
G1 X135.382 Y89.69 E3.56714
G1 X136.186 Y90.12 E3.60772
G1 X137.576 Y91.099 E3.68339
G1 X138.316 Y91.781 E3.72818
G1 X138.999 Y92.581 E3.775
G1 X140.675 Y95.488 E3.92434
G1 X141.069 Y96.645 E3.97874
G1 X141.359 Y98.4 E4.05791
G1 X141.349 Y100.205 E4.13825
G1 X141.252 Y100.964 E4.17231
G1 X141.104 Y101.708 E4.20607
G1 X140.622 Y103.112 E4.27214
G1 X138.811 Y106.158 E4.42986
G1 X137.512 Y107.439 E4.51106
G1 X136.161 Y108.38 E4.58434
G1 X134.657 Y109.11 E4.65875
G1 X132.791 Y109.637 E4.74505
G1 X128.664 Y109.619 E4.92873
G1 X126.985 Y109.127 E5.0066
G1 X125.789 Y108.591 E5.06493
G1 X125.665 Y109.95 E5.12567
G1 X125.497 Y110.774 E5.1631
G1 X125.034 Y112.111 E5.22607
G1 X123.344 Y114.994 E5.3748
G1 X122.619 Y115.815 E5.42355
G1 X121.935 Y116.429 E5.46446
G1 X121.245 Y116.95 E5.50294
G1 X119.848 Y117.768 E5.57499
G1 X118.19 Y118.409 E5.65411
G1 X117.157 Y118.642 E5.70124
G1 X113.262 Y118.642 E5.87459
G1 X112.16 Y118.389 E5.92491
G1 X110.57 Y117.767 E6.0009
G1 X109.104 Y116.902 E6.07666
G1 X107.776 Y115.791 E6.15372
G1 X106.93 Y114.792 E6.21198
G1 X105.394 Y112.131 E6.34873
G1 X104.933 Y110.818 E6.41066
G1 X104.648 Y109.085 E6.48883
G1 X104.653 Y107.344 E6.56632
G1 X104.904 Y105.777 E6.63695
G1 X105.37 Y104.407 E6.70136
G1 X107.118 Y101.432 E6.85493
G1 X108.429 Y100.101 E6.93808
G1 X109.637 Y99.242 E7.00405
G1 X108.444 Y98.396 E7.06914
G1 X107.724 Y97.738 E7.11255
G1 X106.97 Y96.848 E7.16447
G1 X105.394 Y94.133 E7.30419
G1 X104.94 Y92.844 E7.36501
G1 X104.648 Y91.084 E7.44441
G1 X104.615 Y90.297 E7.47947
G1 X104.755 Y88.521 E7.55876
G1 X104.904 Y87.776 E7.59257
G1 X105.403 Y86.336 E7.6604
G1 X107.165 Y83.38 E7.81356
G1 X107.165 Y83.38 F9000
G1 X107.484 Y83.57
G1 F1800
G1 X107.485 Y83.568 E7.81366
G1 X108.101 Y82.901 E7.85407
G1 X109.314 Y81.895 E7.92421
G1 X110.782 Y81.032 E8
G1 X112.257 Y80.459 E8.07043
G1 X113.094 Y80.242 E8.10891
G1 X117.325 Y80.242 E8.29722
G1 X118.925 Y80.722 E8.37157
G1 X120.417 Y81.45 E8.44546
G1 X121.753 Y82.393 E8.51824
G1 X122.45 Y83.034 E8.56039
G1 X123.134 Y83.841 E8.60747
G1 X124.706 Y86.558 E8.74718
G1 X125.127 Y87.778 E8.80462
G1 X125.398 Y89.45 E8.88001
G1 X125.44 Y90.527 E8.92798
G1 X127.112 Y89.711 E9.01078
G1 X128.683 Y89.242 E9.08375
G1 X132.722 Y89.218 E9.26352
G1 X133.749 Y89.458 E9.31046
G1 X135.225 Y90.032 E9.38094
G1 X135.989 Y90.44 E9.41949
G1 X137.328 Y91.382 E9.49235
G1 X138.038 Y92.033 E9.53522
G1 X138.702 Y92.812 E9.58078
G1 X140.325 Y95.626 E9.72536
G1 X140.709 Y96.755 E9.77844
G1 X140.901 Y97.706 E9.82162
G1 X141.017 Y99.162 E9.88663
G1 X140.976 Y100.165 E9.93131
G1 X140.738 Y101.622 E9.99702
G1 X140.289 Y102.937 E10.05886
G1 X138.522 Y105.918 E10.21309
G1 X137.89 Y106.6 E10.25447
G1 X136.639 Y107.628 E10.32654
G1 X135.281 Y108.426 E10.39664
G1 X134.513 Y108.762 E10.43395
G1 X132.77 Y109.261 E10.51464
G1 X128.733 Y109.249 E10.69431
G1 X127.112 Y108.774 E10.76949
G1 X125.438 Y107.957 E10.85239
G1 X125.293 Y109.896 E10.93893
G1 X125.132 Y110.687 E10.97486
G1 X124.701 Y111.937 E11.03371
G1 X123.029 Y114.788 E11.18081
G1 X122.345 Y115.557 E11.22662
G1 X121.702 Y116.134 E11.26507
G1 X121.037 Y116.637 E11.30218
G1 X119.678 Y117.433 E11.37228
G1 X118.096 Y118.046 E11.44779
G1 X117.135 Y118.267 E11.49168
G1 X113.284 Y118.267 E11.66308
G1 X112.273 Y118.031 E11.70929
G1 X110.741 Y117.433 E11.78248
G1 X109.327 Y116.599 E11.85554
G1 X108.037 Y115.521 E11.93036
G1 X107.246 Y114.589 E11.98477
G1 X105.728 Y111.959 E12.11992
G1 X105.292 Y110.707 E12.17892
G1 X105.022 Y109.048 E12.25373
G1 X105.028 Y107.367 E12.32855
G1 X105.27 Y105.862 E12.39639
G1 X105.719 Y104.547 E12.45823
G1 X107.411 Y101.668 E12.60686
G1 X108.675 Y100.385 E12.68702
G1 X110.339 Y99.242 E12.77687
G1 X109.325 Y98.597 E12.83036
G1 X107.987 Y97.469 E12.90825
G1 X107.267 Y96.619 E12.95783
G1 X105.729 Y93.96 E13.09454
G1 X105.299 Y92.732 E13.15245
G1 X105.111 Y91.809 E13.19437
G1 X104.99 Y90.289 E13.26223
G1 X105.032 Y89.319 E13.30544
G1 X105.27 Y87.862 E13.37115
G1 X105.735 Y86.511 E13.43474
G1 X107.453 Y83.621 E13.58438
G1 X107.453 Y83.621 F9000
G1 X107.773 Y83.811
G1 F1800
G1 X107.775 Y83.808 E13.58454
G1 X108.358 Y83.175 E13.62284
G1 X109.536 Y82.198 E13.69095
G1 X110.939 Y81.374 E13.76337
G1 X112.372 Y80.817 E13.8318
G1 X113.165 Y80.612 E13.86825
G1 X117.254 Y80.612 E14.05024
G1 X118.019 Y80.808 E14.08539
G1 X119.508 Y81.387 E14.15649
G1 X120.883 Y82.198 E14.22754
G1 X122.171 Y83.286 E14.30258
G1 X122.837 Y84.071 E14.3484
G1 X124.357 Y86.698 E14.48348
G1 X124.768 Y87.888 E14.53951
G1 X125.023 Y89.473 E14.61096
G1 X125.01 Y91.268 E14.69085
G1 X126.514 Y90.38 E14.76859
G1 X127.241 Y90.064 E14.80387
G1 X128.754 Y89.612 E14.87415
G1 X132.701 Y89.594 E15.04982
G1 X133.635 Y89.817 E15.09256
G1 X135.069 Y90.373 E15.16101
G1 X135.792 Y90.76 E15.19751
G1 X137.081 Y91.665 E15.26761
G1 X137.759 Y92.286 E15.30853
G1 X138.405 Y93.043 E15.35282
G1 X139.975 Y95.764 E15.49264
G1 X140.35 Y96.864 E15.54436
G1 X140.529 Y97.757 E15.5849
G1 X140.642 Y99.171 E15.64803
G1 X140.602 Y100.126 E15.69057
G1 X140.372 Y101.537 E15.7542
G1 X139.956 Y102.763 E15.81182
G1 X138.232 Y105.678 E15.96255
G1 X137.634 Y106.326 E16.00179
G1 X136.43 Y107.316 E16.07117
G1 X135.11 Y108.091 E16.1393
G1 X134.37 Y108.415 E16.17525
G1 X132.747 Y108.885 E16.25045
G1 X128.802 Y108.879 E16.42603
G1 X127.991 Y108.677 E16.46323
G1 X126.514 Y108.105 E16.53372
G1 X125.012 Y107.218 E16.61136
G1 X125.053 Y108.185 E16.65444
G1 X124.924 Y109.829 E16.72783
G1 X124.772 Y110.577 E16.7618
G1 X124.367 Y111.764 E16.81762
G1 X122.715 Y114.582 E16.963
G1 X122.073 Y115.298 E17.0058
G1 X121.457 Y115.849 E17.04258
G1 X120.178 Y116.74 E17.11196
G1 X118.782 Y117.415 E17.18097
G1 X118 Y117.682 E17.21775
G1 X117.113 Y117.891 E17.25831
G1 X113.306 Y117.891 E17.42775
G1 X112.387 Y117.673 E17.46979
G1 X110.912 Y117.098 E17.54025
G1 X109.549 Y116.296 E17.61064
G1 X108.298 Y115.251 E17.68319
G1 X107.563 Y114.386 E17.73371
G1 X106.062 Y111.787 E17.86729
G1 X105.651 Y110.596 E17.92337
G1 X105.396 Y109.011 E17.99482
G1 X105.403 Y107.39 E18.06697
G1 X105.636 Y105.948 E18.13198
G1 X106.068 Y104.686 E18.19135
G1 X107.704 Y101.904 E18.33499
G1 X108.317 Y101.216 E18.376
G1 X109.549 Y100.189 E18.44739
G1 X111.178 Y99.243 E18.53123
G1 X110.199 Y98.716 E18.58071
G1 X108.914 Y97.809 E18.65071
G1 X108.265 Y97.217 E18.68981
G1 X107.584 Y96.416 E18.7366
G1 X106.063 Y93.788 E18.87174
G1 X105.658 Y92.621 E18.92672
G1 X105.396 Y91.011 E18.99932
G1 X105.405 Y89.359 E19.07285
G1 X105.636 Y87.948 E19.13649
G1 X106.068 Y86.686 E19.19586
G1 X107.742 Y83.863 E19.34193
G1 X107.742 Y83.863 F9000
G1 X108.062 Y84.052
G1 F1800
G1 X108.065 Y84.048 E19.34215
G1 X108.616 Y83.448 E19.37841
G1 X109.758 Y82.501 E19.44444
G1 X111.095 Y81.715 E19.51347
G1 X112.487 Y81.174 E19.57994
G1 X113.236 Y80.981 E19.61436
G1 X117.183 Y80.981 E19.79003
G1 X118.639 Y81.417 E19.85768
G1 X120.023 Y82.089 E19.92615
G1 X121.258 Y82.959 E19.99339
G1 X121.893 Y83.538 E20.03164
G1 X122.539 Y84.301 E20.07614
G1 X124.022 Y86.87 E20.20816
G1 X124.408 Y87.998 E20.26122
G1 X124.566 Y88.793 E20.29729
G1 X124.678 Y90.209 E20.36051
G1 X124.507 Y92.139 E20.44674
G1 X125.388 Y91.472 E20.49592
G1 X126.684 Y90.715 E20.56272
G1 X127.383 Y90.412 E20.59663
G1 X128.824 Y89.981 E20.66357
G1 X132.679 Y89.97 E20.83514
G1 X133.521 Y90.174 E20.8737
G1 X134.912 Y90.715 E20.94013
G1 X135.596 Y91.08 E20.97464
G1 X136.834 Y91.948 E21.04193
G1 X137.481 Y92.539 E21.08093
G1 X138.108 Y93.273 E21.12389
G1 X139.626 Y95.903 E21.25904
G1 X139.99 Y96.974 E21.30938
G1 X140.157 Y97.807 E21.34719
G1 X140.266 Y99.179 E21.40845
G1 X140.229 Y100.087 E21.4489
G1 X140.006 Y101.451 E21.51041
G1 X139.622 Y102.589 E21.56386
G1 X137.942 Y105.438 E21.71106
G1 X137.377 Y106.052 E21.7482
G1 X136.221 Y107.004 E21.81485
G1 X134.939 Y107.757 E21.88102
G1 X134.227 Y108.068 E21.9156
G1 X132.724 Y108.51 E21.98533
G1 X128.87 Y108.509 E22.15686
G1 X128.089 Y108.315 E22.19268
G1 X126.684 Y107.77 E22.25975
G1 X125.387 Y107.012 E22.32661
G1 X124.514 Y106.35 E22.37537
G1 X124.678 Y108.178 E22.45706
G1 X124.641 Y109.074 E22.49697
G1 X124.413 Y110.468 E22.55984
G1 X124.018 Y111.624 E22.61421
G1 X122.401 Y114.374 E22.75619
G1 X121.801 Y115.039 E22.79605
G1 X121.213 Y115.564 E22.83113
G1 X119.995 Y116.412 E22.89718
G1 X118.652 Y117.062 E22.96359
G1 X117.903 Y117.319 E22.99883
G1 X117.09 Y117.515 E23.03605
G1 X113.329 Y117.515 E23.20344
G1 X112.501 Y117.315 E23.24135
G1 X111.082 Y116.763 E23.30912
G1 X109.771 Y115.992 E23.37681
G1 X108.559 Y114.98 E23.44708
G1 X107.88 Y114.184 E23.49365
G1 X106.397 Y111.615 E23.62567
G1 X106.011 Y110.487 E23.67873
G1 X105.771 Y108.989 E23.74625
G1 X105.778 Y107.414 E23.81635
G1 X106.002 Y106.034 E23.87857
G1 X106.402 Y104.86 E23.93377
G1 X108.018 Y102.111 E24.07569
G1 X108.589 Y101.474 E24.11376
G1 X109.167 Y100.953 E24.14839
G1 X110.409 Y100.081 E24.21593
G1 X112.18 Y99.242 E24.30315
G1 X111.068 Y98.757 E24.35714
G1 X109.758 Y97.984 E24.42484
G1 X108.543 Y96.963 E24.49547
G1 X107.9 Y96.212 E24.53947
G1 X106.397 Y93.615 E24.67302
G1 X106.017 Y92.511 E24.72498
G1 X105.77 Y90.975 E24.79422
G1 X105.779 Y89.398 E24.86441
G1 X106.002 Y88.034 E24.92592
G1 X106.402 Y86.86 E24.98112
G1 X108.032 Y84.103 E25.12367
G1 X108.032 Y84.103 F9000
G1 X108.352 Y84.292
G1 F1800
G1 X108.355 Y84.287 E25.12393
G1 X108.874 Y83.722 E25.15808
G1 X109.98 Y82.804 E25.22205
M73 P1 R49
G1 X111.252 Y82.056 E25.28773
G1 X112.602 Y81.532 E25.35218
G1 X113.306 Y81.351 E25.38453
G1 X117.113 Y81.351 E25.55397
G1 X117.817 Y81.532 E25.58632
G1 X119.18 Y82.063 E25.65142
G1 X119.825 Y82.409 E25.684
G1 X121.012 Y83.242 E25.74854
G1 X121.615 Y83.791 E25.78483
G1 X122.223 Y84.504 E25.82653
G1 X123.688 Y87.041 E25.95692
G1 X124.048 Y88.106 E26.00695
G1 X124.196 Y88.858 E26.04106
G1 X124.302 Y90.202 E26.10106
G1 X124.182 Y91.708 E26.1683
G1 X123.861 Y92.937 E26.22483
G1 X124.122 Y93.091 E26.23832
G1 X125.028 Y92.216 E26.29438
G1 X125.597 Y91.785 E26.32615
G1 X126.841 Y91.056 E26.39032
G1 X127.512 Y90.764 E26.42289
G1 X128.895 Y90.351 E26.48713
G1 X132.655 Y90.345 E26.65448
G1 X133.407 Y90.532 E26.68897
G1 X134.755 Y91.056 E26.75334
G1 X136.013 Y91.794 E26.81825
G1 X137.203 Y92.791 E26.88734
G1 X137.811 Y93.504 E26.92904
G1 X139.276 Y96.041 E27.05943
G1 X139.631 Y97.083 E27.10842
G1 X139.785 Y97.858 E27.14359
G1 X139.89 Y99.187 E27.20292
G1 X139.855 Y100.048 E27.24127
G1 X139.64 Y101.366 E27.30071
G1 X139.288 Y102.416 E27.35
G1 X137.652 Y105.199 E27.49368
G1 X137.119 Y105.778 E27.52871
G1 X136.011 Y106.692 E27.59264
G1 X134.769 Y107.422 E27.65676
G1 X134.084 Y107.72 E27.69001
G1 X132.656 Y108.14 E27.75626
G1 X128.895 Y108.134 E27.92365
G1 X127.512 Y107.72 E27.9879
G1 X126.841 Y107.429 E28.02045
G1 X125.596 Y106.699 E28.08468
G1 X125.009 Y106.253 E28.11749
G1 X124.127 Y105.385 E28.17257
G1 X123.859 Y105.538 E28.1863
G1 X124.194 Y106.843 E28.24626
G1 X124.302 Y108.186 E28.30623
G1 X124.266 Y109.051 E28.34476
G1 X124.053 Y110.359 E28.40374
G1 X123.684 Y111.451 E28.45504
G1 X122.087 Y114.167 E28.59527
G1 X121.544 Y114.765 E28.63122
G1 X120.411 Y115.7 E28.6966
G1 X119.167 Y116.429 E28.76077
G1 X117.804 Y116.957 E28.82583
G1 X117.067 Y117.14 E28.85963
G1 X113.352 Y117.14 E29.02497
G1 X111.924 Y116.72 E29.09122
G1 X110.606 Y116.084 E29.15635
G1 X109.419 Y115.253 E29.22084
G1 X108.82 Y114.71 E29.25682
G1 X108.196 Y113.981 E29.29953
G1 X106.732 Y111.444 E29.4299
G1 X106.371 Y110.379 E29.47995
G1 X106.223 Y109.627 E29.51406
G1 X106.117 Y108.298 E29.5734
G1 X106.153 Y107.437 E29.61175
G1 X106.368 Y106.119 E29.67119
G1 X106.735 Y105.034 E29.72217
G1 X108.332 Y102.318 E29.8624
G1 X108.861 Y101.734 E29.89747
G1 X109.98 Y100.804 E29.96223
G1 X111.239 Y100.063 E30.02725
G1 X111.91 Y99.77 E30.05984
G1 X113.161 Y99.388 E30.11806
G1 X113.161 Y99.097 E30.13101
G1 X111.91 Y98.715 E30.18923
G1 X110.594 Y98.076 E30.25434
G1 X109.407 Y97.243 E30.31888
G1 X108.804 Y96.693 E30.3552
G1 X108.216 Y96.009 E30.39535
G1 X106.732 Y93.444 E30.52724
G1 X106.377 Y92.402 E30.57623
G1 X106.145 Y90.952 E30.64159
G1 X106.153 Y89.437 E30.70902
G1 X106.368 Y88.119 E30.76846
G1 X106.735 Y87.034 E30.81944
G1 X108.321 Y84.344 E30.95842
G1 X108.321 Y84.344 F9000
G1 X108.642 Y84.532
G1 F1800
G1 X108.645 Y84.526 E30.95872
G1 X109.658 Y83.522 E31.0222
G1 X110.79 Y82.729 E31.08371
G1 X112.053 Y82.117 E31.14617
G1 X113.377 Y81.721 E31.20768
G1 X117.043 Y81.721 E31.37084
G1 X118.366 Y82.117 E31.4323
G1 X119.629 Y82.729 E31.49476
G1 X120.765 Y83.526 E31.55652
G1 X121.338 Y84.045 E31.59093
G1 X121.906 Y84.707 E31.62975
G1 X123.353 Y87.213 E31.75854
