;FLAVOR:Marlin
;TIME:14997
;Filament used: 15.9239m
;Layer height: 0.3
;MINX:87.336
;MINY:174.534
;MINZ:0.3
;MAXX:251.422
;MAXY:213.586
;MAXZ:33.9
;POSTPROCESSED
;Generated with Cura_SteamEngine 4.10.0
M104 S228
M105
M109 S228
M82 ;absolute extrusion mode
G28 ; home all axes
 M117 Purge extruder
 G92 E0 ; reset extruder
 G1 Z1.0 F3000 ; move z up little to prevent scratching of surface
 G1 X2 Y20 Z0.3 F5000.0 ; move to start-line position
 G1 X2 Y200.0 Z0.3 F1500.0 E15 ; draw 1st line
 G1 X2 Y200.0 Z0.4 F5000.0 ; move to side a little
 G1 X2 Y20 Z0.4 F1500.0 E30 ; draw 2nd line
 G92 E0 ; reset extruder
 G1 Z1.0 F3000 ; move z up little to prevent scratching of surface
G92 E0
G92 E0
G1 F2400 E-1.6
;LAYER_COUNT:113
;LAYER:0
M106 S89.3
G0 F6000 X95.159 Y182.441 Z0.3
;TYPE:SKIRT
G1 F2400 E0
G1 F900 X95.582 Y182.266 E0.03198
G1 X96.085 Y182.015 E0.07126
G1 X96.361 Y181.824 E0.09471
G1 X96.547 Y182.01 E0.11308
G1 X96.972 Y182.379 E0.15241
G1 X97.445 Y182.683 E0.19169
G1 X97.956 Y182.918 E0.23099
G1 X98.495 Y183.077 E0.27025
G1 X99.052 Y183.159 E0.30958
G1 X99.365 Y183.171 E0.33147
G1 X99.922 Y183.253 E0.3708
G1 X100.217 Y183.264 E0.39143
G1 X100.267 Y183.265 E0.39492
G1 X100.824 Y183.347 E0.43426
G1 X101.119 Y183.358 E0.45488
G1 X101.536 Y183.406 E0.48421
G1 X101.868 Y183.559 E0.50975
G1 X102.407 Y183.718 E0.54901
G1 X102.964 Y183.8 E0.58834
G1 X103.257 Y183.811 E0.60883
G1 X105.105 Y183.812 E0.73794
G1 X105.666 Y183.772 E0.77723
G1 X106.027 Y183.695 E0.80302
G1 X106.35 Y183.903 E0.82986
G1 X106.861 Y184.138 E0.86916
G1 X107.401 Y184.298 E0.90851
G1 X107.957 Y184.38 E0.94777
G1 X108.255 Y184.391 E0.96861
G1 X110.315 Y184.391 E1.11253
G1 X110.512 Y184.755 E1.14145
G1 X110.83 Y185.183 E1.1787
G1 X110.83 Y194.178 E1.80714
G1 X110.189 Y193.844 E1.85764
G1 X109.673 Y193.621 E1.89691
G1 X109.416 Y193.551 E1.91552
G1 X108.253 Y192.86 E2.01004
G1 X107.75 Y192.607 E2.04937
G1 X107.423 Y192.49 E2.07364
G1 X106.149 Y191.731 E2.17725
G1 X105.647 Y191.478 E2.21652
G1 X105.312 Y191.358 E2.24138
G1 X105.24 Y191.316 E2.24721
G1 X104.181 Y190.584 E2.33715
G1 X103.51 Y190.211 E2.39078
G1 X103.475 Y190.196 E2.39345
G1 X102.09 Y189.235 E2.51122
G1 X101.607 Y188.949 E2.55044
G1 X101.438 Y188.864 E2.56365
G1 X99.891 Y187.794 E2.69507
G1 X99.677 Y187.656 E2.71286
G1 X99.529 Y187.567 E2.72493
G1 X98.044 Y186.369 E2.85823
G1 X97.591 Y186.053 E2.89682
G1 X97.431 Y185.957 E2.90986
G1 X95.871 Y184.705 E3.04961
G1 X95.687 Y184.566 E3.06572
G1 X95.426 Y184.38 E3.08811
G1 X95.222 Y184.217 E3.10635
G1 X95.158 Y184.158 E3.11243
G1 X95.159 Y182.441 E3.23239
G0 F6000 X94.631 Y182.088
G1 F900 X95.38 Y181.778 E3.28903
G1 X95.847 Y181.541 E3.32562
G1 X96.273 Y181.237 E3.36218
G1 X96.41 Y181.103 E3.37557
G1 X96.533 Y181.25 E3.38896
G1 X96.92 Y181.637 E3.4272
G1 X97.318 Y181.978 E3.46381
G1 X97.762 Y182.254 E3.50034
G1 X98.244 Y182.46 E3.53696
G1 X98.751 Y182.59 E3.57353
G1 X99.347 Y182.642 E3.61533
G1 X99.621 Y182.684 E3.63469
G1 X100.217 Y182.736 E3.67649
G1 X100.523 Y182.778 E3.69807
G1 X101.119 Y182.83 E3.73987
G1 X101.339 Y182.83 E3.75524
G1 X101.672 Y182.894 E3.77893
G1 X102.156 Y183.101 E3.81571
G1 X102.663 Y183.231 E3.85228
G1 X103.257 Y183.283 E3.89394
G1 X105.105 Y183.284 E4.02305
G1 X105.627 Y183.244 E4.05962
G1 X106.14 Y183.125 E4.09642
G1 X106.224 Y183.197 E4.10415
G1 X106.668 Y183.474 E4.14071
G1 X107.149 Y183.68 E4.17727
G1 X107.656 Y183.81 E4.21383
G1 X108.255 Y183.863 E4.25585
G1 X110.659 Y183.863 E4.4238
G1 X110.771 Y184.141 E4.44474
G1 X111.038 Y184.591 E4.4813
G1 X111.358 Y184.974 E4.51617
G1 X111.358 Y194.99 E5.21594
G1 X111.153 Y194.942 E5.23065
G1 X109.945 Y194.313 E5.32581
G1 X109.464 Y194.107 E5.36236
G1 X109.2 Y194.037 E5.38145
G1 X107.983 Y193.314 E5.48035
G1 X107.514 Y193.081 E5.51693
G1 X107.199 Y192.972 E5.54022
G1 X105.879 Y192.185 E5.64759
G1 X105.41 Y191.952 E5.68418
G1 X105.085 Y191.838 E5.70824
G1 X104.957 Y191.762 E5.71864
G1 X103.881 Y191.019 E5.81
G1 X103.299 Y190.695 E5.85654
G1 X103.216 Y190.659 E5.86286
G1 X101.789 Y189.669 E5.9842
G1 X101.371 Y189.421 E6.01816
G1 X101.164 Y189.317 E6.03434
G1 X99.591 Y188.229 E6.16797
G1 X99.226 Y188.001 E6.19803
G1 X97.712 Y186.78 E6.33392
G1 X97.319 Y186.506 E6.3674
G1 X97.128 Y186.392 E6.38294
G1 X95.54 Y185.117 E6.52522
G1 X95.381 Y184.996 E6.53918
G1 X95.113 Y184.805 E6.56217
G1 X94.886 Y184.624 E6.58245
G1 X94.63 Y184.387 E6.60683
G1 X94.631 Y182.088 E6.76745
G0 F6000 X95.178 Y181.29
G1 F900 X95.607 Y181.07 E6.80113
G1 X95.993 Y180.782 E6.83478
G1 X96.326 Y180.434 E6.86843
G1 X96.447 Y180.269 E6.88273
G1 X96.673 Y180.613 E6.91148
G1 X96.907 Y180.876 E6.93608
G1 X97.294 Y181.263 E6.97431
G1 X97.661 Y181.575 E7.00797
G1 X98.075 Y181.821 E7.04161
G1 X98.524 Y181.995 E7.07526
G1 X98.996 Y182.093 E7.10894
G1 X99.347 Y182.114 E7.1335
G1 X99.514 Y182.114 E7.14517
G1 X99.866 Y182.187 E7.17029
G1 X100.217 Y182.208 E7.19485
G1 X100.416 Y182.208 E7.20876
G1 X100.768 Y182.281 E7.23387
G1 X101.119 Y182.302 E7.25844
G1 X101.386 Y182.302 E7.27709
G1 X101.791 Y182.386 E7.30599
G1 X101.987 Y182.462 E7.32068
G1 X102.436 Y182.636 E7.35432
G1 X102.908 Y182.734 E7.388
G1 X103.257 Y182.755 E7.41243
G1 X105.105 Y182.756 E7.54154
G1 X105.585 Y182.716 E7.57519
G1 X106.052 Y182.598 E7.60884
G1 X106.239 Y182.516 E7.62311
G1 X106.567 Y182.794 E7.65315
G1 X106.981 Y183.041 E7.68683
G1 X107.43 Y183.215 E7.72047
G1 X107.901 Y183.313 E7.75409
G1 X108.255 Y183.335 E7.77887
G1 X111.044 Y183.335 E7.97372
G1 X111.104 Y183.57 E7.99067
G1 X111.298 Y184.01 E8.02426
G1 X111.562 Y184.413 E8.05792
G1 X111.796 Y184.676 E8.08252
G1 X111.886 Y184.766 E8.09141
G1 X111.886 Y195.749 E8.85874
G1 X111.824 Y195.717 E8.86362
G1 X111.38 Y195.531 E8.89725
G1 X110.961 Y195.436 E8.92727
G1 X109.702 Y194.781 E9.02642
G1 X109.257 Y194.595 E9.06012
G1 X108.987 Y194.525 E9.0796
G1 X107.713 Y193.768 E9.18314
G1 X107.067 Y193.483 E9.23247
G1 X106.986 Y193.459 E9.23837
G1 X105.609 Y192.638 E9.35038
G1 X104.961 Y192.353 E9.39984
G1 X104.673 Y192.208 E9.42237
G1 X103.581 Y191.453 E9.51512
G1 X103.089 Y191.179 E9.55446
G1 X102.955 Y191.121 E9.56466
G1 X101.488 Y190.103 E9.68942
G1 X101.134 Y189.893 E9.71817
G1 X100.894 Y189.773 E9.73692
G1 X99.29 Y188.663 E9.8732
G1 X98.922 Y188.434 E9.90348
G1 X97.381 Y187.191 E10.04181
G1 X97.048 Y186.959 E10.07016
G1 X96.831 Y186.829 E10.08783
G1 X95.21 Y185.528 E10.23305
G1 X95.075 Y185.427 E10.24483
G1 X94.803 Y185.233 E10.26817
G1 X94.536 Y185.02 E10.29204
G1 X94.102 Y184.618 E10.33337
G1 X94.103 Y181.734 E10.53486
G1 X95.178 Y181.29 E10.61612
G0 F6000 X94.977 Y180.802
G1 F900 X95.362 Y180.599 E10.64653
G1 X95.704 Y180.33 E10.67693
G1 X96.043 Y179.929 E10.71361
G1 X96.287 Y179.565 E10.74423
G1 X96.495 Y179.183 E10.77462
G1 X96.59 Y178.89 E10.79614
G1 X96.624 Y179.257 E10.82189
G1 X96.742 Y179.676 E10.8523
G1 X96.935 Y180.066 E10.8827
G1 X97.28 Y180.503 E10.9216
G1 X97.667 Y180.89 E10.95984
G1 X98.002 Y181.169 E10.9903
G1 X98.382 Y181.381 E11.0207
G1 X98.794 Y181.521 E11.0511
G1 X99.347 Y181.586 E11.09
G1 X99.664 Y181.615 E11.11224
G1 X100.217 Y181.68 E11.15114
G1 X100.481 Y181.68 E11.16959
G1 X100.566 Y181.709 E11.17586
G1 X101.119 Y181.774 E11.21476
G1 X101.471 Y181.774 E11.23936
G1 X101.589 Y181.814 E11.24806
G1 X102.01 Y181.863 E11.27767
G1 X102.294 Y182.022 E11.30041
G1 X102.706 Y182.162 E11.33081
G1 X103.258 Y182.227 E11.36965
G1 X105.106 Y182.228 E11.49876
G1 X105.539 Y182.188 E11.52914
G1 X105.959 Y182.07 E11.55962
G1 X106.248 Y181.927 E11.58215
G1 X106.391 Y181.927 E11.59214
G1 X106.574 Y182.11 E11.61022
G1 X106.908 Y182.389 E11.64062
G1 X107.288 Y182.601 E11.67102
G1 X107.701 Y182.741 E11.70149
G1 X108.255 Y182.807 E11.74047
G1 X111.49 Y182.807 E11.96649
G1 X111.513 Y183.057 E11.98403
G1 X111.631 Y183.476 E12.01444
G1 X111.824 Y183.866 E12.04484
G1 X112.169 Y184.303 E12.08374
G1 X112.414 Y184.529 E12.10703
G1 X112.414 Y196.618 E12.95163
G1 X111.581 Y196.185 E13.01722
G1 X111.178 Y196.02 E13.04765
G1 X110.793 Y195.937 E13.07516
G1 X110.776 Y195.935 E13.07636
G1 X109.458 Y195.249 E13.18017
G1 X109.055 Y195.085 E13.21057
G1 X108.787 Y195.019 E13.22985
G1 X107.444 Y194.221 E13.33899
G1 X106.915 Y193.989 E13.37935
G1 X106.77 Y193.945 E13.38994
G1 X105.338 Y193.092 E13.50639
G1 X104.809 Y192.858 E13.5468
G1 X104.659 Y192.813 E13.55775
G1 X104.39 Y192.653 E13.57961
G1 X103.281 Y191.887 E13.67378
G1 X102.878 Y191.663 E13.70599
G1 X102.696 Y191.584 E13.71985
G1 X101.187 Y190.537 E13.84817
G1 X100.898 Y190.365 E13.87167
G1 X100.625 Y190.228 E13.89301
G1 X98.99 Y189.097 E14.03191
G1 X98.861 Y189.014 E14.04262
G1 X98.619 Y188.869 E14.06233
G1 X97.049 Y187.602 E14.20329
G1 X96.777 Y187.412 E14.22647
G1 X96.525 Y187.261 E14.24699
G1 X94.879 Y185.94 E14.39445
G1 X94.769 Y185.857 E14.40407
G1 X94.493 Y185.66 E14.42776
G1 X94.185 Y185.415 E14.45526
G1 X93.574 Y184.848 E14.5135
G1 X93.575 Y181.382 E14.75565
G1 X94.977 Y180.802 E14.86165
G0 F6000 X94.775 Y180.314
G1 F900 X95.113 Y180.131 E14.88851
G1 X95.405 Y179.883 E14.91527
G1 X95.604 Y179.635 E14.93749
G1 X95.848 Y179.271 E14.9681
G1 X96.028 Y178.932 E14.99492
G1 X96.133 Y178.562 E15.02179
G1 X96.161 Y178.243 E15.04416
G1 X96.162 Y177.048 E15.12765
G1 X97.112 Y177.048 E15.19403
G1 X97.112 Y178.823 E15.31804
G1 X97.152 Y179.205 E15.34487
G1 X97.27 Y179.57 E15.37167
G1 X97.461 Y179.903 E15.39849
G1 X97.653 Y180.13 E15.41927
G1 X98.04 Y180.517 E15.4575
G1 X98.339 Y180.759 E15.48438
G1 X98.68 Y180.934 E15.51116
G1 X99.051 Y181.034 E15.538
G1 X99.347 Y181.058 E15.55875
G1 X99.661 Y181.058 E15.58069
G1 X99.921 Y181.128 E15.5995
G1 X100.217 Y181.152 E15.62025
G1 X100.563 Y181.152 E15.64442
G1 X100.823 Y181.222 E15.66323
G1 X101.119 Y181.246 E15.68398
G1 X101.545 Y181.246 E15.71374
G1 X101.846 Y181.327 E15.73552
G1 X102.142 Y181.351 E15.75627
G1 X102.251 Y181.4 E15.76462
G1 X102.592 Y181.575 E15.7914
G1 X102.963 Y181.675 E15.81824
G1 X103.258 Y181.699 E15.83892
G1 X105.106 Y181.7 E15.96803
G1 X105.488 Y181.66 E15.99487
G1 X105.853 Y181.543 E16.02165
G1 X106.105 Y181.399 E16.04192
G1 X106.61 Y181.399 E16.07721
G1 X106.947 Y181.737 E16.11055
G1 X107.245 Y181.979 E16.13737
G1 X107.587 Y182.154 E16.16421
G1 X107.958 Y182.255 E16.19108
G1 X108.255 Y182.279 E16.21189
G1 X112.001 Y182.279 E16.47361
G1 X112.001 Y182.623 E16.49765
G1 X112.041 Y183.005 E16.52448
G1 X112.159 Y183.37 E16.55128
G1 X112.35 Y183.703 E16.5781
G1 X112.542 Y183.93 E16.59887
G1 X112.671 Y184.059 E16.61162
G1 X112.942 Y184.278 E16.63596
G1 X112.942 Y196.942 E17.52074
G1 X112.982 Y197.324 E17.54757
G1 X113.054 Y197.548 E17.56401
G1 X111.337 Y196.654 E17.69926
G1 X110.98 Y196.513 E17.72608
G1 X110.725 Y196.461 E17.74426
G1 X110.614 Y196.446 E17.75208
G1 X109.214 Y195.718 E17.86233
G1 X108.713 Y195.543 E17.89941
G1 X108.597 Y195.52 E17.90767
G1 X107.174 Y194.675 E18.02329
G1 X106.763 Y194.495 E18.05464
G1 X106.556 Y194.433 E18.06974
G1 X105.068 Y193.546 E18.19077
G1 X104.656 Y193.364 E18.22224
G1 X104.445 Y193.3 E18.23764
G1 X104.107 Y193.1 E18.26508
G1 X102.981 Y192.322 E18.3607
G1 X102.667 Y192.147 E18.38582
G1 X102.437 Y192.047 E18.40334
G1 X100.886 Y190.971 E18.53522
G1 X100.661 Y190.837 E18.55352
G1 X100.355 Y190.684 E18.57742
G1 X98.689 Y189.531 E18.71897
G1 X98.589 Y189.467 E18.72727
G1 X98.316 Y189.303 E18.74952
G1 X96.717 Y188.013 E18.89306
G1 X96.506 Y187.865 E18.91106
G1 X96.223 Y187.695 E18.93413
G1 X94.549 Y186.352 E19.08407
G1 X94.463 Y186.287 E19.0916
G1 X94.162 Y186.073 E19.1174
G1 X93.848 Y185.822 E19.14549
G1 X93.046 Y185.078 E19.22192
G1 X93.047 Y181.028 E19.50488
G1 X94.775 Y180.314 E19.6355
G0 F6000 X94.573 Y179.826
G1 F900 X94.855 Y179.666 E19.65816
G1 X95.165 Y179.341 E19.68954
G1 X95.409 Y178.977 E19.72015
G1 X95.556 Y178.687 E19.74287
G1 X95.633 Y178.243 E19.77435
G1 X95.634 Y176.519 E19.8948
G1 X97.64 Y176.52 E20.03495
G1 X97.64 Y178.823 E20.19585
G1 X97.68 Y179.145 E20.21852
G1 X97.797 Y179.447 E20.24115
G1 X98.027 Y179.756 E20.26806
G1 X98.414 Y180.143 E20.3063
G1 X98.669 Y180.343 E20.32894
G1 X98.966 Y180.474 E20.35162
G1 X99.347 Y180.53 E20.37852
G1 X99.75 Y180.53 E20.40668
G1 X99.836 Y180.568 E20.41325
G1 X100.217 Y180.624 E20.44015
G1 X100.652 Y180.624 E20.47054
G1 X100.738 Y180.662 E20.47711
G1 X101.119 Y180.718 E20.50402
G1 X101.65 Y180.718 E20.54112
G1 X101.761 Y180.767 E20.54959
G1 X102.142 Y180.823 E20.5765
G1 X102.376 Y180.823 E20.59285
G1 X102.581 Y180.984 E20.61106
G1 X102.878 Y181.115 E20.63374
G1 X103.258 Y181.171 E20.66057
G1 X105.106 Y181.172 E20.78968
G1 X105.428 Y181.132 E20.81235
G1 X105.731 Y181.015 E20.83505
G1 X105.935 Y180.871 E20.85249
G1 X106.829 Y180.871 E20.91495
G1 X107.321 Y181.364 E20.96361
G1 X107.577 Y181.563 E20.98627
G1 X107.873 Y181.695 E21.00891
G1 X108.255 Y181.751 E21.03588
G1 X112.529 Y181.751 E21.33449
G1 X112.529 Y182.623 E21.39541
G1 X112.569 Y182.945 E21.41808
G1 X112.686 Y183.247 E21.44071
G1 X112.916 Y183.556 E21.46762
G1 X113.045 Y183.685 E21.48037
G1 X113.3 Y183.885 E21.50301
G1 X113.47 Y183.96 E21.51599
G1 X113.47 Y196.942 E22.42299
G1 X113.51 Y197.264 E22.44566
G1 X113.682 Y197.659 E22.47576
G1 X114.047 Y198.223 E22.52269
G1 X114.255 Y198.472 E22.54536
G1 X114.35 Y198.535 E22.55333
G1 X114.35 Y198.817 E22.57303
G1 X111.093 Y197.122 E22.82955
G1 X110.656 Y196.984 E22.86157
G1 X110.452 Y196.957 E22.87594
G1 X108.97 Y196.186 E22.99266
G1 X108.612 Y196.061 E23.01915
G1 X108.405 Y196.021 E23.03388
G1 X106.904 Y195.129 E23.15587
G1 X106.611 Y195 E23.17824
G1 X106.341 Y194.919 E23.19793
G1 X104.798 Y193.999 E23.32344
G1 X104.503 Y193.869 E23.34596
G1 X104.232 Y193.787 E23.36575
G1 X103.816 Y193.541 E23.39951
G1 X102.68 Y192.756 E23.49598
G1 X102.457 Y192.632 E23.51381
G1 X102.184 Y192.513 E23.53462
G1 X100.585 Y191.404 E23.67057
G1 X100.424 Y191.309 E23.68363
G1 X100.089 Y191.141 E23.70982
G1 X98.389 Y189.965 E23.85424
G1 X98.318 Y189.919 E23.86015
G1 X98.009 Y189.733 E23.88534
G1 X96.386 Y188.424 E24.03102
G1 X96.235 Y188.318 E24.04391
G1 X95.916 Y188.127 E24.06989
G1 X94.218 Y186.764 E24.22201
G1 X94.157 Y186.717 E24.22739
G1 X93.84 Y186.492 E24.25455
G1 X93.498 Y186.218 E24.28517
G1 X92.518 Y185.309 E24.37855
G1 X92.519 Y180.662 E24.70322
G1 X92.589 Y180.646 E24.70824
G1 X94.573 Y179.826 E24.85822
G0 F6000 X94.372 Y179.338
G1 F900 X94.585 Y179.207 E24.87569
G1 X94.727 Y179.047 E24.89064
G1 X94.971 Y178.683 E24.92126
G1 X95.076 Y178.455 E24.93879
G1 X95.105 Y178.243 E24.95374
G1 X95.107 Y175.991 E25.11108
G1 X98.168 Y175.992 E25.32494
G1 X98.168 Y178.823 E25.52273
G1 X98.208 Y179.071 E25.54028
G1 X98.4 Y179.383 E25.56587
G1 X98.787 Y179.77 E25.60411
G1 X98.99 Y179.917 E25.62162
G1 X99.347 Y180.002 E25.64726
G1 X99.848 Y180.002 E25.68226
G1 X99.86 Y180.011 E25.68331
G1 X100.217 Y180.096 E25.70895
G1 X100.75 Y180.096 E25.74619
G1 X100.762 Y180.105 E25.74724
G1 X101.119 Y180.19 E25.77288
G1 X101.757 Y180.19 E25.81745
G1 X101.785 Y180.21 E25.81986
G1 X102.142 Y180.295 E25.84549
G1 X102.583 Y180.295 E25.87631
G1 X102.699 Y180.411 E25.88777
G1 X102.902 Y180.558 E25.90528
G1 X103.259 Y180.643 E25.93092
G1 X105.107 Y180.644 E26.06003
G1 X105.354 Y180.604 E26.07751
G1 X105.577 Y180.489 E26.09504
G1 X105.721 Y180.343 E26.10937
G1 X107.048 Y180.343 E26.20208
G1 X107.695 Y180.991 E26.26605
G1 X107.898 Y181.138 E26.28357
G1 X108.255 Y181.223 E26.3092
G1 X113.057 Y181.223 E26.6447
G1 X113.057 Y182.623 E26.74251
G1 X113.097 Y182.871 E26.76006
G1 X113.289 Y183.183 E26.78566
G1 X113.418 Y183.312 E26.7984
G1 X113.621 Y183.459 E26.81591
G1 X113.978 Y183.544 E26.84155
G1 X113.998 Y183.544 E26.84295
G1 X113.998 Y196.942 E27.77901
G1 X114.038 Y197.19 E27.79656
G1 X114.125 Y197.372 E27.81065
G1 X114.49 Y197.936 E27.85759
G1 X114.658 Y198.123 E27.87515
G1 X114.878 Y198.251 E27.89294
G1 X114.878 Y199.686 E27.99319
G1 X110.85 Y197.59 E28.31043
G1 X110.587 Y197.508 E28.32968
G1 X110.294 Y197.47 E28.35032
G1 X108.727 Y196.654 E28.47376
G1 X108.512 Y196.579 E28.48966
G1 X108.214 Y196.521 E28.51087
G1 X106.635 Y195.583 E28.63919
G1 X106.458 Y195.506 E28.65268
G1 X106.126 Y195.406 E28.6769
G1 X104.527 Y194.453 E28.80695
G1 X104.351 Y194.375 E28.8204
G1 X104.02 Y194.275 E28.84456
G1 X103.533 Y193.987 E28.88409
G1 X102.38 Y193.19 E28.98202
