;FLAVOR:Marlin
;TIME:3188
;Filament used: 5.56216m
;Layer height: 0.25
;Generated with Cura_SteamEngine 3.6.0
M140 S30
M105
M190 S30
M104 S220
M105
M109 S220
M82 ;absolute extrusion mode
G21 ;metric values
G90 ;absolute positioning
M82 ;set extruder to absolute mode
M107 ;start with the fan off
G28 X0 Y0 ;move X/Y to min endstops
G28 Z0 ;move Z to min endstops
G1 Z15.0 F120 ;move the platform down 15mm
G92 E0 ;zero the extruded length
G1 F200 E3 ;extrude 3mm of feed stock
G92 E0 ;zero the extruded length again
G1 F120
M117 Printing...
G5
G92 E0
G1 F2400 E-6
;LAYER_COUNT:60
;LAYER:0
M106 S255
M204 S3000
M205 X10 Y10
;MESH:BagClipShortMehlBraille_v01.stl
G0 F2400 X41.016 Y41.446 Z0.3
M204 S1800
M205 X8 Y8
;TYPE:WALL-INNER
G1 F2400 E0
G1 F1200 X41.498 Y41.598 E0.04148
G1 X41.927 Y41.872 E0.08325
G1 X42.268 Y42.243 E0.12461
G1 X42.504 Y42.697 E0.1666
G1 X42.612 Y43.185 E0.20762
G1 X42.59 Y43.695 E0.24952
G1 X42.438 Y44.177 E0.29099
G1 X42.163 Y44.606 E0.33281
G1 X41.793 Y44.947 E0.37411
G1 X41.341 Y45.182 E0.41592
G1 X40.848 Y45.291 E0.45736
G1 X40.34 Y45.269 E0.49909
G1 X39.858 Y45.117 E0.54056
G1 X39.432 Y44.845 E0.58204
G1 X39.089 Y44.471 E0.62369
G1 X38.856 Y44.022 E0.66521
G1 X38.745 Y43.524 E0.70708
G1 X38.767 Y43.022 E0.74832
G1 X38.92 Y42.536 E0.79013
G1 X39.193 Y42.108 E0.8318
G1 X39.563 Y41.768 E0.87304
G1 X40.012 Y41.535 E0.91455
G1 X40.512 Y41.424 E0.95659
G1 X41.016 Y41.446 E0.99799
M204 S3000
M205 X10 Y10
G0 F2400 X41.131 Y40.801
M204 S1800
M205 X8 Y8
;TYPE:WALL-OUTER
G1 F1200 X41.776 Y41.004 E1.05348
G1 X42.346 Y41.368 E1.10899
G1 X42.805 Y41.867 E1.16463
G1 X43.119 Y42.472 E1.22057
G1 X43.265 Y43.128 E1.27573
G1 X43.235 Y43.81 E1.33175
G1 X43.032 Y44.455 E1.38725
G1 X42.667 Y45.026 E1.44286
G1 X42.169 Y45.484 E1.49839
G1 X41.566 Y45.797 E1.55415
G1 X40.905 Y45.944 E1.60972
G1 X40.225 Y45.914 E1.66558
G1 X39.58 Y45.711 E1.72108
G1 X39.01 Y45.347 E1.77658
G1 X38.552 Y44.848 E1.83217
G1 X38.239 Y44.246 E1.88785
G1 X38.092 Y43.584 E1.94351
G1 X38.122 Y42.907 E1.99912
G1 X38.326 Y42.258 E2.05495
G1 X38.689 Y41.689 E2.11035
G1 X39.187 Y41.231 E2.16587
G1 X39.79 Y40.918 E2.22163
G1 X40.452 Y40.771 E2.27728
G1 X41.131 Y40.801 E2.33306
M204 S3000
M205 X10 Y10
G0 F2400 X41.417 Y40.891
G0 X40.898 Y42.132
M204 S1800
M205 X8 Y8
;TYPE:SKIN
G1 F1200 X41.203 Y42.228 E2.3593
G1 X41.481 Y42.405 E2.38635
G1 X41.697 Y42.641 E2.41261
G1 X41.85 Y42.936 E2.43988
G1 X41.918 Y43.244 E2.46577
G1 X41.904 Y43.577 E2.49312
G1 X41.807 Y43.882 E2.51939
G1 X41.63 Y44.158 E2.5463
G1 X41.395 Y44.376 E2.5726
G1 X41.102 Y44.528 E2.59969
G1 X40.789 Y44.597 E2.626
G1 X40.458 Y44.583 E2.65319
G1 X40.151 Y44.486 E2.67961
G1 X39.882 Y44.314 E2.70581
G1 X39.66 Y44.073 E2.7327
G1 X39.51 Y43.784 E2.75943
G1 X39.439 Y43.464 E2.78633
G1 X39.453 Y43.14 E2.81294
G1 X39.55 Y42.831 E2.83952
G1 X39.726 Y42.554 E2.86646
G1 X39.961 Y42.339 E2.8926
G1 X40.251 Y42.189 E2.91939
G1 X40.571 Y42.118 E2.94629
G1 X40.898 Y42.132 E2.97315
M204 S3000
M205 X10 Y10
G0 F2400 X40.488 Y42.468
M204 S1800
M205 X8 Y8
G1 F1200 X41.57 Y43.55 E3.09873
M204 S3000
M205 X10 Y10
G0 F2400 X41.159 Y44.129
M204 S1800
M205 X8 Y8
G1 F1200 X39.905 Y42.875 E3.24428
M204 S3000
M205 X10 Y10
G0 F2400 X39.964 Y43.924
M204 S1800
M205 X8 Y8
G1 F1200 X40.117 Y44.077 E3.26204
M204 S3000
M205 X10 Y10
G1 F2400 E-2.73796
G1 F300 Z0.375
G0 F2400 X40.117 Y44.077 Z0.375
G0 X18.88 Y154.596
M204 S1800
M205 X8 Y8
;TYPE:WALL-INNER
G1 F300 Z0.3
G1 F2400 E3.26204
G1 F1200 X16.636 Y154.199 E3.44906
G1 X16.081 Y154.025 E3.49679
G1 X15.66 Y153.756 E3.5378
G1 X15.316 Y153.381 E3.57956
G1 X15.079 Y152.925 E3.62174
G1 X14.971 Y152.44 E3.66251
G1 X14.997 Y151.86 E3.71016
G1 X25.102 Y94.545 E8.48652
G1 X22.526 Y93.053 E8.73083
G1 X20.759 Y91.801 E8.90856
G1 X19.088 Y90.372 E9.089
G1 X17.564 Y88.806 E9.26834
G1 X16.186 Y87.105 E9.448
G1 X14.97 Y85.285 E9.62764
G1 X13.929 Y83.371 E9.80645
G1 X13.065 Y81.364 E9.98577
G1 X12.386 Y79.286 E10.16519
G1 X11.897 Y77.142 E10.34566
G1 X11.611 Y74.991 E10.52375
G1 X11.52 Y72.8 E10.70372
G1 X11.629 Y70.618 E10.88302
G1 X11.939 Y68.438 E11.06373
G1 X12.439 Y66.328 E11.24169
G1 X13.135 Y64.256 E11.42107
G1 X14.02 Y62.248 E11.60116
G1 X15.077 Y60.344 E11.77989
G1 X16.31 Y58.532 E11.95976
G1 X17.7 Y56.844 E12.13922
G1 X19.24 Y55.29 E12.31877
G1 X20.912 Y53.884 E12.49806
G1 X22.706 Y52.636 E12.67741
G1 X24.61 Y51.555 E12.8571
G1 X26.591 Y50.659 E13.03554
G1 X28.715 Y49.927 E13.21991
G1 X30.753 Y49.423 E13.39221
G1 X33.011 Y49.081 E13.57964
G1 X35.156 Y48.955 E13.75598
G1 X37.339 Y49.025 E13.93523
G1 X38.072 Y49.117 E13.99586
G1 X38.436 Y49.162 E14.02596
G1 X38.373 Y49.523 E14.04512
G1 X38.28 Y50.05 E14.08904
G1 X37.081 Y49.908 E14.18813
G1 X34.831 Y49.859 E14.37283
G1 X32.585 Y50.031 E14.5577
G1 X30.366 Y50.421 E14.7426
G1 X28.198 Y51.027 E14.92735
G1 X26.097 Y51.84 E15.11224
G1 X24.087 Y52.856 E15.29707
G1 X22.186 Y54.063 E15.48188
G1 X20.411 Y55.448 E15.66665
G1 X18.78 Y57.001 E15.85148
G1 X17.307 Y58.705 E16.03633
G1 X16.01 Y60.545 E16.22108
G1 X14.897 Y62.504 E16.40599
G1 X13.98 Y64.561 E16.59083
G1 X13.268 Y66.697 E16.77561
G1 X12.77 Y68.893 E16.96041
G1 X12.487 Y71.128 E17.1453
G1 X12.422 Y73.378 E17.33003
G1 X12.578 Y75.625 E17.51489
G1 X12.953 Y77.847 E17.69982
G1 X13.543 Y80.02 E17.88462
G1 X14.343 Y82.125 E18.06943
G1 X15.343 Y84.142 E18.25419
G1 X16.536 Y86.053 E18.43908
G1 X17.91 Y87.838 E18.62394
G1 X19.452 Y89.479 E18.80875
G1 X21.145 Y90.964 E18.99357
G1 X22.977 Y92.275 E19.17845
G1 X24.927 Y93.4 E19.36321
G1 X26.977 Y94.331 E19.54799
G1 X29.108 Y95.057 E19.73275
G1 X30.294 Y95.336 E19.83274
G1 X18.72 Y160.979 E25.30312
G1 X18.31 Y161.267 E25.34424
G1 X18.309 Y161.268 E25.34436
G1 X17.618 Y161.752 E25.41359
G1 X17.763 Y160.92 E25.4509
G1 X17.764 Y160.919 E25.45101
G1 X18.88 Y154.596 E25.97796
M204 S3000
M205 X10 Y10
G0 F2400 X18.127 Y155.123
M204 S1800
M205 X8 Y8
;TYPE:WALL-OUTER
G1 F1200 X16.481 Y154.832 E26.11514
G1 X15.805 Y154.619 E26.17331
G1 X15.237 Y154.257 E26.22859
G1 X14.779 Y153.758 E26.28417
G1 X14.464 Y153.152 E26.34022
G1 X14.318 Y152.496 E26.39538
G1 X14.35 Y151.787 E26.45363
G1 X24.383 Y94.88 E31.19598
G1 X22.181 Y93.605 E31.4048
G1 X20.354 Y92.311 E31.58854
G1 X18.646 Y90.85 E31.773
G1 X17.078 Y89.238 E31.95756
G1 X15.664 Y87.493 E32.14189
G1 X14.412 Y85.62 E32.32678
G1 X13.343 Y83.653 E32.51051
G1 X12.455 Y81.592 E32.69469
G1 X11.759 Y79.46 E32.87875
G1 X11.258 Y77.262 E33.06376
G1 X10.963 Y75.049 E33.24699
G1 X10.87 Y72.795 E33.43213
G1 X10.982 Y70.548 E33.61677
G1 X11.298 Y68.328 E33.8008
G1 X11.815 Y66.146 E33.98484
G1 X12.529 Y64.018 E34.16905
G1 X13.434 Y61.965 E34.35318
G1 X14.525 Y59.999 E34.53771
G1 X15.791 Y58.14 E34.72229
G1 X17.216 Y56.41 E34.90624
G1 X18.802 Y54.809 E35.09119
G1 X20.517 Y53.367 E35.27508
G1 X22.355 Y52.088 E35.45885
G1 X24.315 Y50.975 E35.64383
G1 X26.357 Y50.051 E35.82777
G1 X28.525 Y49.304 E36.01597
G1 X30.629 Y48.784 E36.19383
G1 X32.941 Y48.434 E36.38574
G1 X35.15 Y48.304 E36.56735
G1 X37.385 Y48.376 E36.75087
G1 X38.83 Y48.556 E36.87037
G1 X39.195 Y48.601 E36.90056
G1 X39.132 Y48.963 E36.91978
G1 X38.813 Y50.768 E37.07021
G1 X37.036 Y50.557 E37.21708
G1 X34.849 Y50.51 E37.3966
G1 X32.666 Y50.677 E37.57628
G1 X30.51 Y51.056 E37.75594
G1 X28.403 Y51.645 E37.93549
G1 X26.362 Y52.435 E38.1151
G1 X24.409 Y53.422 E38.29469
G1 X22.561 Y54.595 E38.47433
G1 X20.836 Y55.941 E38.65389
G1 X19.251 Y57.45 E38.8335
G1 X17.82 Y59.106 E39.01312
G1 X16.559 Y60.894 E39.19268
G1 X15.478 Y62.797 E39.3723
G1 X14.587 Y64.797 E39.55199
G1 X13.895 Y66.872 E39.7315
G1 X13.411 Y69.006 E39.91109
G1 X13.136 Y71.178 E40.09076
G1 X13.073 Y73.365 E40.27032
G1 X13.224 Y75.548 E40.44991
G1 X13.589 Y77.707 E40.62961
G1 X14.162 Y79.819 E40.80921
G1 X14.939 Y81.865 E40.98882
G1 X15.911 Y83.825 E41.16837
G1 X17.07 Y85.682 E41.34802
G1 X18.406 Y87.416 E41.52767
G1 X19.904 Y89.011 E41.70725
G1 X21.549 Y90.454 E41.88684
G1 X23.329 Y91.728 E42.06648
G1 X25.224 Y92.821 E42.24602
G1 X27.217 Y93.726 E42.42566
G1 X29.288 Y94.432 E42.60523
G1 X31.041 Y94.844 E42.75301
G1 X19.313 Y161.357 E48.2959
G1 X17.48 Y162.642 E48.47962
G1 X17.269 Y162.79 E48.50077
G1 X16.79 Y162.705 E48.5407
G1 X16.834 Y162.451 E48.55886
G1 X18.127 Y155.123 E49.16955
M204 S3000
M205 X10 Y10
G0 F2400 X17.832 Y155.071
G0 X17.963 Y154.333
G0 X19.256 Y153.961
M204 S1800
M205 X8 Y8
;TYPE:SKIN
G1 F1200 X16.794 Y153.526 E49.37474
G1 X16.375 Y153.395 E49.41077
G1 X16.108 Y153.224 E49.43679
G1 X15.887 Y152.983 E49.46362
G1 X15.733 Y152.687 E49.49101
G1 X15.665 Y152.38 E49.51681
G1 X15.685 Y151.934 E49.55345
G1 X25.801 Y94.555 E54.33514
G1 X26.723 Y94.973 E54.41822
G1 X28.917 Y95.721 E54.60845
G1 X29.5 Y95.858 E54.6576
G1 X19.256 Y153.961 E59.49963
M204 S3000
M205 X10 Y10
G0 F2400 X16.431 Y153.044
M204 S1800
M205 X8 Y8
G1 F1200 X16.126 Y152.739 E59.53503
M204 S3000
M205 X10 Y10
G0 F2400 X16.059 Y151.682
M204 S1800
M205 X8 Y8
G1 F1200 X17.737 Y153.36 E59.72978
M204 S3000
M205 X10 Y10
G0 F2400 X18.94 Y153.573
M204 S1800
M205 X8 Y8
G1 F1200 X16.207 Y150.84 E60.04698
M204 S3000
M205 X10 Y10
G0 F2400 X16.356 Y149.999
M204 S1800
M205 X8 Y8
G1 F1200 X19.134 Y152.777 E60.36941
M204 S3000
M205 X10 Y10
G0 F2400 X19.282 Y151.936
M204 S1800
M205 X8 Y8
G1 F1200 X16.503 Y149.157 E60.69195
M204 S3000
M205 X10 Y10
G0 F2400 X16.652 Y148.315
M204 S1800
M205 X8 Y8
G1 F1200 X19.431 Y151.094 E61.01449
M204 S3000
M205 X10 Y10
G0 F2400 X19.579 Y150.253
M204 S1800
M205 X8 Y8
G1 F1200 X16.8 Y147.474 E61.33703
M204 S3000
M205 X10 Y10
G0 F2400 X16.949 Y146.632
M204 S1800
M205 X8 Y8
G1 F1200 X19.728 Y149.411 E61.65957
M204 S3000
M205 X10 Y10
G0 F2400 X19.876 Y148.569
M204 S1800
M205 X8 Y8
G1 F1200 X17.097 Y145.791 E61.98205
M204 S3000
M205 X10 Y10
G0 F2400 X17.246 Y144.949
M204 S1800
M205 X8 Y8
G1 F1200 X20.024 Y147.728 E62.30454
M204 S3000
M205 X10 Y10
G0 F2400 X20.173 Y146.886
M204 S1800
M205 X8 Y8
G1 F1200 X17.394 Y144.107 E62.62708
M204 S3000
M205 X10 Y10
G0 F2400 X17.542 Y143.266
M204 S1800
M205 X8 Y8
G1 F1200 X20.321 Y146.045 E62.94962
M204 S3000
M205 X10 Y10
G0 F2400 X20.47 Y145.203
M204 S1800
M205 X8 Y8
G1 F1200 X17.691 Y142.424 E63.27216
M204 S3000
M205 X10 Y10
G0 F2400 X17.839 Y141.583
M204 S1800
M205 X8 Y8
G1 F1200 X20.618 Y144.362 E63.5947
M204 S3000
M205 X10 Y10
G0 F2400 X20.766 Y143.52
M204 S1800
M205 X8 Y8
G1 F1200 X17.988 Y140.741 E63.91718
M204 S3000
M205 X10 Y10
G0 F2400 X18.136 Y139.9
M204 S1800
M205 X8 Y8
G1 F1200 X20.914 Y142.678 E64.23961
M204 S3000
M205 X10 Y10
G0 F2400 X21.063 Y141.837
M204 S1800
M205 X8 Y8
G1 F1200 X18.285 Y139.058 E64.56209
M204 S3000
M205 X10 Y10
G0 F2400 X18.432 Y138.216
M204 S1800
M205 X8 Y8
G1 F1200 X21.211 Y140.995 E64.88463
M204 S3000
M205 X10 Y10
G0 F2400 X21.36 Y140.154
M204 S1800
M205 X8 Y8
G1 F1200 X18.581 Y137.375 E65.20717
M204 S3000
M205 X10 Y10
G0 F2400 X18.729 Y136.533
M204 S1800
M205 X8 Y8
G1 F1200 X21.508 Y139.312 E65.52971
M204 S3000
M205 X10 Y10
G0 F2400 X21.656 Y138.47
M204 S1800
M205 X8 Y8
G1 F1200 X18.878 Y135.692 E65.85214
M204 S3000
M205 X10 Y10
G0 F2400 X19.026 Y134.85
M204 S1800
M205 X8 Y8
G1 F1200 X21.805 Y137.629 E66.17468
M204 S3000
M205 X10 Y10
G0 F2400 X21.953 Y136.787
M204 S1800
M205 X8 Y8
G1 F1200 X19.175 Y134.009 E66.4971
M204 S3000
M205 X10 Y10
G0 F2400 X19.323 Y133.167
M204 S1800
M205 X8 Y8
G1 F1200 X22.102 Y135.946 E66.81964
M204 S3000
M205 X10 Y10
G0 F2400 X22.25 Y135.104
M204 S1800
M205 X8 Y8
G1 F1200 X19.471 Y132.325 E67.14218
M204 S3000
M205 X10 Y10
G0 F2400 X19.62 Y131.484
M204 S1800
M205 X8 Y8
G1 F1200 X22.398 Y134.262 E67.46461
M204 S3000
M205 X10 Y10
G0 F2400 X22.546 Y133.421
M204 S1800
M205 X8 Y8
G1 F1200 X19.768 Y130.642 E67.78709
M204 S3000
M205 X10 Y10
G0 F2400 X19.917 Y129.801
M204 S1800
M205 X8 Y8
G1 F1200 X22.695 Y132.579 E68.10952
M204 S3000
M205 X10 Y10
G0 F2400 X22.843 Y131.738
M204 S1800
M205 X8 Y8
G1 F1200 X20.065 Y128.96 E68.43194
M204 S3000
M205 X10 Y10
G0 F2400 X20.214 Y128.118
M204 S1800
M205 X8 Y8
G1 F1200 X22.992 Y130.896 E68.75437
M204 S3000
M205 X10 Y10
G0 F2400 X23.14 Y130.055
M204 S1800
M205 X8 Y8
G1 F1200 X20.361 Y127.276 E69.07691
M204 S3000
M205 X10 Y10
G0 F2400 X20.51 Y126.434
M204 S1800
M205 X8 Y8
G1 F1200 X23.288 Y129.213 E69.39939
M204 S3000
M205 X10 Y10
G0 F2400 X23.437 Y128.371
M204 S1800
M205 X8 Y8
G1 F1200 X20.658 Y125.593 E69.72187
M204 S3000
M205 X10 Y10
G0 F2400 X20.807 Y124.752
M204 S1800
M205 X8 Y8
G1 F1200 X23.585 Y127.53 E70.0443
M204 S3000
M205 X10 Y10
G0 F2400 X23.734 Y126.688
M204 S1800
M205 X8 Y8
G1 F1200 X20.955 Y123.91 E70.36678
M204 S3000
M205 X10 Y10
G0 F2400 X21.104 Y123.069
M204 S1800
M205 X8 Y8
G1 F1200 X23.882 Y125.847 E70.68921
M204 S3000
M205 X10 Y10
G0 F2400 X24.031 Y125.005
M204 S1800
M205 X8 Y8
G1 F1200 X21.252 Y122.226 E71.01175
M204 S3000
M205 X10 Y10
G0 F2400 X21.4 Y121.385
M204 S1800
M205 X8 Y8
G1 F1200 X24.178 Y124.163 E71.33417
M204 S3000
M205 X10 Y10
G0 F2400 X24.327 Y123.322
M204 S1800
M205 X8 Y8
G1 F1200 X21.549 Y120.544 E71.6566
M204 S3000
M205 X10 Y10
G0 F2400 X21.697 Y119.702
M204 S1800
M205 X8 Y8
G1 F1200 X24.475 Y122.48 E71.97902
M204 S3000
M205 X10 Y10
G0 F2400 X24.624 Y121.639
M204 S1800
M205 X8 Y8
G1 F1200 X21.846 Y118.861 E72.30145
M204 S3000
M205 X10 Y10
G0 F2400 X21.994 Y118.019
M204 S1800
M205 X8 Y8
G1 F1200 X24.772 Y120.797 E72.62387
M204 S3000
M205 X10 Y10
G0 F2400 X24.92 Y119.955
M204 S1800
M205 X8 Y8
G1 F1200 X22.142 Y117.177 E72.94629
M204 S3000
M205 X10 Y10
G0 F2400 X22.29 Y116.336
M204 S1800
M205 X8 Y8
G1 F1200 X25.069 Y119.114 E73.26878
M204 S3000
M205 X10 Y10
G0 F2400 X25.217 Y118.272
M204 S1800
M205 X8 Y8
G1 F1200 X22.439 Y115.494 E73.5912
M204 S3000
M205 X10 Y10
G0 F2400 X22.587 Y114.653
M204 S1800
M205 X8 Y8
G1 F1200 X25.366 Y117.431 E73.91369
M204 S3000
M205 X10 Y10
G0 F2400 X25.514 Y116.589
M204 S1800
M205 X8 Y8
G1 F1200 X22.736 Y113.811 E74.23611
M204 S3000
M205 X10 Y10
G0 F2400 X22.884 Y112.97
M204 S1800
M205 X8 Y8
G1 F1200 X25.663 Y115.748 E74.55859
M204 S3000
M205 X10 Y10
G0 F2400 X25.81 Y114.906
M204 S1800
M205 X8 Y8
G1 F1200 X23.033 Y112.128 E74.88096
M204 S3000
M205 X10 Y10
G0 F2400 X23.181 Y111.286
M204 S1800
M205 X8 Y8
G1 F1200 X25.959 Y114.064 E75.20338
M204 S3000
M205 X10 Y10
G0 F2400 X26.107 Y113.223
M204 S1800
M205 X8 Y8
G1 F1200 X23.329 Y110.445 E75.52581
M204 S3000
M205 X10 Y10
G0 F2400 X23.478 Y109.603
M204 S1800
M205 X8 Y8
G1 F1200 X26.256 Y112.381 E75.84823
M204 S3000
M205 X10 Y10
G0 F2400 X26.404 Y111.54
M204 S1800
M205 X8 Y8
G1 F1200 X23.626 Y108.762 E76.17066
M204 S3000
M205 X10 Y10
G0 F2400 X23.775 Y107.92
M204 S1800
M205 X8 Y8
G1 F1200 X26.553 Y110.698 E76.49308
M204 S3000
M205 X10 Y10
G0 F2400 X26.701 Y109.856
M204 S1800
M205 X8 Y8
G1 F1200 X23.923 Y107.079 E76.81545
M204 S3000
M205 X10 Y10
G0 F2400 X24.071 Y106.237
M204 S1800
M205 X8 Y8
G1 F1200 X26.849 Y109.015 E77.13787
M204 S3000
M205 X10 Y10
G0 F2400 X26.998 Y108.173
M204 S1800
M205 X8 Y8
G1 F1200 X24.219 Y105.395 E77.46036
M204 S3000
M205 X10 Y10
G0 F2400 X24.368 Y104.554
M204 S1800
M205 X8 Y8
G1 F1200 X27.146 Y107.332 E77.78278
M204 S3000
M205 X10 Y10
G0 F2400 X27.295 Y106.49
M204 S1800
M205 X8 Y8
G1 F1200 X24.516 Y103.712 E78.10527
M204 S3000
M205 X10 Y10
G0 F2400 X24.665 Y102.871
M204 S1800
M205 X8 Y8
G1 F1200 X27.442 Y105.648 E78.42757
M204 S3000
M205 X10 Y10
G0 F2400 X27.591 Y104.807
M204 S1800
M205 X8 Y8
G1 F1200 X24.813 Y102.029 E78.75
M204 S3000
M205 X10 Y10
G0 F2400 X24.962 Y101.188
M204 S1800
M205 X8 Y8
G1 F1200 X27.739 Y103.965 E79.07231
M204 S3000
M205 X10 Y10
G0 F2400 X27.888 Y103.124
M204 S1800
M205 X8 Y8
G1 F1200 X25.11 Y100.346 E79.39473
M204 S3000
M205 X10 Y10
G0 F2400 X25.258 Y99.504
M204 S1800
M205 X8 Y8
G1 F1200 X28.036 Y102.282 E79.71716
M204 S3000
M205 X10 Y10
G0 F2400 X28.185 Y101.441
M204 S1800
M205 X8 Y8
G1 F1200 X25.407 Y98.663 E80.03958
M204 S3000
M205 X10 Y10
G0 F2400 X25.555 Y97.821
M204 S1800
M205 X8 Y8
G1 F1200 X28.333 Y100.599 E80.36201
M204 S3000
M205 X10 Y10
G0 F2400 X28.481 Y99.757
M204 S1800
M205 X8 Y8
G1 F1200 X25.704 Y96.98 E80.68432
M204 S3000
M205 X10 Y10
G0 F2400 X25.852 Y96.138
M204 S1800
M205 X8 Y8
G1 F1200 X28.63 Y98.916 E81.00674
M204 S3000
M205 X10 Y10
G0 F2400 X28.778 Y98.075
M204 S1800
M205 X8 Y8
