; HEADER_BLOCK_START
; generated by OrcaSlicer 1.8.0-beta1 on 2024-10-25 at 20:07:41
; total layer number: 29
; HEADER_BLOCK_END


;
;
; external perimeters extrusion width = 0.40mm
; perimeters extrusion width = 0.45mm
; infill extrusion width = 0.45mm
; solid infill extrusion width = 0.45mm
; top infill extrusion width = 0.38mm
; first layer extrusion width = 0.42mm

; external perimeters extrusion width = 0.40mm
; perimeters extrusion width = 0.45mm
; infill extrusion width = 0.45mm
; solid infill extrusion width = 0.45mm
; top infill extrusion width = 0.38mm
; first layer extrusion width = 0.42mm

; external perimeters extrusion width = 0.40mm
; perimeters extrusion width = 0.45mm
; infill extrusion width = 0.45mm
; solid infill extrusion width = 0.45mm
; top infill extrusion width = 0.38mm
; first layer extrusion width = 0.42mm

; external perimeters extrusion width = 0.40mm
; perimeters extrusion width = 0.45mm
; infill extrusion width = 0.45mm
; solid infill extrusion width = 0.45mm
; top infill extrusion width = 0.38mm
; first layer extrusion width = 0.42mm

; external perimeters extrusion width = 0.40mm
; perimeters extrusion width = 0.45mm
; infill extrusion width = 0.45mm
; solid infill extrusion width = 0.45mm
; top infill extrusion width = 0.38mm
; first layer extrusion width = 0.42mm

; external perimeters extrusion width = 0.40mm
; perimeters extrusion width = 0.45mm
; infill extrusion width = 0.45mm
; solid infill extrusion width = 0.45mm
; top infill extrusion width = 0.38mm
; first layer extrusion width = 0.42mm

; external perimeters extrusion width = 0.40mm
; perimeters extrusion width = 0.45mm
; infill extrusion width = 0.45mm
; solid infill extrusion width = 0.45mm
; top infill extrusion width = 0.38mm
; first layer extrusion width = 0.42mm

; external perimeters extrusion width = 0.40mm
; perimeters extrusion width = 0.45mm
; infill extrusion width = 0.45mm
; solid infill extrusion width = 0.45mm
; top infill extrusion width = 0.38mm
; first layer extrusion width = 0.42mm

; external perimeters extrusion width = 0.40mm
; perimeters extrusion width = 0.45mm
; infill extrusion width = 0.45mm
; solid infill extrusion width = 0.45mm
; top infill extrusion width = 0.38mm
; first layer extrusion width = 0.42mm

; external perimeters extrusion width = 0.40mm
; perimeters extrusion width = 0.45mm
; infill extrusion width = 0.45mm
; solid infill extrusion width = 0.45mm
; top infill extrusion width = 0.38mm
; first layer extrusion width = 0.42mm

; external perimeters extrusion width = 0.40mm
; perimeters extrusion width = 0.45mm
; infill extrusion width = 0.45mm
; solid infill extrusion width = 0.45mm
; top infill extrusion width = 0.38mm
; first layer extrusion width = 0.42mm

; external perimeters extrusion width = 0.40mm
; perimeters extrusion width = 0.45mm
; infill extrusion width = 0.45mm
; solid infill extrusion width = 0.45mm
; top infill extrusion width = 0.38mm
; first layer extrusion width = 0.42mm

; external perimeters extrusion width = 0.40mm
; perimeters extrusion width = 0.45mm
; infill extrusion width = 0.45mm
; solid infill extrusion width = 0.45mm
; top infill extrusion width = 0.38mm
; first layer extrusion width = 0.42mm

; EXECUTABLE_BLOCK_START
EXCLUDE_OBJECT_DEFINE NAME=Wide_Link_Cover.stl_id_0_copy_0 CENTER=141.164,126 POLYGON=[[137.664,114],[141.26,114],[144.664,115.84],[144.664,136.16],[141.26,138],[137.664,138],[137.664,114]]
EXCLUDE_OBJECT_DEFINE NAME=Wide_Link_Cover.stl_id_1_copy_0 CENTER=132.164,126 POLYGON=[[128.664,114],[132.26,114],[135.664,115.84],[135.664,136.16],[132.26,138],[128.664,138],[128.664,114]]
EXCLUDE_OBJECT_DEFINE NAME=Wide_Link_Cover.stl_id_2_copy_0 CENTER=123.164,126 POLYGON=[[119.664,114],[123.26,114],[126.664,115.84],[126.664,136.16],[123.26,138],[119.664,138],[119.664,114]]
EXCLUDE_OBJECT_DEFINE NAME=Wide_Link_Cover.stl_id_3_copy_0 CENTER=114.164,126 POLYGON=[[110.664,114],[114.26,114],[117.664,115.84],[117.664,136.16],[114.26,138],[110.664,138],[110.664,114]]
EXCLUDE_OBJECT_DEFINE NAME=Wide_Link_Cover.stl_id_4_copy_0 CENTER=105.164,126 POLYGON=[[101.664,114],[105.26,114],[108.664,115.84],[108.664,136.16],[105.26,138],[101.664,138],[101.664,114]]
EXCLUDE_OBJECT_DEFINE NAME=Wide_Link_Cover.stl_id_5_copy_0 CENTER=96.1638,126 POLYGON=[[92.6638,114],[96.2597,114],[99.6638,115.84],[99.6638,136.16],[96.2597,138],[92.6638,138],[92.6638,114]]
EXCLUDE_OBJECT_DEFINE NAME=Wide_Link_Cover.stl_id_6_copy_0 CENTER=118.336,108.5 POLYGON=[[106.336,105],[130.336,105],[130.336,108.596],[128.496,112],[108.176,112],[106.336,108.596],[106.336,105]]
EXCLUDE_OBJECT_DEFINE NAME=Wide_Link_Cover.stl_id_7_copy_0 CENTER=118.336,99.5 POLYGON=[[106.336,96],[130.336,96],[130.336,99.5959],[128.496,103],[108.176,103],[106.336,99.5959],[106.336,96]]
EXCLUDE_OBJECT_DEFINE NAME=Wide_Link_Cover.stl_id_8_copy_0 CENTER=92.3363,108.5 POLYGON=[[80.3363,105],[104.336,105],[104.336,108.596],[102.496,112],[82.1763,112],[80.3363,108.596],[80.3363,105]]
EXCLUDE_OBJECT_DEFINE NAME=Wide_Link_Cover.stl_id_9_copy_0 CENTER=87.1638,126 POLYGON=[[83.6638,114],[87.2597,114],[90.6638,115.84],[90.6638,136.16],[87.2597,138],[83.6638,138],[83.6638,114]]
EXCLUDE_OBJECT_DEFINE NAME=Wide_Link_Cover.stl_id_10_copy_0 CENTER=92.3363,99.5 POLYGON=[[80.3363,96],[104.336,96],[104.336,99.5959],[102.496,103],[82.1763,103],[80.3363,99.5959],[80.3363,96]]
EXCLUDE_OBJECT_DEFINE NAME=Wide_Link_Cover.stl_id_11_copy_0 CENTER=118.336,90.5 POLYGON=[[106.336,87],[130.336,87],[130.336,90.596],[128.496,94],[108.176,94],[106.336,90.596],[106.336,87]]
EXCLUDE_OBJECT_DEFINE NAME=Wide_Link_Cover.stl_id_12_copy_0 CENTER=135.836,100 POLYGON=[[132.336,88],[135.932,88],[139.336,89.84],[139.336,110.16],[135.932,112],[132.336,112],[132.336,88]]
M73 P0 R17
;TYPE:Custom
M413 S0 ; disable Power Loss Recovery
G90 ; use absolute coordinates
M83 ; extruder relative mode
M104 S120 ; set temporary nozzle temp to prevent oozing during homing and auto bed leveling
M140 S0 ; set final bed temp
G4 S10 ; allow partial nozzle warmup
G28 ; home all axis
;G29 ; run abl mesh
M420 S1 ; load mesh
G1 Z50 F240
G1 X2 Y10 F3000
M104 S210 ; set final nozzle temp
M190 S0 ; wait for bed temp to stabilize
M109 S210 ; wait for nozzle temp to stabilize
M73 P1 R17
G1 Z0.28 F240
G92 E0
G1 Y140 E10 F1500 ; prime the nozzle
M73 P2 R17
G1 X2.3 F5000
G92 E0
G1 Y10 E10 F1200 ; prime the nozzle
G92 E0
G90
G21
M83 ; use relative distances for extrusion
; filament start gcode
M106 S0
;LAYER_CHANGE
;Z:0.2
;HEIGHT:0.2
;BEFORE_LAYER_CHANGE
G92 E0
;0.2


G1 E-2.5 F1500
;AFTER_LAYER_CHANGE
;0.2
;_SET_FAN_SPEED_CHANGING_LAYER
SET_VELOCITY_LIMIT ACCEL=1700 ACCEL_TO_DECEL=850
M73 P3 R17
G1 Z.4 F12000
G1 X79.345 Y95.044
G1 Z.4
G1 Z.2
G1 E2.5 F1500
;TYPE:Skirt
;WIDTH:0.42
G1 F1200
G1 X79.886 Y94.699 E.01973
G1 X105.886 Y85.699 E.84542
G1 X106.336 Y85.623 E.01404
G1 X130.579 Y85.644 E.7449
G1 X136.175 Y86.644 E.17467
G1 X136.587 Y86.789 E.01343
G1 X139.991 Y88.629 E.1189
G1 X140.685 Y89.564 E.03578
G1 X146.041 Y115.84 E.824
G1 X146.041 Y136.16 E.62438
G1 X145.318 Y137.371 E.04334
M73 P4 R17
G1 X141.914 Y139.211 E.1189
G1 X141.26 Y139.377 E.02075
G1 X83.664 Y139.377 E1.76976
G1 X82.708 Y138.992 E.03166
G1 X82.295 Y138.155 E.02867
G1 X78.968 Y108.751 E.90927
G1 X78.959 Y96 E.3918
G1 X79.33 Y95.082 E.03043
; printing object Wide_Link_Cover.stl id:10 copy 0
;WIPE_START
G1 X79.886 Y94.699 E-1.68791
G1 X80.193 Y94.592 E-.81209
;WIPE_END
EXCLUDE_OBJECT_START NAME=Wide_Link_Cover.stl_id_10_copy_0
G1 Z.6 F12000
G1 X101.817 Y99.42 Z.6
G1 Z.2
G1 E2.5 F1500
;TYPE:Inner wall
;WIDTH:0.419999
G1 F1200
G1 X101.809 Y99.474 E.0017
G1 X101.809 Y102.313 E.08722
G1 X82.863 Y102.313 E.58215
G1 X82.863 Y99.5 E.08643
G1 X82.841 Y99.316 E.00569
G1 X82.75 Y99.135 E.00622
G1 X82.564 Y98.975 E.00754
G1 X82.298 Y98.909 E.00843
G1 X81.023 Y98.909 E.03916
G1 X81.023 Y96.687 E.06827
G1 X103.649 Y96.687 E.69523
G1 X103.649 Y97.798 E.03413
G1 X103.649 Y98.909 E.03413
G1 X102.375 Y98.909 E.03916
G1 X102.109 Y98.975 E.00843
G1 X101.922 Y99.135 E.00754
G1 X101.832 Y99.316 E.00622
G1 X101.823 Y99.38 E.00198
G1 X102.186 Y99.474 F12000
;TYPE:Outer wall
G1 F1200
G1 X102.186 Y102.69 E.0988
G1 X82.486 Y102.69 E.60533
G1 X82.486 Y99.5 E.09802
G1 X82.449 Y99.361 E.00441
G1 X82.298 Y99.286 E.00518
G1 X80.646 Y99.286 E.05074
G1 X80.646 Y96.31 E.09144
G1 X104.026 Y96.31 E.7184
M73 P5 R17
G1 X104.026 Y97.798 E.04572
G1 X104.026 Y99.286 E.04572
G1 X102.375 Y99.286 E.05074
G1 X102.224 Y99.361 E.00518
G1 X102.199 Y99.437 E.00243
;WIPE_START
G1 X102.195 Y100.437 E-2.5
;WIPE_END
G1 Z.6 F12000
G1 X102.76 Y96.8 Z.6
M73 P5 R16
G1 Z.2
G1 E2.5 F1500
;TYPE:Bottom surface
;WIDTH:0.426445
G1 F6000
G1 X103.366 Y97.406 E.0268
G1 X103.366 Y97.949 E.01695
G1 X102.388 Y96.97 E.04327
G1 X101.845 Y96.97 E.01695
G1 X103.366 Y98.491 E.06724
G1 X103.366 Y98.627 E.00424
G1 X102.964 Y98.631 E.01259
G1 X101.303 Y96.97 E.0734
G1 X100.76 Y96.97 E.01695
G1 X102.426 Y98.636 E.07362
G1 X102.228 Y98.638 E.00618
G1 X101.973 Y98.725 E.00843
G1 X100.218 Y96.97 E.07759
G1 X99.676 Y96.97 E.01695
G1 X101.687 Y98.981 E.08889
G1 X101.56 Y99.235 E.00887
G1 X101.54 Y99.376 E.00446
G1 X99.133 Y96.97 E.10635
G1 X98.591 Y96.97 E.01695
G1 X101.526 Y99.906 E.12975
G1 X101.526 Y100.448 E.01695
G1 X98.048 Y96.97 E.15372
G1 X97.506 Y96.97 E.01695
G1 X101.526 Y100.99 E.17769
G1 X101.526 Y101.533 E.01695
G1 X96.964 Y96.97 E.20167
G1 X96.421 Y96.97 E.01695
G1 X101.481 Y102.03 E.22365
G1 X100.939 Y102.03 E.01695
G1 X95.879 Y96.97 E.22365
G1 X95.336 Y96.97 E.01695
G1 X100.397 Y102.03 E.22365
G1 X99.854 Y102.03 E.01695
G1 X94.794 Y96.97 E.22365
G1 X94.252 Y96.97 E.01695
G1 X99.312 Y102.03 E.22365
G1 X98.77 Y102.03 E.01695
G1 X93.709 Y96.97 E.22365
G1 X93.167 Y96.97 E.01695
G1 X98.227 Y102.03 E.22365
G1 X97.685 Y102.03 E.01695
G1 X92.625 Y96.97 E.22365
G1 X92.082 Y96.97 E.01695
G1 X97.142 Y102.03 E.22365
G1 X96.6 Y102.03 E.01695
G1 X91.54 Y96.97 E.22365
G1 X90.997 Y96.97 E.01695
G1 X96.058 Y102.03 E.22365
G1 X95.515 Y102.03 E.01695
G1 X90.455 Y96.97 E.22365
G1 X89.913 Y96.97 E.01695
G1 X94.973 Y102.03 E.22365
G1 X94.43 Y102.03 E.01695
G1 X89.37 Y96.97 E.22365
G1 X88.828 Y96.97 E.01695
G1 X93.888 Y102.03 E.22365
G1 X93.346 Y102.03 E.01695
G1 X88.285 Y96.97 E.22365
G1 X87.743 Y96.97 E.01695
G1 X92.803 Y102.03 E.22365
G1 X92.261 Y102.03 E.01695
G1 X87.201 Y96.97 E.22365
G1 X86.658 Y96.97 E.01695
G1 X91.719 Y102.03 E.22365
G1 X91.176 Y102.03 E.01695
G1 X86.116 Y96.97 E.22365
G1 X85.574 Y96.97 E.01695
G1 X90.634 Y102.03 E.22365
G1 X90.091 Y102.03 E.01695
G1 X85.031 Y96.97 E.22365
G1 X84.489 Y96.97 E.01695
G1 X89.549 Y102.03 E.22365
G1 X89.007 Y102.03 E.01695
G1 X83.946 Y96.97 E.22365
G1 X83.404 Y96.97 E.01695
G1 X88.464 Y102.03 E.22365
G1 X87.922 Y102.03 E.01695
G1 X82.862 Y96.97 E.22365
G1 X82.319 Y96.97 E.01695
G1 X87.379 Y102.03 E.22365
G1 X86.837 Y102.03 E.01695
G1 X81.777 Y96.97 E.22365
G1 X81.306 Y96.97 E.01471
G1 X81.306 Y97.042 E.00224
G1 X86.295 Y102.03 E.22048
G1 X85.752 Y102.03 E.01695
G1 X83.139 Y99.417 E.1155
G1 X83.113 Y99.235 E.00574
G1 X82.977 Y98.963 E.00951
G1 X82.697 Y98.723 E.01152
G1 X82.361 Y98.639 E.01082
G1 X81.306 Y97.584 E.04662
G1 X81.306 Y98.126 E.01695
G1 X81.976 Y98.796 E.02958
;WIPE_START
G1 X81.306 Y98.126 E-2.36625
G1 X81.306 Y98.073 E-.13375
;WIPE_END
G1 Z.6 F12000
G1 X82.977 Y99.797 Z.6
G1 Z.2
G1 E2.5 F1500
G1 F6000
G1 X85.21 Y102.03 E.09871
G1 X84.667 Y102.03 E.01695
G1 X83.146 Y100.509 E.06724
G1 X83.146 Y101.051 E.01695
G1 X84.125 Y102.03 E.04326
G1 X83.583 Y102.03 E.01695
G1 X82.977 Y101.424 E.02679
; stop printing object Wide_Link_Cover.stl id:10 copy 0
; printing object Wide_Link_Cover.stl id:8 copy 0
;WIPE_START
G1 X83.583 Y102.03 E-2.14312
G1 X83.725 Y102.03 E-.35688
;WIPE_END
EXCLUDE_OBJECT_END NAME=Wide_Link_Cover.stl_id_10_copy_0
EXCLUDE_OBJECT_START NAME=Wide_Link_Cover.stl_id_8_copy_0
G1 Z.6 F12000
G1 X101.817 Y108.42 Z.6
G1 Z.2
G1 E2.5 F1500
;TYPE:Inner wall
;WIDTH:0.419999
G1 F1200
G1 X101.809 Y108.474 E.0017
G1 X101.809 Y111.313 E.08722
G1 X82.863 Y111.313 E.58215
G1 X82.863 Y108.5 E.08643
G1 X82.841 Y108.316 E.00569
G1 X82.75 Y108.135 E.00622
G1 X82.564 Y107.975 E.00754
G1 X82.298 Y107.909 E.00843
G1 X81.023 Y107.909 E.03916
G1 X81.023 Y105.687 E.06827
G1 X103.649 Y105.687 E.69523
G1 X103.649 Y106.798 E.03413
M73 P6 R16
G1 X103.649 Y107.909 E.03413
G1 X102.375 Y107.909 E.03916
G1 X102.109 Y107.975 E.00843
G1 X101.922 Y108.135 E.00754
G1 X101.832 Y108.316 E.00622
G1 X101.823 Y108.38 E.00198
G1 X102.186 Y108.474 F12000
;TYPE:Outer wall
G1 F1200
G1 X102.186 Y111.69 E.0988
G1 X82.486 Y111.69 E.60533
G1 X82.486 Y108.5 E.09802
G1 X82.449 Y108.361 E.00441
G1 X82.298 Y108.286 E.00518
G1 X80.646 Y108.286 E.05074
G1 X80.646 Y105.31 E.09144
G1 X104.026 Y105.31 E.7184
G1 X104.026 Y106.798 E.04572
G1 X104.026 Y108.286 E.04572
G1 X102.375 Y108.286 E.05074
G1 X102.224 Y108.361 E.00518
G1 X102.199 Y108.437 E.00243
;WIPE_START
G1 X102.195 Y109.437 E-2.5
;WIPE_END
G1 Z.6 F12000
G1 X102.76 Y105.8 Z.6
G1 Z.2
G1 E2.5 F1500
;TYPE:Bottom surface
;WIDTH:0.426445
G1 F6000
G1 X103.366 Y106.406 E.0268
G1 X103.366 Y106.949 E.01695
G1 X102.388 Y105.97 E.04327
G1 X101.845 Y105.97 E.01695
G1 X103.366 Y107.491 E.06724
G1 X103.366 Y107.627 E.00424
G1 X102.964 Y107.631 E.01259
G1 X101.303 Y105.97 E.0734
G1 X100.76 Y105.97 E.01695
G1 X102.426 Y107.636 E.07362
G1 X102.228 Y107.638 E.00618
G1 X101.973 Y107.725 E.00843
G1 X100.218 Y105.97 E.07759
G1 X99.676 Y105.97 E.01695
G1 X101.687 Y107.981 E.08889
G1 X101.56 Y108.235 E.00887
G1 X101.54 Y108.376 E.00446
G1 X99.133 Y105.97 E.10635
G1 X98.591 Y105.97 E.01695
G1 X101.526 Y108.906 E.12975
G1 X101.526 Y109.448 E.01695
G1 X98.048 Y105.97 E.15372
G1 X97.506 Y105.97 E.01695
G1 X101.526 Y109.99 E.17769
G1 X101.526 Y110.533 E.01695
G1 X96.964 Y105.97 E.20167
G1 X96.421 Y105.97 E.01695
G1 X101.481 Y111.03 E.22365
G1 X100.939 Y111.03 E.01695
G1 X95.879 Y105.97 E.22365
G1 X95.336 Y105.97 E.01695
G1 X100.397 Y111.03 E.22365
G1 X99.854 Y111.03 E.01695
G1 X94.794 Y105.97 E.22365
G1 X94.252 Y105.97 E.01695
G1 X99.312 Y111.03 E.22365
G1 X98.77 Y111.03 E.01695
G1 X93.709 Y105.97 E.22365
G1 X93.167 Y105.97 E.01695
G1 X98.227 Y111.03 E.22365
G1 X97.685 Y111.03 E.01695
G1 X92.625 Y105.97 E.22365
G1 X92.082 Y105.97 E.01695
G1 X97.142 Y111.03 E.22365
G1 X96.6 Y111.03 E.01695
G1 X91.54 Y105.97 E.22365
G1 X90.997 Y105.97 E.01695
G1 X96.058 Y111.03 E.22365
G1 X95.515 Y111.03 E.01695
G1 X90.455 Y105.97 E.22365
G1 X89.913 Y105.97 E.01695
G1 X94.973 Y111.03 E.22365
G1 X94.43 Y111.03 E.01695
G1 X89.37 Y105.97 E.22365
G1 X88.828 Y105.97 E.01695
G1 X93.888 Y111.03 E.22365
G1 X93.346 Y111.03 E.01695
G1 X88.285 Y105.97 E.22365
G1 X87.743 Y105.97 E.01695
G1 X92.803 Y111.03 E.22365
G1 X92.261 Y111.03 E.01695
G1 X87.201 Y105.97 E.22365
G1 X86.658 Y105.97 E.01695
G1 X91.719 Y111.03 E.22365
G1 X91.176 Y111.03 E.01695
G1 X86.116 Y105.97 E.22365
G1 X85.574 Y105.97 E.01695
G1 X90.634 Y111.03 E.22365
G1 X90.091 Y111.03 E.01695
G1 X85.031 Y105.97 E.22365
G1 X84.489 Y105.97 E.01695
G1 X89.549 Y111.03 E.22365
G1 X89.007 Y111.03 E.01695
G1 X83.946 Y105.97 E.22365
G1 X83.404 Y105.97 E.01695
G1 X88.464 Y111.03 E.22365
G1 X87.922 Y111.03 E.01695
G1 X82.862 Y105.97 E.22365
G1 X82.319 Y105.97 E.01695
G1 X87.379 Y111.03 E.22365
G1 X86.837 Y111.03 E.01695
G1 X81.777 Y105.97 E.22365
G1 X81.306 Y105.97 E.01471
G1 X81.306 Y106.042 E.00224
G1 X86.295 Y111.03 E.22048
G1 X85.752 Y111.03 E.01695
G1 X83.139 Y108.417 E.1155
G1 X83.113 Y108.235 E.00574
G1 X82.977 Y107.963 E.00951
G1 X82.697 Y107.723 E.01152
G1 X82.361 Y107.639 E.01082
G1 X81.306 Y106.584 E.04662
G1 X81.306 Y107.126 E.01695
G1 X81.976 Y107.796 E.02958
;WIPE_START
G1 X81.306 Y107.126 E-2.36625
G1 X81.306 Y107.073 E-.13375
;WIPE_END
G1 Z.6 F12000
G1 X82.977 Y108.797 Z.6
G1 Z.2
G1 E2.5 F1500
G1 F6000
G1 X85.21 Y111.03 E.09871
G1 X84.667 Y111.03 E.01695
G1 X83.146 Y109.509 E.06724
G1 X83.146 Y110.051 E.01695
G1 X84.125 Y111.03 E.04326
G1 X83.583 Y111.03 E.01695
G1 X82.977 Y110.424 E.02679
; stop printing object Wide_Link_Cover.stl id:8 copy 0
; printing object Wide_Link_Cover.stl id:9 copy 0
;WIPE_START
