; HEADER_BLOCK_START
; generated by OrcaSlicer 1.8.0-beta1 on 2024-10-25 at 22:57:58
; total layer number: 29
; HEADER_BLOCK_END


;
;
; external perimeters extrusion width = 0.40mm
; perimeters extrusion width = 0.45mm
; infill extrusion width = 0.45mm
; solid infill extrusion width = 0.45mm
; top infill extrusion width = 0.38mm
; first layer extrusion width = 0.42mm

; external perimeters extrusion width = 0.40mm
; perimeters extrusion width = 0.45mm
; infill extrusion width = 0.45mm
; solid infill extrusion width = 0.45mm
; top infill extrusion width = 0.38mm
; first layer extrusion width = 0.42mm

; external perimeters extrusion width = 0.40mm
; perimeters extrusion width = 0.45mm
; infill extrusion width = 0.45mm
; solid infill extrusion width = 0.45mm
; top infill extrusion width = 0.38mm
; first layer extrusion width = 0.42mm

; external perimeters extrusion width = 0.40mm
; perimeters extrusion width = 0.45mm
; infill extrusion width = 0.45mm
; solid infill extrusion width = 0.45mm
; top infill extrusion width = 0.38mm
; first layer extrusion width = 0.42mm

; external perimeters extrusion width = 0.40mm
; perimeters extrusion width = 0.45mm
; infill extrusion width = 0.45mm
; solid infill extrusion width = 0.45mm
; top infill extrusion width = 0.38mm
; first layer extrusion width = 0.42mm

; external perimeters extrusion width = 0.40mm
; perimeters extrusion width = 0.45mm
; infill extrusion width = 0.45mm
; solid infill extrusion width = 0.45mm
; top infill extrusion width = 0.38mm
; first layer extrusion width = 0.42mm

; external perimeters extrusion width = 0.40mm
; perimeters extrusion width = 0.45mm
; infill extrusion width = 0.45mm
; solid infill extrusion width = 0.45mm
; top infill extrusion width = 0.38mm
; first layer extrusion width = 0.42mm

; external perimeters extrusion width = 0.40mm
; perimeters extrusion width = 0.45mm
; infill extrusion width = 0.45mm
; solid infill extrusion width = 0.45mm
; top infill extrusion width = 0.38mm
; first layer extrusion width = 0.42mm

; external perimeters extrusion width = 0.40mm
; perimeters extrusion width = 0.45mm
; infill extrusion width = 0.45mm
; solid infill extrusion width = 0.45mm
; top infill extrusion width = 0.38mm
; first layer extrusion width = 0.42mm

; external perimeters extrusion width = 0.40mm
; perimeters extrusion width = 0.45mm
; infill extrusion width = 0.45mm
; solid infill extrusion width = 0.45mm
; top infill extrusion width = 0.38mm
; first layer extrusion width = 0.42mm

; external perimeters extrusion width = 0.40mm
; perimeters extrusion width = 0.45mm
; infill extrusion width = 0.45mm
; solid infill extrusion width = 0.45mm
; top infill extrusion width = 0.38mm
; first layer extrusion width = 0.42mm

; external perimeters extrusion width = 0.40mm
; perimeters extrusion width = 0.45mm
; infill extrusion width = 0.45mm
; solid infill extrusion width = 0.45mm
; top infill extrusion width = 0.38mm
; first layer extrusion width = 0.42mm

; external perimeters extrusion width = 0.40mm
; perimeters extrusion width = 0.45mm
; infill extrusion width = 0.45mm
; solid infill extrusion width = 0.45mm
; top infill extrusion width = 0.38mm
; first layer extrusion width = 0.42mm

; external perimeters extrusion width = 0.40mm
; perimeters extrusion width = 0.45mm
; infill extrusion width = 0.45mm
; solid infill extrusion width = 0.45mm
; top infill extrusion width = 0.38mm
; first layer extrusion width = 0.42mm

; external perimeters extrusion width = 0.40mm
; perimeters extrusion width = 0.45mm
; infill extrusion width = 0.45mm
; solid infill extrusion width = 0.45mm
; top infill extrusion width = 0.38mm
; first layer extrusion width = 0.42mm

; external perimeters extrusion width = 0.40mm
; perimeters extrusion width = 0.45mm
; infill extrusion width = 0.45mm
; solid infill extrusion width = 0.45mm
; top infill extrusion width = 0.38mm
; first layer extrusion width = 0.42mm

; EXECUTABLE_BLOCK_START
EXCLUDE_OBJECT_DEFINE NAME=Slim_Link_Cover.stl_id_0_copy_0 CENTER=140.06,133.5 POLYGON=[[136.56,124],[140.156,124],[143.56,125.84],[143.56,141.16],[140.156,143],[136.56,143],[136.56,124]]
EXCLUDE_OBJECT_DEFINE NAME=Slim_Link_Cover.stl_id_1_copy_0 CENTER=131.06,133.5 POLYGON=[[127.56,124],[131.156,124],[134.56,125.84],[134.56,141.16],[131.156,143],[127.56,143],[127.56,124]]
EXCLUDE_OBJECT_DEFINE NAME=Slim_Link_Cover.stl_id_2_copy_0 CENTER=122.06,133.5 POLYGON=[[118.56,124],[122.156,124],[125.56,125.84],[125.56,141.16],[122.156,143],[118.56,143],[118.56,124]]
EXCLUDE_OBJECT_DEFINE NAME=Slim_Link_Cover.stl_id_3_copy_0 CENTER=113.06,133.5 POLYGON=[[109.56,124],[113.156,124],[116.56,125.84],[116.56,141.16],[113.156,143],[109.56,143],[109.56,124]]
EXCLUDE_OBJECT_DEFINE NAME=Slim_Link_Cover.stl_id_4_copy_0 CENTER=122.06,112.5 POLYGON=[[118.56,103],[122.156,103],[125.56,104.84],[125.56,120.16],[122.156,122],[118.56,122],[118.56,103]]
EXCLUDE_OBJECT_DEFINE NAME=Slim_Link_Cover.stl_id_5_copy_0 CENTER=131.06,112.5 POLYGON=[[127.56,103],[131.156,103],[134.56,104.84],[134.56,120.16],[131.156,122],[127.56,122],[127.56,103]]
EXCLUDE_OBJECT_DEFINE NAME=Slim_Link_Cover.stl_id_6_copy_0 CENTER=113.06,112.5 POLYGON=[[109.56,103],[113.156,103],[116.56,104.84],[116.56,120.16],[113.156,122],[109.56,122],[109.56,103]]
EXCLUDE_OBJECT_DEFINE NAME=Slim_Link_Cover.stl_id_7_copy_0 CENTER=140.06,112.5 POLYGON=[[136.56,103],[140.156,103],[143.56,104.84],[143.56,120.16],[140.156,122],[136.56,122],[136.56,103]]
EXCLUDE_OBJECT_DEFINE NAME=Slim_Link_Cover.stl_id_8_copy_0 CENTER=104.06,112.5 POLYGON=[[100.56,103],[104.156,103],[107.56,104.84],[107.56,120.16],[104.156,122],[100.56,122],[100.56,103]]
EXCLUDE_OBJECT_DEFINE NAME=Slim_Link_Cover.stl_id_9_copy_0 CENTER=104.06,133.5 POLYGON=[[100.56,124],[104.156,124],[107.56,125.84],[107.56,141.16],[104.156,143],[100.56,143],[100.56,124]]
EXCLUDE_OBJECT_DEFINE NAME=Slim_Link_Cover.stl_id_10_copy_0 CENTER=95.0604,113.869 POLYGON=[[91.5604,104.369],[95.1564,104.369],[98.5604,106.209],[98.5604,121.529],[95.1564,123.369],[91.5604,123.369],[91.5604,104.369]]
EXCLUDE_OBJECT_DEFINE NAME=Slim_Link_Cover.stl_id_11_copy_0 CENTER=119.669,97.5 POLYGON=[[110.169,94],[129.169,94],[129.169,97.596],[127.329,101],[112.009,101],[110.169,97.596],[110.169,94]]
EXCLUDE_OBJECT_DEFINE NAME=Slim_Link_Cover.stl_id_12_copy_0 CENTER=98.6692,97.5 POLYGON=[[89.1692,94],[108.169,94],[108.169,97.596],[106.329,101],[91.0092,101],[89.1692,97.596],[89.1692,94]]
EXCLUDE_OBJECT_DEFINE NAME=Slim_Link_Cover.stl_id_13_copy_0 CENTER=119.669,88.5 POLYGON=[[110.169,85],[129.169,85],[129.169,88.596],[127.329,92],[112.009,92],[110.169,88.596],[110.169,85]]
EXCLUDE_OBJECT_DEFINE NAME=Slim_Link_Cover.stl_id_14_copy_0 CENTER=134.669,91.5 POLYGON=[[131.169,82],[134.765,82],[138.169,83.84],[138.169,99.16],[134.765,101],[131.169,101],[131.169,82]]
EXCLUDE_OBJECT_DEFINE NAME=Slim_Link_Cover.stl_id_15_copy_0 CENTER=90.0186,128.304 POLYGON=[[81.4767,126.013],[82.5827,122.305],[85.1254,119.763],[98.5604,133.198],[96.0177,135.74],[92.3096,136.846],[81.4767,126.013]]
M73 P0 R19
;TYPE:Custom
M413 S0 ; disable Power Loss Recovery
G90 ; use absolute coordinates
M83 ; extruder relative mode
M104 S120 ; set temporary nozzle temp to prevent oozing during homing and auto bed leveling
M140 S0 ; set final bed temp
G4 S10 ; allow partial nozzle warmup
G28 ; home all axis
;G29 ; run abl mesh
M420 S1 ; load mesh
G1 Z50 F240
G1 X2 Y10 F3000
M104 S210 ; set final nozzle temp
M190 S0 ; wait for bed temp to stabilize
M109 S210 ; wait for nozzle temp to stabilize
M73 P1 R19
G1 Z0.28 F240
G92 E0
G1 Y140 E10 F1500 ; prime the nozzle
M73 P2 R18
G1 X2.3 F5000
G92 E0
G1 Y10 E10 F1200 ; prime the nozzle
G92 E0
G90
G21
M83 ; use relative distances for extrusion
; filament start gcode
M106 S0
;LAYER_CHANGE
;Z:0.2
;HEIGHT:0.2
;BEFORE_LAYER_CHANGE
G92 E0
;0.2


G1 E-2.5 F1500
;AFTER_LAYER_CHANGE
;0.2
;_SET_FAN_SPEED_CHANGING_LAYER
SET_VELOCITY_LIMIT ACCEL=1700 ACCEL_TO_DECEL=850
M73 P3 R18
G1 Z.4 F12000
G1 X88.627 Y92.734
G1 Z.4
G1 Z.2
G1 E2.5 F1500
;TYPE:Skirt
;WIDTH:0.42
G1 F1200
G1 X109.974 Y83.637 E.71304
G1 X130.974 Y80.637 E.65182
G1 X134.765 Y80.623 E.11648
G1 X135.42 Y80.789 E.02075
G1 X138.824 Y82.629 E.1189
G1 X139.503 Y83.498 E.03389
G1 X144.894 Y104.498 E.6662
G1 X144.937 Y141.16 E1.12653
G1 X144.215 Y142.371 E.04334
G1 X140.811 Y144.211 E.1189
G1 X140.156 Y144.377 E.02075
G1 X100.56 Y144.377 E1.21667
G1 X99.737 Y144.104 E.02665
G1 X91.336 Y137.82 E.32237
G1 X80.503 Y126.987 E.47074
M73 P4 R18
G1 X80.138 Y125.692 E.04136
G1 X87.83 Y93.678 E1.01168
G1 X88.601 Y92.765 E.03672
; printing object Slim_Link_Cover.stl id:0 copy 0
;WIPE_START
G1 X89.521 Y92.372 E-2.5
;WIPE_END
EXCLUDE_OBJECT_START NAME=Slim_Link_Cover.stl_id_0_copy_0
G1 Z.6 F12000
G1 X139.491 Y126.048 Z.6
G1 Z.2
G1 E2.5 F1500
;TYPE:Inner wall
;WIDTH:0.419999
G1 F1200
G1 X139.536 Y126.228 E.00569
G1 X139.695 Y126.414 E.00754
G1 X139.876 Y126.504 E.00622
G1 X140.035 Y126.527 E.00492
G1 X142.873 Y126.527 E.08722
G1 X142.873 Y129.34 E.08643
G1 X142.873 Y140.473 E.34208
G1 X140.06 Y140.473 E.08643
G1 X139.876 Y140.496 E.00569
G1 X139.695 Y140.586 E.00622
G1 X139.536 Y140.772 E.00754
G1 X139.469 Y141.039 E.00843
G1 X139.469 Y142.313 E.03916
G1 X137.247 Y142.313 E.06827
G1 X137.247 Y124.687 E.54159
G1 X139.469 Y124.687 E.06827
G1 X139.469 Y125.961 E.03916
G1 X139.481 Y126.009 E.00152
G1 X139.846 Y125.961 F12000
;TYPE:Outer wall
G1 F1200
G1 X139.922 Y126.112 E.00518
G1 X140.035 Y126.15 E.00366
G1 X143.25 Y126.15 E.0988
G1 X143.25 Y129.34 E.09802
G1 X143.25 Y140.85 E.35367
G1 X140.06 Y140.85 E.09802
G1 X139.922 Y140.888 E.00441
G1 X139.846 Y141.039 E.00518
G1 X139.846 Y142.69 E.05074
G1 X136.87 Y142.69 E.09144
G1 X136.87 Y124.31 E.56477
G1 X139.846 Y124.31 E.09144
G1 X139.846 Y125.921 E.04952
;WIPE_START
G1 X139.922 Y126.112 E-.51298
G1 X140.035 Y126.15 E-.29811
G1 X140.71 Y126.15 E-1.68891
;WIPE_END
G1 Z.6 F12000
G1 X141.989 Y126.64 Z.6
G1 Z.2
G1 E2.5 F1500
;TYPE:Bottom surface
;WIDTH:0.424296
G1 F6000
G1 X142.59 Y127.242 E.02644
G1 X142.59 Y127.781 E.01676
G1 X141.619 Y126.81 E.04269
G1 X141.08 Y126.81 E.01676
G1 X142.59 Y128.321 E.0664
G1 X142.59 Y128.86 E.01676
G1 X140.371 Y126.64 E.09756
;WIPE_START
G1 X141.078 Y127.347 E-2.5
;WIPE_END
G1 Z.6 F12000
G1 X139.356 Y125.626 Z.6
G1 Z.2
G1 E2.5 F1500
G1 F6000
G1 X138.7 Y124.97 E.02882
G1 X138.161 Y124.97 E.01676
G1 X139.189 Y125.998 E.04519
G1 X139.199 Y126.111 E.00354
G1 X139.286 Y126.364 E.0083
G1 X139.523 Y126.641 E.01132
G1 X139.795 Y126.777 E.00945
G1 X139.996 Y126.805 E.00632
G1 X142.59 Y129.399 E.114
G1 X142.59 Y129.939 E.01676
G1 X137.622 Y124.97 E.21838
G1 X137.53 Y124.97 E.00284
G1 X137.53 Y125.418 E.01392
G1 X142.59 Y130.478 E.2224
G1 X142.59 Y131.017 E.01676
G1 X137.53 Y125.957 E.2224
G1 X137.53 Y126.496 E.01676
G1 X142.59 Y131.557 E.2224
G1 X142.59 Y132.096 E.01676
G1 X137.53 Y127.036 E.2224
G1 X137.53 Y127.575 E.01676
G1 X142.59 Y132.635 E.2224
G1 X142.59 Y133.175 E.01676
G1 X137.53 Y128.115 E.2224
G1 X137.53 Y128.654 E.01676
G1 X142.59 Y133.714 E.2224
G1 X142.59 Y134.253 E.01676
G1 X137.53 Y129.193 E.2224
G1 X137.53 Y129.733 E.01676
G1 X142.59 Y134.793 E.2224
G1 X142.59 Y135.332 E.01676
G1 X137.53 Y130.272 E.2224
G1 X137.53 Y130.811 E.01676
G1 X142.59 Y135.871 E.2224
G1 X142.59 Y136.411 E.01676
G1 X137.53 Y131.351 E.2224
G1 X137.53 Y131.89 E.01676
G1 X142.59 Y136.95 E.2224
G1 X142.59 Y137.489 E.01676
G1 X137.53 Y132.429 E.2224
G1 X137.53 Y132.969 E.01676
G1 X142.59 Y138.029 E.2224
G1 X142.59 Y138.568 E.01676
M73 P5 R18
G1 X137.53 Y133.508 E.2224
G1 X137.53 Y134.047 E.01676
G1 X142.59 Y139.108 E.2224
G1 X142.59 Y139.647 E.01676
G1 X137.53 Y134.587 E.2224
G1 X137.53 Y135.126 E.01676
G1 X142.59 Y140.19 E.22248
G1 X142.055 Y140.19 E.01664
G1 X137.53 Y135.665 E.19886
G1 X137.53 Y136.205 E.01676
G1 X141.516 Y140.19 E.17516
G1 X140.976 Y140.19 E.01676
G1 X137.53 Y136.744 E.15145
G1 X137.53 Y137.283 E.01676
G1 X140.437 Y140.19 E.12775
G1 X140.028 Y140.19 E.01271
G1 X139.914 Y140.206 E.00359
G1 X137.53 Y137.823 E.10476
G1 X137.53 Y138.362 E.01676
G1 X139.526 Y140.358 E.08772
G1 X139.28 Y140.651 E.0119
G1 X137.53 Y138.901 E.07691
G1 X137.53 Y139.441 E.01676
G1 X139.186 Y141.097 E.07279
G1 X139.186 Y141.636 E.01676
G1 X137.53 Y139.98 E.07279
G1 X137.53 Y140.519 E.01676
G1 X139.041 Y142.03 E.06639
G1 X138.501 Y142.03 E.01676
G1 X137.53 Y141.059 E.04269
G1 X137.53 Y141.598 E.01676
G1 X138.132 Y142.2 E.02644
; stop printing object Slim_Link_Cover.stl id:0 copy 0
; printing object Slim_Link_Cover.stl id:1 copy 0
;WIPE_START
G1 X137.53 Y141.598 E-2.12702
G1 X137.53 Y141.449 E-.37298
;WIPE_END
EXCLUDE_OBJECT_END NAME=Slim_Link_Cover.stl_id_0_copy_0
EXCLUDE_OBJECT_START NAME=Slim_Link_Cover.stl_id_1_copy_0
G1 Z.6 F12000
G1 X130.491 Y126.048 Z.6
G1 Z.2
G1 E2.5 F1500
;TYPE:Inner wall
;WIDTH:0.419999
G1 F1200
G1 X130.536 Y126.228 E.00569
G1 X130.695 Y126.414 E.00754
G1 X130.876 Y126.504 E.00622
G1 X131.035 Y126.527 E.00492
G1 X133.873 Y126.527 E.08722
G1 X133.873 Y129.34 E.08643
G1 X133.873 Y140.473 E.34208
G1 X131.06 Y140.473 E.08643
G1 X130.876 Y140.496 E.00569
G1 X130.695 Y140.586 E.00622
G1 X130.536 Y140.772 E.00754
G1 X130.469 Y141.039 E.00843
G1 X130.469 Y142.313 E.03916
G1 X128.247 Y142.313 E.06827
G1 X128.247 Y124.687 E.54159
G1 X130.469 Y124.687 E.06827
G1 X130.469 Y125.961 E.03916
G1 X130.481 Y126.009 E.00152
G1 X130.846 Y125.961 F12000
;TYPE:Outer wall
G1 F1200
G1 X130.922 Y126.112 E.00518
G1 X131.035 Y126.15 E.00366
G1 X134.25 Y126.15 E.0988
G1 X134.25 Y129.34 E.09802
G1 X134.25 Y140.85 E.35367
G1 X131.06 Y140.85 E.09802
G1 X130.922 Y140.888 E.00441
G1 X130.846 Y141.039 E.00518
G1 X130.846 Y142.69 E.05074
G1 X127.87 Y142.69 E.09144
G1 X127.87 Y124.31 E.56477
G1 X130.846 Y124.31 E.09144
G1 X130.846 Y125.921 E.04952
;WIPE_START
G1 X130.922 Y126.112 E-.51298
G1 X131.035 Y126.15 E-.29811
G1 X131.71 Y126.15 E-1.68891
;WIPE_END
G1 Z.6 F12000
G1 X132.989 Y126.64 Z.6
G1 Z.2
G1 E2.5 F1500
;TYPE:Bottom surface
;WIDTH:0.424296
G1 F6000
G1 X133.59 Y127.242 E.02644
G1 X133.59 Y127.781 E.01676
G1 X132.619 Y126.81 E.04269
G1 X132.08 Y126.81 E.01676
G1 X133.59 Y128.321 E.0664
G1 X133.59 Y128.86 E.01676
G1 X131.371 Y126.64 E.09756
;WIPE_START
G1 X132.078 Y127.347 E-2.5
;WIPE_END
G1 Z.6 F12000
G1 X130.356 Y125.626 Z.6
G1 Z.2
G1 E2.5 F1500
G1 F6000
G1 X129.7 Y124.97 E.02882
G1 X129.161 Y124.97 E.01676
G1 X130.189 Y125.998 E.04519
G1 X130.199 Y126.111 E.00354
G1 X130.286 Y126.364 E.0083
G1 X130.523 Y126.641 E.01132
G1 X130.795 Y126.777 E.00945
G1 X130.997 Y126.805 E.00632
G1 X133.59 Y129.399 E.114
G1 X133.59 Y129.939 E.01676
G1 X128.622 Y124.97 E.21838
G1 X128.53 Y124.97 E.00284
G1 X128.53 Y125.418 E.01392
G1 X133.59 Y130.478 E.2224
G1 X133.59 Y131.017 E.01676
G1 X128.53 Y125.957 E.2224
G1 X128.53 Y126.496 E.01676
G1 X133.59 Y131.557 E.2224
G1 X133.59 Y132.096 E.01676
G1 X128.53 Y127.036 E.2224
G1 X128.53 Y127.575 E.01676
G1 X133.59 Y132.635 E.2224
G1 X133.59 Y133.175 E.01676
G1 X128.53 Y128.115 E.2224
G1 X128.53 Y128.654 E.01676
G1 X133.59 Y133.714 E.2224
G1 X133.59 Y134.253 E.01676
G1 X128.53 Y129.193 E.2224
G1 X128.53 Y129.733 E.01676
G1 X133.59 Y134.793 E.2224
G1 X133.59 Y135.332 E.01676
G1 X128.53 Y130.272 E.2224
G1 X128.53 Y130.811 E.01676
G1 X133.59 Y135.871 E.2224
G1 X133.59 Y136.411 E.01676
G1 X128.53 Y131.351 E.2224
G1 X128.53 Y131.89 E.01676
G1 X133.59 Y136.95 E.2224
G1 X133.59 Y137.489 E.01676
G1 X128.53 Y132.429 E.2224
G1 X128.53 Y132.969 E.01676
G1 X133.59 Y138.029 E.2224
G1 X133.59 Y138.568 E.01676
G1 X128.53 Y133.508 E.2224
G1 X128.53 Y134.047 E.01676
G1 X133.59 Y139.108 E.2224
G1 X133.59 Y139.647 E.01676
G1 X128.53 Y134.587 E.2224
G1 X128.53 Y135.126 E.01676
G1 X133.59 Y140.19 E.22248
G1 X133.055 Y140.19 E.01664
G1 X128.53 Y135.665 E.19886
G1 X128.53 Y136.205 E.01676
G1 X132.516 Y140.19 E.17516
G1 X131.976 Y140.19 E.01676
G1 X128.53 Y136.744 E.15145
G1 X128.53 Y137.283 E.01676
M73 P6 R18
G1 X131.437 Y140.19 E.12775
G1 X131.028 Y140.19 E.01271
G1 X130.914 Y140.206 E.00359
G1 X128.53 Y137.823 E.10476
G1 X128.53 Y138.362 E.01676
G1 X130.526 Y140.358 E.08772
