;FLAVOR:Marlin
;TIME:684
;Filament used: 0.974151m
;Layer height: 0.3
;Generated with Cura_SteamEngine 3.6.0
M104 S220
M105
M109 S220
M82 ;absolute extrusion mode
G21 ;metric values
G90 ;absolute positioning
M82 ;set extruder to absolute mode
M107 ;start with the fan off
G28 X0 Y0 ;move X/Y to min endstops
G28 Z0 ;move Z to min endstops
G1 Z15.0 F120 ;move the platform down 15mm
G92 E0 ;zero the extruded length
G1 F200 E3 ;extrude 3mm of feed stock
G92 E0 ;zero the extruded length again
G1 F120
M117 Printing...
G5
G92 E0
G1 F2400 E-6
;LAYER_COUNT:32
;LAYER:0
M106 S127.5
M204 S3000
M205 X10 Y10
G0 F1200 X40.176 Y72.619 Z0.3
M204 S1800
M205 X8 Y8
;TYPE:SKIRT
G1 F2400 E0
G1 X40.82 Y72.267 E0.06023
G1 X41.499 Y71.987 E0.12051
G1 X42.205 Y71.782 E0.18084
G1 X42.929 Y71.656 E0.24116
G1 X43.729 Y71.608 E0.30693
G1 X46.906 Y71.608 E0.56766
G1 X47.639 Y71.648 E0.62791
G1 X48.364 Y71.767 E0.68821
G1 X49.072 Y71.965 E0.74854
G1 X49.754 Y72.238 E0.80883
G1 X50.402 Y72.584 E0.86912
G1 X51.009 Y72.998 E0.92942
G1 X51.605 Y73.512 E0.99401
G1 X51.868 Y73.767 E1.02407
G1 X52.366 Y74.306 E1.0843
G1 X52.804 Y74.896 E1.1446
G1 X53.174 Y75.531 E1.20492
G1 X53.474 Y76.202 E1.26524
G1 X53.698 Y76.901 E1.32548
G1 X53.846 Y77.621 E1.38581
G1 X53.913 Y78.325 E1.44384
G1 X54.141 Y83.653 E1.88151
G1 X54.511 Y87.739 E2.21822
G1 X54.537 Y88.525 E2.28276
G1 X54.449 Y91.876 E2.55787
G1 X54.526 Y97.22 E2.99649
G1 X54.708 Y100.373 E3.25569
G1 X54.714 Y101.017 E3.30854
G1 X54.466 Y107.596 E3.84886
G1 X54.4 Y113.012 E4.29338
G1 X54.517 Y117.654 E4.67447
G1 X54.515 Y118.066 E4.70828
G1 X54.224 Y126.163 E5.37323
G1 X54.363 Y132.71 E5.91066
G1 X54.36 Y133.114 E5.94381
G1 X54.111 Y139.553 E6.47265
G1 X54.045 Y145.016 E6.92103
G1 X54.173 Y149.446 E7.28475
G1 X54.176 Y149.648 E7.30133
G1 X54.17 Y154.624 E7.70971
G1 X54.615 Y163.908 E8.47251
G1 X54.621 Y164.385 E8.51166
G1 X54.572 Y166.531 E8.68783
G1 X54.516 Y167.263 E8.74808
G1 X54.38 Y167.985 E8.80838
G1 X54.166 Y168.688 E8.86869
G1 X53.877 Y169.364 E8.92902
G1 X53.517 Y170.004 E8.98929
G1 X53.089 Y170.601 E9.04957
G1 X52.607 Y171.14 E9.10891
G1 X52.358 Y171.39 E9.13787
G1 X51.812 Y171.882 E9.19819
G1 X51.215 Y172.311 E9.25852
G1 X50.576 Y172.673 E9.3188
G1 X49.901 Y172.963 E9.37909
G1 X49.199 Y173.179 E9.43937
G1 X48.478 Y173.316 E9.4996
G1 X47.592 Y173.377 E9.57248
G1 X43.11 Y173.388 E9.94032
G1 X42.376 Y173.35 E10.00064
G1 X41.651 Y173.232 E10.06092
G1 X40.943 Y173.036 E10.12121
G1 X40.26 Y172.765 E10.18152
G1 X39.611 Y172.421 E10.2418
G1 X39.004 Y172.008 E10.30206
G1 X38.47 Y171.556 E10.35947
G1 X38.203 Y171.305 E10.38955
G1 X37.696 Y170.774 E10.4498
G1 X37.249 Y170.19 E10.51016
G1 X36.869 Y169.562 E10.5704
G1 X36.559 Y168.895 E10.63076
G1 X36.324 Y168.2 E10.69097
G1 X36.165 Y167.482 E10.75132
G1 X36.081 Y166.652 E10.81979
G1 X36.028 Y165.302 E10.93067
G1 X36.026 Y164.84 E10.96859
G1 X36.122 Y161.558 E11.23805
G1 X36.13 Y161.37 E11.2535
G1 X36.425 Y156.21 E11.67767
G1 X36.5 Y153.608 E11.8913
G1 X36.469 Y148.246 E12.33136
G1 X36.472 Y148.016 E12.35024
G1 X36.601 Y143.452 E12.72495
G1 X36.29 Y133.193 E13.56729
G1 X36.29 Y132.797 E13.59979
G1 X36.435 Y127.671 E14.02065
G1 X36.358 Y123.637 E14.35177
G1 X36.106 Y117.161 E14.88366
G1 X36.104 Y116.704 E14.92116
G1 X36.253 Y111.528 E15.34613
G1 X36.176 Y107.499 E15.67685
G1 X35.941 Y101.426 E16.17563
G1 X35.941 Y100.907 E16.21822
G1 X36.216 Y93.72 E16.80849
G1 X36.102 Y88.573 E17.231
G1 X36.126 Y87.829 E17.29209
G1 X36.493 Y83.68 E17.63393
G1 X36.717 Y78.463 E18.06248
G1 X36.789 Y77.732 E18.12276
G1 X36.939 Y77.013 E18.18304
G1 X37.127 Y76.419 E18.23417
G1 X37.204 Y76.21 E18.25245
G1 X37.495 Y75.536 E18.3127
G1 X37.858 Y74.897 E18.37302
G1 X38.288 Y74.302 E18.43326
G1 X38.829 Y73.708 E18.4992
G1 X39.02 Y73.522 E18.52108
G1 X39.573 Y73.039 E18.58134
G1 X40.176 Y72.619 E18.64165
M204 S3000
M205 X10 Y10
G0 F1200 X40.607 Y73.175
M204 S1800
M205 X8 Y8
G1 F2400 X41.223 Y72.851 E18.69877
G1 X41.871 Y72.6 E18.7558
G1 X42.544 Y72.425 E18.81287
G1 X43.233 Y72.328 E18.86997
G1 X43.729 Y72.308 E18.91071
G1 X46.906 Y72.308 E19.17145
G1 X47.6 Y72.348 E19.2285
G1 X48.285 Y72.467 E19.28556
G1 X48.952 Y72.665 E19.34266
G1 X49.592 Y72.937 E19.39973
G1 X50.196 Y73.281 E19.45678
G1 X50.757 Y73.692 E19.51385
G1 X51.117 Y74.014 E19.55349
G1 X51.38 Y74.269 E19.58355
G1 X51.851 Y74.781 E19.64065
G1 X52.26 Y75.344 E19.69776
G1 X52.601 Y75.95 E19.75483
G1 X52.871 Y76.591 E19.81191
G1 X53.065 Y77.258 E19.86892
G1 X53.182 Y77.944 E19.92603
G1 X53.213 Y78.355 E19.95986
G1 X53.441 Y83.683 E20.39752
G1 X53.814 Y87.802 E20.73695
G1 X53.837 Y88.507 E20.79484
G1 X53.749 Y91.867 E21.07069
G1 X53.826 Y97.249 E21.51243
G1 X54.009 Y100.414 E21.77261
G1 X54.015 Y100.991 E21.81997
G1 X53.767 Y107.562 E22.35963
G1 X53.7 Y113.047 E22.80982
G1 X53.817 Y117.671 E23.18943
G1 X53.815 Y118.041 E23.21979
G1 X53.524 Y126.135 E23.88449
G1 X53.664 Y132.725 E24.42545
G1 X53.66 Y133.087 E24.45516
G1 X53.411 Y139.518 E24.98335
G1 X53.345 Y145.027 E25.4355
G1 X53.473 Y149.466 E25.79996
G1 X53.476 Y149.647 E25.81481
G1 X53.47 Y154.636 E26.22426
G1 X53.916 Y163.941 E26.98879
G1 X53.921 Y164.369 E27.02392
G1 X53.872 Y166.515 E27.20008
G1 X53.817 Y167.208 E27.25714
G1 X53.682 Y167.89 E27.31419
G1 X53.469 Y168.553 E27.37135
G1 X53.182 Y169.186 E27.42839
G1 X52.825 Y169.782 E27.4854
G1 X52.401 Y170.334 E27.54253
G1 X52.111 Y170.646 E27.57749
G1 X51.862 Y170.896 E27.60644
G1 X51.343 Y171.36 E27.66358
G1 X50.775 Y171.761 E27.72064
G1 X50.165 Y172.095 E27.77771
G1 X49.52 Y172.356 E27.83482
G1 X48.85 Y172.541 E27.89186
G1 X48.163 Y172.648 E27.94892
G1 X47.59 Y172.677 E27.99601
G1 X43.108 Y172.688 E28.36385
G1 X42.413 Y172.65 E28.42097
G1 X41.728 Y172.532 E28.47802
G1 X41.061 Y172.336 E28.53507
G1 X40.42 Y172.066 E28.59215
G1 X39.815 Y171.723 E28.64923
G1 X39.253 Y171.313 E28.70632
G1 X38.949 Y171.046 E28.73953
G1 X38.682 Y170.795 E28.7696
G1 X38.204 Y170.29 E28.82667
G1 X37.786 Y169.734 E28.88376
G1 X37.435 Y169.134 E28.94081
G1 X37.156 Y168.497 E28.99788
G1 X36.951 Y167.832 E29.05499
G1 X36.824 Y167.149 E29.112
G1 X36.781 Y166.624 E29.15523
G1 X36.728 Y165.274 E29.26611
G1 X36.726 Y164.86 E29.30009
G1 X36.822 Y161.578 E29.56956
G1 X36.829 Y161.41 E29.58336
G1 X37.125 Y156.235 E30.00876
G1 X37.2 Y153.624 E30.22313
G1 X37.169 Y148.242 E30.66484
G1 X37.171 Y148.036 E30.68174
G1 X37.301 Y143.433 E31.05966
G1 X36.99 Y133.171 E31.90224
G1 X36.989 Y132.817 E31.93129
G1 X37.135 Y127.656 E32.35502
G1 X37.058 Y123.596 E32.68829
G1 X36.806 Y117.133 E33.2191
G1 X36.804 Y116.724 E33.25267
G1 X36.953 Y111.534 E33.67879
G1 X36.876 Y107.461 E34.01311
G1 X36.641 Y101.399 E34.51099
G1 X36.64 Y100.933 E34.54924
G1 X36.916 Y93.731 E35.14073
G1 X36.801 Y88.557 E35.56547
G1 X36.823 Y87.891 E35.62015
G1 X37.193 Y83.706 E35.96495
G1 X37.417 Y78.493 E36.39318
G1 X37.486 Y77.801 E36.45025
G1 X37.635 Y77.122 E36.5073
G1 X37.784 Y76.661 E36.54706
G1 X37.861 Y76.452 E36.56534
G1 X38.139 Y75.815 E36.62238
G1 X38.487 Y75.213 E36.67945
G1 X38.903 Y74.656 E36.7365
G1 X39.317 Y74.21 E36.78644
G1 X39.508 Y74.024 E36.80832
G1 X40.033 Y73.568 E36.86539
G1 X40.607 Y73.175 E36.92249
M204 S3000
M205 X10 Y10
G0 F1200 X41.036 Y73.735
M204 S1800
M205 X8 Y8
G1 F2400 X41.62 Y73.441 E36.97615
G1 X42.235 Y73.221 E37.02975
G1 X42.873 Y73.077 E37.08343
G1 X43.729 Y73.008 E37.15391
G1 X46.906 Y73.008 E37.41464
G1 X47.559 Y73.048 E37.46833
G1 X48.202 Y73.167 E37.522
G1 X48.825 Y73.364 E37.57562
G1 X49.42 Y73.636 E37.62932
G1 X49.977 Y73.978 E37.68296
G1 X50.63 Y74.517 E37.75245
G1 X50.893 Y74.772 E37.78251
G1 X51.334 Y75.255 E37.83619
G1 X51.712 Y75.788 E37.88982
G1 X52.023 Y76.364 E37.94354
G1 X52.261 Y76.973 E37.9972
G1 X52.423 Y77.606 E38.05082
G1 X52.514 Y78.385 E38.11519
G1 X52.743 Y83.733 E38.5545
G1 X53.117 Y87.865 E38.895
G1 X53.137 Y88.488 E38.94615
G1 X53.049 Y91.859 E39.2229
G1 X53.126 Y97.276 E39.66752
G1 X53.31 Y100.454 E39.92877
G1 X53.315 Y100.965 E39.97071
G1 X53.067 Y107.528 E40.50972
G1 X53 Y113.057 E40.96351
G1 X53.117 Y117.689 E41.34378
G1 X53.116 Y118.016 E41.37061
G1 X52.824 Y126.143 E42.03802
G1 X52.964 Y132.74 E42.57956
G1 X52.961 Y133.06 E42.60582
G1 X52.711 Y139.52 E43.13638
G1 X52.645 Y145.014 E43.58731
G1 X52.774 Y149.486 E43.95447
G1 X52.776 Y149.646 E43.9676
G1 X52.77 Y154.648 E44.37812
G1 X53.217 Y163.975 E45.14446
G1 X53.222 Y164.353 E45.17548
G1 X53.173 Y166.499 E45.35165
G1 X53.118 Y167.151 E45.40535
G1 X52.984 Y167.791 E45.45901
G1 X52.773 Y168.41 E45.51268
G1 X52.488 Y168.998 E45.56631
G1 X52.133 Y169.548 E45.62003
G1 X51.615 Y170.152 E45.68533
G1 X51.366 Y170.402 E45.71429
G1 X50.877 Y170.837 E45.76801
G1 X50.338 Y171.208 E45.82171
G1 X49.759 Y171.511 E45.87534
G1 X49.147 Y171.741 E45.92899
G1 X48.511 Y171.894 E45.98268
G1 X47.588 Y171.977 E46.05874
G1 X43.106 Y171.988 E46.42657
G1 X42.453 Y171.95 E46.48025
G1 X41.81 Y171.832 E46.53391
G1 X41.186 Y171.637 E46.58756
G1 X40.59 Y171.367 E46.64126
G1 X40.032 Y171.026 E46.69493
G1 X39.429 Y170.536 E46.75869
G1 X39.162 Y170.285 E46.78877
G1 X38.713 Y169.809 E46.84247
G1 X38.327 Y169.282 E46.89608
G1 X38.007 Y168.711 E46.9498
G1 X37.76 Y168.106 E47.00343
G1 X37.588 Y167.475 E47.05711
G1 X37.48 Y166.597 E47.12971
G1 X37.427 Y165.247 E47.24059
G1 X37.425 Y164.881 E47.27062
G1 X37.521 Y161.599 E47.54009
G1 X37.528 Y161.45 E47.55233
G1 X37.823 Y156.295 E47.97609
G1 X37.9 Y153.612 E48.19637
G1 X37.869 Y148.238 E48.63742
G1 X37.871 Y148.056 E48.65236
G1 X38.001 Y143.449 E49.0306
G1 X37.689 Y133.15 E49.87622
G1 X37.689 Y132.837 E49.90191
G1 X37.836 Y127.663 E50.32671
G1 X37.758 Y123.606 E50.65973
G1 X37.505 Y117.106 E51.19358
G1 X37.503 Y116.744 E51.22329
G1 X37.653 Y111.52 E51.6522
G1 X37.576 Y107.472 E51.98448
G1 X37.34 Y101.372 E52.48547
G1 X37.34 Y100.96 E52.51929
G1 X37.617 Y93.742 E53.1121
G1 X37.501 Y88.542 E53.53897
G1 X37.521 Y87.952 E53.58742
G1 X37.89 Y83.774 E53.93164
G1 X38.116 Y78.523 E54.36298
G1 X38.184 Y77.873 E54.41662
G1 X38.331 Y77.235 E54.47035
G1 X38.441 Y76.903 E54.49905
G1 X38.518 Y76.694 E54.51733
G1 X38.781 Y76.096 E54.57095
G1 X39.115 Y75.534 E54.6246
G1 X39.515 Y75.017 E54.67825
G1 X39.805 Y74.711 E54.71285
G1 X39.996 Y74.525 E54.73473
G1 X40.492 Y74.098 E54.78844
G1 X41.036 Y73.735 E54.84211
M204 S3000
M205 X10 Y10
G0 F1200 X43.856 Y160.749
M204 S1800
M205 X8 Y8
;TYPE:SUPPORT
G1 F600 X44.475 Y161.308 E54.91056
G1 X45.507 Y161.298 E54.99526
G1 X46.163 Y161.318 E55.04912
G1 X46.793 Y160.756 E55.11841
G1 X47.34 Y161.142 E55.17335
G1 X47.375 Y161.128 E55.17645
G1 X47.289 Y164.029 E55.41464
G1 X47.537 Y164.463 E55.45566
G1 X47.488 Y166.234 E55.60106
G1 X47.423 Y166.298 E55.60855
G1 X47.08 Y166.298 E55.6367
G1 X45.717 Y164.934 E55.79495
G1 X44.929 Y164.934 E55.85962
G1 X43.566 Y166.298 E56.01787
G1 X43.22 Y166.298 E56.04627
G1 X43.155 Y166.235 E56.0537
G1 X43.107 Y164.424 E56.20238
G1 X43.357 Y163.992 E56.24334
G1 X43.271 Y161.128 E56.47849
G1 X43.313 Y161.144 E56.48218
G1 X43.856 Y160.749 E56.53729
M204 S3000
M205 X10 Y10
G0 F1200 X45 Y161.577
M204 S1800
M205 X8 Y8
G1 F600 X45 Y164.659 E56.79023
M204 S3000
M205 X10 Y10
G0 F1200 X45.196 Y164.658
M204 S1800
M205 X8 Y8
G1 F600 X43.624 Y163.75 E56.93921
M204 S3000
M205 X10 Y10
G0 F1200 X43.41 Y165.462
M204 S1800
M205 X8 Y8
G1 F600 X47.033 Y163.37 E57.28256
M204 S3000
M205 X10 Y10
G0 F1200 X46.696 Y165.524
M204 S1800
M205 X8 Y8
G1 F600 X47.225 Y165.829 E57.33267
M204 S3000
M205 X10 Y10
G0 F1200 X45.942 Y160.711
M204 S1800
M205 X8 Y8
;TYPE:SUPPORT-INTERFACE
G1 F600 X45.518 Y160.698 E57.36749
G1 X44.704 Y160.706 E57.4343
G1 X44.413 Y160.443 E57.46649
G1 X44.275 Y158.96 E57.58872
G1 X44.019 Y155.353 E57.88549
G1 X44.018 Y155.351 E57.88567
G1 X43.672 Y149.161 E58.39448
G1 X43.672 Y149.154 E58.39505
G1 X43.649 Y148.658 E58.4358
G1 X43.9 Y148.382 E58.46642
G1 X43.802 Y145.577 E58.69676
G1 X43.66 Y142.587 E58.94243
G1 X43.287 Y133.317 E59.70383
G1 X43.283 Y133.211 E59.71253
G1 X43.747 Y132.707 E59.76875
G1 X43.637 Y129.853 E60.00315
G1 X43.488 Y126.711 E60.26131
G1 X43.1 Y117.12 E61.04908
G1 X43.565 Y116.618 E61.10523
G1 X43.466 Y113.994 E61.32074
G1 X43.316 Y110.819 E61.5816
G1 X42.935 Y101.374 E62.35737
G1 X43.135 Y101.157 E62.38159
G1 X43.282 Y104.229 E62.634
G1 X43.686 Y111.348 E63.21919
G1 X44.066 Y116.595 E63.65094
G1 X44.428 Y120.197 E63.94804
G1 X44.782 Y122.333 E64.12573
G1 X45.009 Y122.809 E64.16901
G1 X45.63 Y122.809 E64.21998
G1 X45.851 Y122.369 E64.26039
G1 X46.217 Y120.205 E64.44051
G1 X46.58 Y116.597 E64.73811
G1 X46.959 Y111.349 E65.16993
G1 X47.364 Y104.23 E65.75513
G1 X47.523 Y100.845 E66.03324
G1 X47.725 Y101.063 E66.05763
G1 X47.329 Y110.818 E66.85887
G1 X47.177 Y114.058 E67.12507
G1 X47.08 Y116.749 E67.34606
G1 X47.541 Y117.246 E67.4017
G1 X47.156 Y126.71 E68.17904
G1 X47.006 Y129.931 E68.44368
G1 X46.907 Y132.574 E68.66074
G1 X47.369 Y133.076 E68.71673
G1 X47.359 Y133.364 E68.74038
G1 X46.983 Y142.587 E69.49793
G1 X46.84 Y145.658 E69.75024
G1 X46.734 Y148.709 E70.00079
G1 X46.981 Y148.982 E70.031
G1 X46.944 Y149.762 E70.09509
G1 X46.944 Y149.77 E70.09574
G1 X46.627 Y155.351 E70.55451
G1 X46.626 Y155.353 E70.55469
G1 X46.368 Y158.972 E70.85246
G1 X46.239 Y160.446 E70.97389
G1 X45.942 Y160.711 E71.00656
M204 S3000
M205 X10 Y10
G1 F2400 E65.00656
G0 F1200 X47.099 Y88.547
G0 X46.932 Y87.937
M204 S1800
M205 X8 Y8
G1 F2400 E71.00656
G1 F600 X46.622 Y87.598 E71.04426
G1 X44.017 Y87.598 E71.25805
G1 X43.707 Y87.931 E71.29539
G1 X43.712 Y83.492 E71.65969
G1 X43.707 Y78.717 E72.05157
G1 X43.827 Y78.598 E72.06544
G1 X46.813 Y78.598 E72.3105
G1 X46.933 Y78.718 E72.32443
G1 X46.939 Y83.489 E72.71598
G1 X46.932 Y87.937 E73.08103
M204 S3000
M205 X10 Y10
G1 F2400 E67.08103
G0 F1200 X47.082 Y88.486
G0 X45.324 Y134.193
M204 S1800
M205 X8 Y8
G1 F2400 E73.08103
G1 F600 X45.315 Y133.958 E73.10033
G1 X45.335 Y133.936 E73.10277
G1 X45.324 Y134.193 E73.12388
M204 S3000
M205 X10 Y10
G0 F1200 X44.604 Y133.696
M204 S1800
M205 X8 Y8
G1 F600 X45.067 Y133.193 E73.17999
G1 X44.936 Y129.797 E73.4589
G1 X44.787 Y126.649 E73.71755
G1 X44.684 Y124.109 E73.92617
G1 X45.961 Y124.109 E74.03098
G1 X45.857 Y126.649 E74.23961
G1 X45.707 Y129.877 E74.50481
G1 X45.588 Y133.061 E74.7663
G1 X46.05 Y133.564 E74.82236
G1 X45.684 Y142.526 E75.55847
G1 X45.541 Y145.606 E75.81152
G1 X45.417 Y149.191 E76.10592
G1 X45.657 Y149.456 E76.13526
G1 X45.642 Y149.762 E76.1604
G1 X45.333 Y155.211 E76.60832
G1 X45.322 Y155.359 E76.62049
G1 X45.312 Y155.211 E76.63267
G1 X44.972 Y149.135 E77.1321
G1 X45.217 Y148.865 E77.16202
G1 X45.101 Y145.524 E77.43638
G1 X44.959 Y142.525 E77.68278
G1 X44.604 Y133.696 E78.40796
M204 S3000
M205 X10 Y10
G0 F1200 X44.356 Y132.931
M204 S1800
M205 X8 Y8
G1 F600 X44.237 Y129.827 E78.66289
G1 X44.088 Y126.682 E78.92129
G1 X43.826 Y120.202 E79.45353
G1 X43.833 Y120.276 E79.45963
G1 X44.204 Y122.515 E79.64589
G1 X44.63 Y123.409 E79.72717
G1 X46 Y123.409 E79.8396
G1 X46.427 Y122.558 E79.91774
G1 X46.812 Y120.285 E80.10694
G1 X46.82 Y120.21 E80.11313
G1 X46.556 Y126.682 E80.64473
G1 X46.406 Y129.906 E80.9096
G1 X46.298 Y132.799 E81.1472
G1 X46.76 Y133.302 E81.20325
G1 X46.759 Y133.34 E81.20637
G1 X46.383 Y142.559 E81.96359
G1 X46.24 Y145.634 E82.21623
G1 X46.126 Y148.932 E82.48706
G1 X46.369 Y149.201 E82.51681
G1 X46.344 Y149.74 E82.56109
G1 X46.345 Y149.74 E82.56117
G1 X46.031 Y155.261 E83.01501
G1 X45.77 Y158.92 E83.31606
G1 X45.667 Y160.102 E83.41344
G1 X45.525 Y160.098 E83.4251
G1 X44.984 Y160.103 E83.4695
G1 X44.873 Y158.912 E83.56767
G1 X44.614 Y155.261 E83.86805
G1 X44.271 Y149.131 E84.37193
G1 X44.272 Y149.131 E84.37201
G1 X44.261 Y148.877 E84.39287
G1 X44.508 Y148.605 E84.42303
G1 X44.402 Y145.553 E84.67365
G1 X44.26 Y142.558 E84.91973
G1 X43.893 Y133.434 E85.66914
G1 X44.356 Y132.931 E85.72524
M204 S3000
M205 X10 Y10
G1 F2400 E79.72524
G0 F1200 X47.099 Y88.547
G0 X46.334 Y86.998
M204 S1800
M205 X8 Y8
G1 F2400 E85.72524
G1 F600 X44.308 Y86.998 E85.89151
G1 X44.312 Y83.492 E86.17925
G1 X44.307 Y79.198 E86.53166
G1 X46.333 Y79.198 E86.69793
G1 X46.339 Y83.489 E87.05009
G1 X46.334 Y86.998 E87.33807
M204 S3000
M205 X10 Y10
G0 F1200 X45.635 Y86.298
M204 S1800
M205 X8 Y8
G1 F600 X45.009 Y86.298 E87.38945
