; generated by PrusaSlicer 2.6.1+win64 on 2023-11-02 at 12:55:48 UTC


;
;
; 

; external perimeters extrusion width = 0.42mm
; perimeters extrusion width = 0.45mm
; infill extrusion width = 0.45mm
; solid infill extrusion width = 0.45mm
; top infill extrusion width = 0.42mm
; first layer extrusion width = 0.50mm

;TYPE:Custom
G90 ; use absolute coordinates
M83 ; extruder relative mode
M140 S100 ; set bed temp
M190 S100 ; wait for bed temp
M104 S260 ; set extruder temp
M109 S260 ; wait for extruder temp
G28                                        ; move X/Y/Z to min endstops
G1 Z0.28                                   ; lift nozzle a bit 
G92 E0 
G1 Y3 F2400                                    ; zero the extruded length 
G1 X180  E40 F500                       ; Extrude 25mm of filament in a 5cm line. 
G92 E0                                     ; zero the extruded length again 
G1 E-0.2 F3000                                ; Retract a little 
G1 X181 F4000                              ; Quickly wipe away from the filament line
M117
G21 ; set units to millimeters
G90 ; use absolute coordinates
M82 ; use absolute distances for extrusion
G92 E0
; Filament gcode
M107
;LAYER_CHANGE
;Z:0.2
;HEIGHT:0.2
; BEFORE_LAYER_CHANGE 0 @ 0.2mm
G1 E-2.5 F4800
G92 E0
G1 Z-1.48 F18000
; AFTER_LAYER_CHANGE 0 @ 0.2mm
M204 S20000
G1 X124.273 Y126.497
G1 E2.5 F4800
M204 S5000
;TYPE:External perimeter
;WIDTH:0.537499
G1 F3596
G1 X123.974 Y126.686 E2.51236
;WIDTH:0.543396
G1 X123.462 Y126.841 E2.53128
;WIDTH:0.572426
G1 X122.706 Y127.004 E2.56022
;WIDTH:0.601455
G1 X121.949 Y127.167 E2.59079
;WIDTH:0.618528
G1 X121.681 Y127.222 E2.60192
G1 X121.527 Y127.293 E2.60882
;WIDTH:0.579019
G1 X121.374 Y127.364 E2.61521
;WIDTH:0.539509
G1 X121.22 Y127.435 E2.62116
;WIDTH:0.499999
G1 X120.753 Y127.656 E2.63785
G1 X119.039 Y128.638 E2.70167
G1 X92.693 Y124.945 E3.56111
G1 X91.85 Y124.758 E3.58901
G1 X91.03 Y124.5 E3.61678
G1 X90.236 Y124.171 E3.64455
G1 X89.474 Y123.774 E3.67231
G1 X88.749 Y123.313 E3.70007
G1 X88.068 Y122.79 E3.72781
G1 X87.419 Y122.195 E3.75625
G1 X86.71 Y121.431 E3.78992
G1 X86.187 Y120.751 E3.81763
G1 X85.726 Y120.026 E3.84539
G1 X85.329 Y119.264 E3.87315
G1 X85 Y118.47 E3.90092
G1 X84.742 Y117.65 E3.92869
G1 X84.556 Y116.812 E3.95642
G1 X84.444 Y115.96 E3.98418
G1 X84.405 Y115.081 E4.0126
G1 X84.444 Y114.039 E4.04629
G1 X84.556 Y113.188 E4.07402
G1 X84.742 Y112.35 E4.10175
G1 X85 Y111.53 E4.12952
G1 X85.329 Y110.736 E4.15729
G1 X85.726 Y109.974 E4.18505
G1 X86.187 Y109.249 E4.21281
G1 X86.71 Y108.568 E4.24055
G1 X87.305 Y107.919 E4.26899
G1 X88.069 Y107.21 E4.30266
G1 X88.749 Y106.687 E4.33037
G1 X89.474 Y106.226 E4.35813
G1 X90.236 Y105.829 E4.38589
G1 X91.03 Y105.5 E4.41366
G1 X91.85 Y105.242 E4.44143
G1 X92.693 Y105.055 E4.46933
G1 X127.775 Y100.138 E5.61374
G1 X129.104 Y99.963 E5.65704
G1 X130.419 Y99.905 E5.69956
G1 X131.896 Y99.963 E5.74731
G1 X133.18 Y100.132 E5.78915
G1 X134.445 Y100.412 E5.83101
G1 X135.68 Y100.802 E5.87285
G1 X136.877 Y101.298 E5.91471
G1 X138.026 Y101.896 E5.95656
G1 X139.118 Y102.592 E5.99839
G1 X140.146 Y103.38 E6.04023
G1 X141.116 Y104.269 E6.08274
G1 X142.12 Y105.354 E6.1305
G1 X142.908 Y106.382 E6.17234
G1 X143.604 Y107.474 E6.21417
G1 X144.202 Y108.623 E6.25602
G1 X144.698 Y109.82 E6.29788
G1 X145.088 Y111.055 E6.33972
G1 X145.368 Y112.32 E6.38158
G1 X145.539 Y113.653 E6.425
G1 X145.595 Y114.919 E6.46594
G1 X145.537 Y116.396 E6.51369
G1 X145.368 Y117.68 E6.55553
G1 X145.088 Y118.945 E6.59739
G1 X144.698 Y120.18 E6.63923
G1 X144.202 Y121.377 E6.68109
G1 X143.604 Y122.526 E6.72294
G1 X142.908 Y123.618 E6.76477
G1 X142.12 Y124.646 E6.80661
G1 X141.116 Y125.731 E6.85437
G1 X140.146 Y126.62 E6.89688
G1 X139.118 Y127.408 E6.93872
G1 X138.026 Y128.104 E6.98055
G1 X136.877 Y128.702 E7.0224
G1 X135.68 Y129.198 E7.06426
G1 X134.445 Y129.588 E7.1061
G1 X133.18 Y129.868 E7.14796
G1 X131.896 Y130.037 E7.1898
G1 X130.581 Y130.095 E7.23232
G1 X129.104 Y130.037 E7.28007
G1 X125.386 Y129.532 E7.40128
G1 X124.802 Y129.496 E7.42018
;WIDTH:0.537606
G1 X124.614 Y129.491 E7.42676
;WIDTH:0.575213
G1 X124.426 Y129.486 E7.43384
;WIDTH:0.61282
G1 X124.238 Y129.481 E7.44142
G1 X123.839 Y129.519 E7.45756
;WIDTH:0.597004
G1 X123.101 Y129.65 E7.48691
;WIDTH:0.569303
G1 X122.363 Y129.781 E7.5148
;WIDTH:0.541601
G1 X121.925 Y129.825 E7.53032
;WIDTH:0.537725
G1 X121.572 Y129.782 E7.54276
G1 X121.502 Y129.637 E7.54839
G1 X121.784 Y129.443 E7.56036
;WIDTH:0.541601
G1 X122.267 Y129.292 E7.5782
;WIDTH:0.569303
G1 X123 Y129.134 E7.6061
;WIDTH:0.597004
G1 X123.732 Y128.976 E7.63543
;WIDTH:0.626169
G1 X124.103 Y128.904 E7.65101
G1 X124.254 Y128.831 E7.65792
;WIDTH:0.584113
G1 X124.406 Y128.759 E7.66435
;WIDTH:0.542056
G1 X124.558 Y128.687 E7.67028
;WIDTH:0.499999
G1 X125.025 Y128.466 E7.68697
G1 X126.739 Y127.485 E7.75077
G1 X129.465 Y127.857 E7.83965
G1 X130.51 Y127.901 E7.87344
G1 X131.555 Y127.855 E7.90723
G1 X132.692 Y127.704 E7.94428
G1 X133.812 Y127.455 E7.98135
G1 X134.906 Y127.109 E8.01842
G1 X135.965 Y126.67 E8.05545
G1 X136.983 Y126.139 E8.09254
G1 X137.95 Y125.522 E8.1296
G1 X138.859 Y124.823 E8.16664
G1 X139.629 Y124.116 E8.20041
G1 X140.336 Y123.344 E8.23423
G1 X141.033 Y122.433 E8.27129
G1 X141.649 Y121.465 E8.30836
G1 X142.178 Y120.447 E8.34542
G1 X142.616 Y119.387 E8.38247
G1 X142.96 Y118.293 E8.41952
G1 X143.208 Y117.172 E8.45661
G1 X143.357 Y116.035 E8.49366
G1 X143.401 Y114.99 E8.52745
G1 X143.357 Y113.965 E8.56059
G1 X143.208 Y112.828 E8.59764
G1 X142.96 Y111.707 E8.63473
G1 X142.616 Y110.613 E8.67178
G1 X142.17 Y109.535 E8.70947
G1 X141.639 Y108.517 E8.74656
G1 X141.022 Y107.55 E8.78362
G1 X140.323 Y106.641 E8.82066
G1 X139.616 Y105.87 E8.85445
G1 X138.859 Y105.177 E8.88761
G1 X137.95 Y104.478 E8.92465
G1 X136.965 Y103.851 E8.96237
G1 X135.947 Y103.322 E8.99943
G1 X134.906 Y102.891 E9.03583
G1 X133.932 Y102.584 E9.06882
G1 X132.672 Y102.292 E9.1106
G1 X131.535 Y102.143 E9.14765
G1 X130.51 Y102.099 E9.18079
G1 X129.465 Y102.143 E9.21458
G1 X93.19 Y107.217 E10.39786
G1 X92.472 Y107.378 E10.42163
G1 X91.804 Y107.589 E10.44426
G1 X91.148 Y107.862 E10.46721
G1 X90.517 Y108.191 E10.4902
G1 X89.918 Y108.574 E10.51317
G1 X89.355 Y109.007 E10.53611
G1 X88.893 Y109.434 E10.55643
G1 X88.433 Y109.95 E10.57876
G1 X88.032 Y110.482 E10.60028
G1 X87.676 Y111.044 E10.62177
G1 X87.354 Y111.666 E10.6444
G1 X87.082 Y112.323 E10.66737
G1 X86.869 Y113.001 E10.69033
G1 X86.716 Y113.696 E10.71332
G1 X86.624 Y114.401 E10.73629
G1 X86.599 Y115.029 E10.75659
G1 X86.639 Y115.719 E10.77892
G1 X86.732 Y116.379 E10.80045
G1 X86.878 Y117.028 E10.82194
G1 X87.089 Y117.696 E10.84457
G1 X87.362 Y118.352 E10.86752
G1 X87.691 Y118.983 E10.89051
G1 X88.074 Y119.582 E10.91348
G1 X88.507 Y120.145 E10.93642
G1 X88.934 Y120.607 E10.95674
G1 X89.45 Y121.067 E10.97907
G1 X89.982 Y121.468 E11.00059
G1 X90.544 Y121.824 E11.02208
G1 X91.166 Y122.146 E11.04471
G1 X91.823 Y122.418 E11.06768
G1 X92.501 Y122.631 E11.09064
G1 X93.19 Y122.783 E11.11343
G1 X120.257 Y126.573 E11.99637
G1 X120.557 Y126.589 E12.00608
;WIDTH:0.547104
G1 X121.314 Y126.647 E12.03313
;WIDTH:0.57428
G1 X121.578 Y126.634 E12.04306
;WIDTH:0.601455
G1 X121.842 Y126.62 E12.0535
G1 X122.604 Y126.485 E12.08405
;WIDTH:0.572426
G1 X123.366 Y126.351 E12.113
;WIDTH:0.543396
G1 X123.813 Y126.293 E12.12894
;WIDTH:0.537499
G1 X124.181 Y126.337 E12.1419
G1 X124.244 Y126.445 E12.14627
M204 S20000
G1 X123.93 Y126.58 F18000
;WIPE_START
G1 F14400
G1 X123.974 Y126.686 E12.03166
G1 X123.462 Y126.841 E11.86226
G1 X122.706 Y127.004 E11.61736
G1 X121.949 Y127.167 E11.37215
G1 X121.681 Y127.222 E11.28551
G1 X121.527 Y127.293 E11.23181
G1 X121.374 Y127.364 E11.1784
G1 X121.22 Y127.435 E11.1247
G1 X120.753 Y127.656 E10.96109
G1 X119.039 Y128.638 E10.33555
G1 X116.883 Y128.336 E9.64627
;WIPE_END
G92 E0
G1 X125.536 Y128.701 F18000
G1 E2.5 F4800
M204 S5000
;TYPE:Perimeter
;WIDTH:0.499999
G1 F3596
G1 X126.831 Y127.958 E2.54823
G1 X129.445 Y128.313 E2.63345
G1 X130.47 Y128.358 E2.66659
G1 X131.614 Y128.308 E2.70358
G1 X132.791 Y128.151 E2.74194
G1 X133.892 Y127.907 E2.77837
G1 X135.024 Y127.552 E2.8167
G1 X136.122 Y127.1 E2.85506
G1 X137.167 Y126.559 E2.89307
G1 X138.228 Y125.884 E2.93369
G1 X139.168 Y125.16 E2.97202
G1 X139.965 Y124.427 E3.007
G1 X140.66 Y123.668 E3.04025
G1 X141.384 Y122.728 E3.07858
G1 X142.024 Y121.728 E3.11694
G1 X142.575 Y120.676 E3.1553
G1 X143.032 Y119.581 E3.19363
G1 X143.407 Y118.392 E3.23391
G1 X143.661 Y117.232 E3.27227
G1 X143.813 Y116.055 E3.31061
G1 X143.858 Y114.97 E3.34569
G1 X143.808 Y113.886 E3.38075
G1 X143.661 Y112.768 E3.41718
G1 X143.407 Y111.608 E3.45554
G1 X143.052 Y110.476 E3.49387
G1 X142.6 Y109.378 E3.53223
G1 X142.024 Y108.272 E3.57251
G1 X141.384 Y107.272 E3.61087
G1 X140.66 Y106.332 E3.6492
G1 X139.924 Y105.533 E3.68429
G1 X139.122 Y104.802 E3.71935
G1 X138.179 Y104.081 E3.7577
G1 X137.176 Y103.446 E3.79605
G1 X136.122 Y102.9 E3.8344
G1 X135.081 Y102.468 E3.87081
G1 X134.036 Y102.138 E3.90621
G1 X132.732 Y101.839 E3.94943
G1 X131.555 Y101.687 E3.98777
G1 X130.53 Y101.642 E4.02091
G1 X129.445 Y101.687 E4.05599
G1 X93.127 Y106.765 E5.24067
G1 X92.335 Y106.942 E5.26689
G1 X91.629 Y107.167 E5.29083
G1 X90.937 Y107.457 E5.31507
G1 X90.272 Y107.806 E5.33933
G1 X89.64 Y108.211 E5.36358
G1 X89.046 Y108.67 E5.38783
G1 X88.556 Y109.125 E5.40943
G1 X88.07 Y109.672 E5.43307
G1 X87.647 Y110.237 E5.45587
G1 X87.271 Y110.833 E5.47864
G1 X86.931 Y111.491 E5.50257
G1 X86.646 Y112.186 E5.52684
G1 X86.423 Y112.903 E5.5511
G1 X86.263 Y113.636 E5.57534
G1 X86.168 Y114.381 E5.5996
G1 X86.143 Y115.049 E5.6212
G1 X86.186 Y115.779 E5.64482
G1 X86.286 Y116.478 E5.66763
G1 X86.442 Y117.165 E5.69039
G1 X86.667 Y117.871 E5.71433
G1 X86.957 Y118.563 E5.73857
G1 X87.306 Y119.228 E5.76283
G1 X87.711 Y119.86 E5.78708
G1 X88.17 Y120.454 E5.81133
G1 X88.625 Y120.944 E5.83293
G1 X89.172 Y121.43 E5.85657
G1 X89.737 Y121.853 E5.87937
G1 X90.333 Y122.229 E5.90214
G1 X90.991 Y122.569 E5.92607
G1 X91.686 Y122.854 E5.95034
G1 X92.403 Y123.077 E5.9746
G1 X93.127 Y123.235 E5.99854
G1 X120.194 Y127.026 E6.88148
G1 X120.929 Y127.065 E6.90526
G1 X120.526 Y127.26 E6.91972
G1 X118.948 Y128.163 E6.97845
G1 X92.774 Y124.495 E7.83227
G1 X91.968 Y124.316 E7.85894
G1 X91.187 Y124.07 E7.88539
G1 X90.43 Y123.756 E7.91187
G1 X89.703 Y123.378 E7.93834
G1 X89.012 Y122.938 E7.9648
G1 X88.362 Y122.439 E7.99127
G1 X87.742 Y121.871 E8.01843
G1 X87.06 Y121.136 E8.05082
G1 X86.562 Y120.488 E8.07722
G1 X86.122 Y119.797 E8.10368
G1 X85.744 Y119.07 E8.13015
G1 X85.43 Y118.313 E8.15663
G1 X85.184 Y117.532 E8.18308
G1 X85.006 Y116.732 E8.20956
G1 X84.9 Y115.92 E8.23601
G1 X84.863 Y115.079 E8.26321
G1 X84.9 Y114.078 E8.29557
G1 X85.006 Y113.268 E8.32196
G1 X85.184 Y112.468 E8.34844
G1 X85.43 Y111.687 E8.37489
G1 X85.744 Y110.93 E8.40137
G1 X86.122 Y110.203 E8.42784
G1 X86.562 Y109.512 E8.4543
G1 X87.061 Y108.862 E8.48077
G1 X87.629 Y108.242 E8.50793
G1 X88.364 Y107.56 E8.54032
G1 X89.012 Y107.062 E8.56672
G1 X89.703 Y106.622 E8.59318
G1 X90.43 Y106.244 E8.61965
G1 X91.187 Y105.93 E8.64613
G1 X91.968 Y105.684 E8.67258
G1 X92.774 Y105.505 E8.69925
G1 X129.144 Y100.419 E9.88563
G1 X130.42 Y100.363 E9.92689
G1 X131.857 Y100.419 E9.97335
G1 X133.1 Y100.582 E10.01385
G1 X134.326 Y100.854 E10.05442
G1 X135.524 Y101.232 E10.095
G1 X136.683 Y101.712 E10.13553
G1 X137.797 Y102.292 E10.1761
G1 X138.856 Y102.966 E10.21665
G1 X139.852 Y103.731 E10.25722
G1 X140.793 Y104.593 E10.29845
G1 X141.77 Y105.649 E10.34493
G1 X142.534 Y106.644 E10.38546
G1 X143.208 Y107.703 E10.42601
G1 X143.788 Y108.817 E10.46658
G1 X144.268 Y109.976 E10.50711
G1 X144.646 Y111.174 E10.54769
G1 X144.918 Y112.4 E10.58826
G1 X145.078 Y113.616 E10.62788
G1 X145.137 Y114.92 E10.67005
G1 X145.081 Y116.357 E10.71651
G1 X144.918 Y117.6 E10.75701
G1 X144.646 Y118.826 E10.79758
G1 X144.268 Y120.024 E10.83816
G1 X143.788 Y121.183 E10.87869
G1 X143.208 Y122.297 E10.91926
G1 X142.534 Y123.356 E10.95981
G1 X141.77 Y124.351 E11.00034
G1 X140.793 Y125.407 E11.04682
G1 X139.852 Y126.269 E11.08805
G1 X138.856 Y127.034 E11.12862
G1 X137.797 Y127.708 E11.16917
G1 X136.683 Y128.288 E11.20974
G1 X135.524 Y128.768 E11.25027
G1 X134.326 Y129.146 E11.29085
G1 X133.1 Y129.418 E11.33142
G1 X131.856 Y129.581 E11.37195
G1 X130.58 Y129.637 E11.41321
G1 X129.144 Y129.581 E11.45964
G1 X125.448 Y129.08 E11.58013
G1 X124.927 Y129.036 E11.59702
G1 X125.484 Y128.73 E11.61755
M204 S20000
G1 X126.321 Y128.756 F18000
M204 S5000
;WIDTH:0.462733
G1 F3596
G1 X126.92 Y128.413 E11.63803
G1 X129.229 Y128.729 E11.70718
;WIDTH:0.461484
G1 X129.426 Y128.747 E11.71303
;WIDTH:0.453747
G1 X130.451 Y128.79 E11.74282
;WIDTH:0.454412
G1 X131.574 Y128.747 E11.7755
;WIDTH:0.461358
G1 X132.789 Y128.595 E11.81171
;WIDTH:0.46635
G1 X133.987 Y128.336 E11.84839
;WIDTH:0.469386
G1 X135.157 Y127.973 E11.88531
;WIDTH:0.470356
G1 X136.38 Y127.467 E11.92529
;WIDTH:0.469349
G1 X137.465 Y126.896 E11.96224
;WIDTH:0.466338
G1 X138.494 Y126.232 E11.99889
;WIDTH:0.461333
G1 X139.461 Y125.48 E12.03512
;WIDTH:0.45442
G1 X140.282 Y124.721 E12.06764
;WIDTH:0.453733
G1 X140.98 Y123.961 E12.0976
;WIDTH:0.461346
G1 X141.732 Y122.994 E12.13383
;WIDTH:0.466351
G1 X142.396 Y121.965 E12.17048
;WIDTH:0.469369
G1 X142.967 Y120.88 E12.20743
;WIDTH:0.470392
G1 X143.473 Y119.657 E12.24742
;WIDTH:0.46937
G1 X143.836 Y118.487 E12.28434
;WIDTH:0.466338
G1 X144.095 Y117.289 E12.32102
;WIDTH:0.461358
G1 X144.247 Y116.074 E12.35723
;WIDTH:0.453746
G1 X144.29 Y115.049 E12.38702
;WIDTH:0.454411
G1 X144.247 Y113.926 E12.4197
;WIDTH:0.461358
G1 X144.095 Y112.711 E12.45591
;WIDTH:0.46635
G1 X143.836 Y111.513 E12.49259
;WIDTH:0.469383
G1 X143.473 Y110.343 E12.52951
;WIDTH:0.470363
G1 X142.967 Y109.12 E12.5695
;WIDTH:0.469368
G1 X142.396 Y108.035 E12.60645
;WIDTH:0.46635
G1 X141.732 Y107.006 E12.6431
;WIDTH:0.461344
G1 X140.98 Y106.039 E12.67933
;WIDTH:0.453733
G1 X140.286 Y105.283 E12.70913
;WIDTH:0.45442
G1 X139.462 Y104.52 E12.74179
;WIDTH:0.461334
G1 X138.494 Y103.768 E12.77804
;WIDTH:0.466338
G1 X137.465 Y103.104 E12.81469
;WIDTH:0.469348
G1 X136.38 Y102.533 E12.85164
;WIDTH:0.470394
G1 X135.157 Y102.027 E12.89163
;WIDTH:0.472518
G1 X134.107 Y101.7 E12.92502
G1 X132.939 Y101.432 E12.96141
;WIDTH:0.466579
G1 X132.789 Y101.405 E12.96597
;WIDTH:0.461358
G1 X131.574 Y101.253 E13.00218
;WIDTH:0.45375
G1 X130.549 Y101.21 E13.03197
;WIDTH:0.454413
G1 X129.426 Y101.253 E13.06465
;WIDTH:0.461745
G1 X129.23 Y101.271 E13.07048
;WIDTH:0.466959
G1 X93.066 Y106.331 E14.16488
;WIDTH:0.466361
G1 X92.936 Y106.354 E14.16883
;WIDTH:0.469377
G1 X92.202 Y106.52 E14.19151
;WIDTH:0.470372
G1 X91.46 Y106.758 E14.21505
G1 X90.733 Y107.065 E14.23889
;WIDTH:0.469378
G1 X90.035 Y107.434 E14.26269
;WIDTH:0.466353
G1 X89.373 Y107.864 E14.28631
;WIDTH:0.461352
G1 X88.753 Y108.351 E14.30963
;WIDTH:0.454399
G1 X88.235 Y108.832 E14.33019
;WIDTH:0.461351
G1 X87.723 Y109.406 E14.35294
;WIDTH:0.466355
G1 X87.275 Y110 E14.37521
;WIDTH:0.469372
G1 X86.879 Y110.629 E14.39761
;WIDTH:0.470384
G1 X86.523 Y111.322 E14.42115
G1 X86.225 Y112.053 E14.445
;WIDTH:0.469365
G1 X85.993 Y112.807 E14.46878
;WIDTH:0.466359
G1 X85.829 Y113.579 E14.4924
;WIDTH:0.461352
G1 X85.734 Y114.362 E14.51573
;WIDTH:0.454397
G1 X85.709 Y115.068 E14.53627
;WIDTH:0.461334
G1 X85.752 Y115.836 E14.55902
;WIDTH:0.466363
G1 X85.856 Y116.573 E14.5813
;WIDTH:0.469376
G1 X86.02 Y117.298 E14.6037
;WIDTH:0.470373
G1 X86.258 Y118.04 E14.62724
G1 X86.565 Y118.767 E14.65108
;WIDTH:0.469378
G1 X86.934 Y119.465 E14.67488
;WIDTH:0.466354
G1 X87.364 Y120.127 E14.6985
;WIDTH:0.461352
G1 X87.851 Y120.747 E14.72182
;WIDTH:0.454397
G1 X88.332 Y121.265 E14.74238
;WIDTH:0.461351
G1 X88.906 Y121.777 E14.76513
;WIDTH:0.466355
G1 X89.5 Y122.225 E14.7874
;WIDTH:0.469372
G1 X90.129 Y122.621 E14.8098
;WIDTH:0.470388
G1 X90.822 Y122.977 E14.83334
G1 X91.553 Y123.275 E14.85719
;WIDTH:0.469366
G1 X92.307 Y123.507 E14.88097
;WIDTH:0.466359
G1 X93.066 Y123.669 E14.9042
;WIDTH:0.464211
G1 X119.457 Y127.366 E15.69769
G1 X118.923 Y127.672 E15.71602
G1 X118.789 Y127.698 E15.72008
G1 X93.008 Y124.085 E16.49523
;WIDTH:0.46636
G1 X92.845 Y124.06 E16.50017
