;FLAVOR:Marlin
;TIME:7288
;Filament used: 10.4303m
;Layer height: 0.3
;MINX:-67.017
;MINY:-37.608
;MINZ:0.2
;MAXX:50.025
;MAXY:90.109
;MAXZ:29.9
;Generated with Cura_SteamEngine 4.10.0
M140 S30
M105
M190 S30
M104 S230
M105
M109 S230
M82 ;absolute extrusion mode
G21        ;metric values
G90        ;absolute positioning
M107       ;start with the fan off
G28   ;move to endstops

;Z-Offset Reset und dann Z +0,1 für PLA
;MacroZOffset0
;MacroZOffsetPlus0100

G92 E0                  ;zero the extruded length
G1 F200 E3              ;extrude 3mm of feed stock
G92 E0                  ;zero the extruded length again
G1 F120
;Put printing message on LCD screen
M117 Printing...
G92 E0
G92 E0
G1 F2700 E-7
;LAYER_COUNT:100
;LAYER:0
M107
M204 S4000
G0 F2400 X-11.884 Y-37 Z0.2
M204 S1800
;TYPE:SKIRT
G1 F2700 E0
G1 F1200 X41.931 Y-12.143 E1.62165
G1 X42.529 Y-11.855 E1.6398
G1 X42.988 Y-11.589 E1.65432
G1 X43.402 Y-11.258 E1.66882
G1 X43.762 Y-10.868 E1.68334
G1 X44.059 Y-10.428 E1.69786
G1 X44.287 Y-9.949 E1.71237
G1 X44.441 Y-9.441 E1.72689
G1 X44.504 Y-9.052 E1.73767
G1 X44.583 Y-8.304 E1.75825
G1 X49.963 Y50.706 E3.37925
G1 X50.014 Y51.36 E3.3972
G1 X50.025 Y51.653 E3.40522
G1 X49.985 Y52.182 E3.41973
G1 X49.866 Y52.699 E3.43424
G1 X49.671 Y53.193 E3.44877
G1 X49.404 Y53.651 E3.46327
G1 X49.071 Y54.065 E3.47781
G1 X48.576 Y54.502 E3.49587
G1 X47.939 Y54.965 E3.51742
G1 X-.432 Y89.098 E5.13696
G1 X-1.009 Y89.493 E5.15609
G1 X-1.468 Y89.759 E5.1706
G1 X-1.962 Y89.953 E5.18512
G1 X-2.479 Y90.07 E5.19962
G1 X-3.009 Y90.109 E5.21416
G1 X-3.538 Y90.068 E5.22867
G1 X-4.055 Y89.948 E5.24319
G1 X-4.431 Y89.805 E5.2542
G1 X-5.151 Y89.485 E5.27575
G1 X-58.901 Y64.658 E6.89544
G1 X-59.527 Y64.357 E6.91444
G1 X-59.986 Y64.092 E6.92894
G1 X-60.401 Y63.76 E6.94348
G1 X-60.761 Y63.37 E6.958
G1 X-61.058 Y62.931 E6.9725
G1 X-61.286 Y62.452 E6.98701
G1 X-61.44 Y61.944 E7.00153
G1 X-61.505 Y61.55 E7.01246
G1 X-61.588 Y60.751 E7.03443
G1 X-66.971 Y1.719 E8.65604
G1 X-67.017 Y1.117 E8.67256
G1 X-67.017 Y0.586 E8.68708
G1 X-66.938 Y0.061 E8.70161
G1 X-66.781 Y-.446 E8.71612
G1 X-66.55 Y-.923 E8.73062
G1 X-66.249 Y-1.361 E8.74516
G1 X-65.887 Y-1.748 E8.75966
G1 X-65.581 Y-1.999 E8.77049
G1 X-64.959 Y-2.452 E8.79154
G1 X-16.558 Y-36.605 E10.41207
G1 X-15.999 Y-36.989 E10.43062
G1 X-15.54 Y-37.255 E10.44513
G1 X-15.047 Y-37.45 E10.45963
G1 X-14.529 Y-37.568 E10.47417
G1 X-14 Y-37.608 E10.48868
G1 X-13.471 Y-37.568 E10.50319
G1 X-12.954 Y-37.448 E10.51771
G1 X-12.579 Y-37.308 E10.52866
G1 X-11.884 Y-37 E10.54946
M204 S4000
G0 F2400 X-12.031 Y-36.682
M204 S1800
G1 F1200 X41.779 Y-11.828 E12.17095
G1 X42.377 Y-11.54 E12.1891
G1 X42.812 Y-11.286 E12.20288
G1 X43.201 Y-10.966 E12.21666
G1 X43.535 Y-10.589 E12.23044
G1 X43.805 Y-10.164 E12.24422
G1 X44.005 Y-9.702 E12.25799
G1 X44.156 Y-9.015 E12.27723
G1 X44.235 Y-8.272 E12.29767
G1 X49.614 Y50.733 E13.91853
G1 X49.665 Y51.387 E13.93648
G1 X49.675 Y51.653 E13.94376
G1 X49.635 Y52.155 E13.95754
G1 X49.516 Y52.644 E13.97131
G1 X49.322 Y53.109 E13.98509
G1 X49.056 Y53.537 E13.99887
G1 X48.726 Y53.917 E14.01264
G1 X48.37 Y54.219 E14.02541
G1 X47.738 Y54.679 E14.0468
G1 X-.629 Y88.809 E15.6662
G1 X-1.206 Y89.204 E15.68533
G1 X-1.643 Y89.455 E15.69912
G1 X-2.114 Y89.633 E15.71289
G1 X-2.607 Y89.735 E15.72667
G1 X-3.11 Y89.757 E15.74044
G1 X-3.611 Y89.7 E15.75423
G1 X-4.289 Y89.486 E15.77368
G1 X-5.004 Y89.167 E15.7951
G1 X-58.749 Y64.342 E17.41464
G1 X-59.375 Y64.041 E17.43364
G1 X-59.81 Y63.788 E17.44741
G1 X-60.2 Y63.469 E17.46119
G1 X-60.534 Y63.092 E17.47497
G1 X-60.804 Y62.667 E17.48875
G1 X-61.004 Y62.205 E17.50252
G1 X-61.156 Y61.513 E17.5219
G1 X-61.24 Y60.719 E17.54374
G1 X-66.622 Y1.692 E19.16521
G1 X-66.668 Y1.09 E19.18173
G1 X-66.666 Y0.586 E19.19552
G1 X-66.585 Y0.089 E19.20929
G1 X-66.426 Y-.389 E19.22307
G1 X-66.194 Y-.835 E19.23683
G1 X-65.894 Y-1.24 E19.25061
G1 X-65.375 Y-1.716 E19.26988
G1 X-64.758 Y-2.166 E19.29077
G1 X-16.36 Y-36.316 E20.91118
G1 X-15.801 Y-36.7 E20.92974
G1 X-15.364 Y-36.951 E20.94352
G1 X-14.894 Y-37.131 E20.95729
G1 X-14.401 Y-37.233 E20.97106
G1 X-13.898 Y-37.256 E20.98484
G1 X-13.397 Y-37.2 E20.99863
G1 X-12.721 Y-36.988 E21.01801
G1 X-12.031 Y-36.682 E21.03866
M204 S4000
G1 F2700 E14.03866
;MESH:voet_voor_nespresso.stl
G0 F2400 X-13.086 Y-34.404
G0 X-13.592 Y-33.305
G0 X-13.947 Y-33.491
M204 S1800
;TYPE:WALL-INNER
G1 F2700 E21.03866
G1 F1200 X40.514 Y-8.336 E22.67977
G1 X45.961 Y51.406 E24.32088
G1 X-3.054 Y85.992 E25.96196
G1 X-57.514 Y60.837 E27.60304
G1 X-62.962 Y1.094 E29.24418
G1 X-13.947 Y-33.491 E30.88525
M204 S4000
G0 F2400 X-13.981 Y-33.865
M204 S1800
;TYPE:WALL-OUTER
G1 F1200 X40.821 Y-8.552 E32.53664
G1 X46.302 Y51.563 E34.18799
G1 X-3.02 Y86.366 E35.83936
G1 X-57.821 Y61.053 E37.49072
G1 X-63.303 Y0.937 E39.14211
G1 X-13.981 Y-33.865 E40.79346
M204 S4000
G0 F2400 X-13.8 Y-33.782
G0 X-13.912 Y-33.1
M204 S1800
;TYPE:SKIN
G1 F1200 X40.194 Y-8.109 E42.42387
G1 X45.605 Y51.241 E44.05421
G1 X-3.089 Y85.601 E45.68455
G1 X-57.194 Y60.61 E47.31494
G1 X-62.606 Y1.259 E48.94531
G1 X-13.912 Y-33.1 E50.57564
M204 S4000
G0 F2400 X40.049 Y-7.962
M204 S1800
G1 F1200 X39.977 Y-8.034 E50.57842
M204 S4000
G0 F2400 X40.099 Y-7.418
M204 S1800
G1 F1200 X39.057 Y-8.459 E50.61871
G1 X38.995 Y-8.521
M204 S4000
G0 F2400 X38.137 Y-8.884
M204 S1800
G1 F1200 X40.148 Y-6.873 E50.69652
M204 S4000
G0 F2400 X40.198 Y-6.329
M204 S1800
G1 F1200 X37.217 Y-9.309 E50.81183
G1 X37.155 Y-9.371
M204 S4000
G0 F2400 X36.298 Y-9.734
M204 S1800
G1 F1200 X40.248 Y-5.784 E50.96464
M204 S4000
G0 F2400 X40.298 Y-5.239
M204 S1800
G1 F1200 X35.378 Y-10.159 E51.15499
G1 X35.316 Y-10.221
M204 S4000
G0 F2400 X34.458 Y-10.583
M204 S1800
G1 F1200 X40.347 Y-4.695 E51.3828
M204 S4000
G0 F2400 X40.397 Y-4.15
M204 S1800
G1 F1200 X33.538 Y-11.008 E51.64814
G1 X33.476 Y-11.07
M204 S4000
G0 F2400 X32.618 Y-11.433
M204 S1800
G1 F1200 X40.447 Y-3.605 E51.95101
M204 S4000
G0 F2400 X40.496 Y-3.061
M204 S1800
G1 F1200 X31.698 Y-11.858 E52.29137
G1 X31.636 Y-11.92
M204 S4000
G0 F2400 X30.778 Y-12.283
M204 S1800
G1 F1200 X40.546 Y-2.516 E52.66925
M204 S4000
G0 F2400 X40.595 Y-1.972
M204 S1800
G1 F1200 X29.859 Y-12.708 E53.0846
G1 X29.797 Y-12.77
M204 S4000
G0 F2400 X28.939 Y-13.133
M204 S1800
G1 F1200 X40.645 Y-1.426 E53.5375
M204 S4000
G0 F2400 X40.695 Y-.882
M204 S1800
G1 F1200 X28.019 Y-13.558 E54.02791
G1 X27.957 Y-13.62
M204 S4000
G0 F2400 X27.099 Y-13.983
M204 S1800
G1 F1200 X40.744 Y-.337 E54.55583
M204 S4000
G0 F2400 X40.794 Y0.206
M204 S1800
G1 F1200 X26.179 Y-14.408 E55.12123
G1 X26.117 Y-14.47
M204 S4000
G0 F2400 X25.259 Y-14.832
M204 S1800
G1 F1200 X40.843 Y0.75 E55.7241
M204 S4000
G0 F2400 X40.894 Y1.296
M204 S1800
G1 F1200 X24.34 Y-15.257 E56.36452
G1 X24.278 Y-15.319
M204 S4000
G0 F2400 X23.42 Y-15.682
M204 S1800
G1 F1200 X40.943 Y1.84 E57.04243
M204 S4000
G0 F2400 X40.993 Y2.385
M204 S1800
G1 F1200 X22.5 Y-16.107 E57.75787
G1 X22.438 Y-16.169
M204 S4000
G0 F2400 X21.58 Y-16.532
M204 S1800
G1 F1200 X41.042 Y2.929 E58.51079
M204 S4000
G0 F2400 X41.092 Y3.474
M204 S1800
G1 F1200 X20.66 Y-16.957 E59.30124
G1 X20.598 Y-17.019
M204 S4000
G0 F2400 X19.741 Y-17.382
M204 S1800
G1 F1200 X41.142 Y4.019 E60.1292
M204 S4000
G0 F2400 X41.191 Y4.563
M204 S1800
G1 F1200 X18.821 Y-17.806 E60.99463
G1 X18.759 Y-17.868
M204 S4000
G0 F2400 X17.901 Y-18.231
M204 S1800
G1 F1200 X41.241 Y5.108 E61.89759
M204 S4000
G0 F2400 X41.291 Y5.653
M204 S1800
G1 F1200 X16.981 Y-18.656 E62.83807
G1 X16.919 Y-18.718
M204 S4000
G0 F2400 X16.061 Y-19.081
M204 S1800
G1 F1200 X41.34 Y6.197 E63.81604
M204 S4000
G0 F2400 X41.39 Y6.742
M204 S1800
G1 F1200 X15.141 Y-19.506 E64.83154
G1 X15.079 Y-19.568
M204 S4000
G0 F2400 X14.222 Y-19.931
M204 S1800
G1 F1200 X41.439 Y7.286 E65.88451
M204 S4000
G0 F2400 X41.489 Y7.831
M204 S1800
G1 F1200 X13.302 Y-20.356 E66.975
G1 X13.24 Y-20.418
M204 S4000
G0 F2400 X12.382 Y-20.78
M204 S1800
G1 F1200 X41.539 Y8.376 E68.10301
M204 S4000
G0 F2400 X41.589 Y8.92
M204 S1800
G1 F1200 X11.462 Y-21.205 E69.26852
G1 X11.4 Y-21.267
M204 S4000
G0 F2400 X10.542 Y-21.63
M204 S1800
G1 F1200 X41.638 Y9.465 E70.47154
M204 S4000
G0 F2400 X41.688 Y10.009
M204 S1800
G1 F1200 X9.623 Y-22.055 E71.71204
G1 X9.561 Y-22.117
M204 S4000
G0 F2400 X8.703 Y-22.48
M204 S1800
G1 F1200 X41.738 Y10.554 E72.99008
M204 S4000
G0 F2400 X41.787 Y11.099
M204 S1800
G1 F1200 X7.783 Y-22.905 E74.30562
G1 X7.721 Y-22.967
M204 S4000
G0 F2400 X6.863 Y-23.329
M204 S1800
G1 F1200 X41.837 Y11.643 E75.65865
M204 S4000
G0 F2400 X41.886 Y12.188
M204 S1800
G1 F1200 X5.943 Y-23.754 E77.04919
G1 X5.881 Y-23.816
M204 S4000
G0 F2400 X5.023 Y-24.179
M204 S1800
G1 F1200 X41.937 Y12.733 E78.47728
M204 S4000
G0 F2400 X41.986 Y13.278
M204 S1800
G1 F1200 X4.104 Y-24.604 E79.94285
G1 X4.042 Y-24.666
M204 S4000
G0 F2400 X3.184 Y-25.029
M204 S1800
G1 F1200 X42.036 Y13.822 E81.44593
M204 S4000
G0 F2400 X42.085 Y14.366
M204 S1800
G1 F1200 X2.264 Y-25.454 E82.9865
G1 X2.202 Y-25.516
M204 S4000
G0 F2400 X1.344 Y-25.878
M204 S1800
G1 F1200 X42.135 Y14.912 E84.5646
M204 S4000
G0 F2400 X42.185 Y15.456
M204 S1800
G1 F1200 X0.424 Y-26.303 E86.18021
G1 X0.362 Y-26.365
M204 S4000
G0 F2400 X-.494 Y-26.728
M204 S1800
G1 F1200 X42.234 Y16.001 E87.83328
M204 S4000
G0 F2400 X42.284 Y16.545
M204 S1800
G1 F1200 X-1.414 Y-27.153 E89.52386
G1 X-1.476 Y-27.215
M204 S4000
G0 F2400 X-2.334 Y-27.578
M204 S1800
G1 F1200 X42.333 Y17.09 E91.25196
M204 S4000
G0 F2400 X42.383 Y17.635
M204 S1800
G1 F1200 X-3.254 Y-28.003 E93.01757
G1 X-3.316 Y-28.065
M204 S4000
G0 F2400 X-4.174 Y-28.427
M204 S1800
G1 F1200 X42.433 Y18.179 E94.82068
M204 S4000
G0 F2400 X42.482 Y18.724
M204 S1800
G1 F1200 X-5.093 Y-28.852 E96.66127
G1 X-5.155 Y-28.914
M204 S4000
G0 F2400 X-6.013 Y-29.277
M204 S1800
G1 F1200 X42.532 Y19.268 E98.53938
M204 S4000
G0 F2400 X42.582 Y19.813
M204 S1800
G1 F1200 X-6.933 Y-29.702 E100.45501
G1 X-6.995 Y-29.764
M204 S4000
G0 F2400 X-7.853 Y-30.127
M204 S1800
G1 F1200 X42.632 Y20.358 E102.40817
M204 S4000
G0 F2400 X42.681 Y20.902
M204 S1800
G1 F1200 X-8.773 Y-30.552 E104.39881
G1 X-8.835 Y-30.614
M204 S4000
G0 F2400 X-9.693 Y-30.977
M204 S1800
G1 F1200 X42.731 Y21.447 E106.42699
M204 S4000
G0 F2400 X42.781 Y21.992
M204 S1800
G1 F1200 X-10.612 Y-31.401 E108.49265
G1 X-10.674 Y-31.463
M204 S4000
G0 F2400 X-11.532 Y-31.826
M204 S1800
G1 F1200 X42.83 Y22.536 E110.5958
M204 S4000
G0 F2400 X42.88 Y23.081
M204 S1800
G1 F1200 X-12.452 Y-32.251 E112.73648
G1 X-12.514 Y-32.313
M204 S4000
G0 F2400 X-13.372 Y-32.676
M204 S1800
G1 F1200 X42.929 Y23.625 E114.91464
M204 S4000
G0 F2400 X42.98 Y24.171
M204 S1800
G1 F1200 X-14.021 Y-32.83 E117.11989
M204 S4000
G0 F2400 X-14.311 Y-32.625
M204 S1800
G1 F1200 X43.029 Y24.715 E119.33825
M204 S4000
G0 F2400 X43.079 Y25.259
M204 S1800
G1 F1200 X-14.601 Y-32.42 E121.56975
M204 S4000
G0 F2400 X-14.891 Y-32.215
M204 S1800
G1 F1200 X43.128 Y25.804 E123.81438
M204 S4000
G0 F2400 X43.178 Y26.348
M204 S1800
G1 F1200 X-15.181 Y-32.01 E126.07215
M204 S4000
G0 F2400 X-15.472 Y-31.806
M204 S1800
G1 F1200 X43.228 Y26.894 E128.34313
M204 S4000
G0 F2400 X43.277 Y27.438
M204 S1800
G1 F1200 X-15.762 Y-31.601 E130.62722
M204 S4000
G0 F2400 X-16.052 Y-31.396
M204 S1800
G1 F1200 X43.327 Y27.983 E132.92447
M204 S4000
G0 F2400 X43.376 Y28.527
M204 S1800
G1 F1200 X-16.342 Y-31.191 E135.23483
M204 S4000
G0 F2400 X-16.632 Y-30.986
M204 S1800
G1 F1200 X43.426 Y29.072 E137.55835
M204 S4000
G0 F2400 X43.476 Y29.617
M204 S1800
G1 F1200 X-16.923 Y-30.782 E139.89506
M204 S4000
G0 F2400 X-17.213 Y-30.577
M204 S1800
G1 F1200 X43.525 Y30.161 E142.24488
M204 S4000
G0 F2400 X43.575 Y30.706
M204 S1800
G1 F1200 X-17.503 Y-30.373 E144.60788
M204 S4000
G0 F2400 X-17.793 Y-30.168
M204 S1800
G1 F1200 X43.625 Y31.251 E146.98403
M204 S4000
G0 F2400 X43.675 Y31.795
M204 S1800
G1 F1200 X-18.083 Y-29.962 E149.3733
M204 S4000
G0 F2400 X-18.374 Y-29.758
M204 S1800
G1 F1200 X43.724 Y32.34 E151.77574
M204 S4000
G0 F2400 X43.774 Y32.884
M204 S1800
G1 F1200 X-18.664 Y-29.553 E154.19131
M204 S4000
G0 F2400 X-18.954 Y-29.349
M204 S1800
G1 F1200 X43.823 Y33.429 E156.62004
M204 S4000
G0 F2400 X43.873 Y33.974
M204 S1800
G1 F1200 X-19.244 Y-29.144 E159.06192
M204 S4000
G0 F2400 X-19.534 Y-28.939
M204 S1800
G1 F1200 X43.923 Y34.518 E161.51694
M204 S4000
G0 F2400 X43.972 Y35.063
M204 S1800
G1 F1200 X-19.825 Y-28.734 E163.98511
M204 S4000
G0 F2400 X-20.115 Y-28.529
M204 S1800
G1 F1200 X44.022 Y35.607 E166.46641
M204 S4000
G0 F2400 X44.072 Y36.152
M204 S1800
G1 F1200 X-20.405 Y-28.325 E168.96089
M204 S4000
G0 F2400 X-20.695 Y-28.12
M204 S1800
G1 F1200 X44.122 Y36.697 E171.46852
M204 S4000
G0 F2400 X44.171 Y37.241
M204 S1800
G1 F1200 X-20.985 Y-27.915 E173.98927
M204 S4000
G0 F2400 X-21.276 Y-27.71
M204 S1800
G1 F1200 X44.221 Y37.786 E176.52319
M204 S4000
G0 F2400 X44.271 Y38.331
M204 S1800
G1 F1200 X-21.566 Y-27.505 E179.07027
M204 S4000
G0 F2400 X-21.856 Y-27.301
M204 S1800
G1 F1200 X44.32 Y38.876 E181.63049
M204 S4000
G0 F2400 X44.37 Y39.42
M204 S1800
G1 F1200 X-22.146 Y-27.096 E184.20386
M204 S4000
G0 F2400 X-22.437 Y-26.891
M204 S1800
G1 F1200 X44.419 Y39.964 E186.79036
M204 S4000
G0 F2400 X44.469 Y40.51
M204 S1800
G1 F1200 X-22.727 Y-26.686 E189.39003
M204 S4000
G0 F2400 X-23.017 Y-26.481
M204 S1800
G1 F1200 X44.519 Y41.054 E192.00283
M204 S4000
G0 F2400 X44.568 Y41.599
M204 S1800
G1 F1200 X-23.307 Y-26.277 E194.62879
M204 S4000
G0 F2400 X-23.597 Y-26.072
M204 S1800
G1 F1200 X44.618 Y42.143 E197.26788
M204 S4000
G0 F2400 X44.667 Y42.688
M204 S1800
G1 F1200 X-23.888 Y-25.868 E199.92015
M204 S4000
G0 F2400 X-24.178 Y-25.663
M204 S1800
G1 F1200 X44.718 Y43.233 E202.58559
M204 S4000
G0 F2400 X44.767 Y43.777
M204 S1800
G1 F1200 X-24.468 Y-25.457 E205.26413
M204 S4000
G0 F2400 X-24.758 Y-25.253
M204 S1800
G1 F1200 X44.817 Y44.322 E207.95584
M204 S4000
G0 F2400 X44.866 Y44.866
M204 S1800
G1 F1200 X-25.048 Y-25.048 E210.66066
M204 S4000
G0 F2400 X-25.339 Y-24.844
M204 S1800
G1 F1200 X44.916 Y45.411 E213.37868
M204 S4000
G0 F2400 X44.966 Y45.956
M204 S1800
G1 F1200 X-25.629 Y-24.639 E216.10985
M204 S4000
G0 F2400 X-25.919 Y-24.434
M204 S1800
G1 F1200 X45.015 Y46.5 E218.85413
M204 S4000
G0 F2400 X45.065 Y47.045
M204 S1800
G1 F1200 X-26.209 Y-24.229 E221.61157
M204 S4000
G0 F2400 X-26.499 Y-24.024
M204 S1800
G1 F1200 X45.115 Y47.59 E224.38217
M204 S4000
G0 F2400 X45.165 Y48.134
M204 S1800
G1 F1200 X-26.79 Y-23.82 E227.16593
M204 S4000
G0 F2400 X-27.08 Y-23.615
M204 S1800
G1 F1200 X45.214 Y48.679 E229.96284
M204 S4000
G0 F2400 X45.264 Y49.223
M204 S1800
G1 F1200 X-27.37 Y-23.41 E232.77287
M204 S4000
G0 F2400 X-27.66 Y-23.205
M204 S1800
G1 F1200 X45.314 Y49.769 E235.59608
M204 S4000
G0 F2400 X45.363 Y50.313
M204 S1800
G1 F1200 X-27.95 Y-23 E238.43241
M204 S4000
G0 F2400 X-28.241 Y-22.796
M204 S1800
G1 F1200 X45.413 Y50.857 E241.2819
M204 S4000
G0 F2400 X45.313 Y51.253
M204 S1800
G1 F1200 X-28.531 Y-22.591 E244.13877
M204 S4000
G0 F2400 X-28.821 Y-22.387
M204 S1800
G1 F1200 X45.023 Y51.458 E246.99566
M204 S4000
G0 F2400 X44.732 Y51.662
M204 S1800
G1 F1200 X-29.111 Y-22.181 E249.85249
M204 S4000
G0 F2400 X-29.401 Y-21.976
M204 S1800
G1 F1200 X44.443 Y51.867 E252.70933
M204 S4000
G0 F2400 X44.152 Y52.072
M204 S1800
G1 F1200 X-29.692 Y-21.772 E255.5662
M204 S4000
G0 F2400 X-29.982 Y-21.567
M204 S1800
G1 F1200 X43.862 Y52.277 E258.42307
M204 S4000
G0 F2400 X43.572 Y52.482
M204 S1800
G1 F1200 X-30.272 Y-21.363 E261.27996
M204 S4000
G0 F2400 X-30.562 Y-21.158
M204 S1800
G1 F1200 X43.282 Y52.686 E264.13682
M204 S4000
G0 F2400 X42.992 Y52.891
M204 S1800
G1 F1200 X-30.853 Y-20.953 E266.99371
M204 S4000
G0 F2400 X-31.143 Y-20.748
M204 S1800
G1 F1200 X42.701 Y53.095 E269.85056
M204 S4000
G0 F2400 X42.411 Y53.301
M204 S1800
G1 F1200 X-31.433 Y-20.543 E272.70743
M204 S4000
G0 F2400 X-31.723 Y-20.339
M204 S1800
G1 F1200 X42.121 Y53.506 E275.56432
M204 S4000
G0 F2400 X41.831 Y53.71
M204 S1800
G1 F1200 X-32.013 Y-20.134 E278.42118
M204 S4000
G0 F2400 X-32.304 Y-19.929
M204 S1800
G1 F1200 X41.541 Y53.915 E281.27807
M204 S4000
G0 F2400 X41.251 Y54.12
M204 S1800
G1 F1200 X-32.594 Y-19.724 E284.13496
M204 S4000
G0 F2400 X-32.884 Y-19.519
