;FLAVOR:Marlin
;TIME:1991
;Filament used: 6.09271m
;Layer height: 0.3
;MINX:-27.707
;MINY:-51.414
;MINZ:0.3
;MAXX:78.122
;MAXY:24.711
;MAXZ:9.6
;Generated with Cura_SteamEngine 4.10.0
M104 S228
M105
M109 S228
M82 ;absolute extrusion mode
G21        ;metric values
G90        ;absolute positioning
M107       ;start with the fan off
G28   ;move to endstops

;Z-Offset Reset und dann Z +0,1 für PLA
;MacroZOffset0
;MacroZOffsetPlus0100

G92 E0                  ;zero the extruded length
G1 F200 E3              ;extrude 3mm of feed stock
G92 E0                  ;zero the extruded length again
G1 F120
;Put printing message on LCD screen
M117 Printing...
G92 E0
G92 E0
G1 F2400 E-6
;LAYER_COUNT:33
;LAYER:0
M107
G0 X-16.267 Y21.248 Z0.3
;TYPE:SKIRT
G1 F2400 E0
G1 F1200 X-26.716 Y3.144 E1.26707
G1 X-27.077 Y2.496 E1.31203
G1 X-27.323 Y1.977 E1.34685
G1 X-27.527 Y1.375 E1.38538
G1 X-27.59 Y1.121 E1.40124
G1 X-27.692 Y0.482 E1.44047
G1 X-27.707 Y0.277 E1.45293
G1 X-27.703 Y-.328 E1.4896
G1 X-27.683 Y-.56 E1.50371
G1 X-27.552 Y-1.273 E1.54766
G1 X-27.466 Y-1.576 E1.56675
G1 X-27.278 Y-2.095 E1.60021
G1 X-27.136 Y-2.378 E1.6194
G1 X-26.582 Y-3.381 E1.68886
G1 X-16.091 Y-21.55 E2.96061
G1 X-15.803 Y-22.032 E2.99465
G1 X-15.568 Y-22.403 E3.02127
G1 X-15.156 Y-22.938 E3.0622
G1 X-15.001 Y-23.106 E3.07606
G1 X-14.606 Y-23.477 E3.10891
G1 X-14.461 Y-23.595 E3.12024
G1 X-13.815 Y-24.019 E3.16708
G1 X-13.5 Y-24.183 E3.18861
G1 X-12.903 Y-24.432 E3.22782
G1 X-12.253 Y-24.608 E3.26863
G1 X-11.907 Y-24.682 E3.29008
G1 X-9.19 Y-25.291 E3.45886
G1 X-6.607 Y-25.948 E3.62042
G1 X-3.961 Y-26.7 E3.78717
G1 X-1.363 Y-27.519 E3.95229
G1 X1.212 Y-28.414 E4.11753
G1 X3.702 Y-29.356 E4.27891
G1 X6.266 Y-30.411 E4.44697
G1 X8.736 Y-31.51 E4.61085
G1 X11.193 Y-32.687 E4.77599
G1 X13.631 Y-33.942 E4.9422
G1 X15.994 Y-35.243 E5.10572
G1 X18.343 Y-36.626 E5.27095
G1 X20.663 Y-38.08 E5.43692
G1 X22.925 Y-39.589 E5.60174
G1 X25.104 Y-41.133 E5.76362
G1 X27.328 Y-42.807 E5.93236
G1 X29.435 Y-44.487 E6.0957
G1 X31.504 Y-46.235 E6.25989
G1 X33.533 Y-48.05 E6.42491
G1 X34.544 Y-49.015 E6.50962
G1 X35.612 Y-50.013 E6.59823
G1 X36.202 Y-50.479 E6.6438
G1 X36.816 Y-50.844 E6.6871
G1 X37.037 Y-50.949 E6.70193
G1 X37.739 Y-51.202 E6.74716
G1 X38.41 Y-51.35 E6.78882
G1 X38.912 Y-51.392 E6.81935
G1 X40.091 Y-51.414 E6.89083
G1 X61.016 Y-51.414 E8.15923
G1 X61.634 Y-51.403 E8.1967
G1 X62.055 Y-51.383 E8.22225
G1 X62.706 Y-51.295 E8.26207
G1 X62.916 Y-51.248 E8.27511
G1 X63.61 Y-51.021 E8.31937
G1 X63.896 Y-50.896 E8.33829
G1 X64.542 Y-50.535 E8.38315
G1 X64.725 Y-50.408 E8.39666
G1 X65.201 Y-50.017 E8.43399
G1 X65.352 Y-49.871 E8.44673
G1 X65.821 Y-49.323 E8.49045
G1 X66.102 Y-48.907 E8.52088
G1 X66.678 Y-47.951 E8.58853
G1 X77.127 Y-29.847 E9.8556
G1 X77.488 Y-29.199 E9.90057
G1 X77.734 Y-28.68 E9.93538
G1 X77.938 Y-28.078 E9.97391
G1 X78.001 Y-27.824 E9.98978
G1 X78.11 Y-27.066 E10.0362
G1 X78.122 Y-26.779 E10.05361
G1 X78.076 Y-26.009 E10.10037
G1 X78.03 Y-25.726 E10.11775
G1 X77.881 Y-25.126 E10.15522
G1 X77.824 Y-24.956 E10.16609
G1 X77.546 Y-24.323 E10.208
G1 X76.97 Y-23.282 E10.28011
G1 X66.518 Y-5.178 E11.54728
G1 X66.217 Y-4.679 E11.5826
G1 X65.712 Y-3.946 E11.63656
G1 X65.548 Y-3.749 E11.65209
G1 X65.165 Y-3.352 E11.68553
G1 X64.642 Y-2.943 E11.72578
G1 X64.016 Y-2.566 E11.77007
G1 X63.354 Y-2.284 E11.81369
G1 X62.661 Y-2.095 E11.85723
G1 X62.318 Y-2.021 E11.8785
G1 X59.601 Y-1.412 E12.04728
G1 X57.018 Y-.755 E12.20884
G1 X54.372 Y-0.003 E12.37559
G1 X51.774 Y0.816 E12.54071
G1 X49.199 Y1.711 E12.70595
G1 X46.709 Y2.653 E12.86733
G1 X44.145 Y3.708 E13.03539
G1 X41.675 Y4.807 E13.19927
G1 X39.218 Y5.984 E13.36441
G1 X36.78 Y7.239 E13.53062
G1 X34.417 Y8.54 E13.69414
G1 X32.068 Y9.923 E13.85937
G1 X29.752 Y11.374 E14.02503
G1 X27.486 Y12.886 E14.19016
G1 X25.307 Y14.43 E14.35204
G1 X23.083 Y16.104 E14.52078
G1 X20.976 Y17.784 E14.68412
G1 X18.907 Y19.532 E14.84831
G1 X16.878 Y21.347 E15.01333
G1 X15.866 Y22.313 E15.09813
G1 X14.808 Y23.301 E15.18588
G1 X14.446 Y23.606 E15.21457
G1 X13.812 Y24.021 E15.2605
G1 X13.501 Y24.183 E15.28176
G1 X12.995 Y24.402 E15.31518
G1 X12.41 Y24.566 E15.35201
G1 X11.819 Y24.67 E15.38838
G1 X11.486 Y24.69 E15.40861
G1 X10.32 Y24.711 E15.4793
G1 X-10.605 Y24.711 E16.7477
G1 X-11.221 Y24.7 E16.78504
G1 X-11.643 Y24.68 E16.81065
G1 X-12.295 Y24.592 E16.85053
G1 X-12.505 Y24.545 E16.86358
G1 X-13.119 Y24.352 E16.90259
G1 X-13.314 Y24.272 E16.91537
G1 X-13.894 Y23.974 E16.9549
G1 X-14.168 Y23.802 E16.97451
G1 X-14.79 Y23.314 E17.02243
G1 X-15.198 Y22.894 E17.05792
G1 X-15.265 Y22.815 E17.0642
G1 X-15.621 Y22.319 E17.10121
G1 X-16.267 Y21.248 E17.17702
G0 F2400 X-15.799 Y20.978
G1 F1200 X-26.245 Y2.881 E18.44364
G1 X-26.606 Y2.233 E18.4886
G1 X-26.828 Y1.762 E18.52016
G1 X-27.003 Y1.245 E18.55325
G1 X-27.066 Y0.991 E18.56911
G1 X-27.153 Y0.443 E18.60275
G1 X-27.168 Y0.238 E18.61521
G1 X-27.165 Y-.282 E18.64673
G1 X-27.145 Y-.514 E18.66084
G1 X-27.033 Y-1.126 E18.69856
G1 X-26.947 Y-1.429 E18.71765
G1 X-26.664 Y-2.117 E18.76274
G1 X-26.114 Y-3.111 E18.8316
G1 X-15.627 Y-21.273 E20.10287
G1 X-15.289 Y-21.836 E20.14268
G1 X-15.113 Y-22.112 E20.16252
G1 X-14.759 Y-22.571 E20.19765
G1 X-14.265 Y-23.058 E20.2397
G1 X-14.12 Y-23.176 E20.25104
G1 X-13.566 Y-23.54 E20.29122
G1 X-13.251 Y-23.704 E20.31274
G1 X-12.738 Y-23.918 E20.34644
G1 X-12.131 Y-24.082 E20.38455
G1 X-11.809 Y-24.15 E20.4045
G1 X-9.079 Y-24.762 E20.57409
G1 X-6.442 Y-25.433 E20.73903
G1 X-3.822 Y-26.178 E20.90414
G1 X-1.183 Y-27.01 E21.07187
G1 X1.387 Y-27.903 E21.23679
G1 X3.916 Y-28.86 E21.4007
G1 X6.461 Y-29.907 E21.56751
G1 X8.977 Y-31.026 E21.73443
G1 X11.446 Y-32.209 E21.90038
G1 X13.854 Y-33.449 E22.06456
G1 X16.26 Y-34.773 E22.23103
G1 X18.648 Y-36.179 E22.39901
G1 X20.942 Y-37.617 E22.56313
G1 X23.213 Y-39.132 E22.72861
G1 X25.456 Y-40.722 E22.89527
G1 X27.626 Y-42.354 E23.05985
G1 X29.774 Y-44.067 E23.22639
G1 X31.887 Y-45.853 E23.3941
G1 X33.883 Y-47.638 E23.55641
G1 X34.912 Y-48.62 E23.64263
G1 X35.98 Y-49.618 E23.73124
G1 X36.521 Y-50.043 E23.77294
G1 X37.048 Y-50.357 E23.81013
G1 X37.269 Y-50.462 E23.82496
G1 X37.871 Y-50.678 E23.86373
G1 X38.487 Y-50.815 E23.90198
G1 X38.922 Y-50.852 E23.92844
G1 X40.091 Y-50.874 E23.99932
G1 X61.009 Y-50.874 E25.26729
G1 X61.608 Y-50.863 E25.30361
G1 X62.029 Y-50.843 E25.32916
G1 X62.588 Y-50.768 E25.36335
G1 X62.798 Y-50.721 E25.37639
G1 X63.394 Y-50.526 E25.4144
G1 X63.68 Y-50.401 E25.43332
G1 X64.234 Y-50.091 E25.4718
G1 X64.417 Y-49.964 E25.48531
G1 X64.826 Y-49.629 E25.51735
G1 X64.977 Y-49.483 E25.53008
G1 X65.379 Y-49.013 E25.56757
G1 X65.639 Y-48.628 E25.59574
G1 X66.21 Y-47.681 E25.66277
G1 X76.656 Y-29.584 E26.92938
G1 X77.017 Y-28.936 E26.97434
G1 X77.239 Y-28.465 E27.0059
G1 X77.414 Y-27.948 E27.03899
G1 X77.477 Y-27.694 E27.05485
G1 X77.57 Y-27.044 E27.09466
G1 X77.582 Y-26.757 E27.11207
G1 X77.543 Y-26.095 E27.15227
G1 X77.497 Y-25.812 E27.16964
G1 X77.369 Y-25.297 E27.20181
G1 X77.312 Y-25.127 E27.21268
G1 X77.074 Y-24.584 E27.24862
G1 X76.502 Y-23.552 E27.32014
G1 X66.055 Y-5.456 E28.58673
G1 X65.762 Y-4.97 E28.62113
G1 X65.297 Y-4.292 E28.67097
G1 X65.133 Y-4.095 E28.6865
G1 X64.776 Y-3.729 E28.71749
G1 X64.32 Y-3.377 E28.75241
G1 X63.783 Y-3.053 E28.79043
G1 X63.186 Y-2.797 E28.82981
G1 X62.539 Y-2.621 E28.87045
G1 X62.22 Y-2.553 E28.89022
G1 X59.49 Y-1.941 E29.05981
G1 X56.853 Y-1.27 E29.22475
G1 X54.233 Y-.525 E29.38986
G1 X51.594 Y0.307 E29.55759
G1 X49.024 Y1.2 E29.72251
G1 X46.495 Y2.157 E29.88642
G1 X43.95 Y3.204 E30.05323
G1 X41.434 Y4.323 E30.22015
G1 X38.965 Y5.506 E30.3861
G1 X36.557 Y6.746 E30.55029
G1 X34.151 Y8.07 E30.71675
G1 X31.763 Y9.476 E30.88473
G1 X29.469 Y10.914 E31.04885
G1 X27.198 Y12.429 E31.21433
G1 X24.955 Y14.019 E31.38099
G1 X22.785 Y15.651 E31.54557
G1 X20.637 Y17.364 E31.71211
G1 X18.524 Y19.15 E31.87982
G1 X16.528 Y20.935 E32.04213
G1 X15.498 Y21.918 E32.12844
G1 X14.44 Y22.906 E32.21619
G1 X14.107 Y23.186 E32.24256
G1 X13.563 Y23.542 E32.28197
G1 X13.252 Y23.704 E32.30323
G1 X12.558 Y23.97 E32.34828
G1 X12.275 Y24.043 E32.36599
G1 X11.768 Y24.132 E32.3972
G1 X11.476 Y24.15 E32.41493
G1 X10.32 Y24.171 E32.48501
G1 X-10.598 Y24.171 E33.75299
G1 X-11.196 Y24.16 E33.78925
G1 X-11.618 Y24.14 E33.81486
G1 X-12.177 Y24.065 E33.84904
G1 X-12.387 Y24.018 E33.86209
G1 X-12.914 Y23.852 E33.89558
G1 X-13.109 Y23.772 E33.90836
G1 X-13.607 Y23.517 E33.94227
G1 X-13.881 Y23.345 E33.96188
G1 X-14.415 Y22.926 E34.00303
G1 X-14.786 Y22.545 E34.03526
G1 X-14.853 Y22.466 E34.04154
G1 X-15.159 Y22.04 E34.07333
G1 X-15.799 Y20.978 E34.1485
G1 F2400 E28.1485
;MESH:Hex_grinder_Bottom_misalignment_version.stl
G0 X-11.279 Y21.565
G0 X-4.808 Y21.566
G0 X-4.808 Y12.654
G0 X-4.441 Y12.802
;TYPE:WALL-INNER
G1 F2400 E34.1485
G1 F1200 X-4.528 Y12.826 E34.15397
G1 X-4.676 Y12.811 E34.16298
G1 X-4.781 Y12.706 E34.17198
G1 X-4.826 Y12.661 E34.17584
G1 X-4.824 Y12.446 E34.18887
G1 X-4.768 Y12.375 E34.19436
G1 X-4.673 Y12.255 E34.20363
G1 X-4.619 Y12.219 E34.20757
G1 X-4.336 Y12.03 E34.2282
G1 X-4.048 Y11.944 E34.24642
G1 X-3.953 Y11.916 E34.25242
G1 X-3.775 Y11.997 E34.26427
G1 X-3.764 Y12.002 E34.26501
G1 X-3.683 Y12.226 E34.27944
G1 X-3.713 Y12.332 E34.28612
G1 X-3.777 Y12.408 E34.29214
G1 X-3.869 Y12.517 E34.30079
G1 X-3.88 Y12.523 E34.30155
G1 X-4.224 Y12.74 E34.3262
G1 X-4.441 Y12.802 E34.33988
G0 F2400 X-4.044 Y13.147
;TYPE:WALL-OUTER
G1 F1200 X-4.488 Y13.272 E34.36784
G1 X-4.823 Y13.239 E34.38825
G1 X-5.071 Y13.08 E34.40611
G1 X-5.236 Y12.841 E34.42371
G1 X-5.302 Y12.558 E34.44133
G1 X-5.229 Y12.25 E34.46051
G1 X-4.976 Y11.928 E34.48534
G1 X-4.528 Y11.629 E34.51798
G1 X-4.075 Y11.483 E34.54684
G1 X-3.924 Y11.473 E34.55601
G1 X-3.672 Y11.524 E34.57159
G1 X-3.435 Y11.698 E34.58942
G1 X-3.29 Y11.932 E34.6061
G1 X-3.232 Y12.246 E34.62546
G1 X-3.316 Y12.543 E34.64417
G1 X-3.577 Y12.854 E34.66878
G1 X-4.044 Y13.147 E34.7022
G0 F2400 X-4.429 Y13.255
G0 X-4.321 Y12.67
G1 F2400 E28.7022
G0 X-4.322 Y12.664
G0 X1.34 Y11.204
G0 X1.618 Y11.35
G1 F2400 E34.7022
G1 F1200 X1.58 Y11.364 E34.70465
G1 X1.455 Y11.356 E34.71224
G1 X1.396 Y11.352 E34.71583
G1 X1.321 Y11.203 E34.72594
G1 X1.329 Y11.192
G1 X1.479 Y10.974 E34.73739
G1 X1.798 Y10.738 E34.76144
G1 X1.84 Y10.707 E34.7646
G1 X1.995 Y10.592 E34.7763
G1 X2.435 Y10.34 E34.80704
G1 X2.581 Y10.277 E34.81668
G1 X2.961 Y10.112 E34.84179
G1 X2.982 Y10.102 E34.8432
G1 X3.085 Y10.089 E34.84949
G1 X3.247 Y10.068 E34.85939
G1 X3.35 Y10.192 E34.86917
G1 X3.342 Y10.298 E34.87561
G1 X3.284 Y10.365 E34.8777
G1 X3.142 Y10.527 E34.88737
G1 X2.804 Y10.768 E34.9105
G1 X2.709 Y10.836 E34.91758
G1 X2.162 Y11.141 E34.95555
G1 X2.116 Y11.166 E34.9587
G1 X1.618 Y11.35 E34.98709
G0 F2400 X1.58 Y11.364
G0 X1.455 Y11.356
G0 X1.396 Y11.352
G0 X1.321 Y11.203
G0 X1.327 Y11.195
G1 F2400 E28.98709
G0 X1.447 Y11.232
G0 X-1.197 Y4.879
G0 X-1.102 Y4.841
G1 F2400 E34.98709
G1 F1200 X-1.202 Y4.898 E34.99407
G1 X-1.244 Y4.825 E34.99917
G1 X-1.195 Y4.83
G1 X-1.102 Y4.841 E34.99918
G0 F2400 X-1.202 Y4.898
G0 X-1.244 Y4.825
G0 X-1.195 Y4.83
G0 X-1.102 Y4.841
G0 X-1.153 Y4.87
G1 F2400 E28.99918
G0 X-1.132 Y4.888
G0 X-3.314 Y0.867
G0 X-3.761 Y0.628
;TYPE:WALL-INNER
G1 F2400 E34.99918
G1 F1200 X-4.066 Y0.679 E35.01793
G1 X-4.113 Y0.629 E35.02209
G1 X-4.1 Y0.622
G1 X-3.849 Y0.477 E35.02699
G1 X-3.522 Y0.288 E35.04925
G1 X-3.181 Y0.091 E35.07312
G1 X-3.162 Y0.08 E35.07445
G1 X-3.132 Y0.174
G1 X-3.426 Y0.452 E35.08128
G1 X-3.761 Y0.628 E35.08919
G0 F2400 X-3.004 Y-.441
G0 X-2.975 Y-.536
;TYPE:WALL-OUTER
G1 F1200 X-2.848 Y-.278 E35.10662
G1 X-2.709 Y0.004 E35.12568
G1 X-2.681 Y0.253 E35.14087
G1 X-2.809 Y0.512 E35.15838
G1 X-3.178 Y0.818 E35.18744
G1 X-3.605 Y1.043 E35.2167
G1 X-3.973 Y1.135 E35.23969
G1 X-4.262 Y1.096 E35.25737
G1 X-4.443 Y0.929 E35.2723
G1 X-4.451 Y0.922 E35.27294
G1 X-4.72 Y0.472 E35.30472
G1 X-4.711 Y0.467 E35.30534
G1 X-3.224 Y-.392 E35.40944
G1 X-2.975 Y-.536 E35.4205
G0 F2400 X-2.848 Y-.278
G0 X-2.798 Y-.177
G0 X-3.196 Y0.215
G1 F2400 E29.4205
G0 X1.869 Y-1.203
G0 X2.574 Y-.5
G1 F2400 E35.4205
G1 F1200 X2.4 Y-.442 E35.43161
G1 X2.24 Y-.569 E35.444
G1 X2.166 Y-.678 E35.45198
G1 X2.104 Y-.768 E35.45861
G1 X1.85 Y-1.208 E35.4894
G1 X2.235 Y-1.43 E35.51634
G1 X2.488 Y-.989 E35.54165
G1 X2.525 Y-.924 E35.54514
G1 X2.531 Y-.904 E35.54547
G1 X2.601 Y-.685 E35.55564
G1 X2.631 Y-.593 E35.55802
G1 X2.574 Y-.5 E35.56463
G0 F2400 X2.4 Y-.442
G0 X2.24 Y-.569
G0 X2.233 Y-.579
G1 F2400 E29.56463
G0 X2.317 Y-.635
G0 X3.62 Y-1.743
G0 X3.999 Y-1.52
G1 F2400 E35.56463
G1 F1200 X3.871 Y-1.457 E35.57328
G1 X3.857 Y-1.459 E35.57414
G1 X3.799 Y-1.469 E35.57771
G1 X3.688 Y-1.619 E35.58902
G1 X3.58 Y-1.763 E35.59993
G1 X3.388 Y-2.095 E35.62318
G1 X3.645 Y-2.244 E35.64118
G1 X3.655 Y-2.25 E35.64189
G1 X3.843 Y-1.909 E35.65526
G1 X3.911 Y-1.786 E35.65927
G1 X3.994 Y-1.534 E35.66787
G1 X3.999 Y-1.52
G0 F2400 X3.871 Y-1.457
G0 X3.857 Y-1.459
G0 X3.799 Y-1.469
G0 X3.688 Y-1.619
G1 F2400 E29.66787
G0 X3.769 Y-1.676
G0 X1.197 Y-4.967
G0 X0.635 Y-4.667
;TYPE:WALL-INNER
G1 F2400 E35.66787
G1 F1200 X0.55 Y-4.643 E35.67322
G1 X0.405 Y-4.658 E35.68206
G1 X0.301 Y-4.758 E35.6908
G1 X0.253 Y-4.805 E35.69487
G1 X0.255 Y-5.025 E35.70821
G1 X0.31 Y-5.095 E35.71361
G1 X0.399 Y-5.209 E35.72237
G1 X0.455 Y-5.246 E35.72644
G1 X0.745 Y-5.44 E35.74759
G1 X1.004 Y-5.524 E35.7641
G1 X1.059 Y-5.541 E35.76759
G1 X1.24 Y-5.521 E35.77862
G1 X1.336 Y-5.412 E35.78743
G1 X1.371 Y-5.373 E35.79061
G1 X1.395 Y-5.242 E35.79868
G1 X1.365 Y-5.137 E35.8053
G1 X1.328 Y-5.093 E35.80878
G1 X1.21 Y-4.952 E35.81993
G1 X1.166 Y-4.924 E35.82309
G1 X0.86 Y-4.732 E35.84499
G1 X0.635 Y-4.667 E35.85918
G0 F2400 X1.042 Y-4.326
;TYPE:WALL-OUTER
G1 F1200 X0.59 Y-4.197 E35.88768
G1 X0.256 Y-4.23 E35.90802
G1 X0.003 Y-4.393 E35.92626
G1 X-.157 Y-4.625 E35.94335
G1 X-.223 Y-4.911 E35.96114
G1 X-.152 Y-5.217 E35.98018
G1 X0.097 Y-5.537 E36.00476
G1 X0.55 Y-5.84 E36.03779
G1 X1.013 Y-5.988 E36.06726
G1 X1.406 Y-5.945 E36.09122
G1 X1.643 Y-5.771 E36.10905
G1 X1.789 Y-5.534 E36.12592
G1 X1.846 Y-5.22 E36.14526
G1 X1.762 Y-4.926 E36.1638
G1 X1.503 Y-4.617 E36.18824
G1 X1.042 Y-4.326 E36.22128
G0 F2400 X0.658 Y-4.217
G0 X0.756 Y-4.799
G1 F2400 E30.22128
G0 X0.755 Y-4.806
G0 X-.433 Y-8.785
G0 X-.303 Y-8.819
G1 F2400 E36.22128
G1 F1200 X-.436 Y-8.766 E36.22996
G1 X-.64 Y-8.966 E36.24728
G1 X-.648 Y-8.974 E36.24796
G1 X-.69 Y-9.045 E36.25297
G1 X-.957 Y-9.488 E36.28432
G1 X-.632 Y-9.676 E36.30708
G1 X-.379 Y-9.233 E36.32814
G1 X-.327 Y-9.103 E36.3325
G1 X-.253 Y-8.918 E36.33789
G1 X-.303 Y-8.819 E36.34342
G0 F2400 X-.436 Y-8.766
G0 X-.619 Y-8.946
G1 F2400 E30.34342
G0 X-.548 Y-9.016
G0 X-2.485 Y-12.199
G0 X-2.479 Y-12.18
G1 F2400 E36.34342
G1 F1200 X-2.537 Y-12.177 E36.34695
G1 X-2.737 Y-12.348 E36.3629
G1 X-2.946 Y-12.685 E36.38693
G1 X-2.954 Y-12.698 E36.38786
G1 X-2.944 Y-12.704
G1 X-2.521 Y-12.949 E36.40967
G1 X-2.507 Y-12.92
G1 X-2.325 Y-12.554 E36.43166
G1 X-2.275 Y-12.455 E36.43592
G1 X-2.277 Y-12.339 E36.44002
G1 X-2.278 Y-12.312
G1 X-2.479 Y-12.18 E36.45459
G0 F2400 X-2.537 Y-12.177
G0 X-2.737 Y-12.348
G0 X-2.778 Y-12.415
G1 F2400 E30.45459
G0 X-2.692 Y-12.465
G0 X-7.749 Y-7.035
G0 X-7.845 Y-6.91
G1 F2400 E36.45459
G1 F1200 X-7.88 Y-6.868 E36.45791
G1 X-7.919 Y-6.937 E36.45958
G1 X-7.958 Y-7.004 E36.46165
G1 X-7.907 Y-7.013 E36.46173
G1 X-7.732 Y-7.045 E36.46755
G1 X-7.845 Y-6.91 E36.46928
G0 F2400 X-7.88 Y-6.868
G0 X-7.919 Y-6.937
G0 X-7.958 Y-7.004
G0 X-7.907 Y-7.013
G0 X-7.77 Y-7.038
G1 F2400 E30.46928
G0 X-7.862 Y-6.967
G0 X-12.557 Y-3.189
G0 X-13.207 Y-2.388
;TYPE:WALL-INNER
G1 F2400 E36.46928
G1 F1200 X-13.384 Y-2.383 E36.48001
G1 X-13.422 Y-2.383 E36.48231
G1 X-13.586 Y-2.511 E36.49492
G1 X-13.614 Y-2.721 E36.50776
G1 X-13.603 Y-2.738 E36.50899
G1 X-13.504 Y-2.892 E36.52009
G1 X-13.474 Y-2.915 E36.52238
G1 X-13.196 Y-3.127 E36.54357
G1 X-12.853 Y-3.267 E36.56603
G1 X-12.841 Y-3.271 E36.5668
G1 X-12.72 Y-3.284 E36.57417
G1 X-12.554 Y-3.207 E36.58527
G1 X-12.543 Y-3.202 E36.586
G1 X-12.46 Y-2.973 E36.60076
G1 X-12.488 Y-2.871 E36.60717
G1 X-12.496 Y-2.861 E36.60795
G1 X-12.642 Y-2.686 E36.62177
G1 X-12.653 Y-2.68 E36.62253
