;FLAVOR:Marlin
;TIME:2107
;Filament used: 1.89311m
;Layer height: 0.3
;MINX:4.677
;MINY:9.602
;MINZ:0.3
;MAXX:202.538
;MAXY:207.474
;MAXZ:5.4
;Generated with Cura_SteamEngine 4.10.0
M104 S210
M105
M109 S210
M82 ;absolute extrusion mode
G21 ;metric values
G90 ;absolute positioning
M82 ;set extruder to absolute mode
M107 ;start with the fan off
G28 X0 Y0 ;move X/Y to min endstops
G28 Z0 ;move Z to min endstops
M501
M420 S1 ;Marlin Bed-leveling on
G1 Z15.0 F180.0 ;move the platform down 15mm
G92 E0 ;zero the extruded length
G1 F200 E3 ;extrude 3mm of feed stock
G92 E0 ;zero the extruded length again
G1 F180.0
M117 Printing...
G5
G92 E0
G92 E0
;LAYER_COUNT:18
;LAYER:0
M107
M204 S3000
M205 X10 Y10
G0 F7200 X174.786 Y12.705 Z0.3
M204 S1000
M205 X8 Y8
;TYPE:SKIRT
G1 F1200 X175.303 Y12.203 E0.05914
G1 X175.867 Y11.713 E0.12046
G1 X176.27 Y11.405 E0.16208
G1 X176.566 Y11.19 E0.19211
G1 X177.183 Y10.791 E0.25241
G1 X177.886 Y10.442 E0.31682
G1 X178.402 Y10.232 E0.36254
G1 X178.828 Y10.076 E0.39978
G1 X179.53 Y9.861 E0.46003
G1 X180.304 Y9.717 E0.52464
G1 X180.808 Y9.66 E0.56627
G1 X181.238 Y9.624 E0.60168
G1 X181.972 Y9.602 E0.66195
G1 X182.799 Y9.674 E0.73008
G1 X183.471 Y9.778 E0.78588
G1 X183.717 Y9.823 E0.80641
G1 X184.431 Y9.994 E0.86666
G1 X185.193 Y10.27 E0.93318
G1 X185.992 Y10.629 E1.00506
G1 X186.64 Y10.974 E1.06531
G1 X187.124 Y11.296 E1.11302
G1 X187.864 Y11.87 E1.18988
G1 X188.325 Y12.276 E1.2403
G1 X189.111 Y13.035 E1.32997
G1 X199.343 Y23.269 E2.51765
G1 X199.753 Y23.691 E2.56594
G1 X200.149 Y24.136 E2.61482
G1 X200.519 Y24.591 E2.66295
G1 X200.822 Y24.989 E2.704
G1 X201.228 Y25.601 E2.76428
G1 X201.514 Y26.142 E2.8145
G1 X201.892 Y26.997 E2.89122
G1 X202.143 Y27.688 E2.95156
G1 X202.304 Y28.333 E3.00612
G1 X202.403 Y28.862 E3.05028
G1 X202.466 Y29.269 E3.08408
G1 X202.538 Y30 E3.14437
G1 X202.524 Y30.834 E3.21282
G1 X202.46 Y31.584 E3.2746
G1 X202.436 Y31.788 E3.29146
G1 X202.31 Y32.511 E3.35169
G1 X202.117 Y33.189 E3.40954
G1 X201.932 Y33.699 E3.45406
G1 X201.749 Y34.152 E3.49416
G1 X201.437 Y34.817 E3.55445
G1 X200.991 Y35.535 E3.62381
G1 X200.443 Y36.267 E3.69886
G1 X199.905 Y36.886 E3.76617
G1 X199.393 Y37.409 E3.82623
G1 X32.454 Y204.348 E23.20178
G1 X31.921 Y204.867 E23.26283
G1 X31.356 Y205.359 E23.32432
G1 X30.948 Y205.672 E23.36652
G1 X30.643 Y205.893 E23.39743
G1 X30.025 Y206.291 E23.45776
G1 X29.329 Y206.636 E23.52151
G1 X28.813 Y206.846 E23.56723
G1 X28.387 Y207.002 E23.60447
G1 X27.685 Y207.217 E23.66472
G1 X26.911 Y207.361 E23.72933
G1 X26.383 Y207.42 E23.77293
G1 X25.946 Y207.455 E23.80891
G1 X25.212 Y207.474 E23.86917
G1 X24.409 Y207.403 E23.93533
G1 X23.742 Y207.299 E23.99073
G1 X23.491 Y207.253 E24.01167
G1 X22.777 Y207.082 E24.07193
G1 X22.049 Y206.818 E24.13548
G1 X21.532 Y206.593 E24.18176
G1 X21.217 Y206.446 E24.21029
G1 X20.569 Y206.099 E24.27061
G1 X20.066 Y205.762 E24.3203
G1 X19.354 Y205.208 E24.39434
G1 X18.898 Y204.807 E24.44417
G1 X18.077 Y204.015 E24.5378
G1 X7.881 Y193.818 E25.72124
G1 X7.47 Y193.395 E25.76964
G1 X7.073 Y192.948 E25.81871
G1 X6.674 Y192.457 E25.87063
G1 X6.267 Y191.906 E25.92685
G1 X5.722 Y190.98 E26.01503
G1 X5.52 Y190.545 E26.05439
G1 X5.323 Y190.083 E26.09561
G1 X5.072 Y189.392 E26.15595
G1 X4.902 Y188.704 E26.21411
G1 X4.804 Y188.164 E26.25915
G1 X4.746 Y187.779 E26.2911
G1 X4.677 Y187.047 E26.35144
G1 X4.691 Y186.251 E26.41678
G1 X4.755 Y185.494 E26.47913
G1 X4.779 Y185.29 E26.49599
G1 X4.905 Y184.567 E26.55622
G1 X5.094 Y183.9 E26.61311
G1 X5.281 Y183.385 E26.65808
G1 X5.463 Y182.933 E26.69807
G1 X5.774 Y182.267 E26.75839
G1 X6.231 Y181.531 E26.82949
G1 X6.535 Y181.115 E26.87178
G1 X6.78 Y180.799 E26.90459
G1 X7.277 Y180.226 E26.96684
G1 X7.856 Y179.633 E27.03486
G1 X174.786 Y12.705 E46.40925
M204 S3000
M205 X10 Y10
G0 F7200 X175.273 Y13.208
M204 S1000
M205 X8 Y8
G1 F1200 X175.79 Y12.706 E46.46839
G1 X176.296 Y12.266 E46.52342
G1 X176.978 Y11.756 E46.59331
G1 X177.563 Y11.38 E46.65038
G1 X178.16 Y11.086 E46.705
G1 X178.643 Y10.889 E46.74781
G1 X179.069 Y10.733 E46.78504
G1 X179.734 Y10.532 E46.84205
G1 X180.392 Y10.412 E46.89695
G1 X181.296 Y10.321 E46.97151
G1 X181.991 Y10.303 E47.02857
G1 X182.695 Y10.366 E47.08658
G1 X183.345 Y10.467 E47.14056
G1 X183.591 Y10.512 E47.16109
G1 X184.266 Y10.676 E47.2181
G1 X184.919 Y10.914 E47.27514
G1 X185.697 Y11.264 E47.34515
G1 X186.31 Y11.592 E47.40221
G1 X186.855 Y11.967 E47.4565
G1 X187.426 Y12.416 E47.51611
G1 X187.839 Y12.78 E47.56129
G1 X188.616 Y13.53 E47.64992
G1 X198.841 Y23.757 E48.83679
G1 X199.251 Y24.179 E48.88508
G1 X199.606 Y24.578 E48.92891
G1 X199.976 Y25.033 E48.97704
G1 X200.261 Y25.407 E49.01563
G1 X200.643 Y25.987 E49.07262
G1 X200.881 Y26.441 E49.11469
G1 X201.248 Y27.272 E49.18925
G1 X201.484 Y27.926 E49.24631
G1 X201.617 Y28.469 E49.29219
G1 X201.711 Y28.97 E49.33402
G1 X201.774 Y29.377 E49.36782
G1 X201.841 Y30.069 E49.42488
G1 X201.826 Y30.779 E49.48316
G1 X201.765 Y31.502 E49.54271
G1 X201.741 Y31.706 E49.55957
G1 X201.62 Y32.391 E49.61666
G1 X201.455 Y32.962 E49.66543
G1 X201.283 Y33.437 E49.70689
G1 X201.1 Y33.89 E49.74699
G1 X200.802 Y34.519 E49.80411
G1 X200.421 Y35.13 E49.86321
G1 X199.889 Y35.839 E49.93595
G1 X199.404 Y36.397 E49.99663
G1 X198.898 Y36.914 E50.056
G1 X31.966 Y203.847 E69.43079
G1 X31.433 Y204.366 E69.49185
G1 X30.926 Y204.807 E69.54699
G1 X30.232 Y205.326 E69.61812
G1 X29.646 Y205.701 E69.67521
G1 X29.055 Y205.992 E69.72928
G1 X28.572 Y206.189 E69.77209
G1 X28.146 Y206.345 E69.80932
G1 X27.481 Y206.546 E69.86633
G1 X26.823 Y206.666 E69.92123
G1 X25.89 Y206.758 E69.99817
G1 X25.195 Y206.773 E70.05522
G1 X24.512 Y206.71 E70.11151
G1 X23.868 Y206.611 E70.16498
G1 X23.617 Y206.565 E70.18593
G1 X22.942 Y206.4 E70.24295
G1 X22.325 Y206.175 E70.29685
G1 X21.828 Y205.958 E70.34136
G1 X21.513 Y205.811 E70.36989
G1 X20.9 Y205.482 E70.42698
G1 X20.481 Y205.199 E70.46848
G1 X19.792 Y204.662 E70.54017
G1 X19.383 Y204.303 E70.58483
G1 X18.572 Y203.52 E70.67735
G1 X8.383 Y193.33 E71.85998
G1 X7.972 Y192.907 E71.90839
G1 X7.616 Y192.506 E71.95239
G1 X7.217 Y192.015 E72.00432
G1 X6.84 Y191.504 E72.05643
G1 X6.352 Y190.674 E72.13545
G1 X6.164 Y190.27 E72.17202
G1 X5.967 Y189.808 E72.21324
G1 X5.731 Y189.154 E72.2703
G1 X5.59 Y188.572 E72.31945
G1 X5.497 Y188.059 E72.36224
G1 X5.439 Y187.674 E72.39419
G1 X5.375 Y186.982 E72.45122
G1 X5.389 Y186.305 E72.5068
G1 X5.45 Y185.576 E72.56683
G1 X5.474 Y185.372 E72.58369
G1 X5.595 Y184.687 E72.64078
G1 X5.757 Y184.126 E72.6887
G1 X5.93 Y183.646 E72.73058
G1 X6.112 Y183.194 E72.77057
G1 X6.408 Y182.565 E72.82762
G1 X6.801 Y181.938 E72.88835
G1 X7.333 Y181.228 E72.96116
G1 X7.779 Y180.715 E73.01695
G1 X8.351 Y180.128 E73.08421
G1 X175.273 Y13.208 E92.45767
M204 S3000
M205 X10 Y10
G0 F7200 X175.761 Y13.71
M204 S1000
M205 X8 Y8
G1 F1200 X176.278 Y13.208 E92.51681
G1 X176.725 Y12.819 E92.56544
G1 X177.389 Y12.322 E92.63351
G1 X177.94 Y11.971 E92.68713
G1 X178.435 Y11.73 E92.73231
G1 X179.309 Y11.39 E92.80927
G1 X179.936 Y11.203 E92.86297
G1 X180.48 Y11.106 E92.90832
G1 X181.355 Y11.019 E92.98049
G1 X182.008 Y11.004 E93.03409
G1 X182.592 Y11.059 E93.08223
G1 X183.219 Y11.155 E93.13429
G1 X183.465 Y11.2 E93.15481
G1 X184.357 Y11.445 E93.23073
G1 X184.86 Y11.65 E93.27531
G1 X185.402 Y11.898 E93.32423
G1 X185.977 Y12.21 E93.37791
G1 X186.443 Y12.532 E93.4244
G1 X186.988 Y12.962 E93.48137
G1 X187.353 Y13.284 E93.52132
G1 X188.121 Y14.025 E93.6089
G1 X198.339 Y24.245 E94.79496
G1 X198.749 Y24.667 E94.84325
G1 X199.063 Y25.02 E94.88202
G1 X199.433 Y25.475 E94.93015
G1 X199.699 Y25.824 E94.96616
G1 X200.057 Y26.372 E95.01988
G1 X200.344 Y26.945 E95.07248
G1 X200.604 Y27.546 E95.12622
G1 X200.823 Y28.162 E95.17987
G1 X200.98 Y28.858 E95.23843
G1 X201.082 Y29.484 E95.29048
G1 X201.142 Y30.135 E95.34414
G1 X201.128 Y30.724 E95.39249
G1 X201.069 Y31.42 E95.44981
G1 X201.045 Y31.624 E95.46667
G1 X200.929 Y32.268 E95.52037
G1 X200.734 Y32.907 E95.5752
G1 X200.451 Y33.628 E95.63877
G1 X200.169 Y34.218 E95.69244
G1 X199.85 Y34.724 E95.74153
G1 X199.336 Y35.41 E95.81188
G1 X198.903 Y35.908 E95.86604
G1 X198.403 Y36.419 E95.92471
G1 X31.477 Y203.345 E115.29875
G1 X30.944 Y203.864 E115.3598
G1 X30.497 Y204.254 E115.40849
G1 X29.821 Y204.759 E115.47774
G1 X29.269 Y205.11 E115.53143
G1 X28.78 Y205.348 E115.57606
G1 X27.906 Y205.688 E115.65302
G1 X27.279 Y205.875 E115.70672
G1 X26.735 Y205.972 E115.75207
G1 X25.834 Y206.06 E115.82637
G1 X25.18 Y206.072 E115.88005
G1 X24.616 Y206.018 E115.92655
G1 X23.995 Y205.922 E115.97812
G1 X23.744 Y205.876 E115.99906
G1 X23.109 Y205.719 E116.05274
G1 X22.601 Y205.531 E116.0972
G1 X22.124 Y205.324 E116.13987
G1 X21.809 Y205.177 E116.1684
G1 X21.234 Y204.865 E116.22209
G1 X20.74 Y204.52 E116.27154
G1 X20.23 Y204.117 E116.32489
G1 X19.869 Y203.799 E116.36437
G1 X19.067 Y203.025 E116.45584
G1 X8.885 Y192.842 E117.63766
G1 X8.474 Y192.419 E117.68606
G1 X8.159 Y192.065 E117.72495
G1 X7.76 Y191.574 E117.77688
G1 X7.413 Y191.103 E117.82489
G1 X6.982 Y190.369 E117.89475
G1 X6.808 Y189.995 E117.9286
G1 X6.611 Y189.533 E117.96982
G1 X6.391 Y188.917 E118.0235
G1 X6.224 Y188.163 E118.08688
G1 X6.131 Y187.57 E118.13614
G1 X6.073 Y186.919 E118.18978
G1 X6.087 Y186.359 E118.23575
G1 X6.146 Y185.658 E118.29349
G1 X6.17 Y185.454 E118.31035
G1 X6.286 Y184.81 E118.36405
G1 X6.478 Y184.179 E118.41818
G1 X6.761 Y183.456 E118.4819
G1 X7.042 Y182.865 E118.5356
G1 X7.371 Y182.344 E118.58617
G1 X7.886 Y181.657 E118.65664
G1 X8.281 Y181.203 E118.70603
G1 X8.846 Y180.623 E118.77248
G1 X175.761 Y13.71 E138.14512
M204 S3000
M205 X10 Y10
;MESH:AnyStrap_v2.1_3button_L-244mm.stl
G0 F7200 X179.073 Y17.023
G0 X180.122 Y18.072
G0 X186.412 Y21.701
G0 X190.528 Y27.909
M204 S1000
M205 X8 Y8
;TYPE:WALL-INNER
G1 F1200 X190.621 Y27.556 E138.17508
G1 X190.751 Y27.686
G1 X190.912 Y27.847 E138.19377
G1 X193.139 Y30.074 E138.45224
G1 X193.33 Y30.354 E138.48006
G1 X193.337 Y30.426 E138.486
G1 X193.248 Y30.544 E138.49813
G1 X172.179 Y51.613 E140.94347
G1 X171.992 Y51.8 E140.96518
G1 X171.823 Y51.969 E140.98479
G1 X171.755 Y51.563 E141.00035
G1 X171.648 Y51.321 E141.01739
G1 X171.34 Y50.628 E141.07963
G1 X170.806 Y49.946 E141.15071
G1 X169.671 Y48.811 E141.28245
G1 X169.652 Y48.792 E141.28465
G1 X169.497 Y48.637 E141.30264
G1 X170.112 Y48.331 E141.34178
G1 X170.132 Y48.314 E141.34388
G1 X170.635 Y47.903 E141.39719
G1 X171.742 Y46.796 E141.52567
G1 X172.227 Y46.149 E141.59203
G1 X172.326 Y45.743 E141.62633
G1 X172.846 Y45.603 E141.67052
G1 X173.731 Y44.963 E141.76016
G1 X174.357 Y44.082 E141.84885
G1 X174.578 Y43.244 E141.91998
G1 X174.931 Y43.154 E141.94988
G1 X175.638 Y42.802 E142.01469
G1 X176.155 Y42.383 E142.06931
G1 X177.309 Y41.229 E142.20325
G1 X177.579 Y40.861 E142.2407
G1 X177.874 Y40.664 E142.26982
G1 X179.977 Y38.561 E142.5139
G1 X180.183 Y38.26 E142.54383
G1 X180.456 Y38.083 E142.57054
G1 X181.522 Y37.017 E142.69426
G1 X181.931 Y36.514 E142.74746
G1 X182.038 Y36.364 E142.76259
G1 X183.039 Y35.675 E142.86232
G1 X183.75 Y34.511 E142.97426
G1 X183.75 Y34.506 E142.97467
G1 X184.936 Y33.801 E143.0879
G1 X185.311 Y33.202 E143.1459
G1 X185.889 Y32.808 E143.20331
G1 X186.527 Y31.887 E143.29526
G1 X186.55 Y31.753 E143.30642
G1 X186.882 Y31.629 E143.3355
G1 X187.668 Y31.013 E143.41746
G1 X188.329 Y30.001 E143.51666
G1 X188.392 Y29.6 E143.54997
G1 X189.012 Y29.433 E143.60267
G1 X189.901 Y28.796 E143.69242
G1 X190.397 Y28.095 E143.7629
G1 X190.528 Y27.909 E143.77764
M204 S3000
M205 X10 Y10
G0 F7200 X169.232 Y46.969
G0 X167.995 Y47.302
G0 X166.779 Y46.909
G0 X164.129 Y43.123
M204 S1000
M205 X8 Y8
G1 F1200 X164.426 Y43.544 E143.81992
G1 X164.418 Y43.558 E143.82124
G1 X164.056 Y43.196 E143.82475
G1 X163.334 Y42.474 E143.90854
G1 X162.2 Y41.34 E144.04016
G1 X161.518 Y40.806 E144.11125
G1 X160.825 Y40.498 E144.17349
G1 X160.583 Y40.391 E144.1952
G1 X160.177 Y40.323 E144.22899
G1 X160.346 Y40.154 E144.2304
G1 X160.533 Y39.967 E144.24743
G1 X181.53 Y18.97 E146.68442
G1 X181.601 Y18.899 E146.69266
G1 X181.736 Y18.809 E146.70598
G1 X181.873 Y18.853 E146.71779
G1 X182.084 Y19.018 E146.73977
G1 X182.155 Y19.089 E146.74801
G1 X183.88 Y20.815 E146.94828
G1 X183.895 Y20.83 E146.95002
G1 X183.795 Y20.9 E146.95527
G1 X183.167 Y22.156 E147.07052
G1 X182.632 Y22.313 E147.11627
G1 X181.875 Y22.874 E147.1936
G1 X181.464 Y23.461 E147.25241
G1 X180.906 Y23.853 E147.30838
G1 X180.295 Y24.71 E147.39475
G1 X180.254 Y24.903 E147.41095
G1 X179.9 Y25.034 E147.44193
G1 X179.115 Y25.651 E147.52387
G1 X178.447 Y26.665 E147.62352
G1 X178.389 Y27.048 E147.65531
G1 X177.856 Y27.158 E147.69998
G1 X176.991 Y27.769 E147.78689
G1 X176.386 Y28.625 E147.87292
G1 X176.31 Y28.979 E147.90263
G1 X176.161 Y28.999 E147.91497
G1 X175.395 Y29.513 E147.99068
G1 X174.306 Y30.602 E148.11707
G1 X173.882 Y31.121 E148.17207
G1 X173.532 Y31.826 E148.23667
G1 X173.489 Y31.992 E148.25074
G1 X172.888 Y32.119 E148.30115
G1 X172.028 Y32.731 E148.38778
G1 X171.418 Y33.596 E148.47465
G1 X171.372 Y33.824 E148.49374
G1 X171.143 Y33.871 E148.51292
G1 X170.278 Y34.482 E148.59984
G1 X169.673 Y35.338 E148.68586
G1 X169.64 Y35.491 E148.69871
G1 X168.672 Y36.045 E148.79024
G1 X168.307 Y36.59 E148.84407
G1 X167.63 Y37.07 E148.91218
G1 X166.991 Y38.325 E149.02776
G1 X166.459 Y38.479 E149.07322
G1 X165.7 Y39.05 E149.15116
G1 X165.299 Y39.625 E149.2087
G1 X164.73 Y40.029 E149.26597
G1 X164.122 Y40.888 E149.35234
G1 X163.884 Y42.012 E149.44663
G1 X163.909 Y42.126 E149.45621
G1 X164.129 Y43.123 E149.50567
M204 S3000
M205 X10 Y10
G0 F7200 X168.23 Y49.656
G0 X169.601 Y51.02
G0 X170.2 Y52.031
G0 X170.242 Y53.263
G0 X169.717 Y54.243
G0 X166.87 Y56.448
M204 S1000
M205 X8 Y8
G1 F1200 X167.277 Y56.516 E149.53953
G1 X167.108 Y56.685 E149.54092
G1 X166.921 Y56.872 E149.56262
G1 X165.479 Y58.313 E149.72993
G1 X165.292 Y58.5 E149.75163
G1 X165.123 Y58.669 E149.77125
G1 X165.055 Y58.263 E149.7868
G1 X164.948 Y58.021 E149.80384
G1 X164.64 Y57.328 E149.86608
G1 X164.106 Y56.646 E149.93717
G1 X155.5 Y48.04 E150.93601
G1 X154.818 Y47.506 E151.0071
G1 X154.125 Y47.198 E151.06934
G1 X153.883 Y47.091 E151.09105
G1 X153.476 Y47.023 E151.12492
G1 X153.645 Y46.854 E151.1263
G1 X153.832 Y46.667 E151.14334
G1 X155.274 Y45.226 E151.31064
G1 X155.461 Y45.039 E151.33235
G1 X155.63 Y44.87 E151.35196
G1 X155.698 Y45.276 E151.36752
G1 X155.805 Y45.518 E151.38456
G1 X156.113 Y46.211 E151.4468
G1 X156.647 Y46.893 E151.51788
G1 X165.253 Y55.499 E152.51673
G1 X165.935 Y56.033 E152.58781
G1 X166.628 Y56.341 E152.65005
G1 X166.87 Y56.448 E152.66709
M204 S3000
M205 X10 Y10
G0 F7200 X162.945 Y61.038
G0 X160.17 Y63.148
M204 S1000
M205 X8 Y8
G1 F1200 X160.576 Y63.216 E152.70088
G1 X160.407 Y63.385 E152.70229
G1 X160.22 Y63.572 E152.724
G1 X158.779 Y65.013 E152.89125
G1 X158.592 Y65.2 E152.91295
G1 X158.423 Y65.369 E152.93256
G1 X158.355 Y64.963 E152.94812
G1 X158.248 Y64.721 E152.96516
G1 X157.94 Y64.028 E153.0274
G1 X157.406 Y63.346 E153.09849
G1 X148.799 Y54.737 E154.09756
G1 X148.115 Y54.206 E154.16863
G1 X147.426 Y53.898 E154.23057
G1 X147.184 Y53.791 E154.25228
G1 X146.777 Y53.723 E154.28615
G1 X146.946 Y53.554 E154.28753
G1 X147.133 Y53.367 E154.30456
G1 X148.574 Y51.926 E154.47181
G1 X148.761 Y51.739 E154.49351
G1 X148.93 Y51.57 E154.51313
G1 X148.998 Y51.976 E154.52869
G1 X149.105 Y52.218 E154.54573
G1 X149.414 Y52.911 E154.608
G1 X149.944 Y53.591 E154.67875
G1 X158.553 Y62.199 E155.67789
G1 X159.235 Y62.733 E155.74898
G1 X159.928 Y63.041 E155.81121
G1 X160.17 Y63.148 E155.82825
M204 S3000
M205 X10 Y10
G0 F7200 X156.245 Y67.738
G0 X153.47 Y69.848
M204 S1000
M205 X8 Y8
G1 F1200 X153.876 Y69.916 E155.86204
G1 X153.707 Y70.085 E155.86345
G1 X153.52 Y70.272 E155.88516
G1 X152.079 Y71.713 E156.05241
G1 X151.892 Y71.9 E156.07411
G1 X151.723 Y72.069 E156.09372
G1 X151.655 Y71.663 E156.10928
G1 X151.548 Y71.421 E156.12632
G1 X151.24 Y70.728 E156.18856
G1 X150.706 Y70.046 E156.25965
G1 X142.101 Y61.44 E157.25843
G1 X141.419 Y60.906 E157.32952
G1 X140.726 Y60.598 E157.39176
G1 X140.484 Y60.491 E157.41347
G1 X140.077 Y60.423 E157.44734
G1 X140.246 Y60.254 E157.44872
G1 X140.433 Y60.067 E157.46576
G1 X141.874 Y58.626 E157.633
G1 X142.061 Y58.439 E157.65471
