;FLAVOR:Marlin
;TIME:2652
;Filament used: 1.76636m
;Layer height: 0.2
;MINX:-18.991
;MINY:-114.1
;MINZ:0.2
;MAXX:0.609
;MAXY:112.443
;MAXZ:5.4
;Generated with Cura_SteamEngine 4.10.0
M104 S220
M105
M109 S220
M82 ;absolute extrusion mode
G21        ;metric values
G90        ;absolute positioning
M107       ;start with the fan off
G28   ;move to endstops
G92 E0                  ;zero the extruded length
G1 F200 E3              ;extrude 3mm of feed stock
G92 E0                  ;zero the extruded length again
G1 F200.0
;Put printing message on LCD screen
M117 Printing...
G92 E0
G92 E0
;LAYER_COUNT:27
;LAYER:0
M107
M204 S3000
;MESH:AnyStrap_v2.1_3button_L-244mm.stl
G0 F2400 X-.777 Y0.177 Z0.2
M204 S1500
;TYPE:WALL-INNER
G1 F600 X-.666 Y-.59 E0.02707
G1 X-.777 Y-1.356 E0.0541
G1 X-1.068 Y-2.015 E0.07925
G1 X-1.087 Y-2.059 E0.08093
G1 X-1.574 Y-2.65 E0.10767
G1 X-2.19 Y-3.093 E0.13417
G1 X-2.895 Y-3.363 E0.16053
G1 X-3.545 Y-3.442 E0.1834
G1 X-14.837 Y-3.442 E0.57775
G1 X-15.487 Y-3.363 E0.60062
G1 X-16.192 Y-3.093 E0.62699
G1 X-16.808 Y-2.65 E0.65348
G1 X-17.295 Y-2.059 E0.68023
G1 X-17.314 Y-2.015 E0.6819
G1 X-17.605 Y-1.356 E0.70706
G1 X-17.716 Y-.59 E0.73409
G1 X-17.605 Y0.177 E0.76116
G1 X-17.314 Y0.836 E0.78631
G1 X-17.295 Y0.88 E0.78799
G1 X-16.808 Y1.471 E0.81473
G1 X-16.192 Y1.914 E0.84123
G1 X-15.487 Y2.184 E0.86759
G1 X-14.837 Y2.263 E0.89046
G1 X-3.545 Y2.263 E1.28481
G1 X-2.895 Y2.184 E1.30768
G1 X-2.19 Y1.914 E1.33405
G1 X-1.574 Y1.471 E1.36054
G1 X-1.087 Y0.88 E1.38729
G1 X-1.068 Y0.836 E1.38896
G1 X-.777 Y0.177 E1.41412
M204 S3000
G0 F2400 X-.661 Y-1.356
M204 S1500
G1 F600 X-.661 Y-.59 E1.41791
G1 X-.661 Y0.177 E1.42171
G1 X-.661 Y0.898 E1.43798
G1 X-.661 Y6.789 E1.64371
G1 X-.661 Y7.51 E1.66889
G1 X-.661 Y8.278 E1.69571
G1 X-.661 Y9.045 E1.7225
G1 X-.661 Y9.766 E1.74768
G1 X-.661 Y15.657 E1.95341
G1 X-.661 Y16.378 E1.97859
G1 X-.661 Y17.146 E2.00541
G1 X-.661 Y17.913 E2.0322
G1 X-.661 Y18.634 E2.05738
G1 X-.661 Y24.525 E2.26311
G1 X-.661 Y25.246 E2.28829
G1 X-.661 Y26.014 E2.31511
G1 X-.661 Y26.782 E2.34193
G1 X-.661 Y27.503 E2.36711
G1 X-.661 Y33.393 E2.57281
G1 X-.661 Y34.114 E2.59799
G1 X-.661 Y34.882 E2.62481
G1 X-.661 Y35.65 E2.65163
G1 X-.661 Y36.371 E2.67681
G1 X-.661 Y42.263 E2.88258
G1 X-.661 Y42.982 E2.90769
G1 X-.661 Y43.75 E2.93451
G1 X-.661 Y44.518 E2.96133
G1 X-.661 Y45.239 E2.98651
G1 X-.661 Y51.131 E3.19228
G1 X-.661 Y51.85 E3.21738
G1 X-.661 Y52.618 E3.24421
G1 X-.661 Y53.386 E3.27103
G1 X-.661 Y54.105 E3.29614
G1 X-.661 Y59.999 E3.50197
G1 X-.661 Y60.718 E3.52708
G1 X-.661 Y61.486 E3.5539
G1 X-.661 Y62.254 E3.58073
G1 X-.661 Y62.973 E3.60583
G1 X-.661 Y68.867 E3.81167
G1 X-.661 Y69.586 E3.83678
G1 X-.661 Y70.354 E3.8636
G1 X-.661 Y71.122 E3.89042
G1 X-.661 Y71.841 E3.91553
G1 X-.661 Y77.735 E4.12137
G1 X-.661 Y78.454 E4.14648
G1 X-.661 Y79.222 E4.1733
G1 X-.661 Y79.99 E4.20012
G1 X-.661 Y80.711 E4.2253
G1 X-.661 Y86.603 E4.43107
G1 X-.661 Y87.322 E4.45618
G1 X-.661 Y88.09 E4.483
G1 X-.661 Y88.858 E4.50982
G1 X-.661 Y89.579 E4.535
G1 X-.661 Y95.47 E4.74073
G1 X-.661 Y96.191 E4.76591
G1 X-.661 Y96.958 E4.7927
G1 X-.661 Y97.726 E4.81952
G1 X-.661 Y98.447 E4.8447
G1 X-.661 Y104.338 E5.05043
G1 X-.661 Y105.059 E5.07561
G1 X-.661 Y105.826 E5.1024
G1 X-.661 Y106.594 E5.12922
G1 X-.661 Y107.315 E5.1544
G1 X-.661 Y110.174 E5.25424
G1 X-.705 Y110.481 E5.26507
G1 X-.794 Y110.683 E5.27278
G1 X-.942 Y110.862 E5.28089
G1 X-1.164 Y111.021 E5.29043
G1 X-1.437 Y111.126 E5.30064
G1 X-1.818 Y111.173 E5.31405
G1 X-16.564 Y111.173 E5.82903
G1 X-16.945 Y111.126 E5.84243
G1 X-17.218 Y111.021 E5.85265
G1 X-17.437 Y110.864 E5.86206
G1 X-17.59 Y110.679 E5.87044
G1 X-17.68 Y110.478 E5.87813
G1 X-17.721 Y110.183 E5.88854
G1 X-17.721 Y107.315 E5.9887
G1 X-17.721 Y106.594 E6.01388
G1 X-17.721 Y105.826 E6.0407
G1 X-17.721 Y105.059 E6.06748
G1 X-17.721 Y104.338 E6.09266
G1 X-17.721 Y98.447 E6.29839
G1 X-17.721 Y97.726 E6.32357
G1 X-17.721 Y96.958 E6.35039
G1 X-17.721 Y96.191 E6.37718
G1 X-17.721 Y95.47 E6.40236
G1 X-17.721 Y89.579 E6.60809
G1 X-17.721 Y88.858 E6.63327
G1 X-17.721 Y88.09 E6.66009
G1 X-17.721 Y87.322 E6.68691
G1 X-17.721 Y86.603 E6.71202
G1 X-17.721 Y80.711 E6.91779
G1 X-17.721 Y79.99 E6.94297
G1 X-17.721 Y79.222 E6.96979
G1 X-17.721 Y78.454 E6.99661
G1 X-17.721 Y77.735 E7.02172
G1 X-17.721 Y71.841 E7.22756
G1 X-17.721 Y71.122 E7.25267
G1 X-17.721 Y70.354 E7.27949
G1 X-17.721 Y69.586 E7.30631
G1 X-17.721 Y68.867 E7.33142
G1 X-17.721 Y62.973 E7.53726
G1 X-17.721 Y62.254 E7.56237
G1 X-17.721 Y61.486 E7.58919
G1 X-17.721 Y60.718 E7.61601
G1 X-17.721 Y59.999 E7.64112
G1 X-17.721 Y54.105 E7.84696
G1 X-17.721 Y53.386 E7.87207
G1 X-17.721 Y52.618 E7.89889
G1 X-17.721 Y51.85 E7.92571
G1 X-17.721 Y51.131 E7.95082
G1 X-17.721 Y45.239 E8.15658
G1 X-17.721 Y44.518 E8.18176
G1 X-17.721 Y43.75 E8.20859
G1 X-17.721 Y42.982 E8.23541
G1 X-17.721 Y42.263 E8.26052
G1 X-17.721 Y36.371 E8.46628
G1 X-17.721 Y35.65 E8.49146
G1 X-17.721 Y34.882 E8.51828
G1 X-17.721 Y34.114 E8.5451
G1 X-17.721 Y33.393 E8.57028
G1 X-17.721 Y27.503 E8.77598
G1 X-17.721 Y26.782 E8.80116
G1 X-17.721 Y26.014 E8.82798
G1 X-17.721 Y25.246 E8.8548
G1 X-17.721 Y24.525 E8.87998
G1 X-17.721 Y18.634 E9.08571
G1 X-17.721 Y17.913 E9.11089
G1 X-17.721 Y17.146 E9.13768
G1 X-17.721 Y16.378 E9.1645
G1 X-17.721 Y15.657 E9.18968
G1 X-17.721 Y9.766 E9.39541
G1 X-17.721 Y9.045 E9.42059
G1 X-17.721 Y8.278 E9.44738
G1 X-17.721 Y7.51 E9.4742
G1 X-17.721 Y6.789 E9.49938
G1 X-17.721 Y0.898 E9.70511
G1 X-17.721 Y0.177 E9.72138
G1 X-17.721 Y-.59 E9.72518
G1 X-17.721 Y-1.356 E9.72897
G1 X-17.721 Y-2.077 E9.74524
G1 X-17.721 Y-7.97 E9.95104
G1 X-17.721 Y-8.691 E9.97622
G1 X-17.721 Y-9.458 E10.00301
G1 X-17.721 Y-10.224 E10.02976
G1 X-17.721 Y-10.945 E10.05494
G1 X-17.721 Y-16.838 E10.26074
G1 X-17.721 Y-17.559 E10.28592
G1 X-17.721 Y-18.325 E10.31267
G1 X-17.721 Y-19.092 E10.33946
G1 X-17.721 Y-19.813 E10.36464
G1 X-17.721 Y-25.706 E10.57044
G1 X-17.721 Y-26.427 E10.59562
G1 X-17.721 Y-27.193 E10.62237
G1 X-17.721 Y-27.96 E10.64916
G1 X-17.721 Y-28.681 E10.67434
G1 X-17.721 Y-34.574 E10.88014
G1 X-17.721 Y-35.295 E10.90532
G1 X-17.721 Y-36.061 E10.93207
G1 X-17.721 Y-36.828 E10.95886
G1 X-17.721 Y-37.549 E10.98404
G1 X-17.721 Y-43.442 E11.18984
G1 X-17.721 Y-44.163 E11.21502
G1 X-17.721 Y-44.929 E11.24177
G1 X-17.721 Y-45.696 E11.26855
G1 X-17.721 Y-46.417 E11.29373
G1 X-17.721 Y-52.308 E11.49947
G1 X-17.721 Y-53.029 E11.52465
G1 X-17.721 Y-53.797 E11.55147
G1 X-17.721 Y-54.564 E11.57825
G1 X-17.721 Y-55.285 E11.60343
G1 X-17.721 Y-61.176 E11.80917
G1 X-17.721 Y-61.897 E11.83434
G1 X-17.721 Y-62.665 E11.86117
G1 X-17.721 Y-63.432 E11.88795
G1 X-17.721 Y-64.153 E11.91313
G1 X-17.721 Y-70.044 E12.11886
G1 X-17.721 Y-70.765 E12.14404
G1 X-17.721 Y-71.533 E12.17086
G1 X-17.721 Y-72.3 E12.19765
G1 X-17.721 Y-73.021 E12.22283
G1 X-17.721 Y-78.912 E12.42856
G1 X-17.721 Y-79.633 E12.45374
G1 X-17.721 Y-80.401 E12.48056
G1 X-17.721 Y-81.168 E12.50735
G1 X-17.721 Y-81.889 E12.53253
G1 X-17.721 Y-111.834 E13.5783
G1 X-17.678 Y-112.135 E13.58892
G1 X-17.588 Y-112.337 E13.59664
G1 X-17.436 Y-112.524 E13.60506
G1 X-17.219 Y-112.677 E13.61433
G1 X-16.947 Y-112.782 E13.62451
G1 X-16.56 Y-112.83 E13.63813
G1 X-1.822 Y-112.83 E14.15283
G1 X-1.435 Y-112.782 E14.16645
G1 X-1.16 Y-112.676 E14.17674
G1 X-.947 Y-112.525 E14.18586
G1 X-.793 Y-112.338 E14.19432
G1 X-.705 Y-112.139 E14.20192
G1 X-.661 Y-111.831 E14.21278
G1 X-.661 Y-81.889 E15.25845
G1 X-.661 Y-81.168 E15.28363
G1 X-.661 Y-80.401 E15.31042
G1 X-.661 Y-79.633 E15.33724
G1 X-.661 Y-78.912 E15.36242
G1 X-.661 Y-73.021 E15.56815
G1 X-.661 Y-72.3 E15.59333
G1 X-.661 Y-71.533 E15.62012
G1 X-.661 Y-70.765 E15.64694
G1 X-.661 Y-70.044 E15.67212
G1 X-.661 Y-64.153 E15.87785
G1 X-.661 Y-63.432 E15.90303
G1 X-.661 Y-62.665 E15.92982
G1 X-.661 Y-61.897 E15.95664
G1 X-.661 Y-61.176 E15.98182
G1 X-.661 Y-55.285 E16.18755
G1 X-.661 Y-54.564 E16.21273
G1 X-.661 Y-53.797 E16.23951
G1 X-.661 Y-53.029 E16.26633
G1 X-.661 Y-52.308 E16.29151
G1 X-.661 Y-46.417 E16.49725
G1 X-.661 Y-45.696 E16.52243
G1 X-.661 Y-44.929 E16.54921
G1 X-.661 Y-44.163 E16.57596
G1 X-.661 Y-43.442 E16.60114
G1 X-.661 Y-37.549 E16.80695
G1 X-.661 Y-36.828 E16.83212
G1 X-.661 Y-36.061 E16.85891
G1 X-.661 Y-35.295 E16.88566
G1 X-.661 Y-34.574 E16.91084
G1 X-.661 Y-28.681 E17.11664
G1 X-.661 Y-27.96 E17.14182
G1 X-.661 Y-27.193 E17.16861
G1 X-.661 Y-26.427 E17.19536
G1 X-.661 Y-25.706 E17.22054
G1 X-.661 Y-19.813 E17.42634
G1 X-.661 Y-19.092 E17.45152
G1 X-.661 Y-18.325 E17.47831
G1 X-.661 Y-17.559 E17.50506
G1 X-.661 Y-16.838 E17.53024
G1 X-.661 Y-10.945 E17.73604
G1 X-.661 Y-10.224 E17.76122
G1 X-.661 Y-9.458 E17.78797
G1 X-.661 Y-8.691 E17.81476
G1 X-.661 Y-7.97 E17.83994
G1 X-.661 Y-2.077 E18.04574
G1 X-.661 Y-1.356 E18.06201
M204 S3000
G0 F2400 X-2.574 Y-2.382
G0 X-15.487 Y-6.684
M204 S1500
G1 F600 X-14.837 Y-6.605 E18.08488
G1 X-3.545 Y-6.605 E18.47923
G1 X-2.895 Y-6.684 E18.50209
G1 X-2.19 Y-6.954 E18.52846
G1 X-1.574 Y-7.397 E18.55496
G1 X-1.087 Y-7.988 E18.5817
G1 X-1.068 Y-8.032 E18.58337
G1 X-.777 Y-8.691 E18.59962
G1 X-.666 Y-9.458 E18.60367
G1 X-.777 Y-10.224 E18.60774
G1 X-1.068 Y-10.883 E18.62398
G1 X-1.087 Y-10.927 E18.62566
G1 X-1.574 Y-11.518 E18.6524
G1 X-2.19 Y-11.961 E18.6789
G1 X-2.895 Y-12.231 E18.70526
G1 X-3.545 Y-12.31 E18.72813
G1 X-14.837 Y-12.31 E19.12248
G1 X-15.487 Y-12.231 E19.14535
G1 X-16.192 Y-11.961 E19.17171
G1 X-16.808 Y-11.518 E19.19821
G1 X-17.295 Y-10.927 E19.22496
G1 X-17.314 Y-10.883 E19.22663
G1 X-17.605 Y-10.224 E19.24287
G1 X-17.716 Y-9.458 E19.24695
G1 X-17.605 Y-8.691 E19.25099
G1 X-17.314 Y-8.032 E19.26724
G1 X-17.295 Y-7.988 E19.26891
G1 X-16.808 Y-7.397 E19.29566
G1 X-16.192 Y-6.954 E19.32215
G1 X-15.487 Y-6.684 E19.34852
M204 S3000
G0 F2400 X-16.607 Y-8.412
G0 X-16.908 Y-9.458
G0 X-15.487 Y-15.552
M204 S1500
G1 F600 X-14.837 Y-15.473 E19.37139
G1 X-3.545 Y-15.473 E19.76574
G1 X-2.895 Y-15.552 E19.7886
G1 X-2.19 Y-15.822 E19.81497
G1 X-1.574 Y-16.265 E19.84147
G1 X-1.087 Y-16.856 E19.86821
G1 X-1.068 Y-16.9 E19.86988
G1 X-.777 Y-17.559 E19.88613
G1 X-.666 Y-18.325 E19.8902
G1 X-.777 Y-19.092 E19.89425
G1 X-1.068 Y-19.751 E19.91049
G1 X-1.087 Y-19.795 E19.91217
G1 X-1.574 Y-20.386 E19.93891
G1 X-2.19 Y-20.829 E19.96541
G1 X-2.895 Y-21.099 E19.99177
G1 X-3.545 Y-21.178 E20.01464
G1 X-14.837 Y-21.178 E20.40899
G1 X-15.487 Y-21.099 E20.43186
G1 X-16.192 Y-20.829 E20.45822
G1 X-16.808 Y-20.386 E20.48472
G1 X-17.295 Y-19.795 E20.51147
G1 X-17.314 Y-19.751 E20.51314
G1 X-17.605 Y-19.092 E20.52938
G1 X-17.716 Y-18.325 E20.53343
G1 X-17.605 Y-17.559 E20.5375
G1 X-17.314 Y-16.9 E20.55375
G1 X-17.295 Y-16.856 E20.55542
G1 X-16.808 Y-16.265 E20.58217
G1 X-16.192 Y-15.822 E20.60866
G1 X-15.487 Y-15.552 E20.63503
M204 S3000
G0 F2400 X-16.607 Y-17.28
G0 X-16.908 Y-18.325
G0 X-15.487 Y-24.42
M204 S1500
G1 F600 X-14.837 Y-24.341 E20.6579
G1 X-3.545 Y-24.341 E21.05225
G1 X-2.895 Y-24.42 E21.07511
G1 X-2.19 Y-24.69 E21.10148
G1 X-1.574 Y-25.133 E21.12798
G1 X-1.087 Y-25.724 E21.15472
G1 X-1.068 Y-25.768 E21.15639
G1 X-.777 Y-26.427 E21.17264
G1 X-.666 Y-27.193 E21.17671
G1 X-.777 Y-27.96 E21.18076
G1 X-1.068 Y-28.619 E21.197
G1 X-1.087 Y-28.663 E21.19868
G1 X-1.574 Y-29.254 E21.22542
G1 X-2.19 Y-29.697 E21.25192
G1 X-2.895 Y-29.967 E21.27828
G1 X-3.545 Y-30.046 E21.30115
G1 X-14.837 Y-30.046 E21.6955
G1 X-15.487 Y-29.967 E21.71837
G1 X-16.192 Y-29.697 E21.74473
G1 X-16.808 Y-29.254 E21.77123
G1 X-17.295 Y-28.663 E21.79798
G1 X-17.314 Y-28.619 E21.79965
G1 X-17.605 Y-27.96 E21.81589
G1 X-17.716 Y-27.193 E21.81994
G1 X-17.605 Y-26.427 E21.82401
G1 X-17.314 Y-25.768 E21.84026
G1 X-17.295 Y-25.724 E21.84193
G1 X-16.808 Y-25.133 E21.86868
G1 X-16.192 Y-24.69 E21.89517
G1 X-15.487 Y-24.42 E21.92154
M204 S3000
G0 F2400 X-16.607 Y-26.148
G0 X-16.908 Y-27.193
G0 X-15.487 Y-33.288
M204 S1500
G1 F600 X-14.837 Y-33.209 E21.94441
G1 X-3.545 Y-33.209 E22.33876
G1 X-2.895 Y-33.288 E22.36162
G1 X-2.19 Y-33.558 E22.38799
G1 X-1.574 Y-34.001 E22.41449
G1 X-1.087 Y-34.592 E22.44123
G1 X-1.068 Y-34.636 E22.4429
G1 X-.777 Y-35.295 E22.45915
G1 X-.666 Y-36.061 E22.46322
G1 X-.777 Y-36.828 E22.46727
G1 X-1.068 Y-37.487 E22.48351
G1 X-1.087 Y-37.531 E22.48519
G1 X-1.574 Y-38.122 E22.51193
G1 X-2.19 Y-38.565 E22.53843
G1 X-2.895 Y-38.835 E22.56479
G1 X-3.545 Y-38.914 E22.58766
G1 X-14.837 Y-38.914 E22.98201
G1 X-15.487 Y-38.835 E23.00488
G1 X-16.192 Y-38.565 E23.03124
G1 X-16.808 Y-38.122 E23.05774
G1 X-17.295 Y-37.531 E23.08449
G1 X-17.314 Y-37.487 E23.08616
G1 X-17.605 Y-36.828 E23.1024
G1 X-17.716 Y-36.061 E23.10645
G1 X-17.605 Y-35.295 E23.11052
G1 X-17.314 Y-34.636 E23.12677
G1 X-17.295 Y-34.592 E23.12844
G1 X-16.808 Y-34.001 E23.15519
G1 X-16.192 Y-33.558 E23.18168
G1 X-15.487 Y-33.288 E23.20805
M204 S3000
G0 F2400 X-16.607 Y-35.016
G0 X-16.908 Y-36.061
G0 X-15.487 Y-42.156
M204 S1500
G1 F600 X-14.837 Y-42.077 E23.23092
G1 X-3.545 Y-42.077 E23.62527
G1 X-2.895 Y-42.156 E23.64813
G1 X-2.19 Y-42.426 E23.6745
G1 X-1.574 Y-42.869 E23.701
G1 X-1.087 Y-43.46 E23.72774
G1 X-1.068 Y-43.504 E23.72941
G1 X-.777 Y-44.163 E23.74566
G1 X-.666 Y-44.929 E23.74973
G1 X-.777 Y-45.696 E23.75378
G1 X-1.068 Y-46.355 E23.77002
G1 X-1.087 Y-46.399 E23.7717
G1 X-1.574 Y-46.99 E23.79844
G1 X-2.19 Y-47.433 E23.82494
G1 X-2.895 Y-47.703 E23.8513
G1 X-3.545 Y-47.782 E23.87417
G1 X-14.837 Y-47.782 E24.26852
G1 X-15.487 Y-47.703 E24.29139
G1 X-16.192 Y-47.433 E24.31775
G1 X-16.808 Y-46.99 E24.34425
G1 X-17.295 Y-46.399 E24.371
G1 X-17.314 Y-46.355 E24.37267
G1 X-17.605 Y-45.696 E24.38891
G1 X-17.716 Y-44.929 E24.39296
G1 X-17.605 Y-44.163 E24.39703
G1 X-17.314 Y-43.504 E24.41328
G1 X-17.295 Y-43.46 E24.41495
G1 X-16.808 Y-42.869 E24.4417
G1 X-16.192 Y-42.426 E24.46819
G1 X-15.487 Y-42.156 E24.49456
M204 S3000
G0 F2400 X-16.607 Y-43.884
G0 X-16.908 Y-44.929
G0 X-15.487 Y-51.024
M204 S1500
G1 F600 X-14.837 Y-50.945 E24.51743
G1 X-3.545 Y-50.945 E24.91178
G1 X-2.895 Y-51.024 E24.93464
G1 X-2.19 Y-51.294 E24.96101
G1 X-1.574 Y-51.737 E24.98751
G1 X-1.087 Y-52.326 E25.0142
G1 X-1.068 Y-52.37 E25.01587
G1 X-.777 Y-53.029 E25.03211
G1 X-.666 Y-53.797 E25.03617
G1 X-.777 Y-54.564 E25.04022
G1 X-1.068 Y-55.223 E25.05646
G1 X-1.087 Y-55.267 E25.05813
G1 X-1.574 Y-55.858 E25.08488
G1 X-2.19 Y-56.301 E25.11137
G1 X-2.895 Y-56.571 E25.13774
G1 X-3.545 Y-56.65 E25.16061
G1 X-14.837 Y-56.65 E25.55496
G1 X-15.487 Y-56.571 E25.57783
G1 X-16.192 Y-56.301 E25.60419
G1 X-16.808 Y-55.858 E25.63069
G1 X-17.295 Y-55.267 E25.65743
G1 X-17.314 Y-55.223 E25.65911
G1 X-17.605 Y-54.564 E25.67535
G1 X-17.716 Y-53.797 E25.6794
G1 X-17.605 Y-53.029 E25.68345
G1 X-17.314 Y-52.37 E25.69969
G1 X-17.295 Y-52.326 E25.70137
G1 X-16.808 Y-51.737 E25.72806
G1 X-16.192 Y-51.294 E25.75456
G1 X-15.487 Y-51.024 E25.78092
M204 S3000
G0 F2400 X-16.607 Y-52.751
G0 X-16.908 Y-53.797
G0 X-15.487 Y-59.892
M204 S1500
G1 F600 X-14.837 Y-59.813 E25.80379
G1 X-3.545 Y-59.813 E26.19814
G1 X-2.895 Y-59.892 E26.22101
G1 X-2.19 Y-60.162 E26.24737
G1 X-1.574 Y-60.605 E26.27387
G1 X-1.087 Y-61.194 E26.30056
G1 X-1.068 Y-61.238 E26.30223
G1 X-.777 Y-61.897 E26.31848
G1 X-.666 Y-62.665 E26.32253
G1 X-.777 Y-63.432 E26.32658
G1 X-1.068 Y-64.091 E26.34282
G1 X-1.087 Y-64.135 E26.3445
G1 X-1.574 Y-64.726 E26.37124
G1 X-2.19 Y-65.169 E26.39774
G1 X-2.895 Y-65.439 E26.4241
G1 X-3.545 Y-65.518 E26.44697
G1 X-14.837 Y-65.518 E26.84132
G1 X-15.487 Y-65.439 E26.86419
G1 X-16.192 Y-65.169 E26.89055
G1 X-16.808 Y-64.726 E26.91705
G1 X-17.295 Y-64.135 E26.9438
G1 X-17.314 Y-64.091 E26.94547
G1 X-17.605 Y-63.432 E26.96171
G1 X-17.716 Y-62.665 E26.96576
G1 X-17.605 Y-61.897 E26.96981
G1 X-17.314 Y-61.238 E26.98606
G1 X-17.295 Y-61.194 E26.98773
G1 X-16.808 Y-60.605 E27.01442
G1 X-16.192 Y-60.162 E27.04092
G1 X-15.487 Y-59.892 E27.06728
M204 S3000
G0 F2400 X-16.607 Y-61.619
G0 X-16.908 Y-62.665
G0 X-15.487 Y-68.76
M204 S1500
G1 F600 X-14.837 Y-68.681 E27.09015
G1 X-3.545 Y-68.681 E27.4845
G1 X-2.895 Y-68.76 E27.50737
G1 X-2.19 Y-69.03 E27.53373
G1 X-1.574 Y-69.473 E27.56023
G1 X-1.087 Y-70.062 E27.58692
G1 X-1.068 Y-70.106 E27.5886
