;FLAVOR:Marlin
;TIME:10310
;Filament used: 9.11657m
;Layer height: 0.2
;MINX:104.92
;MINY:105.009
;MINZ:0.3
;MAXX:170.98
;MAXY:195.041
;MAXZ:22.5
;Generated with Cura_SteamEngine 4.10.0
M140 S30
M105
M190 S30
M104 S225
M105
M109 S225
M82 ;absolute extrusion mode
G28 ; home all axes
 M117 Purge extruder
 G92 E0 ; reset extruder
 G1 Z1.0 F3000 ; move z up little to prevent scratching of surface
 G1 X2 Y20 Z0.3 F5000.0 ; move to start-line position
 G1 X2 Y200.0 Z0.3 F1500.0 E15 ; draw 1st line
 G1 X2 Y200.0 Z0.4 F5000.0 ; move to side a little
 G1 X2 Y20 Z0.4 F1500.0 E30 ; draw 2nd line
 G92 E0 ; reset extruder
 G1 Z1.0 F3000 ; move z up little to prevent scratching of surface
G92 E0
G92 E0
G1 F2400 E-1.6
;LAYER_COUNT:112
;LAYER:0
M106 S165.8
G0 F6000 X131.781 Y109.177 Z0.3
;TYPE:SKIRT
G1 F2400 E0
G1 F1200 X132.212 Y108.711 E0.04032
G1 X132.369 Y108.55 E0.0546
G1 X133.072 Y107.886 E0.11602
G1 X133.827 Y107.283 E0.17739
G1 X134.629 Y106.745 E0.23873
G1 X135.473 Y106.274 E0.30011
G1 X136.354 Y105.875 E0.36154
G1 X137.264 Y105.55 E0.42292
G1 X138.198 Y105.302 E0.48429
G1 X139.149 Y105.132 E0.54565
G1 X140.045 Y105.044 E0.60284
G1 X140.198 Y105.035 E0.61257
G1 X140.742 Y105.016 E0.64714
G1 X141.294 Y105.01 E0.6822
G1 X158.321 Y105.009 E1.76366
G1 X159.192 Y105.02 E1.81899
G1 X160.157 Y105.074 E1.88037
G1 X161.114 Y105.207 E1.94174
G1 X162.057 Y105.419 E2.00313
G1 X162.979 Y105.708 E2.0645
G1 X163.874 Y106.073 E2.12589
G1 X164.736 Y106.51 E2.18727
G1 X165.559 Y107.017 E2.24867
G1 X166.337 Y107.59 E2.31004
G1 X167.285 Y108.44 E2.39091
G1 X167.43 Y108.585 E2.40393
G1 X168.085 Y109.296 E2.46533
G1 X168.678 Y110.059 E2.52671
G1 X169.206 Y110.868 E2.58807
G1 X169.666 Y111.718 E2.64945
G1 X170.054 Y112.603 E2.71083
G1 X170.367 Y113.518 E2.77225
G1 X170.604 Y114.455 E2.83364
G1 X170.762 Y115.408 E2.89499
G1 X170.844 Y116.434 E2.96037
G1 X170.852 Y116.662 E2.97486
G1 X170.859 Y116.971 E2.99449
G1 X170.861 Y117.202 E3.00916
G1 X170.86 Y118.08 E3.06492
G1 X170.85 Y118.791 E3.11009
G1 X170.822 Y119.445 E3.15166
G1 X170.811 Y119.606 E3.16191
G1 X170.664 Y122.188 E3.32617
G1 X170.593 Y124.68 E3.48451
G1 X170.593 Y127.201 E3.64463
G1 X170.662 Y129.676 E3.80189
G1 X170.767 Y131.657 E3.92789
G1 X170.828 Y132.614 E3.9888
G1 X170.845 Y132.956 E4.01055
G1 X170.858 Y133.426 E4.04041
G1 X170.861 Y133.752 E4.06112
G1 X170.861 Y137.12 E4.27503
G1 X170.931 Y139.607 E4.43305
G1 X170.946 Y139.949 E4.4548
G1 X170.971 Y140.693 E4.50208
G1 X170.978 Y141.057 E4.5252
G1 X170.979 Y142.094 E4.59107
G1 X170.969 Y142.802 E4.63604
G1 X170.941 Y143.455 E4.67755
G1 X170.93 Y143.616 E4.6878
G1 X170.783 Y146.198 E4.85206
G1 X170.712 Y148.69 E5.0104
G1 X170.712 Y151.211 E5.17052
G1 X170.781 Y153.686 E5.32778
G1 X170.886 Y155.667 E5.45378
G1 X170.947 Y156.624 E5.51468
G1 X170.964 Y156.966 E5.53643
G1 X170.976 Y157.418 E5.56515
G1 X170.98 Y157.824 E5.59094
G1 X170.979 Y158.574 E5.63858
G1 X170.948 Y160.745 E5.77648
G1 X170.942 Y160.966 E5.79052
G1 X170.944 Y163.494 E5.95108
G1 X170.975 Y164.892 E6.0399
G1 X170.98 Y165.384 E6.07115
G1 X170.979 Y182.637 E7.16696
G1 X170.969 Y183.366 E7.21327
G1 X170.916 Y184.331 E7.27465
G1 X170.783 Y185.288 E7.33602
G1 X170.571 Y186.231 E7.39741
G1 X170.283 Y187.154 E7.45882
G1 X169.919 Y188.049 E7.52018
G1 X169.482 Y188.911 E7.58157
G1 X168.975 Y189.734 E7.64296
G1 X168.402 Y190.513 E7.70438
G1 X167.607 Y191.407 E7.78037
G1 X167.465 Y191.551 E7.79321
G1 X166.758 Y192.211 E7.85464
G1 X166 Y192.809 E7.91597
G1 X165.194 Y193.343 E7.97737
G1 X164.347 Y193.809 E8.03878
G1 X163.465 Y194.203 E8.10013
G1 X162.553 Y194.523 E8.16152
G1 X161.617 Y194.766 E8.22294
G1 X160.665 Y194.931 E8.2843
G1 X159.612 Y195.021 E8.35143
G1 X159.461 Y195.027 E8.36103
G1 X159.139 Y195.035 E8.38148
G1 X158.587 Y195.041 E8.41655
G1 X141.393 Y195.041 E9.50861
G1 X140.689 Y195.031 E9.55333
G1 X139.724 Y194.977 E9.61472
G1 X138.767 Y194.844 E9.67608
G1 X137.824 Y194.632 E9.73747
G1 X136.902 Y194.343 E9.79884
G1 X136.007 Y193.978 E9.86023
G1 X135.145 Y193.541 E9.92162
G1 X134.322 Y193.034 E9.98301
G1 X133.544 Y192.461 E10.04438
G1 X132.596 Y191.611 E10.12525
G1 X132.451 Y191.466 E10.13827
G1 X131.796 Y190.755 E10.19967
G1 X131.249 Y190.056 E10.25605
G1 X130.715 Y189.318 E10.31391
G1 X129.142 Y187.208 E10.48106
G1 X127.626 Y185.288 E10.63644
G1 X125.987 Y183.33 E10.79862
G1 X124.358 Y181.492 E10.95461
G1 X122.629 Y179.649 E11.11512
G1 X120.886 Y177.892 E11.27231
G1 X119.07 Y176.165 E11.43148
G1 X117.194 Y174.477 E11.59177
G1 X115.325 Y172.889 E11.74754
G1 X113.343 Y171.299 E11.90892
G1 X111.375 Y169.811 E12.06563
G1 X110.357 Y169.084 E12.14508
G1 X109.784 Y168.66 E12.19035
G1 X109.033 Y168.051 E12.25176
G1 X108.556 Y167.607 E12.29315
G1 X108.413 Y167.466 E12.30591
G1 X107.754 Y166.76 E12.36725
G1 X107.155 Y166.001 E12.42866
G1 X106.621 Y165.196 E12.49002
G1 X106.155 Y164.349 E12.55142
G1 X105.761 Y163.466 E12.61283
G1 X105.441 Y162.554 E12.67422
G1 X105.198 Y161.619 E12.73558
G1 X105.033 Y160.667 E12.79694
G1 X104.954 Y159.835 E12.85003
G1 X104.945 Y159.682 E12.85976
G1 X104.926 Y159.138 E12.89433
G1 X104.92 Y158.586 E12.92939
G1 X104.92 Y141.362 E14.02336
G1 X104.93 Y140.682 E14.06656
G1 X104.984 Y139.717 E14.12794
G1 X105.118 Y138.76 E14.18932
G1 X105.331 Y137.817 E14.25072
G1 X105.62 Y136.895 E14.31209
G1 X105.985 Y136 E14.37348
G1 X106.423 Y135.139 E14.43484
G1 X106.93 Y134.316 E14.49623
G1 X107.504 Y133.538 E14.55764
G1 X108.35 Y132.595 E14.63811
G1 X108.495 Y132.45 E14.65113
G1 X109.206 Y131.795 E14.71253
G1 X109.899 Y131.252 E14.76845
G1 X110.635 Y130.718 E14.8262
G1 X112.726 Y129.16 E14.99182
G1 X114.693 Y127.604 E15.15112
G1 X116.595 Y126.011 E15.3087
G1 X118.464 Y124.352 E15.46742
G1 X120.299 Y122.631 E15.62721
G1 X122.051 Y120.891 E15.78404
G1 X123.78 Y119.073 E15.94339
G1 X125.462 Y117.202 E16.10319
G1 X127.058 Y115.321 E16.25987
G1 X128.643 Y113.344 E16.42081
G1 X130.141 Y111.362 E16.5786
G1 X130.783 Y110.464 E16.64872
G1 X131.176 Y109.93 E16.69083
G1 X131.781 Y109.177 E16.75218
G0 F6000 X132.156 Y109.478
G1 F1200 X132.555 Y109.046 E16.78953
G1 X132.712 Y108.885 E16.80381
G1 X133.401 Y108.236 E16.86393
G1 X134.142 Y107.647 E16.92405
G1 X134.93 Y107.123 E16.98416
G1 X135.76 Y106.668 E17.04427
G1 X136.625 Y106.284 E17.10438
G1 X137.519 Y105.974 E17.16448
G1 X138.437 Y105.742 E17.22462
G1 X139.37 Y105.587 E17.28469
G1 X140.073 Y105.523 E17.32953
G1 X140.226 Y105.514 E17.33926
G1 X140.748 Y105.496 E17.37244
G1 X141.294 Y105.49 E17.40712
G1 X158.321 Y105.489 E18.48857
G1 X159.185 Y105.5 E18.54346
G1 X160.13 Y105.554 E18.60357
G1 X161.067 Y105.687 E18.66368
G1 X161.989 Y105.898 E18.72376
G1 X162.891 Y106.187 E18.78392
G1 X163.764 Y106.551 E18.84399
G1 X164.604 Y106.987 E18.9041
G1 X165.404 Y107.492 E18.96419
G1 X166.158 Y108.064 E19.0243
G1 X166.946 Y108.779 E19.09188
G1 X167.091 Y108.924 E19.10491
G1 X167.731 Y109.621 E19.16501
G1 X168.31 Y110.37 E19.22514
G1 X168.824 Y111.164 E19.28521
G1 X169.269 Y112 E19.34536
G1 X169.642 Y112.869 E19.40543
G1 X169.94 Y113.767 E19.46552
G1 X170.161 Y114.688 E19.52568
G1 X170.304 Y115.623 E19.58575
G1 X170.364 Y116.451 E19.63848
G1 X170.372 Y116.679 E19.65297
G1 X170.379 Y116.975 E19.67178
G1 X170.381 Y117.206 E19.68645
G1 X170.38 Y118.074 E19.74158
G1 X170.37 Y118.785 E19.78674
G1 X170.343 Y119.412 E19.8266
G1 X170.333 Y119.548 E19.83526
G1 X170.184 Y122.183 E20.00289
G1 X170.113 Y124.666 E20.16066
G1 X170.113 Y127.178 E20.32021
G1 X170.185 Y129.755 E20.48395
G1 X170.281 Y131.581 E20.60009
G1 X170.349 Y132.645 E20.6678
G1 X170.365 Y132.973 E20.68866
G1 X170.378 Y133.43 E20.7177
G1 X170.381 Y133.756 E20.73841
G1 X170.381 Y137.097 E20.95061
G1 X170.454 Y139.692 E21.11549
G1 X170.467 Y139.965 E21.13285
G1 X170.492 Y140.709 E21.18013
G1 X170.498 Y141.058 E21.2023
G1 X170.499 Y142.087 E21.26766
G1 X170.489 Y142.795 E21.31263
G1 X170.462 Y143.422 E21.35249
G1 X170.452 Y143.558 E21.36115
G1 X170.303 Y146.193 E21.52878
G1 X170.232 Y148.676 E21.68655
G1 X170.232 Y151.188 E21.8461
G1 X170.304 Y153.765 E22.00984
G1 X170.4 Y155.591 E22.12597
G1 X170.468 Y156.655 E22.19369
G1 X170.484 Y156.983 E22.21455
G1 X170.496 Y157.423 E22.2425
G1 X170.5 Y157.824 E22.26798
G1 X170.499 Y158.567 E22.31517
G1 X170.468 Y160.732 E22.45269
G1 X170.462 Y160.954 E22.46679
G1 X170.464 Y163.506 E22.62888
G1 X170.495 Y164.898 E22.71732
G1 X170.5 Y165.384 E22.74819
G1 X170.499 Y182.631 E23.84362
G1 X170.489 Y183.36 E23.88992
G1 X170.436 Y184.304 E23.94997
G1 X170.303 Y185.242 E24.01015
G1 X170.092 Y186.164 E24.07022
G1 X169.804 Y187.065 E24.1303
G1 X169.441 Y187.939 E24.19041
G1 X169.005 Y188.779 E24.25052
G1 X168.5 Y189.58 E24.31066
G1 X167.929 Y190.334 E24.37073
G1 X167.265 Y191.07 E24.43369
G1 X167.123 Y191.214 E24.44654
G1 X166.43 Y191.859 E24.50667
G1 X165.686 Y192.444 E24.56678
G1 X164.895 Y192.963 E24.62687
G1 X164.063 Y193.414 E24.68698
G1 X163.196 Y193.793 E24.74707
G1 X162.3 Y194.097 E24.80717
G1 X161.381 Y194.325 E24.86731
G1 X160.447 Y194.474 E24.92738
G1 X159.593 Y194.541 E24.98179
G1 X159.133 Y194.555 E25.01102
G1 X158.587 Y194.561 E25.0457
G1 X141.4 Y194.561 E26.13732
G1 X140.696 Y194.551 E26.18204
G1 X139.751 Y194.497 E26.24216
G1 X138.814 Y194.364 E26.30227
G1 X137.892 Y194.153 E26.36234
G1 X136.99 Y193.864 E26.4225
G1 X136.117 Y193.5 E26.48257
G1 X135.277 Y193.064 E26.54268
G1 X134.477 Y192.559 E26.60277
G1 X133.723 Y191.987 E26.66288
G1 X132.935 Y191.272 E26.73046
G1 X132.79 Y191.127 E26.74349
G1 X132.15 Y190.43 E26.80359
G1 X131.638 Y189.775 E26.85639
G1 X131.088 Y189.015 E26.91598
G1 X129.529 Y186.923 E27.08169
G1 X127.983 Y184.966 E27.24009
G1 X126.375 Y183.045 E27.3992
G1 X124.694 Y181.148 E27.56019
G1 X122.981 Y179.322 E27.71921
G1 X121.219 Y177.546 E27.87811
G1 X119.401 Y175.816 E28.0375
G1 X117.522 Y174.126 E28.19802
G1 X115.614 Y172.506 E28.35699
G1 X113.65 Y170.929 E28.51697
G1 X111.643 Y169.413 E28.67672
G1 X110.461 Y168.566 E28.76908
G1 X110.07 Y168.275 E28.80004
G1 X109.336 Y167.678 E28.86013
G1 X108.893 Y167.265 E28.8986
G1 X108.75 Y167.124 E28.91135
G1 X108.105 Y166.432 E28.97144
G1 X107.521 Y165.688 E29.03151
G1 X107.001 Y164.897 E29.09163
G1 X106.55 Y164.064 E29.1518
G1 X106.171 Y163.197 E29.2119
G1 X105.867 Y162.301 E29.27199
G1 X105.639 Y161.383 E29.33207
G1 X105.49 Y160.448 E29.3922
G1 X105.433 Y159.807 E29.43308
G1 X105.424 Y159.654 E29.44281
G1 X105.406 Y159.132 E29.47599
G1 X105.4 Y158.586 E29.51067
G1 X105.4 Y141.369 E30.60419
G1 X105.41 Y140.689 E30.64738
G1 X105.464 Y139.744 E30.7075
G1 X105.598 Y138.808 E30.76756
G1 X105.81 Y137.885 E30.82771
G1 X106.099 Y136.984 E30.88781
G1 X106.463 Y136.111 E30.94788
G1 X106.9 Y135.271 E31.00802
G1 X107.406 Y134.471 E31.06814
G1 X107.977 Y133.717 E31.12822
G1 X108.689 Y132.934 E31.19543
G1 X108.834 Y132.789 E31.20846
G1 X109.531 Y132.149 E31.26856
G1 X110.18 Y131.641 E31.32091
G1 X110.939 Y131.091 E31.38044
G1 X113.028 Y129.533 E31.54596
G1 X114.978 Y127.991 E31.70386
G1 X116.918 Y126.366 E31.86459
G1 X118.791 Y124.704 E32.02363
G1 X120.627 Y122.982 E32.18351
G1 X122.398 Y121.223 E32.34205
G1 X124.128 Y119.404 E32.50149
G1 X125.827 Y117.514 E32.6629
G1 X127.442 Y115.611 E32.82143
G1 X129 Y113.668 E32.97961
G1 X130.54 Y111.63 E33.14185
G1 X131.272 Y110.608 E33.2217
G1 X131.562 Y110.215 E33.25272
G1 X132.156 Y109.478 E33.31284
G0 F6000 X132.53 Y109.779
G1 F1200 X132.899 Y109.381 E33.34731
G1 X133.056 Y109.22 E33.36159
G1 X133.73 Y108.585 E33.42041
G1 X134.457 Y108.012 E33.4792
G1 X135.231 Y107.503 E33.53804
G1 X136.045 Y107.062 E33.59684
G1 X136.894 Y106.694 E33.65561
G1 X137.772 Y106.4 E33.71442
G1 X138.673 Y106.183 E33.77328
G1 X139.588 Y106.045 E33.83206
G1 X140.101 Y106.002 E33.86475
G1 X140.254 Y105.993 E33.87449
G1 X140.754 Y105.976 E33.90626
G1 X141.294 Y105.97 E33.94056
G1 X158.321 Y105.969 E35.02202
G1 X159.178 Y105.98 E35.07646
G1 X160.103 Y106.033 E35.1353
G1 X161.019 Y106.166 E35.19409
G1 X161.92 Y106.377 E35.25287
G1 X162.8 Y106.665 E35.31168
G1 X163.652 Y107.028 E35.3705
G1 X164.469 Y107.464 E35.42931
G1 X165.246 Y107.968 E35.48814
G1 X165.976 Y108.537 E35.54692
G1 X166.606 Y109.119 E35.6014
G1 X166.751 Y109.264 E35.61442
G1 X167.377 Y109.946 E35.67322
G1 X167.942 Y110.68 E35.73205
G1 X168.441 Y111.46 E35.79086
G1 X168.871 Y112.28 E35.84967
G1 X169.228 Y113.134 E35.90846
G1 X169.511 Y114.015 E35.96723
G1 X169.717 Y114.918 E36.02606
G1 X169.843 Y115.835 E36.08485
G1 X169.884 Y116.468 E36.12514
G1 X169.899 Y116.979 E36.15761
G1 X169.901 Y117.21 E36.17228
G1 X169.9 Y118.067 E36.22671
G1 X169.89 Y118.778 E36.27188
G1 X169.865 Y119.378 E36.31002
G1 X169.852 Y119.562 E36.32173
G1 X169.706 Y122.141 E36.4858
G1 X169.633 Y124.687 E36.64757
G1 X169.633 Y127.192 E36.80668
G1 X169.705 Y129.752 E36.96934
G1 X169.806 Y131.68 E37.09196
G1 X169.87 Y132.675 E37.15529
G1 X169.886 Y132.99 E37.17532
G1 X169.898 Y133.434 E37.20353
G1 X169.901 Y133.76 E37.22424
G1 X169.901 Y137.111 E37.43707
G1 X169.974 Y139.683 E37.6005
G1 X169.987 Y139.981 E37.61944
G1 X170.012 Y140.725 E37.66672
G1 X170.018 Y141.06 E37.68801
G1 X170.019 Y142.08 E37.75279
G1 X170.009 Y142.788 E37.79776
G1 X169.984 Y143.388 E37.8359
G1 X169.971 Y143.572 E37.84762
G1 X169.825 Y146.151 E38.01168
G1 X169.752 Y148.697 E38.17346
G1 X169.752 Y151.202 E38.33256
G1 X169.824 Y153.762 E38.49522
G1 X169.925 Y155.69 E38.61785
G1 X169.989 Y156.685 E38.68117
G1 X170.005 Y157 E38.70121
G1 X170.011 Y157.174 E38.71226
G1 X170.019 Y157.71 E38.74631
G1 X170.02 Y158.412 E38.7909
G1 X169.991 Y160.582 E38.92874
G1 X169.982 Y160.941 E38.95155
G1 X169.984 Y163.517 E39.11516
G1 X170.015 Y164.903 E39.20321
G1 X170.02 Y165.384 E39.23376
G1 X170.019 Y182.624 E40.32875
G1 X170.009 Y183.353 E40.37505
G1 X169.956 Y184.277 E40.43384
G1 X169.824 Y185.194 E40.49268
G1 X169.613 Y186.095 E40.55145
G1 X169.325 Y186.975 E40.61026
G1 X168.963 Y187.827 E40.66906
G1 X168.528 Y188.645 E40.7279
G1 X168.024 Y189.421 E40.78667
G1 X167.455 Y190.152 E40.84551
G1 X166.923 Y190.733 E40.89555
G1 X166.781 Y190.877 E40.90839
G1 X166.103 Y191.508 E40.96722
G1 X165.373 Y192.077 E41.026
G1 X164.597 Y192.582 E41.08481
G1 X163.78 Y193.018 E41.14363
G1 X162.929 Y193.381 E41.20239
G1 X162.049 Y193.67 E41.26122
G1 X161.148 Y193.882 E41.32001
G1 X160.231 Y194.015 E41.37886
G1 X159.574 Y194.062 E41.42069
G1 X159.423 Y194.068 E41.43029
G1 X159.127 Y194.075 E41.4491
G1 X158.587 Y194.081 E41.4834
G1 X141.407 Y194.081 E42.57457
G1 X140.703 Y194.071 E42.61929
G1 X139.778 Y194.018 E42.67814
G1 X138.862 Y193.885 E42.73693
G1 X137.961 Y193.674 E42.7957
G1 X137.081 Y193.386 E42.85451
G1 X136.229 Y193.023 E42.91333
G1 X135.412 Y192.587 E42.97215
G1 X134.635 Y192.083 E43.03097
G1 X133.905 Y191.514 E43.08976
G1 X133.275 Y190.932 E43.14424
G1 X133.13 Y190.787 E43.15726
G1 X132.504 Y190.105 E43.21606
G1 X132.027 Y189.493 E43.26534
G1 X131.486 Y188.746 E43.32392
G1 X129.919 Y186.643 E43.49049
G1 X128.352 Y184.66 E43.65102
G1 X126.729 Y182.719 E43.81172
G1 X125.064 Y180.842 E43.97108
G1 X123.332 Y178.995 E44.1319
G1 X121.533 Y177.182 E44.29412
G1 X119.732 Y175.468 E44.45203
G1 X117.853 Y173.778 E44.61255
G1 X115.905 Y172.123 E44.7749
G1 X113.936 Y170.543 E44.93524
G1 X111.954 Y169.045 E45.09304
G1 X110.915 Y168.303 E45.17413
G1 X110.357 Y167.89 E45.21822
G1 X109.639 Y167.305 E45.27705
G1 X109.23 Y166.923 E45.31259
G1 X109.087 Y166.782 E45.32535
G1 X108.457 Y166.104 E45.38413
G1 X107.887 Y165.375 E45.44291
G1 X107.382 Y164.598 E45.50176
G1 X106.947 Y163.782 E45.56049
G1 X106.583 Y162.93 E45.61934
G1 X106.294 Y162.05 E45.67817
G1 X106.082 Y161.149 E45.73696
G1 X105.912 Y159.779 E45.82464
G1 X105.903 Y159.626 E45.83438
G1 X105.886 Y159.126 E45.86615
G1 X105.88 Y158.586 E45.90045
G1 X105.88 Y141.376 E46.99353
G1 X105.89 Y140.696 E47.03672
G1 X105.944 Y139.772 E47.09551
G1 X106.077 Y138.856 E47.1543
G1 X106.289 Y137.955 E47.21309
G1 X106.577 Y137.075 E47.2719
G1 X106.941 Y136.223 E47.33075
G1 X107.376 Y135.406 E47.38953
G1 X107.881 Y134.63 E47.44834
G1 X108.45 Y133.9 E47.50712
G1 X109.029 Y133.274 E47.56128
G1 X109.174 Y133.129 E47.57431
G1 X109.856 Y132.503 E47.63311
G1 X110.462 Y132.03 E47.68193
G1 X111.208 Y131.489 E47.74046
G1 X113.309 Y129.923 E47.9069
