; G-Code generated by Simplify3D(R) Version 4.1.2
; Nov 22, 2019 at 2:24:01 PM
; Settings Summary
;   processName,Process1-1
;   applyToModels,SmartTemperatureTower_PLA_180-225 (1)
;   profileName,Sidewinder X1 (PLA 0.15) from 3DPrintBeginner.com (modified)
;   profileVersion,2019-11-14 13:09:59
;   baseProfile,Creality CR-10(2)
;   printMaterial,Fillamentum PLA
;   printQuality,Hight Detail
;   printExtruders,
;   extruderName,Primary Extruder
;   extruderToolheadNumber,0
;   extruderDiameter,0.4
;   extruderAutoWidth,1
;   extruderWidth,0.48
;   extrusionMultiplier,0.97
;   extruderUseRetract,1
;   extruderRetractionDistance,2.1
;   extruderExtraRestartDistance,0
;   extruderRetractionZLift,0.2
;   extruderRetractionSpeed,3600
;   extruderUseCoasting,0
;   extruderCoastingDistance,0.2
;   extruderUseWipe,0
;   extruderWipeDistance,2.2
;   primaryExtruder,0
;   layerHeight,0.15
;   topSolidLayers,8
;   bottomSolidLayers,8
;   perimeterOutlines,3
;   printPerimetersInsideOut,1
;   startPointOption,3
;   startPointOriginX,0
;   startPointOriginY,500
;   sequentialIslands,0
;   spiralVaseMode,0
;   firstLayerHeightPercentage,120
;   firstLayerWidthPercentage,110
;   firstLayerUnderspeed,0.7
;   useRaft,0
;   raftExtruder,0
;   raftTopLayers,3
;   raftBaseLayers,1
;   raftOffset,3
;   raftSeparationDistance,0.34
;   raftTopInfill,100
;   aboveRaftSpeedMultiplier,0.3
;   useSkirt,1
;   skirtExtruder,0
;   skirtLayers,1
;   skirtOutlines,3
;   skirtOffset,5
;   usePrimePillar,0
;   primePillarExtruder,999
;   primePillarWidth,12
;   primePillarLocation,7
;   primePillarSpeedMultiplier,1
;   useOozeShield,0
;   oozeShieldExtruder,999
;   oozeShieldOffset,2
;   oozeShieldOutlines,1
;   oozeShieldSidewallShape,1
;   oozeShieldSidewallAngle,30
;   oozeShieldSpeedMultiplier,1
;   infillExtruder,0
;   internalInfillPattern,Rectilinear
;   externalInfillPattern,Rectilinear
;   infillPercentage,10
;   outlineOverlapPercentage,20
;   infillExtrusionWidthPercentage,100
;   minInfillLength,5
;   infillLayerInterval,1
;   internalInfillAngles,45,-45
;   overlapInternalInfillAngles,0
;   externalInfillAngles,45,-45
;   generateSupport,0
;   supportExtruder,0
;   supportInfillPercentage,30
;   supportExtraInflation,0.6
;   supportBaseLayers,3
;   denseSupportExtruder,0
;   denseSupportLayers,5
;   denseSupportInfillPercentage,75
;   supportLayerInterval,1
;   supportHorizontalPartOffset,0.5
;   supportUpperSeparationLayers,1
;   supportLowerSeparationLayers,1
;   supportType,0
;   supportGridSpacing,2
;   maxOverhangAngle,75
;   supportAngles,0
;   temperatureName,Primary Extruder,Heated Bed
;   temperatureNumber,0,0
;   temperatureSetpointCount,1,2
;   temperatureSetpointLayers,1,1,2
;   temperatureSetpointTemperatures,225,60,0
;   temperatureStabilizeAtStartup,1,1
;   temperatureHeatedBed,0,1
;   fanLayers,1,2
;   fanSpeeds,0,100
;   blipFanToFullPower,0
;   adjustSpeedForCooling,0
;   minSpeedLayerTime,15
;   minCoolingSpeedSlowdown,20
;   increaseFanForCooling,0
;   minFanLayerTime,45
;   maxCoolingFanSpeed,100
;   increaseFanForBridging,1
;   bridgingFanSpeed,100
;   use5D,1
;   relativeEdistances,1
;   allowEaxisZeroing,1
;   independentExtruderAxes,0
;   includeM10123,0
;   stickySupport,1
;   applyToolheadOffsets,0
;   gcodeXoffset,0
;   gcodeYoffset,0
;   gcodeZoffset,0
;   overrideMachineDefinition,1
;   machineTypeOverride,0
;   strokeXoverride,300
;   strokeYoverride,300
;   strokeZoverride,400
;   originOffsetXoverride,0
;   originOffsetYoverride,0
;   originOffsetZoverride,0
;   homeXdirOverride,-1
;   homeYdirOverride,-1
;   homeZdirOverride,-1
;   flipXoverride,1
;   flipYoverride,-1
;   flipZoverride,1
;   toolheadOffsets,0,0|0,0|0,0|0,0|0,0|0,0
;   overrideFirmwareConfiguration,1
;   firmwareTypeOverride,RepRap (Marlin/Repetier/Sprinter)
;   GPXconfigOverride,r2
;   baudRateOverride,115200
;   overridePrinterModels,1
;   printerModelsOverride
;   startingGcode,M220 S100 ;Reset Feedrate,M221 S100 ;Reset Flowrate,G28 ;Home,M900 K0.16,G92 E0 ;Reset Extruder,G1 Z2.0 F3000 ;Move Z Axis up,G1 X10.1 Y20 Z0.28 F5000.0 ;Move to start position,G1 X10.1 Y200.0 Z0.28 F1500.0 E15 ;Draw the first line,G1 X10.4 Y200.0 Z0.28 F5000.0 ;Move to side a little,G1 X10.4 Y20 Z0.28 F1500.0 E30 ;Draw the second line,G92 E0 ;Reset Extruder,G1 Z2.0 F3000 ;Move Z Axis up
;   layerChangeGcode,
;   retractionGcode,
;   toolChangeGcode,
;   endingGcode,G91 ;Relative positionning,G1 E-2 Z0.2 F2000 ;Retract and raise Z,G1 X5 Y5 F3000 ;Wipe out,G1 Z10 ;Raise Z more,G90 ;Absolute positionning,G1 X0 Y150 ;Present print,M106 S0 ;Turn-off fan,M104 S0 ;Turn-off hotend,M140 S0 ;Turn-off bed,M84 X Y E ;Disable all steppers but Z
;   exportFileFormat,gcode
;   celebration,0
;   celebrationSong,Star Wars
;   postProcessing,
;   defaultSpeed,3000
;   outlineUnderspeed,0.4
;   solidInfillUnderspeed,0.7
;   supportUnderspeed,0.8
;   rapidXYspeed,7200
;   rapidZspeed,1002
;   minBridgingArea,50
;   bridgingExtraInflation,0
;   bridgingExtrusionMultiplier,1
;   bridgingSpeedMultiplier,1
;   useFixedBridgingAngle,0
;   fixedBridgingAngle,0
;   applyBridgingToPerimeters,1
;   filamentDiameters,1.75|1.75|1.75|1.75|1.75|1.75
;   filamentPricesPerKg,120|46|46|46|46|46
;   filamentDensities,1.25|1.25|1.25|1.25|1.25|1.25
;   useMinPrintHeight,0
;   minPrintHeight,100.8
;   useMaxPrintHeight,1
;   maxPrintHeight,11.5
;   useDiaphragm,0
;   diaphragmLayerInterval,20
;   robustSlicing,1
;   mergeAllIntoSolid,0
;   onlyRetractWhenCrossingOutline,0
;   retractBetweenLayers,1
;   useRetractionMinTravel,1
;   retractionMinTravel,3
;   retractWhileWiping,1
;   onlyWipeOutlines,1
;   avoidCrossingOutline,1
;   maxMovementDetourFactor,3
;   toolChangeRetractionDistance,0
;   toolChangeExtraRestartDistance,0
;   toolChangeRetractionSpeed,600
;   externalThinWallType,0
;   internalThinWallType,1
;   thinWallAllowedOverlapPercentage,20
;   singleExtrusionMinLength,1
;   singleExtrusionMinPrintingWidthPercentage,50
;   singleExtrusionMaxPrintingWidthPercentage,200
;   singleExtrusionEndpointExtension,0.2
;   horizontalSizeCompensation,0
G90
M83
M106 S0
M140 S60
M190 S60
M104 S225 T0
M109 S225 T0
M220 S100 ;Reset Feedrate
M221 S100 ;Reset Flowrate
G28 ;Home
M900 K0.16
G92 E0 ;Reset Extruder
G1 Z2.0 F3000 ;Move Z Axis up
G1 X10.1 Y20 Z0.28 F5000.0 ;Move to start position
G1 X10.1 Y200.0 Z0.28 F1500.0 E15 ;Draw the first line
G1 X10.4 Y200.0 Z0.28 F5000.0 ;Move to side a little
G1 X10.4 Y20 Z0.28 F1500.0 E30 ;Draw the second line
G92 E0 ;Reset Extruder
G1 Z2.0 F3000 ;Move Z Axis up
; process Process1-1
; layer 1, Z = 0.180
T0
G1 E-2.1000 F3600
; feature skirt
; tool H0.180 W0.528
G1 Z0.200 F1002
G1 X129.054 Y170.109 F7200
G1 Z0.180 F1002
G1 E2.1000 F3600
G1 X127.890 Y169.648 E0.0480 F2100
G1 X126.632 Y168.835 E0.0574
G1 X125.729 Y167.953 E0.0484
G1 X124.970 Y166.840 E0.0516
G1 X124.489 Y165.722 E0.0466
G1 X124.194 Y164.369 E0.0531
G1 X124.161 Y163.188 E0.0453
G1 X124.350 Y162.001 E0.0461
G1 X124.564 Y161.258 E0.0296
G1 X124.961 Y160.325 E0.0389
G1 X125.230 Y159.823 E0.0218
G1 X125.917 Y158.780 E0.0478
G1 X126.068 Y158.570 E0.0099
G1 X127.240 Y157.074 E0.0728
G1 X127.272 Y157.029 E0.0021
G1 X127.175 Y156.409 E0.0240
G1 X127.142 Y156.088 E0.0124
G1 X127.074 Y154.818 E0.0487
G1 X127.086 Y154.324 E0.0189
G1 X127.218 Y153.051 E0.0490
G1 X127.323 Y152.507 E0.0213
G1 X127.695 Y151.208 E0.0518
G1 X127.889 Y150.699 E0.0209
G1 X128.217 Y150.020 E0.0289
G1 X128.012 Y149.623 E0.0171
G1 X127.806 Y149.129 E0.0205
G1 X127.413 Y147.897 E0.0496
G1 X127.311 Y147.483 E0.0163
G1 X127.180 Y146.741 E0.0289
G1 X127.141 Y146.432 E0.0119
G1 X127.076 Y145.576 E0.0329
G1 X127.071 Y145.171 E0.0155
G1 X127.135 Y143.946 E0.0470
G1 X127.168 Y143.625 E0.0124
G1 X127.265 Y143.005 E0.0240
G1 X127.236 Y142.964 E0.0019
G1 X126.193 Y141.641 E0.0645
G1 X126.081 Y141.489 E0.0073
G1 X125.407 Y140.520 E0.0452
G1 X125.192 Y140.163 E0.0160
G1 X124.833 Y139.465 E0.0301
G1 X124.633 Y138.982 E0.0200
G1 X124.339 Y138.065 E0.0369
G1 X124.188 Y137.189 E0.0341
G1 X124.149 Y135.855 E0.0511
G1 X124.402 Y134.512 E0.0524
G1 X125.032 Y133.027 E0.0618
G1 X125.927 Y131.820 E0.0576
G1 X127.075 Y130.860 E0.0574
G1 X128.040 Y130.306 E0.0426
G1 X129.111 Y129.921 E0.0436
G1 X129.794 Y129.758 E0.0269
G1 X130.669 Y129.649 E0.0338
G1 X131.160 Y129.627 E0.0188
G1 X132.001 Y129.654 E0.0322
G1 X132.364 Y129.687 E0.0140
G1 X133.154 Y129.804 E0.0306
G1 X133.427 Y129.857 E0.0107
G1 X134.186 Y130.039 E0.0299
G1 X134.417 Y130.104 E0.0092
G1 X135.161 Y130.344 E0.0300
G1 X135.378 Y130.423 E0.0089
G1 X136.106 Y130.717 E0.0301
G1 X136.324 Y130.815 E0.0092
G1 X137.029 Y131.165 E0.0301
G1 X137.255 Y131.288 E0.0099
G1 X137.926 Y131.692 E0.0300
G1 X138.157 Y131.845 E0.0106
G1 X138.802 Y132.315 E0.0306
G1 X139.066 Y132.530 E0.0130
G1 X139.774 Y133.173 E0.0366
G1 X140.019 Y133.421 E0.0134
G1 X140.531 Y134.001 E0.0296
G1 X140.740 Y134.265 E0.0129
G1 X141.241 Y134.973 E0.0333
G1 X141.410 Y135.237 E0.0120
G1 X141.745 Y135.825 E0.0259
G1 X141.866 Y136.060 E0.0101
G1 X142.189 Y136.757 E0.0294
G1 X142.296 Y137.018 E0.0108
G1 X142.701 Y138.146 E0.0459
G1 X143.176 Y138.251 E0.0187
G1 X144.052 Y138.379 E0.0339
G1 X145.286 Y138.498 E0.0475
G1 X146.860 Y138.592 E0.0604
G1 X149.155 Y138.663 E0.0880
G1 X151.482 Y138.686 E0.0892
G1 X154.301 Y138.666 E0.1080
G1 X156.635 Y138.599 E0.0895
G1 X158.968 Y138.450 E0.0896
G1 X160.593 Y138.247 E0.0628
G1 X161.077 Y138.151 E0.0189
G1 X161.096 Y138.146 E0.0008
G1 X161.545 Y136.935 E0.0495
G1 X161.655 Y136.673 E0.0109
G1 X162.082 Y135.778 E0.0380
G1 X162.305 Y135.384 E0.0174
G1 X162.994 Y134.351 E0.0476
G1 X163.253 Y134.013 E0.0163
G1 X163.777 Y133.419 E0.0304
G1 X163.984 Y133.205 E0.0114
G1 X164.550 Y132.674 E0.0297
G1 X164.813 Y132.452 E0.0132
G1 X165.597 Y131.862 E0.0376
G1 X165.865 Y131.681 E0.0124
G1 X166.573 Y131.254 E0.0317
G1 X166.836 Y131.112 E0.0114
G1 X167.761 Y130.667 E0.0394
G1 X168.051 Y130.545 E0.0120
G1 X169.035 Y130.187 E0.0401
G1 X169.335 Y130.094 E0.0120
G1 X170.348 Y129.836 E0.0401
G1 X170.715 Y129.765 E0.0143
G1 X171.792 Y129.623 E0.0416
G1 X172.348 Y129.598 E0.0213
G1 X173.602 Y129.654 E0.0481
G1 X174.540 Y129.840 E0.0367
G1 X175.818 Y130.302 E0.0521
G1 X176.783 Y130.858 E0.0427
G1 X177.753 Y131.672 E0.0485
G1 X178.506 Y132.595 E0.0457
G1 X179.157 Y133.796 E0.0523
G1 X179.517 Y134.921 E0.0453
G1 X179.660 Y136.068 E0.0443
G1 X179.643 Y136.967 E0.0345
G1 X179.474 Y138.014 E0.0406
G1 X179.260 Y138.752 E0.0295
G1 X178.862 Y139.683 E0.0388
G1 X178.594 Y140.182 E0.0217
G1 X177.908 Y141.223 E0.0478
G1 X177.758 Y141.432 E0.0099
G1 X176.587 Y142.928 E0.0728
G1 X176.564 Y142.960 E0.0015
G1 X176.664 Y143.670 E0.0275
G1 X176.690 Y143.943 E0.0105
G1 X176.756 Y145.189 E0.0478
G1 X176.744 Y145.683 E0.0190
G1 X176.611 Y146.957 E0.0491
G1 X176.506 Y147.502 E0.0213
G1 X176.134 Y148.801 E0.0518
G1 X175.939 Y149.310 E0.0209
G1 X175.611 Y149.987 E0.0289
G1 X175.816 Y150.383 E0.0171
G1 X176.021 Y150.876 E0.0205
G1 X176.416 Y152.108 E0.0496
G1 X176.518 Y152.522 E0.0164
G1 X176.650 Y153.265 E0.0289
G1 X176.689 Y153.575 E0.0120
G1 X176.754 Y154.431 E0.0329
G1 X176.759 Y154.836 E0.0155
G1 X176.697 Y156.037 E0.0461
G1 X176.671 Y156.310 E0.0105
G1 X176.572 Y157.020 E0.0275
G1 X176.595 Y157.053 E0.0015
G1 X177.753 Y158.530 E0.0720
G1 X177.880 Y158.702 E0.0082
G1 X178.443 Y159.530 E0.0384
G1 X178.639 Y159.859 E0.0147
G1 X178.991 Y160.542 E0.0294
G1 X179.190 Y161.021 E0.0199
G1 X179.485 Y161.935 E0.0368
G1 X179.637 Y162.808 E0.0339
G1 X179.677 Y164.061 E0.0481
G1 X179.486 Y165.255 E0.0463
G1 X179.020 Y166.536 E0.0523
G1 X178.385 Y167.589 E0.0471
G1 X177.523 Y168.538 E0.0492
G1 X176.704 Y169.185 E0.0400
G1 X175.655 Y169.765 E0.0460
G1 X174.692 Y170.109 E0.0392
G1 X173.402 Y170.346 E0.0503
G1 X172.659 Y170.393 E0.0285
G1 X171.504 Y170.331 E0.0443
G1 X171.065 Y170.277 E0.0170
G1 X170.029 Y170.074 E0.0405
G1 X169.705 Y169.992 E0.0128
G1 X168.706 Y169.684 E0.0401
G1 X168.416 Y169.579 E0.0118
G1 X167.449 Y169.173 E0.0402
G1 X167.155 Y169.032 E0.0125
G1 X166.236 Y168.530 E0.0401
G1 X165.930 Y168.339 E0.0138
G1 X165.105 Y167.758 E0.0387
G1 X164.839 Y167.548 E0.0130
G1 X164.252 Y167.031 E0.0300
G1 X164.037 Y166.824 E0.0114
G1 X163.534 Y166.289 E0.0282
G1 X163.342 Y166.065 E0.0113
G1 X162.896 Y165.492 E0.0278
G1 X162.710 Y165.227 E0.0124
G1 X162.249 Y164.490 E0.0333
G1 X162.077 Y164.175 E0.0138
G1 X161.670 Y163.323 E0.0362
G1 X161.559 Y163.062 E0.0109
G1 X161.111 Y161.857 E0.0492
G1 X160.896 Y161.805 E0.0085
G1 X160.113 Y161.674 E0.0304
G1 X158.992 Y161.549 E0.0432
G1 X157.528 Y161.445 E0.0563
G1 X155.741 Y161.371 E0.0686
G1 X151.499 Y161.322 E0.1626
G1 X147.448 Y161.396 E0.1553
G1 X146.052 Y161.464 E0.0535
G1 X144.638 Y161.574 E0.0544
G1 X143.575 Y161.702 E0.0411
G1 X142.847 Y161.833 E0.0284
G1 X142.730 Y161.863 E0.0046
G1 X142.284 Y163.067 E0.0492
G1 X142.174 Y163.327 E0.0108
G1 X141.748 Y164.222 E0.0380
G1 X141.524 Y164.615 E0.0174
G1 X140.836 Y165.649 E0.0476
G1 X140.577 Y165.986 E0.0163
G1 X140.053 Y166.580 E0.0304
G1 X139.846 Y166.794 E0.0114
G1 X139.281 Y167.325 E0.0297
G1 X139.018 Y167.547 E0.0132
G1 X138.234 Y168.136 E0.0376
G1 X137.966 Y168.318 E0.0124
G1 X137.258 Y168.745 E0.0317
G1 X136.995 Y168.887 E0.0114
G1 X136.070 Y169.332 E0.0394
G1 X135.781 Y169.454 E0.0120
G1 X134.757 Y169.827 E0.0418
G1 X134.374 Y169.939 E0.0153
G1 X132.921 Y170.269 E0.0571
G1 X132.395 Y170.343 E0.0204
G1 X131.197 Y170.409 E0.0460
G1 X130.457 Y170.363 E0.0284
G1 X129.054 Y170.109 E0.0546
G1 X129.200 Y169.598 F7200
G1 X128.133 Y169.176 E0.0440 F2100
G1 X126.963 Y168.420 E0.0534
G1 X126.135 Y167.612 E0.0444
G1 X125.435 Y166.584 E0.0477
G1 X124.994 Y165.560 E0.0427
G1 X124.720 Y164.304 E0.0492
G1 X124.690 Y163.222 E0.0415
G1 X124.866 Y162.116 E0.0429
G1 X125.062 Y161.435 E0.0271
G1 X125.438 Y160.553 E0.0367
G1 X125.684 Y160.094 E0.0200
G1 X126.352 Y159.080 E0.0465
G1 X126.491 Y158.887 E0.0091
G1 X127.663 Y157.390 E0.0729
G1 X127.827 Y157.160 E0.0108
G1 X127.699 Y156.341 E0.0318
G1 X127.668 Y156.046 E0.0113
G1 X127.602 Y154.810 E0.0474
G1 X127.614 Y154.358 E0.0173
G1 X127.741 Y153.129 E0.0474
G1 X127.837 Y152.630 E0.0195
G1 X128.196 Y151.375 E0.0500
G1 X128.374 Y150.909 E0.0191
G1 X128.808 Y150.011 E0.0382
G1 X128.491 Y149.399 E0.0264
G1 X128.303 Y148.947 E0.0188
G1 X127.921 Y147.753 E0.0480
G1 X127.828 Y147.374 E0.0150
G1 X127.702 Y146.662 E0.0277
G1 X127.666 Y146.379 E0.0109
G1 X127.604 Y145.553 E0.0318
G1 X127.599 Y145.182 E0.0142
G1 X127.662 Y143.987 E0.0459
G1 X127.692 Y143.693 E0.0113
G1 X127.820 Y142.874 E0.0318
G1 X127.658 Y142.647 E0.0106
G1 X126.613 Y141.321 E0.0647
G1 X126.510 Y141.181 E0.0066
G1 X125.851 Y140.233 E0.0442
G1 X125.654 Y139.906 E0.0147
G1 X125.312 Y139.242 E0.0286
G1 X125.129 Y138.800 E0.0183
G1 X124.853 Y137.939 E0.0347
G1 X124.715 Y137.136 E0.0312
G1 X124.679 Y135.897 E0.0475
G1 X124.910 Y134.666 E0.0480
G1 X125.494 Y133.291 E0.0573
G1 X126.314 Y132.185 E0.0528
G1 X127.378 Y131.295 E0.0532
G1 X128.262 Y130.788 E0.0391
G1 X129.262 Y130.428 E0.0407
G1 X129.888 Y130.278 E0.0246
G1 X130.714 Y130.176 E0.0319
G1 X131.164 Y130.155 E0.0173
G1 X131.968 Y130.181 E0.0308
G1 X132.302 Y130.211 E0.0128
G1 X133.065 Y130.325 E0.0296
G1 X133.315 Y130.373 E0.0098
G1 X134.053 Y130.550 E0.0291
G1 X134.265 Y130.610 E0.0084
G1 X134.990 Y130.843 E0.0292
G1 X135.189 Y130.916 E0.0081
G1 X135.899 Y131.203 E0.0294
G1 X136.099 Y131.293 E0.0084
G1 X136.785 Y131.633 E0.0294
G1 X136.992 Y131.746 E0.0090
G1 X137.644 Y132.139 E0.0292
G1 X137.855 Y132.279 E0.0097
G1 X138.480 Y132.734 E0.0296
G1 X138.722 Y132.931 E0.0120
G1 X139.408 Y133.554 E0.0355
G1 X139.633 Y133.781 E0.0123
G1 X140.125 Y134.340 E0.0285
G1 X140.317 Y134.581 E0.0118
G1 X140.803 Y135.267 E0.0322
G1 X140.958 Y135.510 E0.0110
G1 X141.280 Y136.077 E0.0250
G1 X141.391 Y136.292 E0.0093
G1 X141.705 Y136.969 E0.0286
G1 X141.803 Y137.207 E0.0099
G1 X142.298 Y138.587 E0.0562
G1 X142.391 Y138.618 E0.0038
G1 X143.081 Y138.771 E0.0271
G1 X143.988 Y138.903 E0.0351
G1 X145.245 Y139.025 E0.0484
G1 X146.836 Y139.120 E0.0611
G1 X149.144 Y139.191 E0.0885
G1 X151.482 Y139.214 E0.0896
G1 X154.310 Y139.194 E0.1084
