;FLAVOR:Marlin
;TIME:2026
;Filament used: 2.67414m
;Layer height: 0.3
;MINX:11.993
;MINY:-66.564
;MINZ:0.3
;MAXX:78.425
;MAXY:103.642
;MAXZ:5.2
;Generated with Cura_SteamEngine 4.10.0
M104 S205
M105
M109 S205
M82 ;absolute extrusion mode
G21        ;metric values
G90        ;absolute positioning
M107       ;start with the fan off
G28   ;move to endstops

;Z-Offset Reset und dann Z +0,1 für PLA
;MacroZOffset0
;MacroZOffsetPlus0100

G92 E0                  ;zero the extruded length
G1 F200 E3              ;extrude 3mm of feed stock
G92 E0                  ;zero the extruded length again
G1 F150.0
;Put printing message on LCD screen
M117 Printing...
G92 E0
G92 E0
G1 F2400 E-6
;LAYER_COUNT:14
;LAYER:0
M106 S255
G1 F600 Z1.3
G0 F1500 X32.963 Y8.726 Z1.3
;TYPE:SKIRT
G1 F600 Z0.3
G1 F2400 E0
G1 F600 X33.067 Y8.327 E0.02314
G1 X34.492 Y3.012 E0.33199
G1 X35.065 Y0.902 E0.45471
G1 X35.318 Y-0.07 E0.51108
G1 X37.305 Y-7.486 E0.94199
G1 X37.478 Y-8.098 E0.97769
G1 X37.774 Y-8.877 E1.02446
G1 X38.625 Y-10.634 E1.13404
G1 X39.762 Y-13.068 E1.28482
G1 X40.838 Y-15.554 E1.43686
G1 X41.836 Y-18.048 E1.58763
G1 X42.766 Y-20.576 E1.73881
G1 X43.619 Y-23.119 E1.88936
G1 X44.41 Y-25.719 E2.04189
G1 X45.116 Y-28.295 E2.1918
G1 X45.768 Y-30.967 E2.34617
G1 X46.319 Y-33.551 E2.49446
G1 X46.805 Y-36.187 E2.64491
G1 X47.226 Y-38.894 E2.79867
G1 X47.56 Y-41.539 E2.9483
G1 X47.821 Y-44.193 E3.09798
G1 X47.936 Y-45.929 E3.19563
G1 X48.069 Y-47.53 E3.2858
G1 X48.138 Y-48.119 E3.31908
G1 X48.187 Y-48.436 E3.33709
G1 X48.328 Y-49.222 E3.3819
G1 X48.475 Y-49.865 E3.41893
G1 X48.612 Y-50.393 E3.44954
G1 X48.732 Y-50.81 E3.4739
G1 X48.936 Y-51.452 E3.5117
G1 X49.063 Y-51.811 E3.53308
G1 X49.348 Y-52.541 E3.57706
G1 X49.528 Y-52.954 E3.60235
G1 X49.83 Y-53.583 E3.64151
G1 X49.911 Y-53.745 E3.65168
G1 X50.147 Y-54.192 E3.68005
G1 X50.415 Y-54.652 E3.70993
G1 X50.758 Y-55.181 E3.74531
G1 X51.164 Y-55.745 E3.78432
G1 X51.585 Y-56.27 E3.82209
G1 X51.812 Y-56.526 E3.84129
G1 X52.366 Y-57.126 E3.88713
G1 X53.774 Y-58.607 E4.00182
G1 X55.569 Y-60.604 E4.15253
G1 X56.52 Y-61.71 E4.2344
G1 X57.206 Y-62.519 E4.29393
G1 X57.402 Y-62.737 E4.31038
G1 X58.084 Y-63.448 E4.36568
G1 X58.471 Y-63.829 E4.39616
G1 X59.121 Y-64.359 E4.44323
G1 X59.844 Y-64.849 E4.49225
G1 X60.333 Y-65.159 E4.52475
G1 X61.06 Y-65.531 E4.57059
G1 X61.864 Y-65.859 E4.61932
G1 X62.411 Y-66.062 E4.65207
G1 X63.197 Y-66.275 E4.69778
G1 X64.041 Y-66.427 E4.74591
G1 X64.632 Y-66.516 E4.77945
G1 X65.246 Y-66.564 E4.81402
G1 X65.729 Y-66.547 E4.84115
G1 X66.787 Y-66.454 E4.90076
G1 X67.091 Y-66.421 E4.91792
G1 X67.8 Y-66.336 E4.958
G1 X68.306 Y-66.248 E4.98682
G1 X68.788 Y-66.133 E5.01464
G1 X69.846 Y-65.849 E5.07612
G1 X70.469 Y-65.672 E5.11247
G1 X71.03 Y-65.485 E5.14566
G1 X71.497 Y-65.308 E5.17369
G1 X72.076 Y-65.076 E5.2087
G1 X72.816 Y-64.701 E5.25526
G1 X73.553 Y-64.243 E5.30397
G1 X74.025 Y-63.931 E5.33572
G1 X74.675 Y-63.407 E5.38258
G1 X75.305 Y-62.801 E5.43165
G1 X75.703 Y-62.395 E5.46356
G1 X76.221 Y-61.758 E5.50964
G1 X76.701 Y-61.051 E5.5576
G1 X77.009 Y-60.567 E5.5898
G1 X77.389 Y-59.829 E5.63639
G1 X77.722 Y-59.013 E5.68585
G1 X77.917 Y-58.491 E5.71713
G1 X78.135 Y-57.687 E5.76389
G1 X78.292 Y-56.809 E5.81395
G1 X78.377 Y-56.234 E5.84657
G1 X78.425 Y-55.62 E5.88114
G1 X78.407 Y-55.15 E5.90754
G1 X78.269 Y-53.563 E5.99694
G1 X78.073 Y-50.879 E6.14799
G1 X77.953 Y-48.213 E6.29777
G1 X77.913 Y-46.531 E6.3922
G1 X77.879 Y-45.984 E6.42297
G1 X77.83 Y-45.447 E6.45323
G1 X77.812 Y-45.292 E6.46199
G1 X77.589 Y-43.554 E6.56034
G1 X77.58 Y-43.442 E6.56664
G1 X77.396 Y-42.024 E6.6469
G1 X77.12 Y-39.295 E6.80085
G1 X76.925 Y-36.634 E6.9506
G1 X76.805 Y-33.935 E7.10224
G1 X76.761 Y-31.262 E7.25228
G1 X76.774 Y-29.873 E7.33024
G1 X76.753 Y-29.035 E7.37729
G1 X76.697 Y-28.417 E7.41212
G1 X76.598 Y-27.58 E7.45943
G1 X76.502 Y-27.041 E7.49016
G1 X76.272 Y-26.143 E7.54218
G1 X76.1 Y-25.527 E7.57808
G1 X75.799 Y-24.733 E7.62574
G1 X75.312 Y-23.73 E7.68832
G1 X75.238 Y-23.585 E7.69746
G1 X74.749 Y-22.66 E7.75618
G1 X73.708 Y-20.753 E7.87812
G1 X72.501 Y-18.387 E8.0272
G1 X71.343 Y-15.95 E8.17864
G1 X70.249 Y-13.468 E8.33088
G1 X69.236 Y-10.983 E8.48149
G1 X68.294 Y-8.473 E8.63197
G1 X67.417 Y-5.916 E8.78369
G1 X66.621 Y-3.358 E8.93405
G1 X65.815 Y-.45 E9.10342
G1 X63.851 Y6.868 E9.52869
G1 X63.186 Y9.499 E9.681
G1 X62.799 Y11.193 E9.77853
G1 X62.534 Y12.405 E9.84816
G1 X62.493 Y12.578 E9.85814
G1 X62.328 Y13.217 E9.89518
G1 X62.147 Y13.833 E9.93122
G1 X62.01 Y14.227 E9.95463
G1 X61.35 Y15.916 E10.05641
G1 X60.403 Y18.445 E10.20797
G1 X59.541 Y20.96 E10.35719
G1 X58.735 Y23.552 E10.50955
G1 X57.996 Y26.188 E10.6632
G1 X57.449 Y28.37 E10.78946
G1 X57.35 Y28.75 E10.8115
G1 X55.932 Y34.039 E11.11883
G1 X55.343 Y36.21 E11.24509
G1 X55.097 Y37.161 E11.30022
G1 X53.112 Y44.567 E11.73057
G1 X52.94 Y45.175 E11.76603
G1 X52.644 Y45.953 E11.81275
G1 X51.797 Y47.701 E11.92177
G1 X50.639 Y50.18 E12.07534
G1 X49.57 Y52.651 E12.22645
G1 X48.576 Y55.136 E12.37667
G1 X47.645 Y57.671 E12.52824
G1 X46.781 Y60.246 E12.68068
G1 X46.003 Y62.804 E12.83075
G1 X45.296 Y65.383 E12.98084
G1 X44.647 Y68.045 E13.13463
G1 X44.09 Y70.662 E13.2848
G1 X43.605 Y73.291 E13.43485
G1 X43.185 Y75.992 E13.58826
G1 X42.85 Y78.64 E13.73807
G1 X42.591 Y81.291 E13.88757
G1 X42.446 Y83.492 E14.01137
G1 X42.374 Y84.364 E14.06048
G1 X42.358 Y84.526 E14.06962
G1 X42.296 Y85.055 E14.09951
G1 X42.216 Y85.606 E14.13076
G1 X42.145 Y86.007 E14.15362
G1 X42.036 Y86.534 E14.18383
G1 X41.922 Y87.02 E14.21184
G1 X41.788 Y87.534 E14.24166
G1 X41.718 Y87.777 E14.25585
G1 X41.457 Y88.597 E14.30415
G1 X41.355 Y88.886 E14.32135
G1 X41.057 Y89.648 E14.36727
G1 X40.856 Y90.118 E14.39596
G1 X40.628 Y90.595 E14.42564
G1 X40.289 Y91.234 E14.46624
G1 X40.003 Y91.726 E14.49818
G1 X39.664 Y92.249 E14.53316
G1 X39.239 Y92.839 E14.57397
G1 X38.831 Y93.346 E14.6105
G1 X38.61 Y93.595 E14.62918
G1 X38.048 Y94.206 E14.67578
G1 X36.65 Y95.677 E14.78968
G1 X33.992 Y98.679 E15.01472
G1 X33.204 Y99.606 E15.08301
G1 X33.008 Y99.822 E15.09938
G1 X32.347 Y100.51 E15.15293
G1 X31.939 Y100.911 E15.18504
G1 X31.294 Y101.437 E15.23175
G1 X30.582 Y101.92 E15.28004
G1 X30.097 Y102.228 E15.31228
G1 X29.362 Y102.606 E15.35867
G1 X28.546 Y102.939 E15.40814
G1 X28.014 Y103.137 E15.44
G1 X27.22 Y103.352 E15.48617
G1 X26.344 Y103.509 E15.53612
G1 X25.773 Y103.594 E15.56852
G1 X25.158 Y103.642 E15.60314
G1 X24.686 Y103.624 E15.62965
G1 X23.72 Y103.54 E15.68408
G1 X23.315 Y103.497 E15.70694
G1 X22.603 Y103.412 E15.74718
G1 X22.063 Y103.315 E15.77798
G1 X21.648 Y103.214 E15.80195
G1 X20.584 Y102.929 E15.86377
G1 X19.946 Y102.748 E15.90099
G1 X19.469 Y102.59 E15.9292
G1 X18.926 Y102.386 E15.96175
G1 X18.35 Y102.156 E15.99656
G1 X17.601 Y101.778 E16.04365
G1 X16.854 Y101.313 E16.09304
G1 X16.381 Y100.998 E16.12493
G1 X15.736 Y100.478 E16.17144
G1 X15.133 Y99.898 E16.2184
G1 X14.73 Y99.488 E16.25066
G1 X14.203 Y98.842 E16.29745
G1 X13.682 Y98.074 E16.34954
G1 X13.403 Y97.634 E16.37878
G1 X13.024 Y96.896 E16.42535
G1 X12.704 Y96.11 E16.47298
G1 X12.496 Y95.552 E16.5064
G1 X12.282 Y94.758 E16.55256
G1 X12.131 Y93.916 E16.60057
G1 X12.042 Y93.321 E16.63434
G1 X11.993 Y92.707 E16.66891
G1 X12.011 Y92.229 E16.69576
G1 X12.15 Y90.636 E16.78551
G1 X12.346 Y87.952 E16.93655
G1 X12.466 Y85.265 E17.08751
G1 X12.505 Y83.586 E17.18177
G1 X12.54 Y83.038 E17.21259
G1 X12.596 Y82.457 E17.24535
G1 X12.849 Y80.492 E17.35655
G1 X12.856 Y80.379 E17.36291
G1 X13.04 Y78.934 E17.44467
G1 X13.311 Y76.221 E17.59769
G1 X13.5 Y73.564 E17.7472
G1 X13.617 Y70.863 E17.89894
G1 X13.656 Y68.148 E18.05134
G1 X13.644 Y66.862 E18.12352
G1 X13.666 Y66.088 E18.16698
G1 X13.722 Y65.471 E18.20175
G1 X13.816 Y64.676 E18.24668
G1 X13.907 Y64.159 E18.27615
G1 X14.145 Y63.22 E18.33052
G1 X14.325 Y62.583 E18.36767
G1 X14.62 Y61.806 E18.41432
G1 X15.069 Y60.879 E18.47213
G1 X15.196 Y60.628 E18.48792
G1 X15.613 Y59.839 E18.538
G1 X16.741 Y57.77 E18.67027
G1 X17.96 Y55.374 E18.82115
G1 X19.116 Y52.938 E18.97249
G1 X20.194 Y50.482 E19.12303
G1 X21.22 Y47.96 E19.27584
G1 X22.146 Y45.483 E19.42427
G1 X23.035 Y42.881 E19.5786
G1 X23.82 Y40.356 E19.72701
G1 X24.678 Y37.26 E19.90732
G1 X26.565 Y30.218 E20.31651
G1 X27.225 Y27.606 E20.46772
G1 X27.626 Y25.849 E20.56887
G1 X27.876 Y24.707 E20.63448
G1 X27.915 Y24.539 E20.64416
G1 X28.11 Y23.78 E20.68815
G1 X28.285 Y23.198 E20.72226
G1 X28.398 Y22.875 E20.74146
G1 X29.037 Y21.244 E20.83978
G1 X29.983 Y18.724 E20.99086
G1 X30.861 Y16.167 E21.1426
G1 X31.656 Y13.618 E21.29246
G1 X32.397 Y10.983 E21.44609
G1 X32.963 Y8.726 E21.57669
G0 F1500 X33.447 Y8.852
G1 F600 X33.55 Y8.456 E21.59966
G1 X34.975 Y3.143 E21.9084
G1 X35.536 Y1.077 E22.02855
G1 X35.801 Y0.059 E22.08759
G1 X37.786 Y-7.35 E22.5181
G1 X37.959 Y-7.962 E22.5538
G1 X38.224 Y-8.659 E22.59565
G1 X39.075 Y-10.416 E22.70522
G1 X40.22 Y-12.867 E22.85706
G1 X41.295 Y-15.349 E23.00887
G1 X42.298 Y-17.857 E23.16047
G1 X43.242 Y-20.424 E23.31398
G1 X44.093 Y-22.961 E23.46417
G1 X44.89 Y-25.578 E23.61772
G1 X45.603 Y-28.182 E23.76925
G1 X46.254 Y-30.849 E23.92333
G1 X46.804 Y-33.427 E24.07128
G1 X47.302 Y-36.131 E24.2256
G1 X47.721 Y-38.825 E24.37863
G1 X48.054 Y-41.46 E24.52769
G1 X48.322 Y-44.195 E24.68194
G1 X48.435 Y-45.888 E24.77717
G1 X48.568 Y-47.489 E24.86734
G1 X48.633 Y-48.048 E24.89892
G1 X48.679 Y-48.349 E24.91601
G1 X48.819 Y-49.127 E24.96038
G1 X48.962 Y-49.75 E24.99626
G1 X49.095 Y-50.266 E25.02617
G1 X49.209 Y-50.659 E25.04913
G1 X49.413 Y-51.301 E25.08694
G1 X49.529 Y-51.63 E25.10652
G1 X49.814 Y-52.36 E25.15051
G1 X49.979 Y-52.738 E25.17365
G1 X50.281 Y-53.367 E25.21282
G1 X50.354 Y-53.511 E25.22188
G1 X50.59 Y-53.958 E25.25025
G1 X51.05 Y-54.718 E25.30011
G1 X51.427 Y-55.261 E25.33721
G1 X51.823 Y-55.773 E25.37354
G1 X52.179 Y-56.187 E25.40419
G1 X52.729 Y-56.781 E25.44962
G1 X54.121 Y-58.245 E25.56301
G1 X55.964 Y-60.296 E25.71777
G1 X56.878 Y-61.359 E25.79645
G1 X57.587 Y-62.196 E25.85802
G1 X57.763 Y-62.391 E25.87276
G1 X58.445 Y-63.102 E25.92806
G1 X58.82 Y-63.471 E25.95759
G1 X59.402 Y-63.945 E25.99972
G1 X60.125 Y-64.435 E26.04874
G1 X60.599 Y-64.735 E26.08022
G1 X61.249 Y-65.068 E26.12121
G1 X62.053 Y-65.396 E26.16995
G1 X62.582 Y-65.593 E26.20163
G1 X63.286 Y-65.783 E26.24256
G1 X64.13 Y-65.935 E26.29069
G1 X64.704 Y-66.021 E26.32327
G1 X65.285 Y-66.065 E26.35597
G1 X65.686 Y-66.049 E26.3785
G1 X66.735 Y-65.957 E26.4376
G1 X67.032 Y-65.925 E26.45436
G1 X67.741 Y-65.84 E26.49444
G1 X68.517 Y-65.686 E26.53885
G1 X68.659 Y-65.65 E26.54707
G1 X69.709 Y-65.368 E26.60809
G1 X70.332 Y-65.191 E26.64444
G1 X70.854 Y-65.016 E26.67534
G1 X71.311 Y-64.844 E26.70275
G1 X71.89 Y-64.612 E26.73776
G1 X72.552 Y-64.277 E26.7794
G1 X73.289 Y-63.819 E26.8281
G1 X73.747 Y-63.515 E26.85895
G1 X74.328 Y-63.047 E26.90083
G1 X74.958 Y-62.441 E26.94989
G1 X75.344 Y-62.047 E26.98085
G1 X75.807 Y-61.477 E27.02206
G1 X76.287 Y-60.77 E27.07003
G1 X76.586 Y-60.3 E27.10129
G1 X76.926 Y-59.64 E27.14296
G1 X77.259 Y-58.824 E27.19243
G1 X77.448 Y-58.318 E27.22274
G1 X77.643 Y-57.599 E27.26456
G1 X77.8 Y-56.721 E27.31462
G1 X77.882 Y-56.163 E27.34627
G1 X77.925 Y-55.582 E27.37897
G1 X77.909 Y-55.193 E27.40082
G1 X77.776 Y-53.664 E27.48696
G1 X77.574 Y-50.902 E27.6424
G1 X77.453 Y-48.208 E27.79376
G1 X77.413 Y-46.543 E27.88723
G1 X77.381 Y-46.019 E27.9167
G1 X77.332 Y-45.494 E27.94629
G1 X77.316 Y-45.356 E27.95409
G1 X77.089 Y-43.59 E28.05403
G1 X77.085 Y-43.506 E28.05875
G1 X76.893 Y-42.029 E28.14234
G1 X76.626 Y-39.385 E28.2915
G1 X76.426 Y-36.655 E28.44513
G1 X76.305 Y-33.931 E28.59817
G1 X76.261 Y-31.265 E28.74782
G1 X76.274 Y-29.875 E28.82584
G1 X76.255 Y-29.08 E28.87048
G1 X76.199 Y-28.462 E28.9053
G1 X76.102 Y-27.64 E28.95176
G1 X75.937 Y-26.831 E28.9981
G1 X75.789 Y-26.272 E29.03056
G1 X75.618 Y-25.662 E29.06611
G1 X75.349 Y-24.952 E29.10873
G1 X74.862 Y-23.949 E29.17131
G1 X74.796 Y-23.818 E29.17954
G1 X74.31 Y-22.9 E29.23784
G1 X73.278 Y-21.011 E29.35865
G1 X72.051 Y-18.606 E29.51019
G1 X70.874 Y-16.128 E29.66416
G1 X69.795 Y-13.679 E29.81437
G1 X68.772 Y-11.169 E29.9665
G1 X67.83 Y-8.659 E30.11697
G1 X66.945 Y-6.079 E30.27006
G1 X66.138 Y-3.491 E30.42221
G1 X65.333 Y-.583 E30.59156
G1 X63.368 Y6.739 E31.01706
G1 X62.706 Y9.356 E31.16857
G1 X62.312 Y11.082 E31.26794
G1 X62.046 Y12.298 E31.3378
G1 X62.009 Y12.453 E31.34675
G1 X61.844 Y13.092 E31.38379
G1 X61.672 Y13.677 E31.41801
G1 X61.545 Y14.045 E31.43986
G1 X60.885 Y15.734 E31.54164
G1 X59.933 Y18.275 E31.69394
G1 X59.058 Y20.828 E31.84541
G1 X58.256 Y23.408 E31.99705
G1 X57.516 Y26.045 E32.15078
G1 X56.965 Y28.244 E32.27801
G1 X56.867 Y28.62 E32.29982
G1 X55.45 Y33.908 E32.60709
G1 X54.861 Y36.079 E32.73335
G1 X54.614 Y37.031 E32.78855
G1 X52.631 Y44.431 E33.21854
G1 X52.459 Y45.039 E33.254
G1 X52.194 Y45.735 E33.2958
G1 X51.333 Y47.512 E33.40663
G1 X50.181 Y49.979 E33.55945
G1 X49.113 Y52.446 E33.71033
G1 X48.101 Y54.976 E33.86327
G1 X47.179 Y57.488 E34.01345
G1 X46.309 Y60.078 E34.1668
G1 X45.52 Y62.673 E34.31903
G1 X44.809 Y65.271 E34.47021
G1 X44.161 Y67.928 E34.62371
G1 X43.596 Y70.579 E34.77584
G1 X43.114 Y73.194 E34.92509
G1 X42.69 Y75.923 E35.08009
G1 X42.356 Y78.564 E35.22951
G1 X42.092 Y81.269 E35.38205
G1 X41.948 Y83.451 E35.50478
G1 X41.876 Y84.323 E35.55389
G1 X41.861 Y84.468 E35.56207
G1 X41.799 Y84.997 E35.59197
G1 X41.721 Y85.532 E35.62231
G1 X41.655 Y85.906 E35.64363
G1 X41.524 Y86.532 E35.67953
G1 X41.439 Y86.894 E35.7004
G1 X41.305 Y87.408 E35.73021
G1 X41.242 Y87.625 E35.74289
G1 X40.981 Y88.445 E35.79119
G1 X40.889 Y88.704 E35.80662
G1 X40.591 Y89.466 E35.85254
G1 X40.353 Y90.017 E35.88623
G1 X40.186 Y90.361 E35.90769
G1 X39.847 Y91 E35.94829
G1 X39.581 Y91.458 E35.97802
G1 X39.255 Y91.961 E36.01166
G1 X38.847 Y92.529 E36.05091
G1 X38.454 Y93.017 E36.08608
G1 X38.243 Y93.257 E36.10401
G1 X37.685 Y93.861 E36.15017
G1 X36.307 Y95.31 E36.2624
G1 X33.565 Y98.407 E36.49456
G1 X32.822 Y99.282 E36.55899
G1 X32.648 Y99.475 E36.57357
G1 X31.987 Y100.163 E36.62712
G1 X31.591 Y100.552 E36.65828
G1 X31.013 Y101.023 E36.70013
G1 X30.301 Y101.506 E36.74841
G1 X29.831 Y101.805 E36.77968
G1 X29.173 Y102.143 E36.8212
G1 X28.357 Y102.476 E36.87066
G1 X27.842 Y102.667 E36.90149
G1 X27.132 Y102.859 E36.94277
G1 X26.256 Y103.016 E36.99273
G1 X25.701 Y103.099 E37.02422
G1 X25.12 Y103.142 E37.05692
G1 X24.729 Y103.126 E37.07888
G1 X23.773 Y103.043 E37.13274
G1 X23.374 Y103 E37.15527
G1 X22.662 Y102.915 E37.19551
G1 X21.89 Y102.76 E37.23971
G1 X20.72 Y102.448 E37.30767
G1 X20.082 Y102.267 E37.34489
G1 X19.542 Y102.085 E37.37688
G1 X19.111 Y101.922 E37.40274
G1 X18.535 Y101.692 E37.43755
G1 X17.865 Y101.353 E37.47969
G1 X17.118 Y100.888 E37.52908
G1 X16.659 Y100.583 E37.56001
G1 X16.083 Y100.118 E37.60156
G1 X15.48 Y99.538 E37.64852
G1 X15.088 Y99.139 E37.67991
G1 X14.617 Y98.561 E37.72176
G1 X14.096 Y97.793 E37.77385
G1 X13.826 Y97.368 E37.80211
G1 X13.487 Y96.708 E37.84375
G1 X13.167 Y95.922 E37.89138
G1 X12.966 Y95.38 E37.92383
G1 X12.774 Y94.67 E37.96511
G1 X12.623 Y93.828 E38.01312
G1 X12.537 Y93.25 E38.04592
G1 X12.493 Y92.669 E38.07862
G1 X12.509 Y92.273 E38.10087
G1 X12.644 Y90.729 E38.18786
G1 X12.845 Y87.974 E38.3429
G1 X12.966 Y85.253 E38.49577
G1 X13.001 Y83.71 E38.58239
G1 X13.038 Y83.073 E38.61821
G1 X13.092 Y82.52 E38.64939
G1 X13.349 Y80.521 E38.76251
G1 X13.352 Y80.443 E38.76689
G1 X13.539 Y78.976 E38.8499
G1 X13.809 Y76.271 E39.00247
G1 X14 Y73.586 E39.15355
G1 X14.117 Y70.892 E39.3049
G1 X14.156 Y68.15 E39.45882
G1 X14.144 Y66.866 E39.53089
G1 X14.164 Y66.133 E39.57204
G1 X14.22 Y65.516 E39.60681
G1 X14.312 Y64.735 E39.65095
G1 X14.471 Y63.943 E39.69629
G1 X14.628 Y63.35 E39.73072
G1 X14.806 Y62.719 E39.76752
G1 X15.07 Y62.024 E39.80925
G1 X15.557 Y61.021 E39.87183
G1 X15.639 Y60.862 E39.88187
G1 X16.052 Y60.078 E39.9316
G1 X17.193 Y57.984 E40.06545
G1 X18.404 Y55.606 E40.21522
G1 X19.571 Y53.144 E40.36815
G1 X20.654 Y50.679 E40.51926
G1 X21.68 Y48.156 E40.67213
G1 X22.632 Y45.609 E40.82474
G1 X23.495 Y43.086 E40.97441
G1 X24.307 Y40.47 E41.12814
G1 X25.16 Y37.395 E41.30725
G1 X27.048 Y30.348 E41.71672
G1 X27.712 Y27.719 E41.86891
G1 X28.114 Y25.96 E41.97018
