;FLAVOR:Marlin
;TIME:1462
;Filament used: 0.942272m
;Layer height: 0.3
;MINX:99.354
;MINY:135.644
;MINZ:0.4
;MAXX:137.82
;MAXY:187.642
;MAXZ:10
;Generated with Cura_SteamEngine 4.10.0
M104 S210
M105
M109 S210
M82 ;absolute extrusion mode
G21 ;metric values
G90 ;absolute positioning
M82 ;set extruder to absolute mode
M107 ;start with the fan off
G28 X0 Y0 ;move X/Y to min endstops
G28 Z0 ;move Z to min endstops
M501
M420 S1 ;Marlin Bed-leveling on
G1 Z15.0 F180.0 ;move the platform down 15mm
G92 E0 ;zero the extruded length
G1 F200 E3 ;extrude 3mm of feed stock
G92 E0 ;zero the extruded length again
G1 F180.0
M117 Printing...
G5
G92 E0
G92 E0
;LAYER_COUNT:33
;LAYER:0
M107
M204 S3000
M205 X10 Y10
G0 F7200 X106.448 Y139.96 Z0.4
M204 S1000
M205 X8 Y8
;TYPE:SKIRT
G1 F1200 X107.319 Y139.298 E0.11971
G1 X107.912 Y138.874 E0.19948
G1 X108.429 Y138.544 E0.2666
G1 X109.333 Y138.022 E0.38083
G1 X109.532 Y137.911 E0.40576
G1 X109.984 Y137.67 E0.46181
G1 X110.546 Y137.403 E0.5299
G1 X111.541 Y136.985 E0.648
G1 X112.204 Y136.728 E0.7258
G1 X112.8 Y136.531 E0.79449
G1 X113.833 Y136.243 E0.91184
G1 X114.053 Y136.186 E0.93671
G1 X114.543 Y136.067 E0.99189
G1 X115.152 Y135.948 E1.05979
G1 X116.197 Y135.794 E1.17537
G1 X116.431 Y135.764 E1.20119
G1 X116.941 Y135.707 E1.25734
G1 X117.552 Y135.666 E1.32435
G1 X118.621 Y135.644 E1.44135
G1 X119.343 Y135.651 E1.52036
G1 X119.957 Y135.688 E1.58767
G1 X121.043 Y135.803 E1.70717
G1 X121.745 Y135.897 E1.78467
G1 X122.363 Y136.013 E1.85348
G1 X123.388 Y136.255 E1.96873
G1 X123.612 Y136.312 E1.99402
G1 X124.1 Y136.445 E2.04937
G1 X124.682 Y136.632 E2.11626
G1 X125.723 Y137.02 E2.23783
G1 X126.378 Y137.287 E2.31523
G1 X126.92 Y137.54 E2.38068
G1 X127.887 Y138.046 E2.5001
G1 X128.532 Y138.41 E2.58115
G1 X129.04 Y138.731 E2.6469
G1 X129.907 Y139.335 E2.76253
G1 X130.499 Y139.774 E2.84318
G1 X130.973 Y140.165 E2.91041
G1 X131.778 Y140.892 E3.02911
G1 X132.305 Y141.396 E3.1089
G1 X132.722 Y141.839 E3.17547
G1 X133.405 Y142.632 E3.29
G1 X133.549 Y142.804 E3.31454
G1 X133.875 Y143.209 E3.37144
G1 X134.245 Y143.715 E3.44003
G1 X134.845 Y144.621 E3.55894
G1 X135.222 Y145.229 E3.63722
G1 X135.517 Y145.762 E3.70388
G1 X135.999 Y146.736 E3.8228
G1 X136.304 Y147.403 E3.90305
G1 X136.526 Y147.96 E3.96867
G1 X136.878 Y148.972 E4.08591
G1 X137.102 Y149.687 E4.1679
G1 X137.253 Y150.269 E4.2337
G1 X137.476 Y151.323 E4.35159
G1 X137.604 Y152.03 E4.43021
G1 X137.684 Y152.64 E4.49753
G1 X137.774 Y153.718 E4.6159
G1 X137.789 Y153.951 E4.64145
G1 X137.817 Y154.524 E4.70422
G1 X137.82 Y155.104 E4.76769
G1 X137.783 Y156.078 E4.87435
G1 X136.876 Y172.833 E6.71046
G1 X136.741 Y174.622 E6.90678
G1 X136.696 Y175.066 E6.95562
G1 X136.521 Y176.023 E7.06208
G1 X136.371 Y176.579 E7.12509
G1 X136.184 Y177.189 E7.19491
G1 X135.828 Y178.105 E7.30244
G1 X135.521 Y178.752 E7.38081
G1 X135.282 Y179.225 E7.4388
G1 X134.911 Y179.859 E7.51918
G1 X134.552 Y180.386 E7.58896
G1 X134.441 Y180.539 E7.60964
G1 X134.097 Y181.002 E7.67276
G1 X133.598 Y181.598 E7.75782
G1 X133.132 Y182.094 E7.83229
G1 X132.661 Y182.571 E7.90564
G1 X132.247 Y182.952 E7.96721
G1 X131.76 Y183.355 E8.03638
G1 X131.604 Y183.477 E8.05805
G1 X131.077 Y183.878 E8.13051
G1 X130.628 Y184.192 E8.19047
G1 X130.045 Y184.565 E8.2662
G1 X129.847 Y184.687 E8.29165
G1 X129.349 Y184.982 E8.35499
G1 X128.908 Y185.223 E8.40998
G1 X128.341 Y185.503 E8.47918
G1 X128.193 Y185.573 E8.4971
G1 X127.561 Y185.862 E8.57314
G1 X126.821 Y186.162 E8.66052
G1 X126.372 Y186.325 E8.71279
G1 X125.736 Y186.543 E8.78636
G1 X125.353 Y186.662 E8.83024
G1 X124.539 Y186.888 E8.92268
G1 X124.334 Y186.941 E8.94585
G1 X123.777 Y187.077 E9.00859
G1 X123.393 Y187.159 E9.05156
G1 X122.618 Y187.301 E9.13778
G1 X122.416 Y187.335 E9.16019
G1 X121.719 Y187.441 E9.23734
G1 X121.346 Y187.487 E9.27846
G1 X120.687 Y187.55 E9.35091
G1 X120.504 Y187.565 E9.371
G1 X119.77 Y187.615 E9.4515
G1 X119.321 Y187.634 E9.50068
G1 X118.653 Y187.642 E9.57378
G1 X117.77 Y187.631 E9.67041
G1 X117.415 Y187.617 E9.70929
G1 X116.788 Y187.575 E9.77805
G1 X116.594 Y187.559 E9.79935
G1 X115.771 Y187.48 E9.88982
G1 X115.397 Y187.434 E9.93106
G1 X114.788 Y187.341 E9.99847
G1 X114.626 Y187.314 E10.01644
G1 X113.9 Y187.185 E10.09713
G1 X113.482 Y187.097 E10.14387
G1 X112.711 Y186.909 E10.23071
G1 X112.523 Y186.86 E10.25197
G1 X111.984 Y186.712 E10.31313
G1 X111.6 Y186.594 E10.35709
G1 X110.802 Y186.323 E10.44931
G1 X110.604 Y186.253 E10.47229
G1 X110.065 Y186.051 E10.53528
G1 X109.362 Y185.752 E10.61887
G1 X108.913 Y185.541 E10.67316
G1 X108.275 Y185.227 E10.75097
G1 X107.788 Y184.964 E10.81154
G1 X107.335 Y184.694 E10.86924
G1 X106.64 Y184.257 E10.95908
G1 X106.149 Y183.916 E11.02449
G1 X105.592 Y183.491 E11.10116
G1 X105.413 Y183.349 E11.12616
G1 X105.006 Y183.016 E11.18371
G1 X104.585 Y182.642 E11.24533
G1 X104.199 Y182.261 E11.30467
G1 X104.079 Y182.137 E11.32356
G1 X103.632 Y181.663 E11.39485
G1 X103.132 Y181.067 E11.47998
G1 X102.742 Y180.544 E11.55137
G1 X102.354 Y179.991 E11.62529
G1 X101.976 Y179.38 E11.70391
G1 X101.701 Y178.86 E11.76828
G1 X101.4 Y178.238 E11.84389
G1 X101.033 Y177.305 E11.9536
G1 X100.825 Y176.635 E12.03037
G1 X100.678 Y176.115 E12.0895
G1 X100.494 Y175.203 E12.19131
G1 X100.439 Y174.705 E12.24613
G1 X100.298 Y172.832 E12.45167
G1 X99.385 Y155.958 E14.30082
G1 X99.354 Y155.206 E14.38318
G1 X99.356 Y154.609 E14.4485
G1 X99.398 Y153.729 E14.54491
G1 X99.41 Y153.527 E14.56705
G1 X99.458 Y152.911 E14.63466
G1 X99.533 Y152.307 E14.70126
G1 X99.709 Y151.269 E14.81647
G1 X99.749 Y151.056 E14.84018
G1 X99.851 Y150.553 E14.89635
G1 X100.005 Y149.94 E14.96551
G1 X100.319 Y148.902 E15.08418
G1 X100.54 Y148.237 E15.16086
G1 X100.767 Y147.656 E15.22911
G1 X101.213 Y146.654 E15.34913
G1 X101.517 Y146.021 E15.42597
G1 X101.815 Y145.473 E15.49423
G1 X102.37 Y144.557 E15.61142
G1 X102.767 Y143.943 E15.69143
G1 X103.119 Y143.456 E15.75719
G1 X103.796 Y142.6 E15.87661
G1 X104.268 Y142.038 E15.95692
G1 X104.688 Y141.587 E16.02436
G1 X105.436 Y140.854 E16.13895
G1 X105.599 Y140.699 E16.16357
G1 X105.971 Y140.358 E16.21879
G1 X106.448 Y139.96 E16.28677
M204 S3000
M205 X10 Y10
G0 F7200 X106.871 Y140.517
M204 S1000
M205 X8 Y8
G1 F1200 X107.742 Y139.855 E16.40648
G1 X108.316 Y139.446 E16.48361
G1 X108.779 Y139.15 E16.54374
G1 X109.683 Y138.628 E16.65797
G1 X109.862 Y138.528 E16.6804
G1 X110.314 Y138.287 E16.73646
G1 X110.817 Y138.048 E16.79739
G1 X111.812 Y137.63 E16.91549
G1 X112.454 Y137.382 E16.9908
G1 X112.988 Y137.205 E17.05236
G1 X114.021 Y136.917 E17.16971
G1 X114.218 Y136.866 E17.19198
G1 X114.708 Y136.747 E17.24715
G1 X115.254 Y136.641 E17.30802
G1 X116.299 Y136.487 E17.4236
G1 X116.509 Y136.459 E17.44678
G1 X117.019 Y136.402 E17.50294
G1 X117.567 Y136.366 E17.56303
G1 X118.636 Y136.344 E17.68003
G1 X119.333 Y136.351 E17.75631
G1 X119.883 Y136.384 E17.8166
G1 X120.969 Y136.499 E17.9361
G1 X121.648 Y136.59 E18.01107
G1 X122.202 Y136.694 E18.07275
G1 X123.227 Y136.936 E18.18799
G1 X123.428 Y136.987 E18.21068
G1 X123.916 Y137.12 E18.26603
G1 X124.438 Y137.288 E18.32604
G1 X125.479 Y137.676 E18.4476
G1 X126.109 Y137.933 E18.52206
G1 X126.595 Y138.161 E18.5808
G1 X127.562 Y138.667 E18.70023
G1 X128.185 Y139.018 E18.77847
G1 X128.64 Y139.306 E18.8374
G1 X129.507 Y139.91 E18.95302
G1 X130.079 Y140.334 E19.03093
G1 X130.504 Y140.684 E19.09118
G1 X131.309 Y141.411 E19.20987
G1 X131.818 Y141.899 E19.28704
G1 X132.192 Y142.296 E19.34672
G1 X132.875 Y143.089 E19.46124
G1 X133.004 Y143.243 E19.48322
G1 X133.33 Y143.648 E19.54012
G1 X133.661 Y144.101 E19.60151
G1 X134.261 Y145.007 E19.72042
G1 X134.626 Y145.595 E19.79615
G1 X134.889 Y146.073 E19.85585
G1 X135.371 Y147.047 E19.97477
G1 X135.666 Y147.691 E20.05228
G1 X135.865 Y148.19 E20.11106
G1 X136.217 Y149.202 E20.22831
G1 X136.433 Y149.892 E20.30743
G1 X136.568 Y150.414 E20.36643
G1 X136.791 Y151.468 E20.48431
G1 X136.915 Y152.151 E20.56027
G1 X136.986 Y152.699 E20.62074
G1 X137.076 Y153.777 E20.73911
G1 X137.09 Y153.985 E20.76192
G1 X137.118 Y154.558 E20.8247
G1 X137.121 Y155.078 E20.8816
G1 X137.084 Y156.041 E20.98706
G1 X136.178 Y172.78 E22.82142
G1 X136.043 Y174.569 E23.01774
G1 X136 Y174.99 E23.06404
G1 X135.844 Y175.848 E23.15947
G1 X135.701 Y176.374 E23.21912
G1 X135.514 Y176.984 E23.28893
G1 X135.196 Y177.805 E23.38528
G1 X134.889 Y178.452 E23.46364
G1 X134.659 Y178.905 E23.51923
G1 X134.327 Y179.473 E23.59123
G1 X133.978 Y179.984 E23.65894
G1 X133.879 Y180.121 E23.67744
G1 X133.535 Y180.584 E23.74055
G1 X133.088 Y181.119 E23.81684
G1 X132.622 Y181.615 E23.89131
G1 X132.165 Y182.077 E23.96242
G1 X131.795 Y182.419 E24.01756
G1 X131.32 Y182.81 E24.08488
G1 X131.181 Y182.92 E24.10427
G1 X130.654 Y183.321 E24.17674
G1 X130.251 Y183.602 E24.2305
G1 X129.668 Y183.975 E24.30623
G1 X129.49 Y184.084 E24.32907
G1 X128.992 Y184.379 E24.39241
G1 X128.419 Y184.686 E24.46354
G1 X127.902 Y184.936 E24.52638
G1 X127.27 Y185.225 E24.60243
G1 X126.566 Y185.51 E24.68554
G1 X126.145 Y185.663 E24.73455
G1 X125.509 Y185.881 E24.80812
G1 X125.166 Y185.987 E24.84741
G1 X124.352 Y186.213 E24.93985
G1 X124.168 Y186.261 E24.96066
G1 X123.611 Y186.397 E25.0234
G1 X123.266 Y186.471 E25.06201
G1 X122.491 Y186.613 E25.14823
G1 X122.311 Y186.643 E25.16819
G1 X121.614 Y186.749 E25.24534
G1 X121.28 Y186.791 E25.28218
G1 X120.621 Y186.854 E25.35462
G1 X120.456 Y186.867 E25.37273
G1 X119.566 Y186.926 E25.47033
G1 X119.312 Y186.934 E25.49814
G1 X118.644 Y186.942 E25.57124
G1 X117.78 Y186.931 E25.66579
G1 X117.462 Y186.918 E25.70062
G1 X116.835 Y186.876 E25.76938
G1 X116.661 Y186.862 E25.78848
G1 X115.838 Y186.783 E25.87896
G1 X115.503 Y186.742 E25.91589
G1 X114.894 Y186.649 E25.9833
G1 X114.749 Y186.625 E25.99938
G1 X114.023 Y186.496 E26.08007
G1 X113.648 Y186.417 E26.12201
G1 X112.877 Y186.229 E26.20884
G1 X112.708 Y186.185 E26.22795
G1 X112.169 Y186.037 E26.28912
G1 X111.826 Y185.932 E26.32837
G1 X111.028 Y185.661 E26.42059
G1 X110.85 Y185.597 E26.44129
G1 X110.311 Y185.395 E26.50427
G1 X109.645 Y185.112 E26.58346
G1 X109.222 Y184.913 E26.63461
G1 X108.584 Y184.599 E26.71242
G1 X108.135 Y184.356 E26.76829
G1 X107.695 Y184.094 E26.82433
G1 X107.014 Y183.665 E26.9124
G1 X106.574 Y183.36 E26.97098
G1 X106.017 Y182.935 E27.04765
G1 X105.856 Y182.807 E27.07016
G1 X105.449 Y182.474 E27.1277
G1 X105.072 Y182.139 E27.18289
G1 X104.696 Y181.768 E27.24069
G1 X104.588 Y181.657 E27.25763
G1 X104.141 Y181.183 E27.32893
G1 X103.693 Y180.649 E27.4052
G1 X103.303 Y180.126 E27.47659
G1 X102.929 Y179.592 E27.54793
G1 X102.59 Y179.044 E27.61844
G1 X102.326 Y178.545 E27.68022
G1 X102.03 Y177.934 E27.75451
G1 X101.701 Y177.098 E27.85282
G1 X101.493 Y176.428 E27.92959
G1 X101.353 Y175.93 E27.98619
G1 X101.188 Y175.112 E28.07751
G1 X101.137 Y174.652 E28.12815
G1 X100.996 Y172.779 E28.33368
G1 X100.08 Y155.84 E30.18996
G1 X100.053 Y155.177 E30.26257
G1 X100.055 Y154.643 E30.321
G1 X100.097 Y153.763 E30.4174
G1 X100.108 Y153.581 E30.43736
G1 X100.156 Y152.965 E30.50497
G1 X100.223 Y152.424 E30.56462
G1 X100.399 Y151.386 E30.67982
G1 X100.435 Y151.195 E30.70109
G1 X100.537 Y150.692 E30.75725
G1 X100.675 Y150.142 E30.8193
G1 X100.989 Y149.104 E30.93797
G1 X101.203 Y148.461 E31.01213
G1 X101.407 Y147.941 E31.07325
G1 X101.853 Y146.939 E31.19327
G1 X102.147 Y146.327 E31.26756
G1 X102.414 Y145.836 E31.32872
G1 X102.969 Y144.92 E31.44592
G1 X103.353 Y144.327 E31.52322
G1 X103.668 Y143.89 E31.58217
G1 X104.345 Y143.034 E31.70159
G1 X104.801 Y142.491 E31.77918
G1 X105.178 Y142.087 E31.83965
G1 X105.926 Y141.354 E31.95425
G1 X106.072 Y141.215 E31.97631
G1 X106.444 Y140.874 E32.03153
G1 X106.871 Y140.517 E32.09243
M204 S3000
M205 X10 Y10
G0 F7200 X107.295 Y141.075
M204 S1000
M205 X8 Y8
G1 F1200 X108.166 Y140.413 E32.21215
G1 X108.719 Y140.018 E32.28651
G1 X109.129 Y139.756 E32.33975
G1 X110.033 Y139.234 E32.45398
G1 X110.191 Y139.146 E32.47377
G1 X110.643 Y138.905 E32.52982
G1 X111.088 Y138.694 E32.58372
G1 X112.083 Y138.276 E32.70181
G1 X112.703 Y138.035 E32.7746
G1 X113.176 Y137.88 E32.82907
G1 X114.209 Y137.592 E32.94642
G1 X114.383 Y137.546 E32.96611
G1 X114.873 Y137.427 E33.02129
G1 X115.356 Y137.333 E33.07513
G1 X116.401 Y137.179 E33.19072
G1 X116.587 Y137.155 E33.21124
G1 X117.097 Y137.098 E33.26739
G1 X117.581 Y137.066 E33.32047
G1 X118.65 Y137.044 E33.43747
G1 X118.837 Y137.044 E33.45793
G1 X119.809 Y137.08 E33.56437
G1 X120.895 Y137.195 E33.68387
G1 X121.552 Y137.283 E33.7564
G1 X122.041 Y137.375 E33.81085
G1 X123.066 Y137.617 E33.9261
G1 X123.244 Y137.662 E33.94619
G1 X123.732 Y137.795 E34.00154
G1 X124.193 Y137.944 E34.05455
G1 X125.234 Y138.332 E34.17612
G1 X125.841 Y138.58 E34.24787
G1 X126.27 Y138.781 E34.29971
G1 X127.237 Y139.287 E34.41914
G1 X127.838 Y139.626 E34.49464
G1 X128.24 Y139.88 E34.54668
G1 X129.107 Y140.484 E34.6623
G1 X129.659 Y140.894 E34.73754
G1 X130.035 Y141.204 E34.79087
G1 X130.84 Y141.931 E34.90956
G1 X131.331 Y142.402 E34.98401
G1 X131.662 Y142.753 E35.0368
G1 X132.345 Y143.546 E35.15133
G1 X132.459 Y143.682 E35.17075
G1 X132.785 Y144.087 E35.22764
G1 X133.078 Y144.488 E35.28198
G1 X133.678 Y145.394 E35.40089
G1 X134.029 Y145.961 E35.47386
G1 X134.262 Y146.383 E35.52661
G1 X134.744 Y147.357 E35.64553
G1 X135.028 Y147.979 E35.72035
G1 X135.204 Y148.42 E35.77231
G1 X135.556 Y149.432 E35.88956
G1 X135.764 Y150.097 E35.9658
G1 X135.883 Y150.559 E36.018
G1 X136.106 Y151.613 E36.13589
G1 X136.226 Y152.273 E36.2093
G1 X136.288 Y152.757 E36.26269
G1 X136.378 Y153.835 E36.38106
G1 X136.391 Y154.019 E36.40125
G1 X136.419 Y154.592 E36.46402
G1 X136.421 Y155.052 E36.51436
G1 X136.385 Y156.003 E36.6185
G1 X135.48 Y172.728 E38.45132
G1 X135.345 Y174.517 E38.64764
G1 X135.304 Y174.914 E38.69132
G1 X135.166 Y175.673 E38.77573
G1 X135.032 Y176.169 E38.83195
G1 X134.845 Y176.779 E38.90177
G1 X134.563 Y177.504 E38.98689
G1 X134.181 Y178.305 E39.084
G1 X134.037 Y178.585 E39.11845
G1 X133.743 Y179.087 E39.18211
G1 X133.405 Y179.582 E39.2477
G1 X133.317 Y179.704 E39.26416
G1 X132.973 Y180.167 E39.32728
G1 X132.578 Y180.639 E39.39463
G1 X132.112 Y181.135 E39.4691
G1 X131.67 Y181.582 E39.53789
G1 X131.197 Y182.008 E39.60754
G1 X130.757 Y182.363 E39.66941
G1 X130.23 Y182.764 E39.74187
G1 X129.873 Y183.013 E39.7895
G1 X129.29 Y183.386 E39.86524
G1 X129.134 Y183.482 E39.88528
G1 X128.636 Y183.777 E39.94862
G1 X128.112 Y184.057 E40.01363
G1 X127.611 Y184.299 E40.07451
G1 X126.979 Y184.588 E40.15056
G1 X126.312 Y184.858 E40.2293
G1 X125.918 Y185.001 E40.27516
G1 X125.282 Y185.219 E40.34873
G1 X124.978 Y185.313 E40.38355
G1 X124.164 Y185.539 E40.47599
G1 X124.002 Y185.581 E40.49431
G1 X123.445 Y185.717 E40.55705
G1 X123.14 Y185.782 E40.59117
G1 X122.365 Y185.924 E40.67739
G1 X122.205 Y185.951 E40.69514
G1 X121.508 Y186.057 E40.77229
G1 X121.213 Y186.094 E40.80482
G1 X120.554 Y186.157 E40.87726
G1 X120.409 Y186.169 E40.89319
G1 X119.675 Y186.219 E40.97369
G1 X119.304 Y186.234 E41.01432
G1 X118.636 Y186.242 E41.08742
G1 X117.79 Y186.231 E41.18
G1 X117.508 Y186.22 E41.21089
G1 X116.728 Y186.166 E41.29644
G1 X115.905 Y186.087 E41.38691
G1 X115.608 Y186.05 E41.41966
G1 X114.999 Y185.957 E41.48708
G1 X114.145 Y185.806 E41.58198
G1 X113.814 Y185.737 E41.61898
G1 X113.043 Y185.549 E41.70581
G1 X112.893 Y185.51 E41.72277
G1 X112.354 Y185.362 E41.78394
G1 X112.051 Y185.269 E41.81862
G1 X111.253 Y184.998 E41.91084
G1 X111.096 Y184.942 E41.92908
G1 X110.557 Y184.74 E41.99207
G1 X109.928 Y184.472 E42.06688
G1 X109.532 Y184.285 E42.1148
G1 X108.894 Y183.971 E42.19261
G1 X108.388 Y183.693 E42.25579
G1 X107.946 Y183.427 E42.31224
G1 X107.387 Y183.074 E42.38458
G1 X106.999 Y182.803 E42.43637
G1 X106.442 Y182.378 E42.51304
G1 X106.299 Y182.266 E42.53291
G1 X105.892 Y181.933 E42.59046
G1 X105.403 Y181.485 E42.66303
G1 X105.098 Y181.177 E42.71046
G1 X104.651 Y180.703 E42.78175
G1 X104.254 Y180.23 E42.84933
G1 X103.864 Y179.707 E42.92072
G1 X103.504 Y179.193 E42.98939
G1 X103.204 Y178.708 E43.05179
G1 X102.951 Y178.23 E43.11097
G1 X102.661 Y177.629 E43.18399
G1 X102.37 Y176.89 E43.2709
G1 X102.162 Y176.22 E43.34767
G1 X102.028 Y175.744 E43.40178
G1 X101.882 Y175.022 E43.48238
G1 X101.835 Y174.6 E43.52885
G1 X101.694 Y172.727 E43.73438
