;FLAVOR:Marlin
;TIME:5216
;Filament used: 1.60662m
;Layer height: 0.12
;MINX:-13.567
;MINY:-40.541
;MINZ:0.2
;MAXX:18.774
;MAXY:-14.479
;MAXZ:45.2
;Generated with Cura_SteamEngine 4.10.0
M104 S205
M105
M109 S205
M82 ;absolute extrusion mode
G21        ;metric values
G90        ;absolute positioning
M107       ;start with the fan off
G28   ;move to endstops

;Z-Offset Reset und dann Z +0,1 für PLA
;MacroZOffset0
;MacroZOffsetPlus0100

G92 E0                  ;zero the extruded length
G1 F200 E3              ;extrude 3mm of feed stock
G92 E0                  ;zero the extruded length again
G1 F120
;Put printing message on LCD screen
M117 Printing...
G92 E0
G92 E0
G1 F2400 E-6
;LAYER_COUNT:380
;LAYER:0
M107
M204 S4000
G0 X-.139 Y-14.492 Z0.2
M204 S1800
;TYPE:SKIRT
G1 F2400 E0
G1 F600 X-.697 Y-14.494 E0.01763
G1 X-1.37 Y-14.526 E0.03892
G1 X-2.002 Y-14.592 E0.059
G1 X-2.303 Y-14.634 E0.0686
G1 X-3.135 Y-14.796 E0.09538
G1 X-3.432 Y-14.871 E0.10506
G1 X-4.187 Y-15.103 E0.13002
G1 X-4.884 Y-15.396 E0.15391
G1 X-5.345 Y-15.622 E0.17013
G1 X-5.448 Y-15.676 E0.17381
G1 X-6.091 Y-16.053 E0.19736
G1 X-6.287 Y-16.181 E0.20475
G1 X-6.925 Y-16.646 E0.2297
G1 X-7.514 Y-17.173 E0.25467
G1 X-8.108 Y-17.833 E0.28273
G1 X-8.29 Y-18.06 E0.29192
G1 X-8.752 Y-18.7 E0.31686
G1 X-9.147 Y-19.384 E0.34182
G1 X-9.471 Y-20.104 E0.36677
G1 X-9.775 Y-21.063 E0.39855
G1 X-9.832 Y-21.293 E0.40604
G1 X-9.983 Y-22.068 E0.43099
G1 X-10.061 Y-23.165 E0.46574
G1 X-10.063 Y-26.732 E0.57845
G1 X-10.061 Y-27.53 E0.60366
G1 X-10.062 Y-31.853 E0.74026
G1 X-10.022 Y-32.642 E0.76522
G1 X-9.823 Y-33.77 E0.80141
G1 X-9.766 Y-33.995 E0.80874
G1 X-9.534 Y-34.75 E0.8337
G1 X-9.226 Y-35.478 E0.85868
G1 X-8.847 Y-36.17 E0.88361
G1 X-8.327 Y-36.913 E0.91226
G1 X-8.147 Y-37.141 E0.92144
G1 X-7.627 Y-37.735 E0.94639
G1 X-7.05 Y-38.274 E0.97133
G1 X-6.236 Y-38.873 E1.00327
G1 X-6.038 Y-39 E1.0107
G1 X-5.288 Y-39.425 E1.03794
G1 X-4.985 Y-39.575 E1.04862
G1 X-4.26 Y-39.889 E1.07359
G1 X-3.446 Y-40.145 E1.10055
G1 X-3.147 Y-40.221 E1.1103
G1 X-2.303 Y-40.386 E1.13747
G1 X-1.685 Y-40.466 E1.15716
G1 X-1.43 Y-40.491 E1.16525
G1 X-.675 Y-40.528 E1.18914
G1 X6.041 Y-40.533 E1.40134
G1 X10.961 Y-40.541 E1.5568
G1 X11.75 Y-40.502 E1.58176
G1 X12.531 Y-40.384 E1.60672
G1 X13.296 Y-40.187 E1.63168
G1 X14.037 Y-39.915 E1.65662
G1 X14.746 Y-39.568 E1.68156
G1 X15.417 Y-39.152 E1.70651
G1 X16.043 Y-38.67 E1.73147
G1 X16.616 Y-38.127 E1.75642
G1 X17.132 Y-37.529 E1.78137
G1 X17.584 Y-36.881 E1.80634
G1 X17.969 Y-36.192 E1.83128
G1 X18.282 Y-35.467 E1.85623
G1 X18.52 Y-34.714 E1.88118
G1 X18.681 Y-33.941 E1.90613
G1 X18.763 Y-33.155 E1.9311
G1 X18.774 Y-32.741 E1.94418
G1 X18.774 Y-22.279 E2.27475
G1 X18.734 Y-21.49 E2.29972
G1 X18.615 Y-20.71 E2.32465
G1 X18.417 Y-19.945 E2.34962
G1 X18.143 Y-19.205 E2.37455
G1 X17.795 Y-18.496 E2.3995
G1 X17.377 Y-17.825 E2.42448
G1 X16.894 Y-17.201 E2.44942
G1 X16.351 Y-16.628 E2.47436
G1 X15.752 Y-16.113 E2.49932
G1 X15.104 Y-15.662 E2.52427
G1 X14.413 Y-15.278 E2.54924
G1 X13.688 Y-14.966 E2.57418
G1 X12.935 Y-14.729 E2.59913
G1 X12.161 Y-14.57 E2.62409
G1 X11.376 Y-14.489 E2.64903
G1 X10.961 Y-14.479 E2.66215
G1 X6.025 Y-14.487 E2.81811
G1 X5.253 Y-14.49 E2.8425
G1 X-.139 Y-14.492 E3.01287
M204 S4000
G0 F2400 X-.138 Y-14.892
M204 S1800
G1 F600 X-.696 Y-14.894 E3.03051
G1 X-1.334 Y-14.924 E3.05069
G1 X-1.947 Y-14.988 E3.07016
G1 X-2.248 Y-15.03 E3.07976
G1 X-3.037 Y-15.184 E3.10516
G1 X-3.334 Y-15.259 E3.11484
G1 X-4.069 Y-15.486 E3.13915
G1 X-4.711 Y-15.757 E3.16117
G1 X-5.262 Y-16.03 E3.1806
G1 X-5.872 Y-16.388 E3.20295
G1 X-6.068 Y-16.516 E3.21034
G1 X-6.69 Y-16.97 E3.23467
G1 X-7.26 Y-17.485 E3.25895
G1 X-7.795 Y-18.083 E3.2843
G1 X-7.977 Y-18.31 E3.29349
G1 X-8.427 Y-18.934 E3.3178
G1 X-8.809 Y-19.602 E3.34212
G1 X-9.12 Y-20.305 E3.36641
G1 X-9.387 Y-21.159 E3.39468
G1 X-9.444 Y-21.389 E3.40217
G1 X-9.59 Y-22.144 E3.42646
G1 X-9.661 Y-23.165 E3.4588
G1 X-9.663 Y-26.731 E3.57148
G1 X-9.661 Y-27.529 E3.59669
G1 X-9.662 Y-31.853 E3.73332
G1 X-9.622 Y-32.621 E3.75762
G1 X-9.435 Y-33.672 E3.79135
G1 X-9.378 Y-33.897 E3.79868
G1 X-9.151 Y-34.632 E3.82299
G1 X-8.849 Y-35.339 E3.84728
G1 X-8.474 Y-36.011 E3.8716
G1 X-8.013 Y-36.665 E3.89688
G1 X-7.833 Y-36.893 E3.90606
G1 X-7.326 Y-37.471 E3.93035
G1 X-6.761 Y-37.994 E3.95468
G1 X-6.02 Y-38.537 E3.9837
G1 X-5.822 Y-38.664 E3.99114
G1 X-5.11 Y-39.067 E4.01699
G1 X-4.807 Y-39.217 E4.02767
G1 X-4.101 Y-39.522 E4.05197
G1 X-3.347 Y-39.757 E4.07692
G1 X-3.048 Y-39.833 E4.08667
G1 X-2.248 Y-39.99 E4.11243
G1 X-1.646 Y-40.068 E4.13161
G1 X-1.391 Y-40.093 E4.13971
G1 X-.675 Y-40.128 E4.16236
G1 X6.042 Y-40.133 E4.3746
G1 X10.962 Y-40.141 E4.53006
G1 X11.73 Y-40.102 E4.55435
G1 X12.49 Y-39.984 E4.57865
G1 X13.234 Y-39.788 E4.60297
G1 X13.953 Y-39.515 E4.62727
G1 X14.64 Y-39.169 E4.65157
G1 X15.287 Y-38.754 E4.67586
G1 X15.888 Y-38.274 E4.70016
G1 X16.436 Y-37.734 E4.72447
G1 X16.925 Y-37.14 E4.74878
G1 X17.349 Y-36.498 E4.77309
G1 X17.705 Y-35.816 E4.7974
G1 X17.988 Y-35.101 E4.8217
G1 X18.195 Y-34.36 E4.84601
G1 X18.324 Y-33.602 E4.8703
G1 X18.374 Y-32.741 E4.89755
G1 X18.374 Y-22.279 E5.22812
G1 X18.334 Y-21.511 E5.25242
G1 X18.215 Y-20.751 E5.27673
G1 X18.017 Y-20.008 E5.30102
G1 X17.743 Y-19.289 E5.32534
G1 X17.396 Y-18.603 E5.34963
G1 X16.98 Y-17.956 E5.37393
G1 X16.499 Y-17.356 E5.39823
G1 X15.958 Y-16.809 E5.42254
G1 X15.363 Y-16.321 E5.44685
G1 X14.721 Y-15.898 E5.47115
G1 X14.038 Y-15.543 E5.49547
G1 X13.323 Y-15.262 E5.51974
G1 X12.581 Y-15.056 E5.54407
G1 X11.823 Y-14.928 E5.56836
G1 X10.962 Y-14.879 E5.59561
G1 X6.026 Y-14.887 E5.75158
G1 X5.254 Y-14.89 E5.77597
G1 X-.138 Y-14.892 E5.94634
M204 S4000
G0 F2400 X-.136 Y-15.292
M204 S1800
G1 F600 X-.694 Y-15.294 E5.96397
G1 X-1.298 Y-15.322 E5.98308
G1 X-1.891 Y-15.384 E6.00192
G1 X-2.192 Y-15.426 E6.01152
G1 X-2.939 Y-15.572 E6.03557
G1 X-3.236 Y-15.647 E6.04525
G1 X-3.95 Y-15.869 E6.06887
G1 X-4.539 Y-16.117 E6.08907
G1 X-5.076 Y-16.384 E6.10802
G1 X-5.654 Y-16.723 E6.12919
G1 X-5.85 Y-16.851 E6.13659
G1 X-6.453 Y-17.293 E6.16021
G1 X-7.006 Y-17.797 E6.18385
G1 X-7.483 Y-18.333 E6.20652
G1 X-7.665 Y-18.56 E6.21571
G1 X-8.101 Y-19.168 E6.23935
G1 X-8.47 Y-19.819 E6.263
G1 X-8.767 Y-20.505 E6.28662
G1 X-8.998 Y-21.255 E6.31142
G1 X-9.055 Y-21.485 E6.3189
G1 X-9.196 Y-22.22 E6.34255
G1 X-9.261 Y-23.165 E6.37248
G1 X-9.263 Y-26.73 E6.48512
G1 X-9.261 Y-27.528 E6.51034
G1 X-9.262 Y-31.853 E6.647
G1 X-9.222 Y-32.6 E6.67063
G1 X-9.048 Y-33.574 E6.7019
G1 X-8.991 Y-33.799 E6.70923
G1 X-8.768 Y-34.513 E6.73286
G1 X-8.471 Y-35.2 E6.75651
G1 X-8.103 Y-35.851 E6.78014
G1 X-7.699 Y-36.418 E6.80214
G1 X-7.519 Y-36.646 E6.81132
G1 X-7.025 Y-37.207 E6.83494
G1 X-6.474 Y-37.713 E6.85858
G1 X-5.804 Y-38.2 E6.88475
G1 X-5.606 Y-38.327 E6.89218
G1 X-4.933 Y-38.708 E6.91662
G1 X-4.63 Y-38.858 E6.9273
G1 X-3.942 Y-39.154 E6.95096
G1 X-3.248 Y-39.369 E6.97392
G1 X-2.949 Y-39.445 E6.98367
G1 X-2.192 Y-39.594 E7.00805
G1 X-1.607 Y-39.67 E7.02669
G1 X-1.352 Y-39.695 E7.03478
G1 X-.674 Y-39.728 E7.05623
G1 X6.043 Y-39.733 E7.26847
G1 X10.963 Y-39.741 E7.42393
G1 X11.71 Y-39.702 E7.44756
G1 X12.448 Y-39.584 E7.47118
G1 X13.17 Y-39.388 E7.49482
G1 X13.867 Y-39.115 E7.51847
G1 X14.531 Y-38.77 E7.54211
G1 X15.154 Y-38.356 E7.56575
G1 X15.729 Y-37.878 E7.58937
G1 X16.25 Y-37.341 E7.61301
G1 X16.711 Y-36.752 E7.63665
G1 X17.106 Y-36.117 E7.66028
G1 X17.431 Y-35.443 E7.68392
G1 X17.683 Y-34.739 E7.70755
G1 X17.858 Y-34.011 E7.7312
G1 X17.954 Y-33.27 E7.75481
G1 X17.974 Y-32.741 E7.77154
G1 X17.974 Y-22.279 E8.10211
G1 X17.934 Y-21.532 E8.12575
G1 X17.815 Y-20.794 E8.14937
G1 X17.617 Y-20.072 E8.17302
G1 X17.344 Y-19.376 E8.19664
G1 X16.997 Y-18.713 E8.22029
G1 X16.582 Y-18.09 E8.24394
G1 X16.103 Y-17.516 E8.26756
G1 X15.566 Y-16.995 E8.2912
G1 X14.976 Y-16.536 E8.31482
G1 X14.34 Y-16.141 E8.33848
G1 X13.666 Y-15.817 E8.36211
G1 X12.961 Y-15.567 E8.38574
G1 X12.233 Y-15.393 E8.40939
G1 X11.491 Y-15.298 E8.43303
G1 X10.963 Y-15.279 E8.44973
G1 X6.028 Y-15.287 E8.60566
G1 X5.256 Y-15.29 E8.63005
G1 X-.136 Y-15.292 E8.80042
M204 S4000
G0 F2400 X-.135 Y-15.692
M204 S1800
G1 F600 X-.693 Y-15.694 E8.81805
G1 X-1.262 Y-15.721 E8.83605
G1 X-1.836 Y-15.78 E8.85428
G1 X-2.137 Y-15.822 E8.86389
G1 X-2.841 Y-15.96 E8.88656
G1 X-3.138 Y-16.035 E8.89623
G1 X-3.831 Y-16.251 E8.91917
G1 X-4.366 Y-16.478 E8.93753
G1 X-4.891 Y-16.739 E8.95606
G1 X-5.435 Y-17.058 E8.97599
G1 X-5.631 Y-17.186 E8.98338
G1 X-6.216 Y-17.616 E9.00632
G1 X-6.751 Y-18.108 E9.02929
G1 X-7.171 Y-18.583 E9.04932
G1 X-7.353 Y-18.81 E9.05852
G1 X-7.776 Y-19.401 E9.08148
G1 X-8.131 Y-20.035 E9.10444
G1 X-8.414 Y-20.704 E9.12739
G1 X-8.61 Y-21.351 E9.14875
G1 X-8.667 Y-21.581 E9.15624
G1 X-8.803 Y-22.295 E9.17921
G1 X-8.861 Y-23.165 E9.20676
G1 X-8.863 Y-26.729 E9.31937
G1 X-8.861 Y-27.527 E9.34458
G1 X-8.862 Y-31.853 E9.48127
G1 X-8.822 Y-32.579 E9.50425
G1 X-8.66 Y-33.476 E9.53305
G1 X-8.603 Y-33.701 E9.54038
G1 X-8.386 Y-34.394 E9.56333
G1 X-8.094 Y-35.059 E9.58627
G1 X-7.731 Y-35.688 E9.60922
G1 X-7.385 Y-36.17 E9.62797
G1 X-7.205 Y-36.398 E9.63715
G1 X-6.724 Y-36.942 E9.66009
G1 X-6.187 Y-37.43 E9.68302
G1 X-5.588 Y-37.863 E9.70637
G1 X-5.39 Y-37.99 E9.71381
G1 X-4.755 Y-38.35 E9.73687
G1 X-4.452 Y-38.5 E9.74755
G1 X-3.784 Y-38.786 E9.77051
G1 X-3.15 Y-38.982 E9.79148
G1 X-2.851 Y-39.058 E9.80123
G1 X-2.137 Y-39.198 E9.82422
G1 X-1.568 Y-39.272 E9.84235
G1 X-1.313 Y-39.297 E9.85044
G1 X-.674 Y-39.328 E9.87066
G1 X6.043 Y-39.333 E10.0829
G1 X10.963 Y-39.341 E10.23836
G1 X11.689 Y-39.302 E10.26133
G1 X12.405 Y-39.184 E10.28426
G1 X13.105 Y-38.988 E10.30723
G1 X13.778 Y-38.716 E10.33016
G1 X14.418 Y-38.371 E10.35313
G1 X15.016 Y-37.959 E10.37608
G1 X15.564 Y-37.483 E10.39901
G1 X16.058 Y-36.95 E10.42198
G1 X16.489 Y-36.366 E10.44491
G1 X16.854 Y-35.738 E10.46786
G1 X17.148 Y-35.073 E10.49084
G1 X17.367 Y-34.381 E10.51377
G1 X17.509 Y-33.668 E10.53674
G1 X17.574 Y-32.741 E10.5661
G1 X17.574 Y-22.279 E10.89667
G1 X17.534 Y-21.554 E10.91962
G1 X17.415 Y-20.837 E10.94258
G1 X17.217 Y-20.138 E10.96554
G1 X16.944 Y-19.465 E10.98848
G1 X16.599 Y-18.826 E11.01143
G1 X16.185 Y-18.229 E11.03438
G1 X15.709 Y-17.681 E11.05732
G1 X15.175 Y-17.188 E11.08028
G1 X14.59 Y-16.758 E11.10322
G1 X13.961 Y-16.394 E11.12619
G1 X13.296 Y-16.101 E11.14915
G1 X12.603 Y-15.883 E11.1721
G1 X11.891 Y-15.743 E11.19503
G1 X10.963 Y-15.679 E11.22442
G1 X6.029 Y-15.687 E11.38032
G1 X5.257 Y-15.69 E11.40472
G1 X-.135 Y-15.692 E11.57509
M204 S4000
G0 F2400 X-.133 Y-16.092
M204 S1800
G1 F600 X-.691 Y-16.094 E11.59272
G1 X-1.226 Y-16.119 E11.60964
G1 X-1.781 Y-16.176 E11.62727
G1 X-2.082 Y-16.218 E11.63687
G1 X-2.743 Y-16.348 E11.65816
G1 X-3.04 Y-16.423 E11.66784
G1 X-3.712 Y-16.634 E11.69009
G1 X-4.194 Y-16.839 E11.70664
G1 X-4.705 Y-17.093 E11.72468
G1 X-5.216 Y-17.393 E11.7434
G1 X-5.412 Y-17.521 E11.75079
G1 X-5.979 Y-17.939 E11.77305
G1 X-6.494 Y-18.418 E11.79528
G1 X-6.859 Y-18.834 E11.81276
G1 X-7.041 Y-19.061 E11.82196
G1 X-7.45 Y-19.634 E11.8442
G1 X-7.791 Y-20.25 E11.86645
G1 X-8.059 Y-20.901 E11.88869
G1 X-8.222 Y-21.448 E11.90673
G1 X-8.279 Y-21.678 E11.91421
G1 X-8.409 Y-22.369 E11.93643
G1 X-8.461 Y-23.166 E11.96167
G1 X-8.463 Y-26.728 E12.07422
G1 X-8.461 Y-27.526 E12.09943
G1 X-8.462 Y-31.854 E12.23618
G1 X-8.422 Y-32.556 E12.2584
G1 X-8.272 Y-33.378 E12.2848
G1 X-8.215 Y-33.603 E12.29214
G1 X-8.004 Y-34.274 E12.31436
G1 X-7.718 Y-34.917 E12.3366
G1 X-7.36 Y-35.524 E12.35886
G1 X-6.891 Y-36.15 E12.38358
G1 X-6.424 Y-36.677 E12.40583
G1 X-5.901 Y-37.147 E12.42805
G1 X-5.372 Y-37.527 E12.44863
G1 X-5.174 Y-37.654 E12.45606
G1 X-4.578 Y-37.991 E12.47769
G1 X-4.275 Y-38.141 E12.48837
G1 X-3.627 Y-38.417 E12.51063
G1 X-3.051 Y-38.594 E12.52967
G1 X-2.752 Y-38.67 E12.53942
G1 X-2.082 Y-38.802 E12.56099
G1 X-1.529 Y-38.873 E12.57861
G1 X-1.274 Y-38.898 E12.58671
G1 X-.674 Y-38.928 E12.60569
G1 X6.044 Y-38.933 E12.81796
G1 X10.964 Y-38.941 E12.97342
G1 X11.667 Y-38.902 E12.99566
G1 X12.361 Y-38.784 E13.01791
G1 X13.037 Y-38.588 E13.04015
G1 X13.686 Y-38.316 E13.06238
G1 X14.301 Y-37.973 E13.08463
G1 X14.873 Y-37.562 E13.10689
G1 X15.394 Y-37.089 E13.12912
G1 X15.858 Y-36.56 E13.15135
G1 X16.26 Y-35.981 E13.17363
G1 X16.593 Y-35.361 E13.19586
G1 X16.854 Y-34.707 E13.21811
G1 X17.039 Y-34.028 E13.24035
G1 X17.146 Y-33.332 E13.2626
G1 X17.174 Y-32.741 E13.28129
G1 X17.174 Y-22.279 E13.61186
G1 X17.134 Y-21.576 E13.63411
G1 X17.015 Y-20.882 E13.65636
G1 X16.817 Y-20.207 E13.67859
G1 X16.545 Y-19.558 E13.70082
G1 X16.2 Y-18.944 E13.72308
G1 X15.789 Y-18.373 E13.7453
G1 X15.315 Y-17.852 E13.76756
G1 X14.785 Y-17.388 E13.78982
G1 X14.206 Y-16.988 E13.81205
G1 X13.585 Y-16.656 E13.8343
G1 X12.931 Y-16.396 E13.85654
G1 X12.251 Y-16.212 E13.8788
G1 X11.555 Y-16.106 E13.90105
G1 X10.964 Y-16.079 E13.91974
G1 X6.031 Y-16.087 E14.07561
G1 X5.259 Y-16.09 E14.1
G1 X-.133 Y-16.092 E14.27037
M204 S4000
G0 F2400 X-.132 Y-16.492
M204 S1800
G1 F600 X-.69 Y-16.494 E14.288
G1 X-1.19 Y-16.517 E14.30382
G1 X-1.726 Y-16.573 E14.32085
G1 X-2.027 Y-16.615 E14.33045
G1 X-2.645 Y-16.736 E14.35035
G1 X-2.942 Y-16.811 E14.36003
G1 X-3.591 Y-17.016 E14.38153
G1 X-4.223 Y-17.296 E14.40337
G1 X-4.519 Y-17.447 E14.41387
G1 X-4.997 Y-17.728 E14.43139
G1 X-5.193 Y-17.856 E14.43879
G1 X-5.741 Y-18.261 E14.46032
G1 X-6.237 Y-18.727 E14.48182
G1 X-6.729 Y-19.311 E14.50595
G1 X-7.123 Y-19.866 E14.52746
G1 X-7.449 Y-20.464 E14.54898
G1 X-7.703 Y-21.096 E14.5705
G1 X-7.891 Y-21.774 E14.59273
G1 X-8.015 Y-22.443 E14.61423
G1 X-8.061 Y-23.166 E14.63712
G1 X-8.063 Y-26.727 E14.74964
G1 X-8.061 Y-27.525 E14.77485
G1 X-8.062 Y-31.854 E14.91164
G1 X-8.022 Y-32.533 E14.93313
G1 X-7.884 Y-33.279 E14.9571
G1 X-7.827 Y-33.504 E14.96443
G1 X-7.622 Y-34.153 E14.98594
G1 X-7.341 Y-34.774 E15.00748
G1 X-6.99 Y-35.357 E15.02898
G1 X-6.577 Y-35.902 E15.05059
G1 X-6.125 Y-36.411 E15.07209
G1 X-5.616 Y-36.863 E15.0936
G1 X-5.156 Y-37.19 E15.11144
G1 X-4.958 Y-37.317 E15.11887
G1 X-4.4 Y-37.633 E15.13913
G1 X-4.097 Y-37.783 E15.14981
G1 X-3.47 Y-38.049 E15.17133
G1 X-2.953 Y-38.206 E15.18841
G1 X-2.654 Y-38.282 E15.19815
G1 X-2.027 Y-38.405 E15.21834
G1 X-1.49 Y-38.475 E15.23545
G1 X-1.235 Y-38.5 E15.24355
G1 X-.673 Y-38.528 E15.26133
G1 X6.045 Y-38.533 E15.4736
G1 X10.965 Y-38.541 E15.62906
G1 X11.644 Y-38.502 E15.65055
G1 X12.315 Y-38.384 E15.67207
G1 X12.967 Y-38.188 E15.69359
G1 X13.592 Y-37.917 E15.71511
G1 X14.18 Y-37.574 E15.73662
G1 X14.724 Y-37.165 E15.75813
G1 X15.217 Y-36.695 E15.77965
G1 X15.651 Y-36.171 E15.80115
G1 X16.021 Y-35.599 E15.82267
G1 X16.321 Y-34.988 E15.84418
G1 X16.548 Y-34.346 E15.86569
G1 X16.697 Y-33.682 E15.8872
G1 X16.774 Y-32.741 E15.91703
G1 X16.774 Y-22.279 E16.2476
G1 X16.734 Y-21.599 E16.26912
G1 X16.615 Y-20.929 E16.29062
G1 X16.418 Y-20.277 E16.31214
G1 X16.146 Y-19.653 E16.33365
G1 X15.802 Y-19.065 E16.35518
G1 X15.392 Y-18.521 E16.3767
G1 X14.921 Y-18.03 E16.3982
G1 X14.396 Y-17.596 E16.41972
G1 X13.824 Y-17.227 E16.44123
G1 X13.212 Y-16.928 E16.46275
G1 X12.57 Y-16.703 E16.48425
G1 X11.905 Y-16.554 E16.50578
G1 X10.965 Y-16.479 E16.53558
G1 X6.032 Y-16.487 E16.69144
G1 X5.26 Y-16.49 E16.71584
G1 X-.132 Y-16.492 E16.88621
M204 S4000
G0 F2400 X-.13 Y-16.892
M204 S1800
G1 F600 X-.688 Y-16.894 E16.90384
G1 X-1.409 Y-16.939 E16.92667
G1 X-1.971 Y-17.011 E16.94457
G1 X-2.547 Y-17.123 E16.96311
G1 X-2.844 Y-17.198 E16.97279
G1 X-3.47 Y-17.398 E16.99355
G1 X-4.05 Y-17.657 E17.01362
G1 X-4.333 Y-17.801 E17.02366
G1 X-4.779 Y-18.063 E17.04
G1 X-4.975 Y-18.191 E17.0474
G1 X-5.502 Y-18.583 E17.06815
G1 X-5.978 Y-19.036 E17.08891
G1 X-6.417 Y-19.561 E17.11054
G1 X-6.796 Y-20.098 E17.13131
G1 X-7.107 Y-20.676 E17.15204
G1 X-7.346 Y-21.289 E17.17283
G1 X-7.502 Y-21.87 E17.19184
G1 X-7.621 Y-22.516 E17.2126
G1 X-7.661 Y-23.166 E17.23317
G1 X-7.663 Y-26.726 E17.34566
G1 X-7.661 Y-27.524 E17.37087
G1 X-7.662 Y-31.854 E17.50769
G1 X-7.622 Y-32.51 E17.52846
G1 X-7.497 Y-33.181 E17.55002
G1 X-7.44 Y-33.406 E17.55736
G1 X-7.24 Y-34.032 E17.57812
G1 X-6.966 Y-34.629 E17.59888
G1 X-6.443 Y-35.426 E17.629
G1 X-6.263 Y-35.654 E17.63818
G1 X-5.826 Y-36.144 E17.65892
