;FLAVOR:Marlin
;TIME:5264
;Filament used: 1.62631m
;Layer height: 0.12
;MINX:-41.838
;MINY:17.933
;MINZ:0.2
;MAXX:-6.781
;MAXY:44.001
;MAXZ:45.2
;Generated with Cura_SteamEngine 4.10.0
M104 S205
M105
M109 S205
M82 ;absolute extrusion mode
G21        ;metric values
G90        ;absolute positioning
M107       ;start with the fan off
G28   ;move to endstops

;Z-Offset Reset und dann Z +0,1 für PLA
;MacroZOffset0
;MacroZOffsetPlus0100

G92 E0                  ;zero the extruded length
G1 F200 E3              ;extrude 3mm of feed stock
G92 E0                  ;zero the extruded length again
G1 F120
;Put printing message on LCD screen
M117 Printing...
G92 E0
G92 E0
G1 F2400 E-6
;LAYER_COUNT:380
;LAYER:0
M107
M204 S4000
G0 X-11.186 Y20.125 Z0.2
M204 S1800
;TYPE:SKIRT
G1 F2400 E0
G1 F600 X-10.935 Y20.284 E0.00939
G1 X-10.29 Y20.74 E0.03435
G1 X-9.594 Y21.358 E0.06376
G1 X-9.372 Y21.58 E0.07368
G1 X-8.842 Y22.166 E0.09864
G1 X-8.249 Y22.999 E0.13095
G1 X-8.075 Y23.281 E0.14142
G1 X-7.695 Y23.973 E0.16637
G1 X-7.346 Y24.816 E0.1952
G1 X-7.249 Y25.095 E0.20453
G1 X-7.027 Y25.853 E0.22949
G1 X-6.865 Y26.784 E0.25934
G1 X-6.83 Y27.095 E0.26923
G1 X-6.781 Y27.967 E0.29683
G1 X-6.781 Y33.968 E0.48644
G1 X-6.829 Y34.835 E0.51388
G1 X-6.864 Y35.148 E0.52383
G1 X-6.992 Y35.927 E0.54878
G1 X-7.275 Y36.918 E0.58134
G1 X-7.386 Y37.227 E0.59171
G1 X-7.691 Y37.956 E0.61668
G1 X-8.145 Y38.776 E0.6463
G1 X-8.304 Y39.026 E0.65566
G1 X-8.761 Y39.67 E0.68061
G1 X-9.358 Y40.343 E0.70904
G1 X-9.58 Y40.566 E0.71898
G1 X-10.165 Y41.097 E0.74394
G1 X-11.012 Y41.701 E0.77681
G1 X-11.294 Y41.875 E0.78728
G1 X-11.986 Y42.255 E0.81223
G1 X-12.852 Y42.613 E0.84184
G1 X-13.139 Y42.8 E0.85266
G1 X-13.828 Y43.187 E0.87763
G1 X-14.552 Y43.502 E0.90258
G1 X-15.304 Y43.742 E0.92752
G1 X-16.077 Y43.905 E0.95248
G1 X-16.862 Y43.989 E0.97743
G1 X-17.303 Y44.001 E0.99137
G1 X-18.535 Y44 E1.0303
G1 X-23.01 Y43.987 E1.17169
G1 X-28.901 Y43.983 E1.35783
G1 X-29.403 Y43.972 E1.3737
G1 X-30.372 Y43.885 E1.40444
G1 X-30.673 Y43.839 E1.41406
G1 X-31.528 Y43.659 E1.44167
G1 X-31.828 Y43.578 E1.45149
G1 X-32.888 Y43.209 E1.48695
G1 X-33.189 Y43.079 E1.49731
G1 X-33.897 Y42.729 E1.52226
G1 X-34.669 Y42.237 E1.55119
G1 X-34.879 Y42.085 E1.55938
G1 X-35.495 Y41.59 E1.58435
G1 X-36.057 Y41.035 E1.60931
G1 X-36.46 Y40.559 E1.62901
G1 X-36.636 Y40.333 E1.63807
G1 X-37.089 Y39.686 E1.66302
G1 X-37.474 Y38.996 E1.68799
G1 X-37.788 Y38.272 E1.71292
G1 X-38.055 Y37.408 E1.7415
G1 X-38.111 Y37.181 E1.74888
G1 X-38.261 Y36.406 E1.77383
G1 X-38.338 Y35.317 E1.80832
G1 X-38.34 Y30.966 E1.9458
G1 X-38.339 Y26.625 E2.08296
G1 X-38.299 Y25.837 E2.10789
G1 X-38.116 Y24.774 E2.14198
G1 X-38.06 Y24.545 E2.14943
G1 X-37.834 Y23.789 E2.17436
G1 X-37.532 Y23.059 E2.19932
G1 X-37.158 Y22.363 E2.22428
G1 X-36.647 Y21.619 E2.2528
G1 X-36.471 Y21.392 E2.26188
G1 X-35.956 Y20.793 E2.28684
G1 X-35.384 Y20.249 E2.31178
G1 X-34.903 Y19.869 E2.33115
G1 X-34.711 Y19.729 E2.33866
G1 X-34.164 Y19.364 E2.35944
G1 X-33.201 Y18.864 E2.39372
G1 X-32.899 Y18.733 E2.40412
G1 X-31.828 Y18.359 E2.43997
G1 X-31.528 Y18.278 E2.44979
G1 X-30.65 Y18.094 E2.47813
G1 X-30.336 Y18.047 E2.48816
G1 X-29.373 Y17.963 E2.51871
G1 X-28.901 Y17.954 E2.53362
G1 X-23.01 Y17.95 E2.71976
G1 X-17.319 Y17.933 E2.89958
G1 X-16.531 Y17.971 E2.92451
G1 X-15.75 Y18.088 E2.94946
G1 X-14.984 Y18.283 E2.97444
G1 X-14.243 Y18.555 E2.99938
G1 X-13.533 Y18.901 E3.02434
G1 X-12.861 Y19.316 E3.04929
G1 X-11.994 Y19.678 E3.07898
G1 X-11.186 Y20.125 E3.10815
M204 S4000
G0 F2400 X-11.4 Y20.463
M204 S1800
G1 F600 X-11.149 Y20.622 E3.11754
G1 X-10.522 Y21.067 E3.14184
G1 X-9.876 Y21.64 E3.16912
G1 X-9.654 Y21.862 E3.17904
G1 X-9.14 Y22.434 E3.20334
G1 X-8.589 Y23.209 E3.23339
G1 X-8.415 Y23.491 E3.24386
G1 X-8.046 Y24.166 E3.26816
G1 X-7.723 Y24.947 E3.29487
G1 X-7.626 Y25.226 E3.3042
G1 X-7.412 Y25.965 E3.32851
G1 X-7.262 Y26.828 E3.35619
G1 X-7.227 Y27.139 E3.36608
G1 X-7.181 Y27.967 E3.39228
G1 X-7.181 Y33.968 E3.58189
G1 X-7.227 Y34.79 E3.60791
G1 X-7.262 Y35.103 E3.61786
G1 X-7.387 Y35.862 E3.64216
G1 X-7.652 Y36.783 E3.67245
G1 X-7.763 Y37.092 E3.68282
G1 X-8.06 Y37.801 E3.70711
G1 X-8.483 Y38.561 E3.73459
G1 X-8.642 Y38.811 E3.74395
G1 X-9.088 Y39.438 E3.76826
G1 X-9.642 Y40.061 E3.79461
G1 X-9.864 Y40.284 E3.80455
G1 X-10.434 Y40.8 E3.82884
G1 X-11.222 Y41.361 E3.85941
G1 X-11.504 Y41.535 E3.86988
G1 X-12.179 Y41.904 E3.89418
G1 X-12.982 Y42.234 E3.92162
G1 X-13.068 Y42.264 E3.92449
G1 X-13.523 Y42.566 E3.94175
G1 X-14.204 Y42.924 E3.96606
G1 X-14.918 Y43.208 E3.99034
G1 X-15.659 Y43.417 E4.01467
G1 X-16.416 Y43.548 E4.03894
G1 X-17.303 Y43.601 E4.06702
G1 X-18.533 Y43.6 E4.10588
G1 X-23.008 Y43.587 E4.24728
G1 X-28.901 Y43.583 E4.43348
G1 X-29.393 Y43.572 E4.44903
G1 X-30.312 Y43.49 E4.47818
G1 X-30.613 Y43.444 E4.4878
G1 X-31.424 Y43.273 E4.51399
G1 X-31.724 Y43.192 E4.52381
G1 X-32.729 Y42.841 E4.55745
G1 X-33.03 Y42.711 E4.56781
G1 X-33.719 Y42.37 E4.5921
G1 X-34.435 Y41.913 E4.61894
G1 X-34.645 Y41.761 E4.62713
G1 X-35.244 Y41.278 E4.65144
G1 X-35.789 Y40.735 E4.67575
G1 X-36.144 Y40.313 E4.69318
G1 X-36.32 Y40.087 E4.70223
G1 X-36.761 Y39.456 E4.72655
G1 X-37.133 Y38.783 E4.75085
G1 X-37.434 Y38.075 E4.77516
G1 X-37.667 Y37.312 E4.80036
G1 X-37.723 Y37.085 E4.80775
G1 X-37.868 Y36.33 E4.83204
G1 X-37.938 Y35.316 E4.86416
G1 X-37.94 Y30.966 E5.00161
G1 X-37.939 Y26.625 E5.13877
G1 X-37.899 Y25.857 E5.16307
G1 X-37.727 Y24.869 E5.19476
G1 X-37.671 Y24.64 E5.20221
G1 X-37.45 Y23.904 E5.22649
G1 X-37.153 Y23.194 E5.2508
G1 X-36.785 Y22.519 E5.2751
G1 X-36.331 Y21.864 E5.30028
G1 X-36.155 Y21.637 E5.30935
G1 X-35.653 Y21.054 E5.33366
G1 X-35.093 Y20.527 E5.35796
G1 X-34.667 Y20.192 E5.37508
G1 X-34.475 Y20.052 E5.38259
G1 X-33.956 Y19.706 E5.4023
G1 X-33.042 Y19.231 E5.43485
G1 X-32.74 Y19.1 E5.44525
G1 X-31.724 Y18.745 E5.47926
G1 X-31.424 Y18.664 E5.48907
G1 X-30.59 Y18.49 E5.51599
G1 X-30.276 Y18.443 E5.52603
G1 X-29.363 Y18.363 E5.55498
G1 X-28.901 Y18.354 E5.56959
G1 X-23.009 Y18.35 E5.75576
G1 X-17.318 Y18.333 E5.93558
G1 X-16.55 Y18.371 E5.95987
G1 X-15.79 Y18.488 E5.98417
G1 X-15.046 Y18.683 E6.00847
G1 X-14.326 Y18.955 E6.03279
G1 X-13.639 Y19.3 E6.05708
G1 X-13.033 Y19.687 E6.0798
G1 X-12.858 Y19.75 E6.08568
G1 X-12.149 Y20.047 E6.10997
G1 X-11.4 Y20.463 E6.13704
M204 S4000
G0 F2400 X-11.614 Y20.801
M204 S1800
G1 F600 X-11.363 Y20.96 E6.14643
G1 X-10.753 Y21.393 E6.17006
G1 X-10.159 Y21.923 E6.19522
G1 X-9.937 Y22.145 E6.20514
G1 X-9.437 Y22.702 E6.22879
G1 X-8.93 Y23.419 E6.25653
G1 X-8.756 Y23.701 E6.267
G1 X-8.398 Y24.358 E6.29064
G1 X-8.101 Y25.078 E6.31525
G1 X-8.004 Y25.357 E6.32459
G1 X-7.797 Y26.076 E6.34823
G1 X-7.66 Y26.873 E6.37378
G1 X-7.625 Y27.184 E6.38367
G1 X-7.581 Y27.967 E6.40845
G1 X-7.581 Y33.968 E6.59806
G1 X-7.624 Y34.746 E6.62268
G1 X-7.659 Y35.059 E6.63263
G1 X-7.782 Y35.797 E6.65627
G1 X-8.028 Y36.648 E6.68426
G1 X-8.139 Y36.957 E6.69464
G1 X-8.429 Y37.646 E6.71826
G1 X-8.82 Y38.347 E6.74362
G1 X-8.979 Y38.597 E6.75298
G1 X-9.414 Y39.205 E6.7766
G1 X-9.925 Y39.779 E6.80089
G1 X-10.147 Y40.002 E6.81083
G1 X-10.702 Y40.503 E6.83445
G1 X-11.432 Y41.02 E6.86272
G1 X-11.714 Y41.194 E6.87319
G1 X-12.371 Y41.552 E6.89683
G1 X-13.112 Y41.856 E6.92214
G1 X-13.271 Y41.927 E6.92764
G1 X-13.905 Y42.324 E6.95128
G1 X-14.578 Y42.651 E6.97492
G1 X-15.281 Y42.905 E6.99854
G1 X-16.008 Y43.081 E7.02217
G1 X-16.75 Y43.18 E7.04582
G1 X-17.303 Y43.201 E7.06331
G1 X-18.532 Y43.2 E7.10214
G1 X-23.007 Y43.187 E7.24354
G1 X-28.901 Y43.183 E7.42977
G1 X-29.382 Y43.172 E7.44498
G1 X-30.251 Y43.095 E7.47254
G1 X-30.552 Y43.049 E7.48216
G1 X-31.32 Y42.887 E7.50696
G1 X-31.62 Y42.806 E7.51678
G1 X-32.57 Y42.474 E7.54858
G1 X-32.871 Y42.344 E7.55894
G1 X-33.541 Y42.011 E7.58258
G1 X-34.2 Y41.588 E7.60732
G1 X-34.41 Y41.436 E7.61551
G1 X-34.992 Y40.966 E7.63915
G1 X-35.52 Y40.436 E7.66279
G1 X-36.005 Y39.841 E7.68704
G1 X-36.432 Y39.227 E7.71067
G1 X-36.792 Y38.571 E7.73432
G1 X-37.079 Y37.88 E7.75796
G1 X-37.278 Y37.217 E7.77983
G1 X-37.334 Y36.99 E7.78722
G1 X-37.474 Y36.255 E7.81086
G1 X-37.538 Y35.316 E7.8406
G1 X-37.54 Y30.966 E7.97805
G1 X-37.539 Y26.625 E8.11521
G1 X-37.499 Y25.878 E8.13885
G1 X-37.339 Y24.964 E8.16817
G1 X-37.283 Y24.735 E8.17562
G1 X-37.066 Y24.019 E8.19926
G1 X-36.775 Y23.33 E8.22289
G1 X-36.412 Y22.676 E8.24652
G1 X-36.015 Y22.109 E8.26839
G1 X-35.839 Y21.882 E8.27747
G1 X-35.35 Y21.316 E8.3011
G1 X-34.803 Y20.806 E8.32473
G1 X-34.239 Y20.375 E8.34716
G1 X-33.747 Y20.047 E8.36585
G1 X-32.883 Y19.598 E8.39661
G1 X-32.581 Y19.467 E8.40701
G1 X-31.62 Y19.131 E8.43918
G1 X-31.32 Y19.05 E8.449
G1 X-30.531 Y18.885 E8.47447
G1 X-30.217 Y18.838 E8.4845
G1 X-29.353 Y18.763 E8.5119
G1 X-28.901 Y18.754 E8.52619
G1 X-23.008 Y18.75 E8.71239
G1 X-17.317 Y18.733 E8.89221
G1 X-16.57 Y18.771 E8.91584
G1 X-15.831 Y18.888 E8.93948
G1 X-15.109 Y19.083 E8.96311
G1 X-14.412 Y19.355 E8.98676
G1 X-13.748 Y19.699 E9.01038
G1 X-13.233 Y20.04 E9.0299
G1 X-12.993 Y20.126 E9.03796
G1 X-12.304 Y20.416 E9.06158
G1 X-11.614 Y20.801 E9.08654
M204 S4000
G0 F2400 X-11.828 Y21.139
M204 S1800
G1 F600 X-11.577 Y21.298 E9.09593
G1 X-10.986 Y21.719 E9.11886
G1 X-10.442 Y22.206 E9.14193
G1 X-10.22 Y22.428 E9.15185
G1 X-9.736 Y22.969 E9.17479
G1 X-9.27 Y23.629 E9.20031
G1 X-9.096 Y23.911 E9.21078
G1 X-8.749 Y24.55 E9.23376
G1 X-8.479 Y25.21 E9.25629
G1 X-8.382 Y25.489 E9.26562
G1 X-8.182 Y26.187 E9.28857
G1 X-8.057 Y26.918 E9.312
G1 X-8.022 Y27.229 E9.32189
G1 X-7.981 Y27.967 E9.34524
G1 X-7.981 Y33.968 E9.53486
G1 X-8.022 Y34.701 E9.55805
G1 X-8.057 Y35.014 E9.56801
G1 X-8.177 Y35.731 E9.59098
G1 X-8.405 Y36.512 E9.61668
G1 X-8.516 Y36.821 E9.62706
G1 X-8.798 Y37.49 E9.65
G1 X-9.158 Y38.132 E9.67325
G1 X-9.317 Y38.382 E9.68262
G1 X-9.74 Y38.972 E9.70555
G1 X-10.209 Y39.496 E9.72777
G1 X-10.431 Y39.719 E9.73772
G1 X-10.971 Y40.205 E9.76067
G1 X-11.642 Y40.68 E9.78665
G1 X-11.924 Y40.854 E9.79712
G1 X-12.563 Y41.201 E9.82009
G1 X-13.243 Y41.478 E9.84329
G1 X-13.44 Y41.546 E9.84988
G1 X-13.657 Y41.707 E9.85842
G1 X-14.285 Y42.073 E9.88138
G1 X-14.948 Y42.369 E9.90433
G1 X-15.64 Y42.59 E9.92728
G1 X-16.352 Y42.733 E9.95022
G1 X-17.302 Y42.801 E9.98032
G1 X-18.531 Y42.8 E10.01915
G1 X-23.006 Y42.787 E10.16055
G1 X-28.9 Y42.783 E10.34678
G1 X-29.371 Y42.773 E10.36167
G1 X-30.191 Y42.699 E10.38768
G1 X-30.492 Y42.653 E10.3973
G1 X-31.215 Y42.501 E10.42065
G1 X-31.515 Y42.42 E10.43047
G1 X-32.412 Y42.107 E10.46049
G1 X-32.713 Y41.977 E10.47085
G1 X-33.363 Y41.653 E10.49379
G1 X-33.966 Y41.264 E10.51647
G1 X-34.176 Y41.112 E10.52466
G1 X-34.74 Y40.655 E10.5476
G1 X-35.25 Y40.138 E10.57054
G1 X-35.689 Y39.595 E10.59261
G1 X-36.103 Y38.998 E10.61556
G1 X-36.449 Y38.36 E10.63849
G1 X-36.723 Y37.687 E10.66145
G1 X-36.89 Y37.121 E10.6801
G1 X-36.946 Y36.894 E10.68749
G1 X-37.081 Y36.18 E10.71045
G1 X-37.138 Y35.316 E10.73781
G1 X-37.14 Y30.966 E10.87525
G1 X-37.139 Y26.625 E11.01242
G1 X-37.099 Y25.9 E11.03536
G1 X-36.95 Y25.059 E11.06235
G1 X-36.894 Y24.83 E11.0698
G1 X-36.683 Y24.135 E11.09275
G1 X-36.397 Y23.468 E11.11568
G1 X-36.039 Y22.836 E11.13863
G1 X-35.699 Y22.354 E11.15726
G1 X-35.523 Y22.127 E11.16634
G1 X-35.047 Y21.578 E11.1893
G1 X-34.514 Y21.085 E11.21224
G1 X-34.004 Y20.698 E11.23247
G1 X-33.539 Y20.388 E11.25013
G1 X-32.723 Y19.965 E11.27917
G1 X-32.421 Y19.834 E11.28957
G1 X-31.515 Y19.517 E11.3199
G1 X-31.215 Y19.436 E11.32972
G1 X-30.472 Y19.281 E11.3537
G1 X-30.158 Y19.234 E11.36373
G1 X-29.343 Y19.163 E11.38958
G1 X-28.9 Y19.154 E11.40358
G1 X-23.007 Y19.15 E11.58978
G1 X-17.316 Y19.133 E11.7696
G1 X-16.59 Y19.171 E11.79257
G1 X-15.874 Y19.288 E11.8155
G1 X-15.174 Y19.483 E11.83846
G1 X-14.5 Y19.755 E11.86142
G1 X-13.86 Y20.098 E11.88437
G1 X-13.428 Y20.396 E11.90095
G1 X-13.129 Y20.503 E11.91098
G1 X-12.46 Y20.785 E11.93392
G1 X-11.828 Y21.139 E11.95681
M204 S4000
G0 F2400 X-12.042 Y21.476
M204 S1800
G1 F600 X-11.791 Y21.635 E11.9662
G1 X-11.219 Y22.045 E11.98844
G1 X-10.725 Y22.489 E12.00942
G1 X-10.503 Y22.711 E12.01934
G1 X-10.034 Y23.236 E12.04159
G1 X-9.611 Y23.839 E12.06486
G1 X-9.437 Y24.121 E12.07533
G1 X-9.102 Y24.74 E12.09757
G1 X-8.857 Y25.341 E12.11808
G1 X-8.76 Y25.62 E12.12741
G1 X-8.567 Y26.297 E12.14965
G1 X-8.455 Y26.963 E12.17099
G1 X-8.42 Y27.274 E12.18088
G1 X-8.381 Y27.967 E12.20281
G1 X-8.381 Y33.968 E12.39243
G1 X-8.419 Y34.657 E12.41423
G1 X-8.454 Y34.97 E12.42418
G1 X-8.572 Y35.664 E12.44643
G1 X-8.781 Y36.377 E12.4699
G1 X-8.892 Y36.686 E12.48028
G1 X-9.167 Y37.334 E12.50252
G1 X-9.495 Y37.917 E12.52366
G1 X-9.654 Y38.167 E12.53302
G1 X-10.065 Y38.739 E12.55527
G1 X-10.492 Y39.214 E12.57545
G1 X-10.714 Y39.437 E12.5854
G1 X-11.238 Y39.907 E12.60764
G1 X-11.852 Y40.339 E12.63136
G1 X-12.134 Y40.513 E12.64183
G1 X-12.753 Y40.848 E12.66407
G1 X-13.373 Y41.1 E12.68522
G1 X-13.625 Y41.187 E12.69364
G1 X-14.043 Y41.478 E12.70973
G1 X-14.662 Y41.813 E12.73197
G1 X-15.315 Y42.076 E12.75421
G1 X-15.994 Y42.262 E12.77646
G1 X-16.689 Y42.371 E12.79869
G1 X-17.302 Y42.401 E12.81808
G1 X-18.53 Y42.4 E12.85688
G1 X-23.005 Y42.387 E12.99828
G1 X-28.9 Y42.383 E13.18454
G1 X-29.36 Y42.373 E13.19908
G1 X-30.131 Y42.304 E13.22354
G1 X-30.432 Y42.258 E13.23316
G1 X-31.111 Y42.115 E13.25509
G1 X-31.411 Y42.034 E13.26491
G1 X-32.253 Y41.74 E13.29309
G1 X-32.554 Y41.61 E13.30345
G1 X-33.184 Y41.294 E13.32572
G1 X-33.731 Y40.94 E13.3463
G1 X-33.941 Y40.788 E13.35449
G1 X-34.487 Y40.344 E13.37673
G1 X-35.198 Y39.575 E13.40982
G1 X-35.374 Y39.349 E13.41887
G1 X-35.774 Y38.77 E13.44111
G1 X-36.106 Y38.15 E13.46333
G1 X-36.366 Y37.495 E13.4856
G1 X-36.558 Y36.798 E13.50844
G1 X-36.687 Y36.106 E13.53068
G1 X-36.738 Y35.316 E13.5557
G1 X-36.74 Y30.967 E13.69311
G1 X-36.739 Y26.626 E13.83028
G1 X-36.699 Y25.923 E13.85253
G1 X-36.562 Y25.154 E13.87721
G1 X-36.506 Y24.925 E13.88466
G1 X-36.3 Y24.252 E13.90689
G1 X-36.019 Y23.606 E13.92915
G1 X-35.667 Y22.997 E13.95138
G1 X-35.207 Y22.372 E13.9759
G1 X-34.745 Y21.841 E13.99814
G1 X-33.96 Y21.161 E14.03096
G1 X-33.768 Y21.021 E14.03846
G1 X-33.33 Y20.73 E14.05508
G1 X-32.564 Y20.332 E14.08235
G1 X-32.262 Y20.201 E14.09276
G1 X-31.411 Y19.903 E14.12125
G1 X-31.111 Y19.822 E14.13106
G1 X-30.413 Y19.676 E14.1536
G1 X-30.099 Y19.629 E14.16363
G1 X-29.333 Y19.563 E14.18792
G1 X-28.9 Y19.554 E14.20161
G1 X-23.006 Y19.55 E14.38784
G1 X-17.315 Y19.533 E14.56766
G1 X-16.612 Y19.571 E14.5899
G1 X-15.917 Y19.688 E14.61217
G1 X-15.241 Y19.883 E14.6344
G1 X-14.591 Y20.154 E14.65666
G1 X-13.976 Y20.497 E14.67891
G1 X-13.573 Y20.768 E14.69425
G1 X-13.264 Y20.879 E14.70463
G1 X-12.616 Y21.154 E14.72687
G1 X-12.042 Y21.476 E14.74766
M204 S4000
G0 F2400 X-12.256 Y21.814
M204 S1800
G1 F600 X-12.005 Y21.973 E14.75705
G1 X-11.452 Y22.371 E14.77858
G1 X-11.008 Y22.772 E14.79748
G1 X-10.786 Y22.994 E14.8074
G1 X-10.333 Y23.503 E14.82893
G1 X-9.951 Y24.049 E14.84999
G1 X-9.777 Y24.331 E14.86046
G1 X-9.454 Y24.931 E14.88199
G1 X-9.235 Y25.472 E14.90043
G1 X-9.138 Y25.751 E14.90976
G1 X-8.952 Y26.406 E14.93128
G1 X-8.852 Y27.007 E14.95053
G1 X-8.817 Y27.318 E14.96042
G1 X-8.781 Y27.967 E14.98096
G1 X-8.781 Y33.968 E15.17057
G1 X-8.817 Y34.613 E15.19098
G1 X-8.852 Y34.926 E15.20093
G1 X-8.967 Y35.597 E15.22245
G1 X-9.158 Y36.242 E15.2437
G1 X-9.269 Y36.551 E15.25407
G1 X-9.536 Y37.177 E15.27558
G1 X-9.833 Y37.703 E15.29466
G1 X-9.992 Y37.953 E15.30403
G1 X-10.39 Y38.505 E15.32553
G1 X-10.776 Y38.932 E15.34372
G1 X-10.998 Y39.155 E15.35366
G1 X-11.505 Y39.609 E15.37516
G1 X-12.062 Y39.999 E15.39665
G1 X-12.344 Y40.173 E15.40712
G1 X-12.944 Y40.496 E15.42865
G1 X-13.503 Y40.721 E15.44769
G1 X-13.855 Y40.869 E15.45975
G1 X-14.425 Y41.24 E15.48124
G1 X-15.036 Y41.542 E15.50278
G1 X-15.677 Y41.77 E15.52428
G1 X-16.341 Y41.922 E15.5458
G1 X-17.302 Y42.001 E15.57627
G1 X-18.529 Y42 E15.61504
G1 X-23.004 Y41.987 E15.75643
G1 X-28.9 Y41.983 E15.94273
G1 X-29.35 Y41.973 E15.95695
G1 X-30.07 Y41.908 E15.97979
G1 X-30.371 Y41.862 E15.98942
G1 X-31.007 Y41.728 E16.00995
G1 X-31.307 Y41.647 E16.01977
G1 X-32.095 Y41.373 E16.04613
G1 X-32.396 Y41.243 E16.05649
G1 X-33.004 Y40.936 E16.07801
