;FLAVOR:Marlin
;TIME:2755
;Filament used: 3.89905m
;Layer height: 0.25
;Generated with Cura_SteamEngine 3.6.0
M140 S30
M105
M190 S30
M104 S220
M105
M109 S220
M82 ;absolute extrusion mode
G21 ;metric values
G90 ;absolute positioning
M82 ;set extruder to absolute mode
M107 ;start with the fan off
G28 X0 Y0 ;move X/Y to min endstops
G28 Z0 ;move Z to min endstops
G1 Z15.0 F120 ;move the platform down 15mm
G92 E0 ;zero the extruded length
G1 F200 E3 ;extrude 3mm of feed stock
G92 E0 ;zero the extruded length again
G1 F120
M117 Printing...
G5
G92 E0
G1 F2400 E-6
;LAYER_COUNT:100
;LAYER:0
M106 S255
M204 S3000
M205 X10 Y10
;MESH:Cable_organizer-Mounting.stl
G0 F2400 X57.191 Y37.078 Z0.3
M204 S1800
M205 X8 Y8
;TYPE:WALL-INNER
G1 F2400 E0
G1 F1200 X56.582 Y37.005 E0.04027
G1 X56.031 Y37.05 E0.07657
G1 X53.42 Y37.622 E0.25206
G1 X49.155 Y38.558 E0.53874
G1 X48.869 Y38.652 E0.55851
G1 X48.755 Y38.667 E0.56606
G1 X48.651 Y38.662 E0.57289
G1 X48.548 Y38.637 E0.57985
G1 X48.447 Y38.592 E0.58711
G1 X48.36 Y38.533 E0.59401
G1 X48.283 Y38.457 E0.60112
G1 X48.218 Y38.364 E0.60857
G1 X48.174 Y38.267 E0.61556
G1 X48.148 Y38.163 E0.6226
G1 X48.142 Y38.053 E0.62983
G1 X48.154 Y37.955 E0.63631
G1 X48.19 Y37.84 E0.64423
G1 X48.238 Y37.749 E0.65098
G1 X48.303 Y37.666 E0.6579
G1 X48.385 Y37.593 E0.66511
G1 X48.477 Y37.539 E0.67211
G1 X48.583 Y37.498 E0.67958
G1 X48.742 Y37.471 E0.69017
G1 X53.348 Y37.067 E0.99374
G1 X56.011 Y36.834 E1.11545
G1 X56.563 Y36.785 E1.12965
G1 X57.16 Y36.732 E1.14944
G1 X57.647 Y36.689 E1.18154
G1 X57.878 Y36.668 E1.19677
G1 X58.166 Y36.664 E1.21568
G1 X58.409 Y36.698 E1.23179
G1 X58.629 Y36.764 E1.24687
G1 X58.856 Y36.87 E1.26332
G1 X59.055 Y37.004 E1.27907
G1 X59.231 Y37.165 E1.29473
G1 X59.377 Y37.346 E1.31
G1 X59.498 Y37.555 E1.32586
G1 X59.588 Y37.782 E1.34189
G1 X59.643 Y38.017 E1.35774
G1 X59.665 Y38.306 E1.37676
G1 X59.665 Y38.543 E1.39232
G1 X59.665 Y39.111 E1.42962
G1 X59.665 Y39.681 E1.46704
G1 X59.666 Y67.582 E3.2989
G1 X59.426 Y67.582 E3.31465
G1 X59.426 Y39.682 E4.09805
G1 X59.325 Y39.111 E4.11794
G1 X59.114 Y38.584 E4.14801
G1 X59.094 Y38.536 E4.15142
G1 X58.745 Y38.029 E4.19184
G1 X58.301 Y37.604 E4.23219
G1 X57.774 Y37.284 E4.27267
G1 X57.652 Y37.241 E4.28116
G1 X57.191 Y37.078 E4.30729
M204 S3000
M205 X10 Y10
G0 F2400 X58.686 Y38.756
G0 X58.598 Y38.803
M204 S1800
M205 X8 Y8
G1 F1200 X58.316 Y38.394 E4.33991
G1 X57.958 Y38.051 E4.37246
G1 X57.533 Y37.793 E4.4051
G1 X57.063 Y37.627 E4.43783
G1 X56.571 Y37.568 E4.47036
G1 X56.114 Y37.605 E4.50047
G1 X49.302 Y39.099 E4.95834
G1 X48.993 Y39.2 E4.97969
G1 X48.779 Y39.228 E4.99386
G1 X48.569 Y39.218 E5.00766
G1 X48.372 Y39.171 E5.02096
G1 X48.173 Y39.083 E5.03524
G1 X48.002 Y38.966 E5.04885
G1 X47.851 Y38.818 E5.06273
G1 X47.732 Y38.646 E5.07646
G1 X47.644 Y38.454 E5.09033
G1 X47.592 Y38.245 E5.10447
G1 X47.58 Y38.04 E5.11795
G1 X47.604 Y37.835 E5.1315
G1 X47.67 Y37.627 E5.14583
G1 X47.766 Y37.443 E5.15945
G1 X47.898 Y37.276 E5.17343
G1 X48.052 Y37.14 E5.18692
G1 X48.231 Y37.033 E5.20061
G1 X48.438 Y36.955 E5.21513
G1 X48.665 Y36.915 E5.23027
G1 X57.849 Y36.108 E5.83557
G1 X58.202 Y36.104 E5.85875
G1 X58.529 Y36.149 E5.88042
G1 X58.831 Y36.239 E5.90111
G1 X59.13 Y36.38 E5.92282
G1 X59.401 Y36.562 E5.94425
G1 X59.639 Y36.779 E5.96539
G1 X59.841 Y37.03 E5.98655
G1 X60.004 Y37.31 E6.00782
G1 X60.125 Y37.616 E6.02942
G1 X60.197 Y37.927 E6.05038
G1 X60.225 Y38.289 E6.07422
G1 X60.226 Y67.862 E8.01585
G1 X60.226 Y68.142 E8.03423
G1 X59.946 Y68.142 E8.04613
G1 X58.866 Y68.142 E8.11704
G1 X58.866 Y39.731 E9.98238
G1 X58.784 Y39.266 E10.01338
G1 X58.598 Y38.803 E10.04614
M204 S3000
M205 X10 Y10
G0 F2400 X58.19 Y39.022
M204 S1800
M205 X8 Y8
;TYPE:WALL-OUTER
G1 F1200 X57.964 Y38.694 E10.07229
G1 X57.676 Y38.418 E10.09848
G1 X57.335 Y38.211 E10.12467
G1 X56.958 Y38.078 E10.15092
G1 X56.562 Y38.03 E10.17711
G1 X56.182 Y38.061 E10.20214
G1 X49.423 Y39.543 E10.65645
G1 X49.095 Y39.65 E10.6791
G1 X48.801 Y39.689 E10.69857
G1 X48.502 Y39.675 E10.71823
G1 X48.224 Y39.608 E10.737
G1 X47.949 Y39.487 E10.75673
G1 X47.706 Y39.321 E10.77605
G1 X47.499 Y39.117 E10.79513
G1 X47.331 Y38.875 E10.81447
G1 X47.207 Y38.605 E10.83398
G1 X47.136 Y38.317 E10.85345
G1 X47.118 Y38.025 E10.87266
G1 X47.152 Y37.738 E10.89164
G1 X47.243 Y37.449 E10.91153
G1 X47.377 Y37.193 E10.9305
G1 X47.562 Y36.959 E10.95009
G1 X47.781 Y36.766 E10.96925
G1 X48.032 Y36.616 E10.98845
G1 X48.314 Y36.51 E11.00823
G1 X48.602 Y36.459 E11.02743
G1 X57.83 Y35.648 E11.63564
G1 X58.232 Y35.644 E11.66203
G1 X58.626 Y35.698 E11.68814
G1 X58.995 Y35.808 E11.71342
G1 X59.357 Y35.979 E11.73971
G1 X59.683 Y36.197 E11.76546
G1 X59.975 Y36.464 E11.79143
G1 X60.222 Y36.771 E11.8173
G1 X60.42 Y37.11 E11.84308
G1 X60.565 Y37.477 E11.86899
G1 X60.654 Y37.86 E11.8948
G1 X60.685 Y38.271 E11.92186
G1 X60.686 Y68.322 E13.89488
G1 X60.686 Y68.602 E13.91326
G1 X60.406 Y68.602 E13.92516
G1 X58.406 Y68.602 E14.05647
G1 X58.406 Y39.771 E15.94939
G1 X58.339 Y39.393 E15.97459
G1 X58.19 Y39.022 E16.00084
M204 S3000
M205 X10 Y10
G0 F2400 X58.02 Y38.775
G0 X58.481 Y38.458
G0 X59.367 Y37.985
M204 S1800
M205 X8 Y8
;TYPE:SKIN
G1 F1200 X58.332 Y36.949 E16.09699
G1 X58.262 Y36.879
M204 S3000
M205 X10 Y10
G0 F2400 X49.218 Y37.981
M204 S1800
M205 X8 Y8
G1 F1200 X49.01 Y38.027 E16.11097
G1 X48.732 Y38.115 E16.13012
G1 X48.713 Y38.108 E16.13145
G1 X48.697 Y38.088 E16.13313
G1 X48.694 Y38.072 E16.1342
G1 X48.715 Y38.037 E16.13688
G1 X48.807 Y38.017 E16.14306
G1 X49.218 Y37.981 E16.17015
M204 S3000
M205 X10 Y10
G0 F2400 X49.48 Y37.883
M204 S1800
M205 X8 Y8
;TYPE:SKIN
G1 F1200 X49.755 Y38.159 E16.17928
M204 S3000
M205 X10 Y10
G0 F2400 X49.987 Y38.108
M204 S1800
M205 X8 Y8
G1 F1200 X49.541 Y37.661 E16.19409
M204 S3000
M205 X10 Y10
G0 F2400 X49.801 Y37.639
M204 S1800
M205 X8 Y8
G1 F1200 X50.22 Y38.057 E16.20797
M204 S3000
M205 X10 Y10
G0 F2400 X50.452 Y38.006
M204 S1800
M205 X8 Y8
G1 F1200 X50.061 Y37.615 E16.22093
M204 S3000
M205 X10 Y10
G0 F2400 X50.321 Y37.593
M204 S1800
M205 X8 Y8
G1 F1200 X50.683 Y37.956 E16.23295
M204 S3000
M205 X10 Y10
G0 F2400 X50.748 Y37.737
M204 S1800
M205 X8 Y8
G1 F1200 X50.993 Y37.7 E16.23986
G1 X53.207 Y37.368 E16.30229
M204 S3000
M205 X10 Y10
G0 F2400 X53.235 Y37.396
G1 F2400 E10.30229
G1 F300 Z0.375
G0 F2400 X53.235 Y37.396 Z0.375
G0 X58.397 Y74.44
M204 S1800
M205 X8 Y8
;TYPE:WALL-INNER
G1 F300 Z0.3
G1 F2400 E16.30229
G1 F1200 X58.613 Y74.502 E16.31705
G1 X58.827 Y74.6 E16.3325
G1 X59.029 Y74.736 E16.34849
G1 X59.205 Y74.898 E16.3642
G1 X59.359 Y75.089 E16.3803
G1 X59.478 Y75.296 E16.39598
G1 X59.57 Y75.53 E16.41249
G1 X59.625 Y75.776 E16.42904
G1 X59.641 Y76.013 E16.44463
G1 X59.62 Y76.254 E16.46052
G1 X59.563 Y76.499 E16.47703
G1 X59.472 Y76.721 E16.49278
G1 X59.351 Y76.926 E16.50841
G1 X59.195 Y77.116 E16.52455
G1 X59.014 Y77.28 E16.54059
G1 X58.806 Y77.416 E16.55691
G1 X58.621 Y77.499 E16.57022
G1 X58.43 Y77.558 E16.58334
G1 X58.234 Y77.591 E16.59639
G1 X57.987 Y77.594 E16.61261
G1 X57.752 Y77.566 E16.62815
G1 X57.52 Y77.501 E16.64397
G1 X57.3 Y77.402 E16.65981
G1 X57.107 Y77.277 E16.67491
G1 X56.923 Y77.115 E16.691
G1 X56.768 Y76.93 E16.70685
G1 X56.644 Y76.726 E16.72252
G1 X56.555 Y76.513 E16.73768
G1 X56.495 Y76.274 E16.75386
G1 X56.471 Y76.034 E16.76969
G1 X56.482 Y75.802 E16.78494
G1 X56.529 Y75.569 E16.80055
G1 X56.614 Y75.339 E16.81665
G1 X56.727 Y75.133 E16.83207
G1 X56.872 Y74.944 E16.84771
G1 X57.044 Y74.775 E16.86354
G1 X57.228 Y74.644 E16.87837
G1 X57.451 Y74.531 E16.89479
G1 X57.681 Y74.454 E16.91071
G1 X57.911 Y74.414 E16.92604
G1 X58.155 Y74.411 E16.94206
G1 X58.397 Y74.44 E16.95806
M204 S3000
M205 X10 Y10
G0 F2400 X58.508 Y73.889
M204 S1800
M205 X8 Y8
G1 F1200 X58.807 Y73.975 E16.97849
G1 X59.102 Y74.11 E16.99979
G1 X59.376 Y74.294 E17.02146
G1 X59.615 Y74.514 E17.04279
G1 X59.824 Y74.774 E17.06469
G1 X59.983 Y75.05 E17.0856
G1 X60.109 Y75.372 E17.1083
G1 X60.181 Y75.694 E17.12997
G1 X60.203 Y76.016 E17.15116
G1 X60.175 Y76.341 E17.17257
G1 X60.097 Y76.672 E17.1949
G1 X59.978 Y76.965 E17.21566
G1 X59.81 Y77.25 E17.23739
G1 X59.6 Y77.505 E17.25907
G1 X59.357 Y77.725 E17.2806
G1 X59.074 Y77.91 E17.30279
G1 X58.825 Y78.022 E17.32072
G1 X58.558 Y78.104 E17.33906
G1 X58.281 Y78.15 E17.35749
G1 X57.959 Y78.155 E17.37864
G1 X57.641 Y78.117 E17.39966
G1 X57.329 Y78.029 E17.42095
G1 X57.034 Y77.897 E17.44217
G1 X56.762 Y77.72 E17.46347
G1 X56.522 Y77.509 E17.48445
G1 X56.312 Y77.257 E17.50599
G1 X56.144 Y76.982 E17.52715
G1 X56.022 Y76.689 E17.54799
G1 X55.942 Y76.375 E17.56926
G1 X55.91 Y76.049 E17.59077
G1 X55.925 Y75.728 E17.61187
G1 X55.988 Y75.419 E17.63257
G1 X56.104 Y75.105 E17.65455
G1 X56.256 Y74.827 E17.67535
G1 X56.453 Y74.57 E17.69661
G1 X56.683 Y74.345 E17.71774
G1 X56.94 Y74.162 E17.73845
G1 X57.232 Y74.014 E17.75994
G1 X57.545 Y73.909 E17.78162
G1 X57.857 Y73.855 E17.80241
G1 X58.184 Y73.85 E17.82388
G1 X58.508 Y73.889 E17.84531
M204 S3000
M205 X10 Y10
G0 F2400 X58.597 Y73.436
M204 S1800
M205 X8 Y8
;TYPE:WALL-OUTER
G1 F1200 X58.968 Y73.543 E17.87066
G1 X59.326 Y73.707 E17.89651
G1 X59.662 Y73.932 E17.92306
G1 X59.953 Y74.2 E17.94903
G1 X60.202 Y74.51 E17.97514
G1 X60.401 Y74.854 E18.00123
G1 X60.55 Y75.236 E18.02815
G1 X60.638 Y75.627 E18.05447
G1 X60.664 Y76.018 E18.0802
G1 X60.63 Y76.418 E18.10655
G1 X60.538 Y76.808 E18.13286
G1 X60.391 Y77.171 E18.15857
G1 X60.186 Y77.517 E18.18498
G1 X59.935 Y77.823 E18.21096
G1 X59.639 Y78.09 E18.23714
G1 X59.296 Y78.314 E18.26403
G1 X58.987 Y78.454 E18.2863
G1 X58.664 Y78.553 E18.30849
G1 X58.323 Y78.609 E18.33117
G1 X57.934 Y78.616 E18.35672
G1 X57.55 Y78.57 E18.38211
G1 X57.172 Y78.463 E18.4079
G1 X56.811 Y78.301 E18.43388
G1 X56.482 Y78.087 E18.45965
G1 X56.194 Y77.834 E18.48482
G1 X55.937 Y77.526 E18.51116
G1 X55.734 Y77.192 E18.53682
G1 X55.583 Y76.832 E18.56245
G1 X55.487 Y76.455 E18.58799
G1 X55.449 Y76.066 E18.61365
G1 X55.468 Y75.666 E18.63994
G1 X55.544 Y75.292 E18.665
G1 X55.682 Y74.918 E18.69117
G1 X55.869 Y74.577 E18.71671
G1 X56.109 Y74.263 E18.74266
G1 X56.387 Y73.992 E18.76815
G1 X56.705 Y73.765 E18.7938
G1 X57.055 Y73.587 E18.81958
G1 X57.428 Y73.463 E18.84539
G1 X57.816 Y73.396 E18.87124
G1 X58.209 Y73.389 E18.89704
G1 X58.597 Y73.436 E18.9227
M204 S3000
M205 X10 Y10
G0 F2400 X58.885 Y73.519
G0 X58.73 Y74.056
G0 X58.413 Y75.016
M204 S1800
M205 X8 Y8
;TYPE:SKIN
G1 F1200 X58.563 Y75.085 E18.93354
G1 X58.683 Y75.166 E18.94305
G1 X58.802 Y75.275 E18.95364
G1 X58.904 Y75.402 E18.96434
G1 X58.981 Y75.535 E18.97443
G1 X59.044 Y75.696 E18.98578
G1 X59.079 Y75.853 E18.99634
G1 X59.089 Y76.003 E19.00621
G1 X59.076 Y76.167 E19.01701
G1 X59.036 Y76.336 E19.02842
G1 X58.98 Y76.471 E19.03801
G1 X58.899 Y76.61 E19.04857
G1 X58.797 Y76.735 E19.05917
G1 X58.675 Y76.844 E19.06991
G1 X58.54 Y76.932 E19.08049
G1 X58.434 Y76.98 E19.08813
G1 X58.294 Y77.024 E19.09776
G1 X58.188 Y77.041 E19.10481
G1 X58.014 Y77.044 E19.11624
G1 X57.864 Y77.026 E19.12616
G1 X57.702 Y76.98 E19.13721
G1 X57.568 Y76.92 E19.14685
G1 X57.437 Y76.835 E19.1571
G1 X57.319 Y76.731 E19.16743
G1 X57.213 Y76.605 E19.17824
G1 X57.135 Y76.478 E19.18803
G1 X57.081 Y76.346 E19.19739
G1 X57.039 Y76.18 E19.20863
G1 X57.023 Y76.018 E19.21932
G1 X57.03 Y75.86 E19.22971
G1 X57.058 Y75.726 E19.23869
G1 X57.115 Y75.569 E19.24966
G1 X57.191 Y75.43 E19.26006
G1 X57.28 Y75.314 E19.26966
G1 X57.399 Y75.197 E19.28062
G1 X57.51 Y75.118 E19.28956
G1 X57.664 Y75.041 E19.30087
G1 X57.819 Y74.988 E19.31162
G1 X57.963 Y74.964 E19.32121
G1 X58.127 Y74.961 E19.33198
G1 X58.29 Y74.981 E19.34276
G1 X58.413 Y75.016 E19.35115
M204 S3000
M205 X10 Y10
G0 F2400 X58.797 Y76.22
M204 S1800
M205 X8 Y8
G1 F1200 X57.834 Y75.258 E19.44052
M204 S3000
M205 X10 Y10
G0 F2400 X57.39 Y75.605
M204 S1800
M205 X8 Y8
G1 F1200 X58.458 Y76.673 E19.53969
M204 S3000
M205 X10 Y10
G0 F2400 X57.668 Y76.675
M204 S1800
M205 X8 Y8
G1 F1200 X57.394 Y76.401 E19.56513
M204 S3000
M205 X10 Y10
G1 F2400 E13.56513
G0 F2400 X56.04 Y76.683
G0 X53.631 Y77.502
G0 X52.81 Y77.479
M204 S1800
M205 X8 Y8
;TYPE:WALL-INNER
G1 F2400 E19.56513
G1 F1200 X52.997 Y77.376 E19.57915
G1 X53.008 Y77.411
G1 X53.227 Y78.049 E19.62343
G1 X53.546 Y78.674 E19.6695
G1 X53.939 Y79.248 E19.71518
G1 X54.081 Y79.406 E19.72912
G1 X54.352 Y79.708 E19.75576
G1 X54.406 Y79.768 E19.76106
G1 X54.888 Y80.179 E19.80265
G1 X54.933 Y80.217 E19.80652
G1 X55.338 Y80.483 E19.83833
G1 X55.485 Y80.57 E19.84955
G1 X55.54 Y80.603 E19.85376
G1 X55.961 Y80.809 E19.88453
G1 X56.181 Y80.899 E19.90014
G1 X56.618 Y81.048 E19.93045
G1 X56.854 Y81.108 E19.94644
G1 X57.303 Y81.196 E19.97648
G1 X57.542 Y81.223 E19.99227
G1 X58.025 Y81.253 E20.02404
G1 X58.27 Y81.239 E20.04015
G1 X58.27 Y81.253
G1 X58.27 Y88.486 E20.51504
G1 X58.243 Y89.058 E20.55264
G1 X58.164 Y89.623 E20.59009
G1 X58.032 Y90.182 E20.6278
G1 X57.857 Y90.704 E20.66395
G1 X57.627 Y91.224 E20.70128
G1 X57.35 Y91.723 E20.73875
G1 X57.047 Y92.164 E20.77388
G1 X56.673 Y92.615 E20.81235
G1 X56.278 Y93.009 E20.84898
G1 X55.846 Y93.368 E20.88586
G1 X55.361 Y93.699 E20.92441
G1 X54.901 Y93.955 E20.95898
G1 X54.359 Y94.194 E20.99787
G1 X53.838 Y94.368 E21.03393
G1 X53.29 Y94.497 E21.07089
G1 X52.722 Y94.574 E21.10853
G1 X52.145 Y94.602 E21.14645
G1 X27.374 Y94.602 E22.77281
G1 X26.598 Y94.573 E22.82379
G1 X26.055 Y94.498 E22.85978
G1 X25.499 Y94.368 E22.89727
G1 X24.975 Y94.193 E22.93354
G1 X24.463 Y93.967 E22.97029
G1 X23.977 Y93.696 E23.00682
G1 X23.489 Y93.363 E23.04561
G1 X23.064 Y93.01 E23.08188
G1 X22.667 Y92.614 E23.1187
G1 X22.312 Y92.188 E23.15511
G1 X21.986 Y91.71 E23.19309
G1 X21.713 Y91.22 E23.22992
G1 X21.485 Y90.705 E23.2669
G1 X21.31 Y90.183 E23.30304
G1 X21.178 Y89.626 E23.34063
G1 X21.101 Y89.078 E23.37696
G1 X21.405 Y88.932 E23.3991
G1 X21.894 Y88.581 E23.43862
G1 X22.199 Y88.267 E23.46736
G1 X22.315 Y88.148 E23.47827
G1 X22.347 Y88.1 E23.48206
G1 X22.513 Y87.852 E23.50165
G1 X22.574 Y88.078 E23.50434
G1 X22.631 Y88.289 E23.51115
G1 X22.69 Y88.444 E23.52203
G1 X22.908 Y89.012 E23.56198
G1 X23.259 Y89.703 E23.61286
G1 X23.681 Y90.355 E23.66386
G1 X24.171 Y90.958 E23.71487
G1 X24.72 Y91.505 E23.76575
G1 X25.32 Y91.992 E23.81649
G1 X25.971 Y92.414 E23.86742
G1 X26.663 Y92.766 E23.9184
G1 X27.385 Y93.041 E23.96912
G1 X28.133 Y93.242 E24.01998
G1 X28.908 Y93.365 E24.0715
G1 X29.832 Y93.402 E24.13221
G1 X49.709 Y93.402 E25.43724
G1 X50.445 Y93.363 E25.48563
G1 X51.212 Y93.243 E25.53661
G1 X51.961 Y93.04 E25.58756
G1 X52.684 Y92.763 E25.63839
G1 X53.374 Y92.41 E25.68928
G1 X54.024 Y91.989 E25.74012
G1 X54.625 Y91.501 E25.79095
G1 X55.174 Y90.952 E25.84193
G1 X55.661 Y90.349 E25.89281
G1 X56.083 Y89.699 E25.9437
G1 X56.434 Y89.009 E25.99452
G1 X56.711 Y88.285 E26.04542
G1 X56.912 Y87.535 E26.0964
G1 X57.031 Y86.77 E26.14723
G1 X57.073 Y85.998 E26.19799
G1 X57.03 Y85.223 E26.24895
G1 X56.91 Y84.46 E26.29966
G1 X56.709 Y83.71 E26.35064
G1 X56.43 Y82.985 E26.40164
G1 X56.077 Y82.295 E26.45253
G1 X55.655 Y81.646 E26.50336
G1 X55.167 Y81.044 E26.55424
G1 X55.094 Y80.971 E26.56101
G1 X54.973 Y80.85 E26.57182
G1 X54.636 Y80.514 E26.59793
G1 X54.618 Y80.497 E26.59885
G1 X54.134 Y80.106 E26.62977
G1 X54.015 Y80.01 E26.6382
G1 X53.675 Y79.79 E26.66224
G1 X53.365 Y79.589 E26.68649
G1 X52.674 Y79.237 E26.73741
G1 X51.951 Y78.962 E26.7882
G1 X51.203 Y78.76 E26.83907
G1 X51.07 Y78.739 E26.84791
G1 X51.07 Y77.702 E26.91599
G1 X51.755 Y77.701 E26.96096
G1 X52.258 Y77.649 E26.99417
G1 X52.81 Y77.479 E27.03209
M204 S3000
M205 X10 Y10
G0 F2400 X55.951 Y83.191
G0 X56.398 Y84.559
G0 X56.551 Y85.998
G0 X56.401 Y87.432
G0 X55.961 Y88.79
G0 X55.241 Y90.04
G0 X54.279 Y91.111
G0 X53.11 Y91.96
G0 X52.473 Y92.287
G0 X51.108 Y92.732
G0 X49.689 Y92.881
G0 X28.962 Y92.846
G0 X27.547 Y92.547
G0 X26.235 Y91.963
G0 X25.623 Y91.567
G0 X24.555 Y90.605
G0 X23.709 Y89.439
G0 X23.125 Y88.123
G0 X22.828 Y86.72
G0 X22.789 Y86.002
G0 X22.941 Y84.565
G0 X23.385 Y83.201
G0 X24.107 Y81.951
G0 X25.072 Y80.884
G0 X25.731 Y80.406
G0 X28.135 Y78.76
M204 S1800
M205 X8 Y8
G1 F1200 X27.386 Y78.962 E27.08302
G1 X26.664 Y79.237 E27.13375
G1 X25.972 Y79.589 E27.18472
G1 X25.321 Y80.011 E27.23566
G1 X24.721 Y80.498 E27.28639
G1 X24.172 Y81.045 E27.33727
