;FLAVOR:Marlin
;TIME:1825
;Filament used: 1.80618m
;Layer height: 0.2
;Generated with Cura_SteamEngine 3.6.0
M140 S30
M105
M190 S30
M104 S220
M105
M109 S220
M82 ;absolute extrusion mode
G21        ;metric values
G90        ;absolute positioning
M107       ;start with the fan off
G28   ;move to endstops
G92 E0                  ;zero the extruded length
G1 F200 E3              ;extrude 3mm of feed stock
G92 E0                  ;zero the extruded length again
G1 F120
;Put printing message on LCD screen
M117 Printing...
G92 E0
G1 F2700 E-7
;LAYER_COUNT:94
;LAYER:0
M107
M204 S5000
G0 F1800 X-9.023 Y-2.373 Z0.2
M204 S2000
;TYPE:SKIRT
G1 F2700 E0
G1 F600 X-6.266 Y-7.069 E0.25538
G1 X-3.784 Y-11.904 E0.51025
G1 X-3.16 Y-13.255 E0.58004
G1 X-3.12 Y-13.327 E0.58391
G1 X-2.426 Y-14.794 E0.66001
G1 X-2.152 Y-15.28 E0.68618
G1 X-1.954 Y-15.553 E0.70199
G1 X-1.71 Y-15.86 E0.72038
G1 X-1.332 Y-16.271 E0.74657
G1 X-.855 Y-16.654 E0.77526
G1 X-.518 Y-16.884 E0.79439
G1 X-0.036 Y-17.165 E0.82056
G1 X0.475 Y-17.372 E0.84641
G1 X0.952 Y-17.527 E0.86994
G1 X1.494 Y-17.661 E0.89612
G1 X1.814 Y-17.703 E0.91125
G1 X8.921 Y-18.331 E1.24585
G1 X9.561 Y-18.335 E1.27586
G1 X10.084 Y-18.295 E1.30046
G1 X10.637 Y-18.212 E1.32669
G1 X11.126 Y-18.069 E1.35058
G1 X11.785 Y-17.828 E1.38349
G1 X12.295 Y-17.599 E1.4097
G1 X12.822 Y-17.257 E1.43917
G1 X13.336 Y-16.862 E1.46957
G1 X13.754 Y-16.491 E1.49578
G1 X14.122 Y-16.053 E1.52261
G1 X14.504 Y-15.524 E1.55321
G1 X14.797 Y-15.049 E1.57938
G1 X15.039 Y-14.484 E1.6082
G1 X15.262 Y-13.821 E1.64101
G1 X15.401 Y-13.281 E1.66716
G1 X15.465 Y-12.601 E1.69919
G1 X15.548 Y1.283 E2.35032
G1 X15.857 Y6.731 E2.60622
G1 X16.473 Y12.157 E2.86232
G1 X16.937 Y15.185 E3.00598
G1 X16.98 Y15.885 E3.03887
G1 X16.956 Y16.74 E3.07898
G1 X16.901 Y17.296 E3.10518
G1 X16.819 Y17.664 E3.12286
G1 X14.735 Y25.251 E3.49185
G1 X14.008 Y28.294 E3.63857
G1 X13.808 Y28.904 E3.66868
G1 X13.591 Y29.418 E3.69484
G1 X13.262 Y30.036 E3.72767
G1 X12.455 Y31.27 E3.79682
G1 X12.117 Y31.714 E3.82299
G1 X11.869 Y31.97 E3.83971
G1 X11.035 Y32.758 E3.89351
G1 X10.603 Y33.111 E3.91968
G1 X10.3 Y33.305 E3.93655
G1 X8.998 Y34.053 E4.00697
G1 X8.495 Y34.295 E4.03315
G1 X8.019 Y34.45 E4.05662
G1 X6.56 Y34.822 E4.12723
G1 X6.01 Y34.921 E4.15344
G1 X5.719 Y34.941 E4.16712
G1 X3.98 Y34.996 E4.24872
G1 X3.854 Y34.998 E4.25463
G1 X-13.974 Y34.986 E5.0907
G1 X-14.364 Y34.966 E5.10902
G1 X-15.124 Y34.889 E5.14484
G1 X-15.709 Y34.784 E5.17271
G1 X-16.693 Y34.529 E5.22038
G1 X-17.362 Y34.289 E5.25371
G1 X-18.27 Y33.866 E5.30069
G1 X-18.875 Y33.515 E5.33349
G1 X-19.709 Y32.925 E5.3814
G1 X-20.146 Y32.566 E5.40792
G1 X-20.58 Y32.153 E5.43602
G1 X-21.069 Y31.589 E5.47103
G1 X-21.972 Y30.32 E5.54407
G1 X-22.262 Y29.843 E5.57025
G1 X-22.412 Y29.516 E5.58712
G1 X-22.811 Y28.525 E5.63722
G1 X-22.982 Y27.993 E5.66343
G1 X-23.045 Y27.677 E5.67854
G1 X-23.275 Y26.221 E5.74767
G1 X-23.32 Y25.449 E5.78393
G1 X-23.096 Y20.107 E6.03467
G1 X-23.058 Y16.992 E6.18077
G1 X-23.011 Y16.436 E6.20694
G1 X-22.885 Y15.892 E6.23312
G1 X-22.71 Y15.429 E6.25634
G1 X-22.476 Y14.913 E6.28291
G1 X-22.21 Y14.423 E6.30905
G1 X-21.785 Y13.873 E6.34165
G1 X-18.804 Y10.655 E6.54737
G1 X-15.301 Y6.503 E6.80212
G1 X-12.039 Y2.156 E7.057
G1 X-9.023 Y-2.373 E7.31218
M204 S5000
G0 F1800 X-8.516 Y-2.053
M204 S2000
G1 F600 X-5.744 Y-6.773 E7.56888
G1 X-3.232 Y-11.666 E7.82682
G1 X-2.615 Y-13.003 E7.89588
G1 X-2.582 Y-13.062 E7.89905
G1 X-1.884 Y-14.537 E7.97558
G1 X-1.484 Y-15.179 E8.01105
G1 X-1.24 Y-15.486 E8.02944
G1 X-.891 Y-15.862 E8.0535
G1 X-.517 Y-16.159 E8.0759
G1 X-.18 Y-16.389 E8.09503
G1 X0.265 Y-16.644 E8.11908
G1 X0.66 Y-16.801 E8.13902
G1 X1.137 Y-16.956 E8.16254
G1 X1.867 Y-17.105 E8.19748
G1 X8.974 Y-17.733 E8.53207
G1 X9.516 Y-17.736 E8.55749
G1 X10.039 Y-17.696 E8.58209
G1 X10.546 Y-17.618 E8.60615
G1 X10.92 Y-17.505 E8.62447
G1 X11.579 Y-17.264 E8.65737
G1 X12.046 Y-17.051 E8.68145
G1 X12.457 Y-16.782 E8.70448
G1 X12.971 Y-16.387 E8.73488
G1 X13.352 Y-16.043 E8.75896
G1 X13.635 Y-15.702 E8.77974
G1 X14.017 Y-15.173 E8.81034
G1 X14.285 Y-14.735 E8.83442
G1 X14.47 Y-14.293 E8.85689
G1 X14.693 Y-13.63 E8.88969
G1 X14.818 Y-13.132 E8.91377
G1 X14.865 Y-12.598 E8.93891
G1 X14.948 Y1.301 E9.59074
G1 X15.259 Y6.78 E9.8481
G1 X15.879 Y12.238 E10.10571
G1 X16.344 Y15.276 E10.24984
G1 X16.381 Y15.869 E10.27771
G1 X16.357 Y16.724 E10.31782
G1 X16.302 Y17.234 E10.34188
G1 X16.24 Y17.505 E10.35491
G1 X14.161 Y25.077 E10.72316
G1 X13.425 Y28.154 E10.87153
G1 X13.255 Y28.67 E10.89701
G1 X13.038 Y29.184 E10.92317
G1 X12.76 Y29.707 E10.95095
G1 X11.953 Y30.941 E11.0201
G1 X11.639 Y31.348 E11.0442
G1 X11.457 Y31.534 E11.05641
G1 X10.623 Y32.322 E11.11022
G1 X10.224 Y32.644 E11.13426
G1 X10.001 Y32.784 E11.14661
G1 X8.699 Y33.532 E11.21703
G1 X8.235 Y33.753 E11.24113
G1 X7.87 Y33.869 E11.25909
G1 X6.411 Y34.241 E11.3297
G1 X5.7 Y34.341 E11.36338
G1 X3.961 Y34.396 E11.44497
G1 X3.855 Y34.398 E11.44994
G1 X-13.973 Y34.386 E12.28602
G1 X-14.304 Y34.369 E12.30156
G1 X-15.064 Y34.292 E12.33739
G1 X-15.559 Y34.203 E12.36097
G1 X-16.543 Y33.948 E12.40864
G1 X-17.109 Y33.745 E12.43684
G1 X-18.017 Y33.322 E12.48382
G1 X-18.529 Y33.025 E12.51158
G1 X-19.363 Y32.435 E12.55949
G1 X-19.732 Y32.132 E12.58188
G1 X-20.166 Y31.719 E12.60997
G1 X-20.58 Y31.241 E12.63963
G1 X-21.483 Y29.972 E12.71267
G1 X-21.747 Y29.532 E12.73673
G1 X-21.855 Y29.292 E12.74908
G1 X-22.254 Y28.301 E12.79918
G1 X-22.453 Y27.583 E12.83412
G1 X-22.683 Y26.127 E12.90325
G1 X-22.72 Y25.474 E12.93392
G1 X-22.497 Y20.139 E13.18433
G1 X-22.458 Y16.999 E13.3316
G1 X-22.412 Y16.488 E13.35566
G1 X-22.287 Y15.99 E13.37974
G1 X-22.163 Y15.677 E13.39553
G1 X-21.929 Y15.161 E13.4221
G1 X-21.682 Y14.711 E13.44617
G1 X-21.345 Y14.281 E13.47179
G1 X-18.37 Y11.07 E13.67708
G1 X-14.821 Y6.862 E13.93523
G1 X-11.55 Y2.504 E14.19077
G1 X-8.516 Y-2.053 E14.44752
M204 S5000
G1 F2700 E7.44752
;MESH:AI3M_Cable_organizer-Mounting_v01_PETG_06nz_0h45m.3mf
G0 F1800 X8.664 Y-2.053
G0 X10.689 Y-2.053
G0 X10.268 Y-11.131
G0 X10.229 Y-11.363
G0 X9.83 Y-12.348
G0 X9.754 Y-12.284
M204 S2000
;TYPE:WALL-INNER
G1 F2700 E14.44752
G1 F600 X9.441 Y-12.581 E14.46775
G1 X9.074 Y-12.805 E14.48791
G1 X8.767 Y-12.913 E14.50318
G1 X8.667 Y-12.947 E14.50813
G1 X8.244 Y-12.999 E14.52812
G1 X7.854 Y-12.966 E14.54647
G1 X6.808 Y-12.737 E14.59669
G1 X2.715 Y-11.84 E14.79319
G1 X2.488 Y-11.766 E14.80439
G1 X2.39 Y-11.753 E14.80902
G1 X2.282 Y-11.758 E14.8141
G1 X2.168 Y-11.786 E14.8196
G1 X2.071 Y-11.828 E14.82456
G1 X1.984 Y-11.888 E14.82951
G1 X1.902 Y-11.968 E14.83489
G1 X1.846 Y-12.048 E14.83947
G1 X1.799 Y-12.152 E14.84482
G1 X1.772 Y-12.261 E14.85008
G1 X1.765 Y-12.366 E14.85502
G1 X1.778 Y-12.472 E14.86003
G1 X1.81 Y-12.576 E14.86513
G1 X1.862 Y-12.674 E14.87033
G1 X1.929 Y-12.759 E14.87541
G1 X2.009 Y-12.829 E14.88039
G1 X2.1 Y-12.884 E14.88538
G1 X2.211 Y-12.926 E14.89095
G1 X2.34 Y-12.949 E14.89709
G1 X6.746 Y-13.334 E15.10451
G1 X7.813 Y-13.427 E15.14897
G1 X8.202 Y-13.462 E15.1631
G1 X8.618 Y-13.499 E15.1797
G1 X8.723 Y-13.508 E15.18445
G1 X9.215 Y-13.552 E15.20762
G1 X9.445 Y-13.555 E15.21841
G1 X9.647 Y-13.528 E15.22796
G1 X9.841 Y-13.47 E15.23746
G1 X10.019 Y-13.386 E15.24669
G1 X10.195 Y-13.268 E15.25663
G1 X10.34 Y-13.135 E15.26586
G1 X10.467 Y-12.977 E15.27536
G1 X10.567 Y-12.805 E15.28469
G1 X10.645 Y-12.608 E15.29463
G1 X10.69 Y-12.413 E15.30401
G1 X10.709 Y-12.178 E15.31507
G1 X10.709 Y-11.657 E15.3395
G1 X10.709 Y-11.53 E15.34546
G1 X10.709 Y-11.128 E15.36431
G1 X10.709 Y9.933 E16.35201
G1 X10.229 Y9.933 E16.37452
G1 X10.229 Y-11.128 E17.16467
G1 X10.159 Y-11.53 E17.18113
G1 X10.112 Y-11.647 E17.1868
G1 X9.997 Y-11.928 E17.20104
G1 X9.754 Y-12.284 E17.22125
M204 S5000
G0 F1800 X9.333 Y-11.926
M204 S2000
;TYPE:WALL-OUTER
G1 F600 X9.105 Y-12.142 E17.23598
G1 X8.838 Y-12.305 E17.25065
G1 X8.542 Y-12.408 E17.26535
G1 X8.233 Y-12.446 E17.27995
G1 X7.936 Y-12.421 E17.29392
G1 X2.86 Y-11.309 E17.53762
G1 X2.613 Y-11.228 E17.54981
G1 X2.411 Y-11.202 E17.55936
G1 X2.2 Y-11.212 E17.56927
G1 X1.992 Y-11.262 E17.5793
G1 X1.805 Y-11.344 E17.58887
G1 X1.633 Y-11.461 E17.59863
G1 X1.482 Y-11.609 E17.60855
G1 X1.365 Y-11.777 E17.61815
G1 X1.277 Y-11.971 E17.62814
G1 X1.226 Y-12.177 E17.63809
G1 X1.213 Y-12.378 E17.64754
G1 X1.238 Y-12.591 E17.65759
G1 X1.3 Y-12.788 E17.66728
G1 X1.399 Y-12.976 E17.67724
G1 X1.526 Y-13.137 E17.68686
G1 X1.685 Y-13.277 E17.69679
G1 X1.862 Y-13.383 E17.70647
G1 X2.061 Y-13.457 E17.71643
G1 X2.27 Y-13.495 E17.72639
G1 X9.186 Y-14.102 E18.05197
G1 X9.48 Y-14.106 E18.06576
G1 X9.762 Y-14.067 E18.07911
G1 X10.04 Y-13.984 E18.09272
G1 X10.289 Y-13.867 E18.10562
G1 X10.535 Y-13.702 E18.11951
G1 X10.742 Y-13.513 E18.13266
G1 X10.923 Y-13.287 E18.14624
G1 X11.064 Y-13.046 E18.15933
G1 X11.171 Y-12.775 E18.173
G1 X11.235 Y-12.497 E18.18637
G1 X11.259 Y-12.197 E18.20049
G1 X11.259 Y10.483 E19.26411
G1 X9.679 Y10.483 E19.3382
G1 X9.679 Y-11.08 E20.34944
G1 X9.627 Y-11.377 E20.36358
G1 X9.509 Y-11.667 E20.37826
G1 X9.333 Y-11.926 E20.39295
M204 S5000
G0 F1800 X9.152 Y-12.097
G0 X9.241 Y-13.102
M204 S2000
;TYPE:SKIN
G1 F600 X9.889 Y-12.736 E20.40605
G1 X10.026 Y-12.882 E20.40958
M204 S5000
G0 F1800 X9.709 Y-13.2
G0 X6.537 Y-12.978
G0 X6.518 Y-12.997
M204 S2000
G1 F600 X6.272 Y-12.96 E20.41418
G1 X3.812 Y-12.592 E20.46023
M204 S5000
G0 F1800 X3.379 Y-12.742
M204 S2000
G1 F600 X3.753 Y-12.368 E20.4685
M204 S5000
G0 F1800 X3.521 Y-12.317
M204 S2000
G1 F600 X3.119 Y-12.72 E20.47739
M204 S5000
G0 F1800 X2.858 Y-12.697
M204 S2000
G1 F600 X3.289 Y-12.266 E20.48692
M204 S5000
G0 F1800 X3.057 Y-12.215
M204 S2000
G1 F600 X2.599 Y-12.674 E20.49706
M204 S5000
G0 F1800 X2.341 Y-12.648
M204 S2000
G1 F600 X2.825 Y-12.165 E20.50775
M204 S5000
G0 F1800 X2.596 Y-12.111
M204 S2000
G1 F600 X2.148 Y-12.558 E20.51764
M204 S5000
G0 F1800 X2.061 Y-12.363
M204 S2000
G1 F600 X2.375 Y-12.049 E20.52458
M204 S5000
G0 F1800 X2.371 Y-12.347
G1 F2700 E13.52458
G0 F1800 X2.484 Y-11.785
G0 X2.977 Y-10.28
G0 X8.209 Y11.844
G0 X9.046 Y14.807
G0 X9.519 Y15.369
M204 S2000
;TYPE:WALL-INNER
G1 F2700 E20.52458
G1 F600 X9.62 Y15.398 E20.52951
G1 X9.703 Y15.437 E20.53381
G1 X9.799 Y15.502 E20.53925
G1 X9.888 Y15.583 E20.54489
G1 X9.953 Y15.664 E20.54976
G1 X10.013 Y15.769 E20.55543
G1 X10.056 Y15.877 E20.56089
G1 X10.081 Y15.988 E20.56622
G1 X10.089 Y16.11 E20.57195
G1 X10.081 Y16.217 E20.57699
G1 X10.054 Y16.325 E20.58221
G1 X10.007 Y16.442 E20.58812
G1 X9.954 Y16.533 E20.59306
G1 X9.878 Y16.625 E20.59866
G1 X9.796 Y16.698 E20.6038
G1 X9.704 Y16.759 E20.60898
G1 X9.609 Y16.802 E20.61387
G1 X9.533 Y16.826 E20.61761
G1 X9.445 Y16.84 E20.62179
G1 X9.317 Y16.842 E20.62779
G1 X9.213 Y16.829 E20.63271
G1 X9.091 Y16.794 E20.63866
G1 X9 Y16.753 E20.64334
G1 X8.907 Y16.693 E20.64853
G1 X8.821 Y16.615 E20.65397
G1 X8.757 Y16.538 E20.65867
G1 X8.697 Y16.439 E20.6641
G1 X8.648 Y16.322 E20.67005
G1 X8.625 Y16.228 E20.67459
G1 X8.613 Y16.109 E20.68019
G1 X8.618 Y16.014 E20.68466
G1 X8.646 Y15.879 E20.69112
G1 X8.676 Y15.798 E20.69517
G1 X8.739 Y15.684 E20.70128
G1 X8.799 Y15.606 E20.7059
G1 X8.886 Y15.522 E20.71157
G1 X8.98 Y15.455 E20.71698
G1 X9.064 Y15.413 E20.72139
G1 X9.187 Y15.372 E20.72747
G1 X9.284 Y15.356 E20.73208
G1 X9.403 Y15.354 E20.73766
G1 X9.519 Y15.369 E20.74314
M204 S5000
G0 F1800 X9.641 Y14.78
M204 S2000
G1 F600 X9.826 Y14.833 E20.75217
G1 X10.003 Y14.915 E20.76132
G1 X10.172 Y15.03 E20.7709
G1 X10.327 Y15.171 E20.78073
G1 X10.45 Y15.324 E20.78994
G1 X10.556 Y15.508 E20.79989
G1 X10.63 Y15.697 E20.80941
G1 X10.677 Y15.906 E20.81946
G1 X10.691 Y16.11 E20.82905
G1 X10.675 Y16.311 E20.8385
G1 X10.627 Y16.509 E20.84806
G1 X10.546 Y16.709 E20.85818
G1 X10.449 Y16.875 E20.86719
G1 X10.31 Y17.043 E20.87742
G1 X10.161 Y17.177 E20.88682
G1 X9.993 Y17.287 E20.89624
G1 X9.829 Y17.362 E20.90469
G1 X9.67 Y17.411 E20.9125
G1 X9.495 Y17.439 E20.92081
G1 X9.288 Y17.443 E20.93052
G1 X9.09 Y17.418 E20.93988
G1 X8.887 Y17.36 E20.94978
G1 X8.711 Y17.281 E20.95882
G1 X8.542 Y17.171 E20.96828
G1 X8.389 Y17.034 E20.97791
G1 X8.265 Y16.884 E20.98704
G1 X8.159 Y16.709 E20.99663
G1 X8.077 Y16.512 E21.00664
G1 X8.032 Y16.332 E21.01534
G1 X8.011 Y16.12 E21.02533
G1 X8.022 Y15.933 E21.03412
G1 X8.067 Y15.715 E21.04456
G1 X8.13 Y15.546 E21.05301
G1 X8.234 Y15.357 E21.06313
G1 X8.353 Y15.202 E21.0723
G1 X8.498 Y15.062 E21.08175
G1 X8.67 Y14.94 E21.09164
G1 X8.836 Y14.856 E21.10036
G1 X9.042 Y14.788 E21.11054
G1 X9.229 Y14.757 E21.11943
G1 X9.438 Y14.753 E21.12923
G1 X9.641 Y14.78 E21.13883
M204 S5000
G0 F1800 X9.751 Y14.24
M204 S2000
;TYPE:WALL-OUTER
G1 F600 X10.018 Y14.317 E21.15186
G1 X10.278 Y14.437 E21.16529
G1 X10.512 Y14.595 E21.17853
G1 X10.728 Y14.793 E21.19228
G1 X10.906 Y15.014 E21.20558
G1 X11.053 Y15.269 E21.21939
G1 X11.159 Y15.54 E21.23303
G1 X11.223 Y15.827 E21.24682
G1 X11.243 Y16.11 E21.26013
G1 X11.219 Y16.402 E21.27387
G1 X11.153 Y16.676 E21.28709
G1 X11.041 Y16.953 E21.3011
G1 X10.899 Y17.194 E21.31422
G1 X10.713 Y17.42 E21.32794
G1 X10.498 Y17.613 E21.34149
G1 X10.258 Y17.771 E21.35497
G1 X10.025 Y17.876 E21.36695
G1 X9.792 Y17.948 E21.37839
G1 X9.543 Y17.988 E21.39022
G1 X9.258 Y17.994 E21.40359
G1 X8.981 Y17.959 E21.41668
G1 X8.701 Y17.879 E21.43034
G1 X8.448 Y17.765 E21.44335
G1 X8.203 Y17.606 E21.45705
G1 X7.995 Y17.42 E21.47013
G1 X7.814 Y17.202 E21.48342
G1 X7.665 Y16.955 E21.49695
G1 X7.555 Y16.691 E21.51036
G1 X7.487 Y16.42 E21.52346
G1 X7.46 Y16.136 E21.53684
G1 X7.475 Y15.857 E21.54995
G1 X7.535 Y15.568 E21.56379
G1 X7.631 Y15.31 E21.5767
G1 X7.77 Y15.058 E21.59019
G1 X7.942 Y14.833 E21.60348
G1 X8.146 Y14.637 E21.61674
G1 X8.382 Y14.47 E21.6303
G1 X8.628 Y14.345 E21.64324
G1 X8.906 Y14.254 E21.65696
G1 X9.181 Y14.208 E21.67004
G1 X9.467 Y14.202 E21.68345
G1 X9.751 Y14.24 E21.69689
M204 S5000
G0 F1800 X9.991 Y14.309
G0 X9.792 Y14.926
G0 X9.429 Y15.964
M204 S2000
;TYPE:SKIN
G1 F600 X9.465 Y15.999 E21.69924
G1 X9.491 Y16.055 E21.70214
G1 X9.498 Y16.106 E21.70455
G1 X9.491 Y16.144 E21.70636
G1 X9.468 Y16.195 E21.70899
G1 X9.442 Y16.224 E21.71082
G1 X9.398 Y16.25 E21.71321
G1 X9.331 Y16.249 E21.71635
G1 X9.284 Y16.233 E21.71868
G1 X9.251 Y16.209 E21.7206
G1 X9.224 Y16.171 E21.72278
G1 X9.208 Y16.13 E21.72485
G1 X9.213 Y16.048 E21.7287
G1 X9.239 Y16.002 E21.73118
G1 X9.284 Y15.962 E21.734
G1 X9.33 Y15.947 E21.73627
G1 X9.37 Y15.945 E21.73815
G1 X9.429 Y15.964 E21.74105
M204 S5000
G1 F2700 E14.74105
G0 F1800 X8.105 Y16.528
G0 X5.754 Y17.338
G0 X5.099 Y17.777
M204 S2000
;TYPE:WALL-INNER
G1 F2700 E21.74105
G1 F600 X5.273 Y17.722 E21.74961
G1 X5.286 Y17.759 E21.75145
G1 X5.303 Y17.809 E21.75393
G1 X5.446 Y18.094 E21.76888
G1 X5.227 Y18.01 E21.76992
G1 X5.17 Y17.988
G1 X5.038 Y17.937 E21.77135
G1 X4.914 Y17.889 E21.77368
G1 X4.663 Y17.822 E21.78587
G1 X4.903 Y17.798 E21.78651
G1 X5.099 Y17.777 E21.78986
M204 S5000
G0 F1800 X8.258 Y20.592
M204 S2000
G1 F600 X8.184 Y20.478 E21.79624
G1 X8.102 Y20.353 E21.80325
G1 X8.067 Y20.3 E21.80623
G1 X8.143 Y20.326
G1 X8.316 Y20.371 E21.80871
G1 X8.338 Y20.377
G1 X8.717 Y20.45 E21.82167
G1 X8.835 Y20.464 E21.82724
G1 X8.91 Y20.474 E21.83079
G1 X9.062 Y20.483 E21.83793
G1 X9.056 Y20.978 E21.86115
G1 X9.055 Y21.159 E21.86963
G1 X9.048 Y21.744 E21.89707
G1 X9.041 Y22.346 E21.92531
G1 X9.033 Y22.967 E21.95443
G1 X8.931 Y22.345 E21.95744
G1 X8.769 Y21.741 E21.9675
G1 X8.544 Y21.154 E21.98742
G1 X8.462 Y20.993 E21.99528
G1 X8.349 Y20.771 E22.00696
G1 X8.295 Y20.665 E22.00924
G1 X8.258 Y20.592
M204 S5000
G0 F1800 X8.771 Y25.451
M204 S2000
G1 F600 X8.788 Y25.386 E22.01239
G1 X8.934 Y24.845 E22.03867
G1 X9.033 Y24.221 E22.0683
G1 X9.047 Y24.842 E22.07093
G1 X9.061 Y25.444 E22.08101
G1 X9.062 Y25.458
G1 X9.043 Y25.852 E22.09888
G1 X9.009 Y26.099 E22.11058
G1 X8.991 Y26.229 E22.11673
G1 X8.903 Y26.605 E22.13484
G1 X8.848 Y26.768 E22.14291
G1 X8.783 Y26.96 E22.15241
G1 X8.625 Y27.318 E22.17077
G1 X8.439 Y27.652 E22.18869
G1 X8.234 Y27.95 E22.20566
G1 X7.977 Y28.26 E22.22454
G1 X7.727 Y28.51 E22.24112
G1 X7.406 Y28.776 E22.26067
G1 X7.105 Y28.983 E22.2778
G1 X6.784 Y29.16 E22.29499
G1 X6.425 Y29.319 E22.31341
G1 X6.231 Y29.384 E22.323
G1 X6.066 Y29.438 E22.33114
