;FLAVOR:Marlin
;TIME:2466
;Filament used: 0.643496m
;Layer height: 0.15
;MINX:125.214
;MINY:135.49
;MINZ:0.2
;MAXX:174.784
;MAXY:164.51
;MAXZ:33.05
;Generated with Cura_SteamEngine 4.10.0
M140 S30
M105
M190 S30
M104 S235
M105
M109 S235
M82 ;absolute extrusion mode
G28 ; home all axes
 M117 Purge extruder
 G92 E0 ; reset extruder
 G1 Z1.0 F3000 ; move z up little to prevent scratching of surface
 G1 X2 Y20 Z0.3 F5000.0 ; move to start-line position
 G1 X2 Y200.0 Z0.3 F1500.0 E15 ; draw 1st line
 G1 X2 Y200.0 Z0.4 F5000.0 ; move to side a little
 G1 X2 Y20 Z0.4 F1500.0 E30 ; draw 2nd line
 G92 E0 ; reset extruder
 G1 Z1.0 F3000 ; move z up little to prevent scratching of surface
G92 E0
G92 E0
G1 F3000 E-1.5
;LAYER_COUNT:220
;LAYER:0
M106 S191.3
G0 F6000 X129.124 Y138.622 Z0.2
;TYPE:SKIRT
G1 F3000 E0
G1 F300 X129.873 Y137.993 E0.04327
G1 X130.671 Y137.427 E0.08654
G1 X131.512 Y136.929 E0.12978
G1 X132.392 Y136.501 E0.17307
G1 X133.303 Y136.146 E0.21632
G1 X134.24 Y135.867 E0.25957
G1 X135.197 Y135.665 E0.30283
G1 X136.167 Y135.542 E0.34609
G1 X136.848 Y135.504 E0.37626
G1 X137.169 Y135.495 E0.39046
G1 X137.504 Y135.49 E0.40528
G1 X162.117 Y135.49 E1.49406
G1 X162.986 Y135.501 E1.53251
G1 X163.963 Y135.555 E1.57579
G1 X164.932 Y135.689 E1.61906
G1 X165.886 Y135.901 E1.66229
G1 X166.82 Y136.191 E1.70556
G1 X167.728 Y136.556 E1.74885
G1 X168.602 Y136.993 E1.79207
G1 X169.438 Y137.501 E1.83535
G1 X170.229 Y138.076 E1.8786
G1 X170.971 Y138.713 E1.92186
G1 X171.659 Y139.408 E1.96512
G1 X172.287 Y140.158 E2.0084
G1 X172.852 Y140.956 E2.05165
G1 X173.35 Y141.798 E2.09492
G1 X173.777 Y142.677 E2.13815
G1 X174.131 Y143.589 E2.18143
G1 X174.41 Y144.527 E2.22472
G1 X174.611 Y145.484 E2.26797
G1 X174.733 Y146.454 E2.31122
G1 X174.77 Y147.124 E2.3409
G1 X174.779 Y147.444 E2.35507
G1 X174.784 Y147.78 E2.36993
G1 X174.783 Y151.962 E2.55493
G1 X174.774 Y152.689 E2.58709
G1 X174.722 Y153.666 E2.63037
G1 X174.59 Y154.635 E2.67363
G1 X174.38 Y155.59 E2.71688
G1 X174.092 Y156.524 E2.76012
G1 X173.729 Y157.432 E2.80338
G1 X173.293 Y158.308 E2.84666
G1 X172.787 Y159.145 E2.88993
G1 X172.214 Y159.937 E2.93317
G1 X171.578 Y160.68 E2.97643
G1 X170.884 Y161.369 E3.01969
G1 X170.136 Y161.999 E3.06295
G1 X169.338 Y162.565 E3.10623
G1 X168.498 Y163.065 E3.14947
G1 X167.619 Y163.494 E3.19274
G1 X166.708 Y163.85 E3.23601
G1 X165.771 Y164.13 E3.27927
G1 X164.814 Y164.333 E3.32254
G1 X163.844 Y164.457 E3.3658
G1 X163.15 Y164.496 E3.39655
G1 X162.829 Y164.505 E3.41076
G1 X162.494 Y164.51 E3.42558
G1 X137.727 Y164.509 E4.52117
G1 X137.029 Y164.5 E4.55205
G1 X136.052 Y164.447 E4.59533
G1 X135.083 Y164.315 E4.63859
G1 X134.128 Y164.104 E4.68186
G1 X133.194 Y163.816 E4.72509
G1 X132.286 Y163.452 E4.76837
G1 X131.411 Y163.016 E4.81161
G1 X130.574 Y162.509 E4.8549
G1 X129.782 Y161.936 E4.89814
G1 X129.039 Y161.3 E4.94141
G1 X128.351 Y160.605 E4.98467
G1 X127.721 Y159.857 E5.02793
G1 X127.155 Y159.059 E5.07121
G1 X126.656 Y158.218 E5.11446
G1 X126.228 Y157.339 E5.15771
G1 X125.872 Y156.428 E5.20098
G1 X125.593 Y155.491 E5.24423
G1 X125.39 Y154.534 E5.2875
G1 X125.267 Y153.564 E5.33075
G1 X125.227 Y152.864 E5.36177
G1 X125.218 Y152.531 E5.37651
G1 X125.214 Y152.208 E5.39079
G1 X125.215 Y147.962 E5.57862
G1 X125.224 Y147.297 E5.60804
G1 X125.277 Y146.321 E5.65128
G1 X125.41 Y145.352 E5.69454
G1 X125.622 Y144.397 E5.73782
G1 X125.91 Y143.463 E5.78105
G1 X126.275 Y142.555 E5.82434
G1 X126.712 Y141.68 E5.86761
G1 X127.219 Y140.844 E5.91086
G1 X127.793 Y140.052 E5.95413
G1 X128.429 Y139.31 E5.99736
G1 X129.124 Y138.622 E6.04062
G0 F6000 X129.67 Y138.885
G1 F300 X130.414 Y138.286 E6.08287
G1 X131.206 Y137.752 E6.12513
G1 X132.039 Y137.286 E6.16735
G1 X132.908 Y136.891 E6.20958
G1 X133.807 Y136.57 E6.2518
G1 X134.73 Y136.326 E6.29403
G1 X135.671 Y136.16 E6.3363
G1 X136.863 Y136.063 E6.38921
G1 X137.184 Y136.054 E6.40341
G1 X137.504 Y136.05 E6.41757
G1 X162.117 Y136.05 E7.50635
G1 X162.978 Y136.061 E7.54444
G1 X163.932 Y136.115 E7.58671
G1 X164.877 Y136.248 E7.62892
G1 X165.808 Y136.46 E7.67116
G1 X166.718 Y136.749 E7.7134
G1 X167.601 Y137.113 E7.75565
G1 X168.45 Y137.55 E7.79789
G1 X169.259 Y138.056 E7.8401
G1 X170.023 Y138.628 E7.88232
G1 X170.737 Y139.262 E7.92455
G1 X171.395 Y139.954 E7.96679
G1 X171.993 Y140.698 E8.00902
G1 X172.527 Y141.49 E8.05127
G1 X172.992 Y142.324 E8.09351
G1 X173.387 Y143.193 E8.13574
G1 X173.706 Y144.093 E8.17798
G1 X173.95 Y145.016 E8.22021
G1 X174.115 Y145.957 E8.26247
G1 X174.21 Y147.14 E8.31497
G1 X174.219 Y147.46 E8.32913
G1 X174.224 Y147.78 E8.34329
G1 X174.223 Y151.955 E8.52798
G1 X174.214 Y152.682 E8.56014
G1 X174.162 Y153.635 E8.60236
G1 X174.031 Y154.581 E8.6446
G1 X173.821 Y155.513 E8.68687
G1 X173.534 Y156.423 E8.72908
G1 X173.171 Y157.306 E8.77131
G1 X172.736 Y158.156 E8.81355
G1 X172.231 Y158.967 E8.85581
G1 X171.661 Y159.732 E8.89801
G1 X171.028 Y160.447 E8.94025
G1 X170.338 Y161.107 E8.98249
G1 X169.594 Y161.706 E9.02474
G1 X168.804 Y162.241 E9.06695
G1 X167.971 Y162.708 E9.10919
G1 X167.102 Y163.104 E9.15144
G1 X166.203 Y163.426 E9.19368
G1 X165.28 Y163.671 E9.23592
G1 X164.34 Y163.838 E9.27816
G1 X163.135 Y163.937 E9.33164
G1 X162.814 Y163.946 E9.34584
G1 X162.494 Y163.95 E9.36
G1 X137.734 Y163.949 E10.45528
G1 X137.036 Y163.94 E10.48616
G1 X136.083 Y163.888 E10.52838
G1 X135.137 Y163.756 E10.57064
G1 X134.206 Y163.545 E10.61286
G1 X133.295 Y163.258 E10.65512
G1 X132.412 Y162.895 E10.69735
G1 X131.563 Y162.459 E10.73957
G1 X130.752 Y161.954 E10.78183
G1 X129.987 Y161.383 E10.82406
G1 X129.273 Y160.75 E10.86627
G1 X128.613 Y160.059 E10.90854
G1 X128.014 Y159.316 E10.95075
G1 X127.48 Y158.525 E10.99297
G1 X127.013 Y157.692 E11.03522
G1 X126.618 Y156.823 E11.07744
G1 X126.296 Y155.924 E11.11968
G1 X126.052 Y155.001 E11.16192
G1 X125.885 Y154.061 E11.20415
G1 X125.787 Y152.849 E11.25794
G1 X125.778 Y152.516 E11.27267
G1 X125.774 Y152.208 E11.2863
G1 X125.775 Y147.97 E11.47377
G1 X125.784 Y147.305 E11.50319
G1 X125.837 Y146.351 E11.54546
G1 X125.969 Y145.406 E11.58767
G1 X126.181 Y144.475 E11.62991
G1 X126.469 Y143.565 E11.67213
G1 X126.832 Y142.682 E11.71436
G1 X127.268 Y141.832 E11.75662
G1 X127.774 Y141.022 E11.79887
G1 X128.346 Y140.258 E11.84109
G1 X128.979 Y139.543 E11.88333
G1 X129.67 Y138.885 E11.92554
G0 F6000 X130.215 Y139.155
G1 F300 X130.953 Y138.588 E11.96671
G1 X131.738 Y138.086 E12.00792
G1 X132.562 Y137.653 E12.0491
G1 X133.421 Y137.293 E12.0903
G1 X134.307 Y137.008 E12.13147
G1 X135.214 Y136.799 E12.17265
G1 X136.136 Y136.67 E12.21383
G1 X136.879 Y136.623 E12.24676
G1 X137.2 Y136.614 E12.26097
G1 X137.504 Y136.61 E12.27442
G1 X162.117 Y136.61 E13.3632
G1 X162.97 Y136.621 E13.40093
G1 X163.9 Y136.674 E13.44214
G1 X164.821 Y136.807 E13.4833
G1 X165.728 Y137.019 E13.52451
G1 X166.613 Y137.307 E13.56568
G1 X167.47 Y137.671 E13.60686
G1 X168.293 Y138.106 E13.64804
G1 X169.076 Y138.611 E13.68926
G1 X169.812 Y139.181 E13.73044
G1 X170.497 Y139.811 E13.77161
G1 X171.124 Y140.499 E13.81278
G1 X171.691 Y141.238 E13.85399
G1 X172.192 Y142.022 E13.89515
G1 X172.624 Y142.847 E13.93634
G1 X172.984 Y143.706 E13.97754
G1 X173.269 Y144.592 E14.01871
G1 X173.476 Y145.5 E14.05991
G1 X173.605 Y146.422 E14.10109
G1 X173.651 Y147.155 E14.13358
G1 X173.66 Y147.475 E14.14774
G1 X173.664 Y147.78 E14.16123
G1 X173.663 Y151.948 E14.34561
G1 X173.654 Y152.675 E14.37777
G1 X173.603 Y153.605 E14.41897
G1 X173.472 Y154.527 E14.46017
G1 X173.262 Y155.434 E14.50135
G1 X172.975 Y156.319 E14.54251
G1 X172.613 Y157.177 E14.5837
G1 X172.18 Y158.001 E14.62488
G1 X171.676 Y158.784 E14.66607
G1 X171.108 Y159.522 E14.70727
G1 X170.478 Y160.208 E14.74847
G1 X169.792 Y160.837 E14.78964
G1 X169.055 Y161.405 E14.8308
G1 X168.271 Y161.908 E14.87201
G1 X167.447 Y162.341 E14.91318
G1 X166.589 Y162.703 E14.95438
G1 X165.703 Y162.989 E14.99556
G1 X164.796 Y163.198 E15.03673
G1 X163.874 Y163.329 E15.07793
G1 X163.119 Y163.377 E15.11139
G1 X162.798 Y163.386 E15.1256
G1 X162.494 Y163.39 E15.13905
G1 X137.741 Y163.389 E16.23402
G1 X137.043 Y163.38 E16.2649
G1 X136.114 Y163.328 E16.30606
G1 X135.192 Y163.197 E16.34726
G1 X134.285 Y162.986 E16.38845
G1 X133.399 Y162.699 E16.42965
G1 X132.542 Y162.337 E16.4708
G1 X131.718 Y161.903 E16.512
G1 X130.935 Y161.399 E16.55319
G1 X130.198 Y160.83 E16.59438
G1 X129.512 Y160.201 E16.63555
G1 X128.883 Y159.514 E16.67675
G1 X128.316 Y158.776 E16.71792
G1 X127.813 Y157.992 E16.75913
G1 X127.38 Y157.168 E16.8003
G1 X127.019 Y156.31 E16.84148
G1 X126.733 Y155.424 E16.88267
G1 X126.525 Y154.517 E16.92383
G1 X126.394 Y153.595 E16.96502
G1 X126.347 Y152.834 E16.99875
G1 X126.338 Y152.501 E17.01349
G1 X126.334 Y152.208 E17.02645
G1 X126.335 Y147.977 E17.21361
G1 X126.344 Y147.312 E17.24303
G1 X126.397 Y146.383 E17.28419
G1 X126.529 Y145.461 E17.3254
G1 X126.739 Y144.554 E17.36658
G1 X127.027 Y143.669 E17.40775
G1 X127.39 Y142.811 E17.44896
G1 X127.825 Y141.988 E17.49014
G1 X128.329 Y141.205 E17.53133
G1 X128.898 Y140.469 E17.57248
G1 X129.528 Y139.784 E17.61365
G1 X130.215 Y139.155 E17.65486
G0 F6000 X130.077 Y140.031
G1 F300 X130.759 Y139.434 E17.69495
G1 X131.491 Y138.899 E17.73506
G1 X132.267 Y138.43 E17.77517
G1 X133.082 Y138.032 E17.81529
G1 X133.928 Y137.708 E17.85536
G1 X134.8 Y137.459 E17.89548
G1 X135.691 Y137.288 E17.93561
G1 X136.895 Y137.183 E17.98908
G1 X137.216 Y137.174 E18.00328
G1 X137.504 Y137.17 E18.01602
G1 X162.117 Y137.17 E19.1048
G1 X162.962 Y137.181 E19.14218
G1 X163.867 Y137.234 E19.18229
G1 X164.764 Y137.366 E19.22239
G1 X165.646 Y137.578 E19.26252
G1 X166.506 Y137.865 E19.30263
G1 X167.337 Y138.228 E19.34274
G1 X168.133 Y138.662 E19.38285
G1 X168.887 Y139.165 E19.42294
G1 X169.594 Y139.732 E19.46303
G1 X170.249 Y140.36 E19.50317
G1 X170.846 Y141.042 E19.54327
G1 X171.38 Y141.775 E19.58338
G1 X171.847 Y142.551 E19.62345
G1 X172.245 Y143.366 E19.66357
G1 X172.569 Y144.213 E19.70368
G1 X172.817 Y145.085 E19.74379
G1 X172.987 Y145.976 E19.78391
G1 X173.091 Y147.171 E19.83697
G1 X173.1 Y147.491 E19.85114
G1 X173.104 Y147.78 E19.86392
G1 X173.103 Y151.941 E20.04799
G1 X173.094 Y152.668 E20.08015
G1 X173.043 Y153.573 E20.12025
G1 X172.912 Y154.471 E20.16039
G1 X172.703 Y155.353 E20.20049
G1 X172.417 Y156.213 E20.24058
G1 X172.056 Y157.045 E20.2807
G1 X171.623 Y157.841 E20.32078
G1 X171.122 Y158.597 E20.3609
G1 X170.556 Y159.305 E20.401
G1 X169.93 Y159.961 E20.44111
G1 X169.248 Y160.559 E20.48123
G1 X168.517 Y161.095 E20.52133
G1 X167.741 Y161.564 E20.56144
G1 X166.927 Y161.963 E20.60154
G1 X166.081 Y162.288 E20.64163
G1 X165.209 Y162.538 E20.68176
G1 X164.319 Y162.71 E20.72186
G1 X163.103 Y162.817 E20.77586
G1 X162.782 Y162.826 E20.79006
G1 X162.494 Y162.83 E20.8028
G1 X137.748 Y162.829 E21.89747
G1 X137.05 Y162.82 E21.92835
G1 X136.145 Y162.768 E21.96845
G1 X135.248 Y162.637 E22.00855
G1 X134.366 Y162.428 E22.04864
G1 X133.506 Y162.141 E22.08875
G1 X132.674 Y161.78 E22.12887
G1 X131.878 Y161.346 E22.16897
G1 X131.123 Y160.845 E22.20906
G1 X130.415 Y160.279 E22.24915
G1 X129.759 Y159.652 E22.2893
G1 X129.162 Y158.97 E22.32939
G1 X128.626 Y158.239 E22.36949
G1 X128.158 Y157.462 E22.40961
G1 X127.759 Y156.648 E22.44971
G1 X127.434 Y155.802 E22.4898
G1 X127.184 Y154.93 E22.52993
G1 X127.013 Y154.04 E22.57002
G1 X126.907 Y152.819 E22.62424
G1 X126.898 Y152.486 E22.63897
G1 X126.894 Y152.208 E22.65127
G1 X126.895 Y147.985 E22.83808
G1 X126.904 Y147.32 E22.8675
G1 X126.956 Y146.415 E22.9076
G1 X127.088 Y145.518 E22.94771
G1 X127.298 Y144.636 E22.98781
G1 X127.585 Y143.776 E23.02792
G1 X127.947 Y142.945 E23.06802
G1 X128.381 Y142.148 E23.10816
G1 X128.883 Y141.393 E23.14827
G1 X129.45 Y140.686 E23.18836
G1 X130.077 Y140.031 E23.22847
G1 F3000 E21.72847
;MESH:SDCardHolder_OctoPi_0_18_v02.stl
G0 F6000 X156.965 Y146.785
G0 X156.965 Y148.29
;TYPE:WALL-INNER
G1 F3000 E23.22847
G1 F300 X161.984 Y148.29 E23.45049
G1 X161.984 Y151.71 E23.60177
G1 X156.965 Y151.71 E23.8238
G1 X156.965 Y148.29 E23.97508
G1 F3000 E22.47508
G0 F6000 X155.472 Y149.103
G0 X144.528 Y149.103
G0 X143.035 Y148.29
G1 F3000 E23.97508
G1 F300 X143.035 Y151.71 E24.12637
G1 X138.014 Y151.71 E24.34848
G1 X138.014 Y148.29 E24.49977
G1 X143.035 Y148.29 E24.72187
G1 F3000 E23.22187
G0 F6000 X144.528 Y149.103
G0 X155.472 Y149.103
G0 X156.405 Y148.17
;TYPE:WALL-OUTER
G1 F3000 E24.72187
G1 F300 X143.595 Y148.17 E25.28854
G1 X143.595 Y151.83 E25.45044
G1 X156.405 Y151.83 E26.0171
G1 X156.405 Y148.17 E26.17901
G1 F3000 E24.67901
G0 F6000 X155.472 Y149.103
G0 X137.454 Y146.785
G0 X137.454 Y147.73
G1 F3000 E26.17901
G1 F300 X162.544 Y147.73 E27.28889
G1 X162.544 Y152.27 E27.48972
G1 X137.454 Y152.27 E28.5996
G1 X137.454 Y147.73 E28.80043
G1 F3000 E27.30043
G0 F6000 X137.454 Y146.785
G0 X141.355 Y146.785
G0 X141.355 Y150.03
;TYPE:SKIN
G1 F3000 E28.80043
G1 F300 X139.694 Y150.03 E28.87391
G1 X139.694 Y149.97 E28.87656
G1 X141.355 Y149.97 E28.95004
G1 X141.355 Y150.03 E28.95269
G0 F6000 X141.915 Y150.59
G1 F300 X139.134 Y150.59 E29.07571
G1 X139.134 Y149.41 E29.12791
G1 X141.915 Y149.41 E29.25093
G1 X141.915 Y150.59 E29.30313
G0 F6000 X142.475 Y151.15
G1 F300 X138.574 Y151.15 E29.47569
G1 X138.574 Y148.85 E29.57744
G1 X142.475 Y148.85 E29.75
G1 X142.475 Y151.15 E29.85174
G1 F3000 E28.35174
G0 F6000 X144.528 Y150.897
G0 X160.304 Y153.215
G0 X160.304 Y150.03
G1 F3000 E29.85174
G1 F300 X158.645 Y150.03 E29.92513
G1 X158.645 Y149.97 E29.92779
G1 X160.304 Y149.97 E30.00117
G1 X160.304 Y150.03 E30.00383
G0 F6000 X160.864 Y150.59
G1 F300 X158.085 Y150.59 E30.12676
G1 X158.085 Y149.41 E30.17896
G1 X160.864 Y149.41 E30.30189
G1 X160.864 Y150.59 E30.35409
G0 F6000 X161.424 Y151.15
G1 F300 X157.525 Y151.15 E30.52656
G1 X157.525 Y148.85 E30.62831
G1 X161.424 Y148.85 E30.80078
G1 X161.424 Y151.15 E30.90253
G1 F3000 E29.40253
;MESH:NONMESH
G0 F300 X161.424 Y151.15 Z0.35
G0 F6000 X161.424 Y153.215
G0 X163.477 Y153.203
G0 X163.477 Y146.797
G0 X156.725 Y146.785
G0 X156.725 Y148.05
;TIME_ELAPSED:149.173221
;LAYER:1
;TYPE:WALL-INNER
;MESH:SDCardHolder_OctoPi_0_18_v02.stl
G1 F3000 E30.90253
G1 F1050 X162.237 Y148.05 E31.03315
G1 X162.436 Y148.05 E31.03786
G1 X162.436 Y148.249 E31.04091
G1 X162.435 Y151.95 E31.12862
G1 X156.725 Y151.95 E31.26394
G1 X156.725 Y148.05 E31.35636
G1 F3000 E29.85636
G0 F7500 X156.725 Y146.785
G0 X143.275 Y146.785
G0 X143.275 Y148.05
G1 F3000 E31.35636
G1 F1050 X143.275 Y151.95 E31.44878
G1 X137.761 Y151.95 E31.57945
G1 X137.562 Y151.95 E31.58416
G1 X137.562 Y151.751 E31.58722
G1 X137.563 Y148.05 E31.67492
G1 X143.275 Y148.05 E31.81028
G1 F3000 E30.31028
G0 F7500 X143.275 Y146.785
G0 X155.472 Y149.103
G0 X156.325 Y148.25
;TYPE:WALL-OUTER
G1 F3000 E31.81028
G1 F1050 X143.675 Y148.25 E32.11006
G1 X143.675 Y151.75 E32.193
G1 X156.325 Y151.75 E32.49278
G1 X156.325 Y148.25 E32.57572
G1 F3000 E31.07572
G0 F7500 X155.472 Y149.103
G0 X137.163 Y146.785
G0 X137.163 Y147.65
G1 F3000 E32.57572
G1 F1050 X162.836 Y147.65 E33.18412
G1 X162.835 Y152.35 E33.2955
G1 X137.162 Y152.35 E33.90389
G1 X137.163 Y147.65 E34.01527
G1 F3000 E32.51527
G0 F7500 X137.163 Y146.785
G0 X136.31 Y146.797
G0 X136.309 Y153.203
G0 X141.675 Y153.215
G0 X141.675 Y150.35
;TYPE:SKIN
G1 F3000 E34.01527
G1 F750 X139.162 Y150.35 E34.07483
G1 X139.163 Y149.65 E34.09141
G1 X141.675 Y149.65 E34.15094
G1 X141.675 Y150.35 E34.16753
G0 F7500 X142.075 Y150.75
G1 F750 X138.762 Y150.75 E34.24604
G1 X138.763 Y149.25 E34.28159
G1 X142.075 Y149.25 E34.36008
G1 X142.075 Y150.75 E34.39562
G0 F7500 X142.475 Y151.15
G1 F750 X138.362 Y151.15 E34.49309
G1 X138.363 Y148.85 E34.5476
G1 X142.475 Y148.85 E34.64504
G1 X142.475 Y151.15 E34.69955
G0 F7500 X142.875 Y151.55
G1 F750 X137.962 Y151.55 E34.81598
G1 X137.963 Y148.45 E34.88944
G1 X142.875 Y148.45 E35.00584
G1 X142.875 Y151.55 E35.07931
G0 F7500 X141.193 Y150.134
;TYPE:SKIN
G1 F750 X141.459 Y149.868 E35.08376
G0 F7500 X141.18 Y149.864
G1 F750 X140.91 Y150.134 E35.08829
G0 F7500 X140.898 Y149.864
G1 F750 X140.627 Y150.134 E35.09282
G0 F7500 X140.615 Y149.864
G1 F750 X140.345 Y150.134 E35.09735
G0 F7500 X140.332 Y149.864
G1 F750 X140.062 Y150.134 E35.10187
G0 F7500 X140.049 Y149.864
G1 F750 X139.779 Y150.134 E35.10639
G0 F7500 X139.766 Y149.864
