;FLAVOR:Marlin
;TIME:1808
;Filament used: 0.602006m
;Layer height: 0.2
;MINX:125.096
;MINY:135.594
;MINZ:0.3
;MAXX:174.906
;MAXY:164.406
;MAXZ:32.9
;Generated with Cura_SteamEngine 4.10.0
M140 S30
M105
M190 S30
M104 S235
M105
M109 S235
M82 ;absolute extrusion mode
G28 ; home all axes
 M117 Purge extruder
 G92 E0 ; reset extruder
 G1 Z1.0 F3000 ; move z up little to prevent scratching of surface
 G1 X2 Y20 Z0.3 F5000.0 ; move to start-line position
 G1 X2 Y200.0 Z0.3 F1500.0 E15 ; draw 1st line
 G1 X2 Y200.0 Z0.4 F5000.0 ; move to side a little
 G1 X2 Y20 Z0.4 F1500.0 E30 ; draw 2nd line
 G92 E0 ; reset extruder
 G1 Z1.0 F3000 ; move z up little to prevent scratching of surface
G92 E0
G92 E0
G1 F3000 E-1.5
;LAYER_COUNT:165
;LAYER:0
M106 S191.3
G0 F6000 X129.011 Y138.831 Z0.3
;TYPE:SKIRT
G1 F3000 E0
G1 F300 X129.762 Y138.192 E0.07197
G1 X130.562 Y137.616 E0.14392
G1 X131.406 Y137.106 E0.2159
G1 X132.288 Y136.667 E0.28781
G1 X133.203 Y136.3 E0.35977
G1 X134.145 Y136.009 E0.43173
G1 X135.108 Y135.795 E0.50373
G1 X136.085 Y135.66 E0.57572
G1 X136.92 Y135.608 E0.63679
G1 X137.241 Y135.599 E0.66022
G1 X137.582 Y135.594 E0.68512
G1 X162.043 Y135.594 E2.47051
G1 X162.915 Y135.605 E2.53416
G1 X163.9 Y135.659 E2.60616
G1 X164.876 Y135.793 E2.67807
G1 X165.839 Y136.005 E2.75004
G1 X166.782 Y136.295 E2.82205
G1 X167.697 Y136.66 E2.89395
G1 X168.581 Y137.099 E2.96599
G1 X169.425 Y137.607 E3.0379
G1 X170.226 Y138.182 E3.10986
G1 X170.978 Y138.82 E3.18185
G1 X171.675 Y139.517 E3.25379
G1 X172.314 Y140.268 E3.32576
G1 X172.89 Y141.069 E3.39777
G1 X173.398 Y141.913 E3.46968
G1 X173.837 Y142.796 E3.54165
G1 X174.203 Y143.712 E3.61365
G1 X174.493 Y144.654 E3.68559
G1 X174.707 Y145.616 E3.75752
G1 X174.841 Y146.593 E3.8295
G1 X174.892 Y147.418 E3.88983
G1 X174.901 Y147.738 E3.9132
G1 X174.906 Y148.08 E3.93816
G1 X174.905 Y151.664 E4.19976
G1 X174.896 Y152.391 E4.25282
G1 X174.844 Y153.376 E4.32482
G1 X174.712 Y154.353 E4.39678
G1 X174.502 Y155.316 E4.46872
G1 X174.214 Y156.259 E4.54068
G1 X173.85 Y157.176 E4.6127
G1 X173.414 Y158.06 E4.68464
G1 X172.907 Y158.906 E4.75663
G1 X172.334 Y159.708 E4.82857
G1 X171.697 Y160.46 E4.9005
G1 X171.001 Y161.159 E4.9725
G1 X170.251 Y161.799 E5.04447
G1 X169.452 Y162.377 E5.11644
G1 X168.609 Y162.887 E5.18836
G1 X167.727 Y163.328 E5.26033
G1 X166.812 Y163.695 E5.33229
G1 X165.87 Y163.987 E5.40427
G1 X164.908 Y164.202 E5.47622
G1 X163.931 Y164.339 E5.54823
G1 X163.082 Y164.392 E5.61032
G1 X162.761 Y164.401 E5.63376
G1 X162.42 Y164.406 E5.65865
G1 X137.802 Y164.405 E7.4555
G1 X137.104 Y164.396 E7.50645
G1 X136.12 Y164.343 E7.57838
G1 X135.143 Y164.211 E7.65034
G1 X134.18 Y164 E7.72229
G1 X133.237 Y163.712 E7.79426
G1 X132.32 Y163.348 E7.86627
G1 X131.437 Y162.911 E7.93818
G1 X130.591 Y162.404 E8.01017
G1 X129.789 Y161.83 E8.08216
G1 X129.037 Y161.193 E8.15409
G1 X128.339 Y160.497 E8.22604
G1 X127.699 Y159.747 E8.298
G1 X127.122 Y158.947 E8.36999
G1 X126.612 Y158.103 E8.44197
G1 X126.172 Y157.221 E8.51391
G1 X125.805 Y156.306 E8.58587
G1 X125.513 Y155.364 E8.65785
G1 X125.299 Y154.402 E8.72979
G1 X125.163 Y153.425 E8.80178
G1 X125.109 Y152.569 E8.86439
G1 X125.1 Y152.236 E8.8887
G1 X125.096 Y151.908 E8.91264
G1 X125.097 Y148.259 E9.17898
G1 X125.106 Y147.594 E9.22752
G1 X125.159 Y146.61 E9.29945
G1 X125.292 Y145.633 E9.37142
G1 X125.504 Y144.67 E9.44339
G1 X125.793 Y143.727 E9.51538
G1 X126.157 Y142.811 E9.58732
G1 X126.595 Y141.928 E9.65927
G1 X127.103 Y141.083 E9.73123
G1 X127.677 Y140.281 E9.80322
G1 X128.315 Y139.529 E9.8752
G1 X129.011 Y138.831 E9.94714
G0 F6000 X129.612 Y139.118
G1 F300 X130.357 Y138.512 E10.01724
G1 X131.15 Y137.97 E10.08735
G1 X131.985 Y137.495 E10.15746
G1 X132.857 Y137.092 E10.22758
G1 X133.76 Y136.763 E10.29773
G1 X134.686 Y136.51 E10.36779
G1 X135.631 Y136.335 E10.43794
G1 X136.938 Y136.224 E10.53368
G1 X137.259 Y136.215 E10.55712
G1 X137.582 Y136.21 E10.5807
G1 X162.043 Y136.21 E12.36609
G1 X162.906 Y136.221 E12.42908
G1 X163.865 Y136.275 E12.49919
G1 X164.817 Y136.408 E12.56935
G1 X165.754 Y136.62 E12.63947
G1 X166.67 Y136.909 E12.70958
G1 X167.559 Y137.274 E12.77972
G1 X168.414 Y137.711 E12.84981
G1 X169.23 Y138.217 E12.91989
G1 X170.001 Y138.79 E12.99
G1 X170.722 Y139.425 E13.06013
G1 X171.388 Y140.118 E13.13028
G1 X171.994 Y140.863 E13.20038
G1 X172.535 Y141.657 E13.2705
G1 X173.009 Y142.493 E13.34065
G1 X173.411 Y143.365 E13.41073
G1 X173.74 Y144.268 E13.48088
G1 X173.992 Y145.194 E13.55093
G1 X174.167 Y146.139 E13.62107
G1 X174.276 Y147.436 E13.71608
G1 X174.285 Y147.756 E13.73944
G1 X174.29 Y148.08 E13.76309
G1 X174.289 Y151.657 E14.02418
G1 X174.28 Y152.384 E14.07724
G1 X174.228 Y153.343 E14.14734
G1 X174.097 Y154.295 E14.21748
G1 X173.887 Y155.232 E14.28757
G1 X173.599 Y156.149 E14.35773
G1 X173.237 Y157.038 E14.42779
G1 X172.801 Y157.895 E14.49797
G1 X172.296 Y158.712 E14.56807
G1 X171.725 Y159.484 E14.63816
G1 X171.091 Y160.206 E14.70829
G1 X170.4 Y160.873 E14.77839
G1 X169.656 Y161.48 E14.84847
G1 X168.863 Y162.023 E14.91862
G1 X168.028 Y162.498 E14.98874
G1 X167.157 Y162.903 E15.05885
G1 X166.255 Y163.233 E15.12896
G1 X165.329 Y163.487 E15.19904
G1 X164.384 Y163.663 E15.2692
G1 X163.064 Y163.776 E15.3659
G1 X162.743 Y163.785 E15.38934
G1 X162.42 Y163.79 E15.41292
G1 X137.81 Y163.789 E17.20918
G1 X137.112 Y163.78 E17.26014
G1 X136.153 Y163.728 E17.33024
G1 X135.201 Y163.596 E17.40039
G1 X134.264 Y163.385 E17.47049
G1 X133.348 Y163.097 E17.54057
G1 X132.458 Y162.734 E17.61073
G1 X131.602 Y162.298 E17.68085
G1 X130.785 Y161.793 E17.75095
G1 X130.013 Y161.221 E17.82108
G1 X129.292 Y160.587 E17.89116
G1 X128.625 Y159.896 E17.96126
G1 X128.018 Y159.151 E18.0314
G1 X127.476 Y158.358 E18.10151
G1 X127.001 Y157.523 E18.17162
G1 X126.597 Y156.651 E18.24177
G1 X126.267 Y155.749 E18.31187
G1 X126.013 Y154.823 E18.38196
G1 X125.838 Y153.878 E18.45211
G1 X125.725 Y152.553 E18.54917
G1 X125.716 Y152.22 E18.57348
G1 X125.712 Y151.908 E18.59626
G1 X125.713 Y148.268 E18.86194
G1 X125.722 Y147.603 E18.91048
G1 X125.775 Y146.644 E18.98058
G1 X125.908 Y145.692 E19.05075
G1 X126.119 Y144.755 E19.12085
G1 X126.407 Y143.839 E19.19093
G1 X126.771 Y142.95 E19.26105
G1 X127.207 Y142.094 E19.33117
G1 X127.713 Y141.277 E19.40131
G1 X128.285 Y140.506 E19.47138
G1 X128.92 Y139.784 E19.54156
G1 X129.612 Y139.118 E19.61166
G0 F6000 X129.524 Y140.047
G1 F300 X130.212 Y139.414 E19.6799
G1 X130.951 Y138.842 E19.74811
G1 X131.736 Y138.335 E19.81632
G1 X132.562 Y137.897 E19.88456
G1 X133.422 Y137.532 E19.95275
G1 X134.31 Y137.241 E20.02095
G1 X135.22 Y137.027 E20.08919
G1 X136.145 Y136.892 E20.15742
G1 X136.955 Y136.839 E20.21666
G1 X137.276 Y136.83 E20.2401
G1 X137.582 Y136.826 E20.26244
G1 X162.043 Y136.826 E22.04783
G1 X162.897 Y136.837 E22.11017
G1 X163.831 Y136.89 E22.17845
G1 X164.756 Y137.023 E22.24666
G1 X165.666 Y137.235 E22.31486
G1 X166.555 Y137.523 E22.38307
G1 X167.416 Y137.887 E22.4513
G1 X168.243 Y138.323 E22.51953
G1 X169.029 Y138.828 E22.58772
G1 X169.77 Y139.398 E22.65596
G1 X170.459 Y140.029 E22.72415
G1 X171.092 Y140.717 E22.79239
G1 X171.663 Y141.457 E22.86061
G1 X172.169 Y142.243 E22.92884
G1 X172.606 Y143.069 E22.99705
G1 X172.971 Y143.929 E23.06524
G1 X173.261 Y144.818 E23.13349
G1 X173.474 Y145.728 E23.20171
G1 X173.609 Y146.652 E23.26987
G1 X173.661 Y147.453 E23.32845
G1 X173.67 Y147.773 E23.35182
G1 X173.674 Y148.08 E23.37423
G1 X173.673 Y151.649 E23.63473
G1 X173.664 Y152.376 E23.6878
G1 X173.613 Y153.309 E23.756
G1 X173.482 Y154.235 E23.82426
G1 X173.272 Y155.146 E23.89249
G1 X172.985 Y156.035 E23.96068
G1 X172.623 Y156.897 E24.02892
G1 X172.189 Y157.725 E24.09715
G1 X171.686 Y158.512 E24.16533
G1 X171.117 Y159.254 E24.23358
G1 X170.487 Y159.944 E24.30177
G1 X169.8 Y160.578 E24.37001
G1 X169.062 Y161.151 E24.4382
G1 X168.277 Y161.658 E24.50641
G1 X167.452 Y162.097 E24.57462
G1 X166.592 Y162.464 E24.64287
G1 X165.704 Y162.756 E24.7111
G1 X164.794 Y162.97 E24.77933
G1 X163.87 Y163.107 E24.84751
G1 X163.047 Y163.161 E24.90771
G1 X162.726 Y163.17 E24.93115
G1 X162.42 Y163.174 E24.95348
G1 X137.818 Y163.173 E26.74917
G1 X137.12 Y163.164 E26.80012
G1 X136.187 Y163.112 E26.86832
G1 X135.262 Y162.98 E26.93652
G1 X134.351 Y162.77 E27.00476
G1 X133.462 Y162.483 E27.07294
G1 X132.6 Y162.121 E27.14118
G1 X131.773 Y161.686 E27.20939
G1 X130.985 Y161.182 E27.27766
G1 X130.244 Y160.613 E27.34585
G1 X129.554 Y159.983 E27.41405
G1 X128.92 Y159.296 E27.48228
G1 X128.348 Y158.557 E27.55049
G1 X127.841 Y157.772 E27.6187
G1 X127.402 Y156.947 E27.68691
G1 X127.036 Y156.087 E27.75513
G1 X126.745 Y155.199 E27.82334
G1 X126.531 Y154.289 E27.89157
G1 X126.395 Y153.364 E27.95981
G1 X126.341 Y152.536 E28.02037
G1 X126.332 Y152.203 E28.04469
G1 X126.328 Y151.908 E28.06622
G1 X126.329 Y148.276 E28.33132
G1 X126.338 Y147.611 E28.37986
G1 X126.391 Y146.678 E28.44807
G1 X126.523 Y145.753 E28.51627
G1 X126.734 Y144.842 E28.58452
G1 X127.021 Y143.953 E28.65271
G1 X127.384 Y143.092 E28.72091
G1 X127.819 Y142.265 E28.78911
G1 X128.324 Y141.478 E28.85736
G1 X128.893 Y140.737 E28.92555
G1 X129.524 Y140.047 E28.9938
G0 F6000 X130.127 Y140.318
G1 F300 X130.81 Y139.719 E29.06011
G1 X131.542 Y139.183 E29.12633
G1 X132.319 Y138.713 E29.19261
G1 X133.134 Y138.313 E29.25887
G1 X133.981 Y137.987 E29.32512
G1 X134.854 Y137.736 E29.39142
G1 X135.745 Y137.563 E29.45767
G1 X136.972 Y137.455 E29.54757
G1 X137.293 Y137.446 E29.57101
G1 X137.582 Y137.442 E29.5921
G1 X162.043 Y137.442 E31.3775
G1 X162.889 Y137.453 E31.43925
G1 X163.795 Y137.506 E31.50549
G1 X164.693 Y137.639 E31.57175
G1 X165.576 Y137.85 E31.63802
G1 X166.437 Y138.137 E31.70426
G1 X167.27 Y138.5 E31.77058
G1 X168.067 Y138.934 E31.83682
G1 X168.823 Y139.437 E31.9031
G1 X169.531 Y140.005 E31.96935
G1 X170.187 Y140.632 E32.03558
G1 X170.786 Y141.315 E32.10189
G1 X171.322 Y142.048 E32.16817
G1 X171.791 Y142.825 E32.23441
G1 X172.19 Y143.64 E32.30065
G1 X172.516 Y144.488 E32.36696
G1 X172.766 Y145.361 E32.43324
G1 X172.938 Y146.252 E32.49947
G1 X173.045 Y147.47 E32.58872
G1 X173.054 Y147.79 E32.61208
G1 X173.058 Y148.08 E32.63325
G1 X173.057 Y151.642 E32.89324
G1 X173.048 Y152.369 E32.94631
G1 X172.997 Y153.275 E33.01254
G1 X172.866 Y154.173 E33.07878
G1 X172.657 Y155.057 E33.14508
G1 X172.371 Y155.918 E33.2113
G1 X172.01 Y156.751 E33.27756
G1 X171.577 Y157.55 E33.34389
G1 X171.076 Y158.306 E33.41009
G1 X170.51 Y159.016 E33.47637
G1 X169.883 Y159.674 E33.54271
G1 X169.202 Y160.273 E33.6089
G1 X168.47 Y160.81 E33.67517
G1 X167.694 Y161.281 E33.74142
G1 X166.879 Y161.682 E33.80772
G1 X166.032 Y162.009 E33.87399
G1 X165.16 Y162.261 E33.94024
G1 X164.269 Y162.435 E34.0065
G1 X163.03 Y162.545 E34.09729
G1 X162.709 Y162.554 E34.12073
G1 X162.42 Y162.558 E34.14183
G1 X137.826 Y162.557 E35.93693
G1 X137.128 Y162.548 E35.98788
G1 X136.222 Y162.496 E36.05412
G1 X135.323 Y162.365 E36.12043
G1 X134.44 Y162.155 E36.18667
G1 X133.579 Y161.869 E36.25289
G1 X132.746 Y161.507 E36.31919
G1 X131.948 Y161.074 E36.38545
G1 X131.191 Y160.572 E36.45175
G1 X130.482 Y160.006 E36.51797
G1 X129.825 Y159.379 E36.58426
G1 X129.226 Y158.697 E36.65051
G1 X128.689 Y157.965 E36.71677
G1 X128.218 Y157.189 E36.78303
G1 X127.818 Y156.374 E36.84929
G1 X127.491 Y155.527 E36.91556
G1 X127.24 Y154.655 E36.98179
G1 X127.066 Y153.764 E37.04806
G1 X126.957 Y152.519 E37.13927
G1 X126.948 Y152.186 E37.16359
G1 X126.944 Y151.908 E37.18388
G1 X126.945 Y148.285 E37.44832
G1 X126.954 Y147.62 E37.49687
G1 X127.006 Y146.713 E37.56318
G1 X127.138 Y145.815 E37.62942
G1 X127.348 Y144.932 E37.69567
G1 X127.636 Y144.07 E37.76201
G1 X127.997 Y143.238 E37.8282
G1 X128.431 Y142.44 E37.89451
G1 X128.933 Y141.684 E37.96074
G1 X129.5 Y140.975 E38.02701
G1 X130.127 Y140.318 E38.09329
G1 F3000 E36.59329
;MESH:SDCardHolder_OctoPi_0_18_v01.stl
G0 F6000 X155.397 Y149.403
G0 X156.974 Y148.674
;TYPE:WALL-INNER
G1 F3000 E38.09329
G1 F300 X161.826 Y148.674 E38.4288
G1 X161.826 Y151.326 E38.61218
G1 X156.974 Y151.326 E38.94768
G1 X156.974 Y148.674 E39.13106
G1 F3000 E37.63106
G0 F6000 X155.397 Y149.403
G0 X144.603 Y149.403
G0 X143.026 Y148.674
G1 F3000 E39.13106
G1 F300 X143.026 Y151.326 E39.31444
G1 X138.176 Y151.326 E39.64981
G1 X138.176 Y148.674 E39.83319
G1 X143.026 Y148.674 E40.16856
G1 F3000 E38.66856
G0 F6000 X144.603 Y149.403
G0 X155.397 Y149.403
G0 X156.358 Y148.442
;TYPE:WALL-OUTER
G1 F3000 E40.16856
G1 F300 X143.642 Y148.442 E41.04784
G1 X143.642 Y151.558 E41.26331
G1 X156.358 Y151.558 E42.14259
G1 X156.358 Y148.442 E42.35805
G1 F3000 E40.85805
G0 F6000 X155.397 Y149.403
G0 X137.56 Y147.085
G0 X137.56 Y148.058
G1 F3000 E42.35805
G1 F300 X162.442 Y148.058 E44.07859
G1 X162.442 Y151.942 E44.34716
G1 X137.56 Y151.942 E46.0677
G1 X137.56 Y148.058 E46.33627
G1 F3000 E44.83627
G0 F6000 X137.56 Y147.085
G0 X141.794 Y147.085
G0 X141.794 Y150.094
;TYPE:SKIN
G1 F3000 E46.33627
G1 F300 X139.408 Y150.094 E46.51042
G1 X139.408 Y149.906 E46.52414
G1 X141.794 Y149.906 E46.69829
G1 X141.794 Y150.094 E46.71202
G0 F6000 X142.41 Y150.71
G1 F300 X138.792 Y150.71 E46.97609
G1 X138.792 Y149.29 E47.07974
G1 X142.41 Y149.29 E47.34381
G1 X142.41 Y150.71 E47.44746
G1 F3000 E45.94746
G0 F6000 X144.603 Y150.597
G0 X160.594 Y152.915
G0 X160.594 Y150.094
G1 F3000 E47.44746
G1 F300 X158.206 Y150.094 E47.62175
G1 X158.206 Y149.906 E47.63548
G1 X160.594 Y149.906 E47.80978
G1 X160.594 Y150.094 E47.8235
G0 F6000 X161.21 Y150.71
G1 F300 X157.59 Y150.71 E48.08772
G1 X157.59 Y149.29 E48.19136
G1 X161.21 Y149.29 E48.45559
G1 X161.21 Y150.71 E48.55923
G1 F3000 E47.05923
;MESH:NONMESH
G0 F300 X161.21 Y150.71 Z0.5
G0 F6000 X161.21 Y152.915
G0 X163.403 Y152.903
G0 X163.403 Y147.097
G0 X156.71 Y147.085
G0 X156.71 Y148.41
;TIME_ELAPSED:143.589338
;LAYER:1
M106 S255
;TYPE:WALL-INNER
;MESH:SDCardHolder_OctoPi_0_18_v01.stl
G1 F3000 E48.55923
G1 F1449.3 X162.105 Y148.41 E48.73687
G1 X162.324 Y148.41 E48.74409
G1 X162.324 Y148.629 E48.74875
G1 X162.323 Y151.59 E48.84625
G1 X156.71 Y151.59 E49.03107
G1 X156.71 Y148.41 E49.13578
G1 F3000 E47.63578
G0 F7500 X156.71 Y147.085
G0 X143.29 Y147.085
G0 X143.29 Y148.41
G1 F3000 E49.13578
G1 F1449.3 X143.29 Y151.59 E49.24049
G1 X137.895 Y151.59 E49.41814
G1 X137.676 Y151.59 E49.42535
G1 X137.676 Y151.371 E49.43002
G1 X137.677 Y148.41 E49.52751
G1 X143.29 Y148.41 E49.71234
G1 F3000 E48.21234
G0 F7500 X143.29 Y147.085
G0 X155.397 Y149.403
G0 X156.27 Y148.53
;TYPE:WALL-OUTER
G1 F3000 E49.71234
G1 F1449.3 X143.73 Y148.53 E50.12525
G1 X143.73 Y151.47 E50.22205
G1 X156.27 Y151.47 E50.63497
G1 X156.27 Y148.53 E50.73177
G1 F3000 E49.23177
G0 F7500 X155.397 Y149.403
G0 X137.237 Y147.085
G0 X137.237 Y147.97
G1 F3000 E50.73177
G1 F1449.3 X162.764 Y147.97 E51.57231
G1 X162.763 Y152.03 E51.706
G1 X137.236 Y152.03 E52.54654
G1 X137.237 Y147.97 E52.68023
G1 F3000 E51.18023
G0 F7500 X137.237 Y147.085
G0 X136.364 Y147.097
G0 X136.363 Y152.903
G0 X141.97 Y152.915
G0 X141.97 Y150.27
;TYPE:SKIN
G1 F3000 E52.68023
G1 F1449.3 X138.996 Y150.27 E52.78359
G1 X138.997 Y149.73 E52.80236
G1 X141.97 Y149.73 E52.90569
G1 X141.97 Y150.27 E52.92446
G0 F7500 X142.41 Y150.71
G1 F1449.3 X138.556 Y150.71 E53.05842
G1 X138.557 Y149.29 E53.10777
G1 X142.41 Y149.29 E53.24169
G1 X142.41 Y150.71 E53.29104
G0 F7500 X142.85 Y151.15
G1 F1449.3 X138.116 Y151.15 E53.45558
G1 X138.117 Y148.85 E53.53552
G1 X142.85 Y148.85 E53.70003
G1 X142.85 Y151.15 E53.77997
G0 F7500 X141.561 Y149.964
;TYPE:SKIN
G1 F1449.3 X141.492 Y150.033 E53.78157
G0 F7500 X141.25 Y149.964
G1 F1449.3 X141.18 Y150.033 E53.78319
G0 F7500 X140.939 Y149.964
G1 F1449.3 X140.869 Y150.033 E53.78481
G0 F7500 X140.627 Y149.964
G1 F1449.3 X140.558 Y150.033 E53.78642
G0 F7500 X140.316 Y149.964
G1 F1449.3 X140.247 Y150.033 E53.78802
G0 F7500 X140.005 Y149.964
G1 F1449.3 X139.936 Y150.033 E53.78963
G0 F7500 X139.694 Y149.964
G1 F1449.3 X139.625 Y150.033 E53.79124
G0 F7500 X139.383 Y149.964
G1 F1449.3 X139.314 Y150.033 E53.79284
G1 F3000 E52.29284
G0 F7500 X139.314 Y152.915
G0 X161.003 Y152.915
G0 X161.003 Y150.27
;TYPE:SKIN
G1 F3000 E53.79284
G1 F1449.3 X158.03 Y150.27 E53.89618
G1 X158.03 Y149.73 E53.91494
G1 X161.004 Y149.73 E54.01831
G1 X161.003 Y150.27 E54.03708
G0 F7500 X161.443 Y150.71
