;FLAVOR:Marlin
;TIME:665
;Filament used: 0.40344m
;Layer height: 0.2
;MINX:-31.985
;MINY:7.625
;MINZ:0.2
;MAXX:9.735
;MAXY:40.75
;MAXZ:10
;Generated with Cura_SteamEngine 4.10.0
M104 S205
M105
M109 S205
M82 ;absolute extrusion mode
G21        ;metric values
G90        ;absolute positioning
M107       ;start with the fan off
G28   ;move to endstops

;Z-Offset Reset und dann Z +0,1 für PLA
;MacroZOffset0
;MacroZOffsetPlus0100

G92 E0                  ;zero the extruded length
G1 F200 E3              ;extrude 3mm of feed stock
G92 E0                  ;zero the extruded length again
G1 F120
;Put printing message on LCD screen
M117 Printing...
G92 E0
G92 E0
G1 F2400 E-6
;LAYER_COUNT:50
;LAYER:0
M107
M204 S4000
G0 F1200 X-0.017 Y7.686 Z0.2
M204 S1800
;TYPE:SKIRT
G1 F2400 E0
G1 F600 X0.533 Y7.754 E0.01751
G1 X1.311 Y7.89 E0.04247
G1 X1.918 Y8.055 E0.06234
G1 X2.42 Y8.213 E0.07897
G1 X3.16 Y8.488 E0.10391
G1 X3.658 Y8.723 E0.12131
G1 X4.138 Y8.971 E0.13839
G1 X4.586 Y9.222 E0.15461
G1 X5.446 Y9.819 E0.18769
G1 X5.876 Y10.163 E0.20509
G1 X6.466 Y10.687 E0.23002
G1 X6.855 Y11.098 E0.2479
G1 X7.218 Y11.51 E0.26525
G1 X7.71 Y12.128 E0.29021
G1 X8.062 Y12.666 E0.31053
G1 X8.332 Y13.118 E0.32716
G1 X8.702 Y13.816 E0.35213
G1 X8.94 Y14.381 E0.3715
G1 X9.133 Y14.896 E0.38887
G1 X9.372 Y15.648 E0.41381
G1 X9.509 Y16.272 E0.43399
G1 X9.604 Y16.808 E0.45119
G1 X9.712 Y17.743 E0.48093
G1 X9.734 Y18.351 E0.50016
G1 X9.735 Y24.425 E0.69208
G1 X9.701 Y25.154 E0.71514
G1 X9.65 Y25.698 E0.7324
G1 X9.537 Y26.48 E0.75737
G1 X9.366 Y27.176 E0.78001
G1 X9.195 Y27.756 E0.79912
G1 X8.826 Y28.751 E0.83265
G1 X8.568 Y29.274 E0.85108
G1 X8.282 Y29.804 E0.87011
G1 X7.896 Y30.445 E0.89375
G1 X7.398 Y31.111 E0.92002
G1 X7.058 Y31.519 E0.93681
G1 X6.523 Y32.1 E0.96176
G1 X6.102 Y32.482 E0.97972
G1 X5.681 Y32.838 E0.99714
G1 X5.053 Y33.317 E1.0221
G1 X4.383 Y33.728 E1.04694
G1 X3.828 Y34.031 E1.06692
G1 X3.116 Y34.374 E1.09189
G1 X2.411 Y34.632 E1.11561
G1 X1.888 Y34.795 E1.13292
G1 X1.443 Y34.919 E1.14751
G1 X0.439 Y35.101 E1.17975
G1 X-.102 Y35.163 E1.19696
G1 X-.989 Y35.214 E1.22503
G1 X-7.063 Y35.215 E1.41695
G1 X-7.381 Y35.2 E1.42701
G1 X-7.476 Y35.399 E1.43398
G1 X-8.023 Y36.362 E1.46898
G1 X-8.039 Y36.386 E1.46989
G1 X-8.598 Y37.125 E1.49916
G1 X-8.914 Y37.495 E1.51454
G1 X-9.507 Y38.117 E1.54169
G1 X-10.108 Y38.629 E1.56664
G1 X-10.893 Y39.179 E1.59693
G1 X-11.676 Y39.645 E1.62572
G1 X-12.65 Y40.074 E1.65934
G1 X-13.116 Y40.242 E1.675
G1 X-13.871 Y40.472 E1.69993
G1 X-14.323 Y40.57 E1.71455
G1 X-14.893 Y40.657 E1.73277
G1 X-15.259 Y40.699 E1.74441
G1 X-16.151 Y40.75 E1.77264
G1 X-22.299 Y40.748 E1.9669
G1 X-23.087 Y40.708 E1.99183
G1 X-23.606 Y40.637 E2.00838
G1 X-24.052 Y40.561 E2.02268
G1 X-25.013 Y40.334 E2.05388
G1 X-25.036 Y40.327 E2.05464
G1 X-25.928 Y39.995 E2.08471
G1 X-26.381 Y39.794 E2.10037
G1 X-27.406 Y39.245 E2.13711
G1 X-27.428 Y39.231 E2.13793
G1 X-28.21 Y38.662 E2.16849
G1 X-28.631 Y38.314 E2.18575
G1 X-29.213 Y37.781 E2.21068
G1 X-29.621 Y37.334 E2.22981
G1 X-30.166 Y36.612 E2.25839
G1 X-30.477 Y36.146 E2.27609
G1 X-30.966 Y35.304 E2.30686
G1 X-30.979 Y35.278 E2.30778
G1 X-31.295 Y34.555 E2.33271
G1 X-31.585 Y33.682 E2.36177
G1 X-31.76 Y33.033 E2.38301
G1 X-31.914 Y32.09 E2.4132
G1 X-31.945 Y31.784 E2.42292
G1 X-31.985 Y30.997 E2.44782
G1 X-31.984 Y24.892 E2.64072
G1 X-31.944 Y24.103 E2.66568
G1 X-31.886 Y23.661 E2.67977
G1 X-31.806 Y23.161 E2.69577
G1 X-31.583 Y22.177 E2.72765
G1 X-31.575 Y22.15 E2.72854
G1 X-31.174 Y21.089 E2.76438
G1 X-30.949 Y20.603 E2.7813
G1 X-30.582 Y19.904 E2.80625
G1 X-30.304 Y19.469 E2.82256
G1 X-29.778 Y18.781 E2.84992
G1 X-29.462 Y18.412 E2.86527
G1 X-28.756 Y17.688 E2.89722
G1 X-28.736 Y17.67 E2.89808
G1 X-27.861 Y16.989 E2.93311
G1 X-27.403 Y16.682 E2.95053
G1 X-26.65 Y16.237 E2.97817
G1 X-26.623 Y16.223 E2.97913
G1 X-25.905 Y15.895 E3.00407
G1 X-25.331 Y15.693 E3.0233
G1 X-24.812 Y15.533 E3.04046
G1 X-24.148 Y15.36 E3.06214
G1 X-23.203 Y15.215 E3.09235
G1 X-22.952 Y15.192 E3.10031
G1 X-22.239 Y15.159 E3.12287
G1 X-17.338 Y15.16 E3.27772
G1 X-17.287 Y14.995 E3.28318
G1 X-17.017 Y14.253 E3.30813
G1 X-16.758 Y13.702 E3.32737
G1 X-16.503 Y13.21 E3.34488
G1 X-16.182 Y12.649 E3.3653
G1 X-15.65 Y11.9 E3.39433
G1 X-15.308 Y11.474 E3.41159
G1 X-14.784 Y10.884 E3.43652
G1 X-14.401 Y10.521 E3.4532
G1 X-14.004 Y10.169 E3.46996
G1 X-13.31 Y9.621 E3.4979
G1 X-12.814 Y9.298 E3.5166
G1 X-12.364 Y9.029 E3.53317
G1 X-11.667 Y8.659 E3.5581
G1 X-11 Y8.383 E3.58091
G1 X-10.41 Y8.171 E3.60072
G1 X-9.648 Y7.941 E3.62587
G1 X-8.893 Y7.791 E3.65019
G1 X-8.357 Y7.712 E3.66731
G1 X-7.359 Y7.63 E3.69895
G1 X-6.993 Y7.625 E3.71052
G1 X-.971 Y7.627 E3.90079
G1 X-0.017 Y7.686 E3.931
M204 S4000
G0 F1200 X-0.066 Y8.083
M204 S1800
G1 F600 X0.484 Y8.151 E3.94851
G1 X1.241 Y8.285 E3.9728
G1 X1.798 Y8.436 E3.99103
G1 X2.3 Y8.594 E4.00766
G1 X3.02 Y8.863 E4.03195
G1 X3.475 Y9.079 E4.04786
G1 X3.955 Y9.327 E4.06493
G1 X4.38 Y9.565 E4.08032
G1 X5.196 Y10.132 E4.11172
G1 X5.626 Y10.476 E4.12912
G1 X6.201 Y10.987 E4.15343
G1 X6.555 Y11.362 E4.16972
G1 X6.918 Y11.774 E4.18707
G1 X7.396 Y12.377 E4.21138
G1 X7.719 Y12.871 E4.23003
G1 X7.989 Y13.323 E4.24667
G1 X8.348 Y14.003 E4.27097
G1 X8.565 Y14.521 E4.28871
G1 X8.758 Y15.036 E4.30609
G1 X8.991 Y15.769 E4.33039
G1 X9.115 Y16.342 E4.34892
G1 X9.21 Y16.878 E4.36612
G1 X9.313 Y17.765 E4.39433
G1 X9.334 Y18.351 E4.41286
G1 X9.335 Y24.425 E4.60478
G1 X9.303 Y25.117 E4.62667
G1 X9.252 Y25.661 E4.64393
G1 X9.14 Y26.422 E4.66824
G1 X8.982 Y27.063 E4.6891
G1 X8.811 Y27.643 E4.7082
G1 X8.461 Y28.587 E4.74001
G1 X8.216 Y29.084 E4.75752
G1 X7.93 Y29.614 E4.77655
G1 X7.563 Y30.223 E4.79902
G1 X7.091 Y30.855 E4.82394
G1 X6.751 Y31.263 E4.84072
G1 X6.228 Y31.828 E4.86505
G1 X5.844 Y32.177 E4.88145
G1 X5.423 Y32.533 E4.89887
G1 X4.811 Y32.998 E4.92315
G1 X4.191 Y33.377 E4.94611
G1 X3.636 Y33.68 E4.96609
G1 X2.943 Y34.013 E4.99039
G1 X2.292 Y34.25 E5.01228
G1 X1.769 Y34.413 E5.02959
G1 X1.346 Y34.531 E5.04346
G1 X0.394 Y34.704 E5.07404
G1 X-.147 Y34.766 E5.09124
G1 X-.989 Y34.814 E5.11789
G1 X-7.063 Y34.815 E5.30981
G1 X-7.628 Y34.789 E5.32768
G1 X-7.837 Y35.227 E5.34302
G1 X-8.356 Y36.14 E5.3762
G1 X-8.372 Y36.164 E5.37711
G1 X-8.902 Y36.865 E5.40488
G1 X-9.218 Y37.235 E5.42025
G1 X-9.782 Y37.826 E5.44607
G1 X-10.368 Y38.324 E5.47036
G1 X-11.118 Y38.848 E5.49927
G1 X-11.861 Y39.291 E5.52661
G1 X-12.785 Y39.697 E5.5585
G1 X-13.251 Y39.865 E5.57415
G1 X-13.987 Y40.088 E5.59845
G1 X-14.397 Y40.177 E5.6117
G1 X-14.938 Y40.26 E5.629
G1 X-15.304 Y40.302 E5.64064
G1 X-16.15 Y40.35 E5.66741
G1 X-22.298 Y40.348 E5.86167
G1 X-23.067 Y40.308 E5.886
G1 X-23.985 Y40.167 E5.91535
G1 X-24.897 Y39.951 E5.94496
G1 X-24.92 Y39.944 E5.94572
G1 X-25.766 Y39.629 E5.97425
G1 X-26.219 Y39.428 E5.98991
G1 X-27.191 Y38.907 E6.02475
G1 X-27.213 Y38.893 E6.02558
G1 X-27.955 Y38.354 E6.05455
G1 X-28.376 Y38.006 E6.07181
G1 X-28.942 Y37.485 E6.09612
G1 X-29.316 Y37.075 E6.11365
G1 X-29.833 Y36.39 E6.14077
G1 X-30.144 Y35.924 E6.15847
G1 X-30.608 Y35.125 E6.18767
G1 X-30.621 Y35.099 E6.18859
G1 X-30.929 Y34.394 E6.2129
G1 X-31.203 Y33.561 E6.2406
G1 X-31.37 Y32.944 E6.2608
G1 X-31.516 Y32.05 E6.28942
G1 X-31.547 Y31.744 E6.29914
G1 X-31.585 Y30.997 E6.32277
G1 X-31.584 Y24.892 E6.51567
G1 X-31.544 Y24.124 E6.53997
G1 X-31.491 Y23.724 E6.55272
G1 X-31.411 Y23.224 E6.56872
G1 X-31.199 Y22.291 E6.59895
G1 X-31.191 Y22.264 E6.59984
G1 X-30.811 Y21.257 E6.63385
G1 X-30.586 Y20.771 E6.65077
G1 X-30.227 Y20.091 E6.67507
G1 X-29.973 Y19.694 E6.68996
G1 X-29.475 Y19.042 E6.71589
G1 X-29.159 Y18.673 E6.73124
G1 X-28.488 Y17.986 E6.76158
G1 X-28.468 Y17.968 E6.76243
G1 X-27.638 Y17.321 E6.79568
G1 X-27.18 Y17.014 E6.8131
G1 X-26.466 Y16.592 E6.83931
G1 X-26.439 Y16.578 E6.84027
G1 X-25.739 Y16.26 E6.86456
G1 X-25.213 Y16.075 E6.88218
G1 X-24.694 Y15.915 E6.89934
G1 X-24.063 Y15.751 E6.91994
G1 X-23.166 Y15.613 E6.94862
G1 X-22.915 Y15.59 E6.95658
G1 X-22.239 Y15.559 E6.97797
G1 X-17.043 Y15.56 E7.14214
G1 X-16.905 Y15.113 E7.15693
G1 X-16.641 Y14.391 E7.18122
G1 X-16.403 Y13.886 E7.19886
G1 X-16.148 Y13.394 E7.21637
G1 X-15.843 Y12.861 E7.23577
G1 X-15.338 Y12.15 E7.26333
G1 X-14.996 Y11.724 E7.28059
G1 X-14.484 Y11.15 E7.30489
G1 X-14.135 Y10.82 E7.32007
G1 X-13.738 Y10.468 E7.33683
G1 X-13.079 Y9.947 E7.36338
G1 X-12.609 Y9.641 E7.3811
G1 X-12.159 Y9.372 E7.39766
G1 X-11.479 Y9.013 E7.42196
G1 X-10.864 Y8.76 E7.44297
G1 X-10.274 Y8.548 E7.46278
G1 X-9.551 Y8.329 E7.48665
G1 X-8.835 Y8.187 E7.50971
G1 X-8.299 Y8.108 E7.52683
G1 X-7.352 Y8.03 E7.55686
G1 X-6.994 Y8.025 E7.56817
G1 X-.972 Y8.027 E7.75845
G1 X-0.066 Y8.083 E7.78713
M204 S4000
G0 F1200 X-.115 Y8.48
M204 S1800
G1 F600 X0.435 Y8.548 E7.80464
G1 X1.171 Y8.679 E7.82826
G1 X1.678 Y8.818 E7.84487
G1 X2.18 Y8.976 E7.8615
G1 X2.88 Y9.238 E7.88512
G1 X3.291 Y9.434 E7.8995
G1 X3.771 Y9.682 E7.91658
G1 X4.174 Y9.908 E7.93117
G1 X4.946 Y10.444 E7.96087
G1 X5.376 Y10.788 E7.97827
G1 X5.934 Y11.286 E8.0019
G1 X6.255 Y11.626 E8.01668
G1 X6.618 Y12.038 E8.03403
G1 X7.082 Y12.625 E8.05767
G1 X7.375 Y13.076 E8.07466
G1 X7.645 Y13.528 E8.0913
G1 X7.994 Y14.19 E8.11494
G1 X8.191 Y14.662 E8.13111
G1 X8.384 Y15.177 E8.14848
G1 X8.609 Y15.89 E8.17211
G1 X8.722 Y16.411 E8.18895
G1 X8.817 Y16.947 E8.20615
G1 X8.914 Y17.787 E8.23287
G1 X8.934 Y18.351 E8.2507
G1 X8.935 Y24.425 E8.44262
G1 X8.904 Y25.079 E8.46331
G1 X8.853 Y25.623 E8.48057
G1 X8.744 Y26.363 E8.50421
G1 X8.598 Y26.95 E8.52332
G1 X8.427 Y27.53 E8.54243
G1 X8.096 Y28.423 E8.57252
G1 X7.864 Y28.894 E8.58911
G1 X7.578 Y29.424 E8.60814
G1 X7.23 Y30.001 E8.62943
G1 X6.784 Y30.599 E8.653
G1 X6.444 Y31.007 E8.66978
G1 X5.935 Y31.556 E8.69344
G1 X5.586 Y31.871 E8.70829
G1 X5.165 Y32.227 E8.72571
G1 X4.569 Y32.679 E8.74935
G1 X3.999 Y33.026 E8.77043
G1 X3.444 Y33.329 E8.79041
G1 X2.769 Y33.652 E8.81406
G1 X2.173 Y33.868 E8.83409
G1 X1.65 Y34.031 E8.8514
G1 X1.249 Y34.143 E8.86455
G1 X0.348 Y34.306 E8.89348
G1 X-.193 Y34.368 E8.91069
G1 X-.989 Y34.414 E8.93588
G1 X-7.063 Y34.415 E9.1278
G1 X-7.708 Y34.385 E9.14821
G1 X-7.89 Y34.368 E9.15398
G1 X-7.98 Y34.598 E9.16179
G1 X-8.198 Y35.054 E9.17776
G1 X-8.689 Y35.918 E9.20916
G1 X-8.705 Y35.942 E9.21007
G1 X-9.206 Y36.605 E9.23632
G1 X-9.522 Y36.975 E9.2517
G1 X-10.057 Y37.535 E9.27617
G1 X-10.627 Y38.019 E9.2998
G1 X-11.342 Y38.517 E9.32733
G1 X-12.047 Y38.937 E9.35326
G1 X-12.921 Y39.321 E9.38342
G1 X-13.387 Y39.489 E9.39907
G1 X-14.451 Y39.78 E9.43393
G1 X-14.984 Y39.862 E9.45097
G1 X-15.35 Y39.904 E9.46261
G1 X-16.15 Y39.95 E9.48793
G1 X-22.298 Y39.948 E9.68219
G1 X-23.045 Y39.908 E9.70582
G1 X-23.918 Y39.773 E9.73374
G1 X-24.78 Y39.569 E9.76173
G1 X-24.803 Y39.562 E9.76248
G1 X-25.604 Y39.263 E9.7895
G1 X-26.057 Y39.062 E9.80516
G1 X-26.976 Y38.57 E9.8381
G1 X-26.998 Y38.556 E9.83892
G1 X-27.7 Y38.045 E9.86636
G1 X-28.121 Y37.697 E9.88361
G1 X-28.671 Y37.191 E9.90723
G1 X-29.012 Y36.816 E9.92324
G1 X-29.5 Y36.168 E9.94888
G1 X-29.811 Y35.702 E9.96658
G1 X-30.25 Y34.946 E9.9942
G1 X-30.263 Y34.92 E9.99512
G1 X-30.675 Y33.904 E10.02976
G1 X-30.822 Y33.44 E10.04514
G1 X-30.98 Y32.855 E10.06429
G1 X-31.118 Y32.01 E10.09134
G1 X-31.149 Y31.704 E10.10106
G1 X-31.185 Y30.997 E10.12343
G1 X-31.184 Y24.892 E10.31633
G1 X-31.096 Y23.787 E10.35135
G1 X-31.016 Y23.287 E10.36735
G1 X-30.816 Y22.404 E10.39596
G1 X-30.808 Y22.377 E10.39685
G1 X-30.448 Y21.425 E10.42901
G1 X-30.223 Y20.939 E10.44593
G1 X-29.873 Y20.278 E10.46956
G1 X-29.642 Y19.919 E10.48305
G1 X-29.171 Y19.302 E10.50758
G1 X-28.855 Y18.933 E10.52293
G1 X-28.221 Y18.283 E10.55162
G1 X-28.201 Y18.265 E10.55247
G1 X-27.416 Y17.653 E10.58392
G1 X-26.958 Y17.346 E10.60134
G1 X-26.282 Y16.947 E10.62614
G1 X-26.255 Y16.933 E10.62711
G1 X-25.574 Y16.624 E10.65073
G1 X-25.095 Y16.458 E10.66675
G1 X-24.576 Y16.298 E10.68391
G1 X-23.978 Y16.142 E10.70344
G1 X-23.13 Y16.011 E10.73055
G1 X-22.879 Y15.988 E10.73852
G1 X-22.239 Y15.959 E10.75876
G1 X-16.737 Y15.96 E10.93261
G1 X-16.681 Y15.744 E10.93966
G1 X-16.523 Y15.231 E10.95662
G1 X-16.265 Y14.528 E10.98028
G1 X-16.048 Y14.07 E10.99629
G1 X-15.793 Y13.578 E11.0138
G1 X-15.504 Y13.073 E11.03219
G1 X-15.027 Y12.401 E11.05823
G1 X-14.685 Y11.975 E11.07549
G1 X-14.186 Y11.417 E11.09914
G1 X-13.87 Y11.119 E11.11286
G1 X-13.473 Y10.767 E11.12963
G1 X-12.849 Y10.274 E11.15476
G1 X-12.404 Y9.985 E11.17152
G1 X-11.954 Y9.716 E11.18809
G1 X-11.292 Y9.367 E11.21173
G1 X-10.729 Y9.136 E11.23096
G1 X-10.139 Y8.924 E11.25077
G1 X-9.454 Y8.717 E11.27338
G1 X-8.777 Y8.583 E11.29519
G1 X-8.241 Y8.504 E11.31231
G1 X-7.345 Y8.43 E11.34072
G1 X-6.994 Y8.425 E11.35181
G1 X-.972 Y8.427 E11.54209
G1 X-.115 Y8.48 E11.56922
M204 S4000
G0 F1200 X-.164 Y8.877
M204 S1800
G1 F600 X0.386 Y8.945 E11.58673
G1 X1.101 Y9.074 E11.60968
G1 X1.557 Y9.199 E11.62462
G1 X2.059 Y9.357 E11.64125
G1 X2.739 Y9.613 E11.66421
G1 X3.108 Y9.789 E11.67713
G1 X3.588 Y10.037 E11.6942
G1 X3.969 Y10.251 E11.70801
G1 X4.696 Y10.756 E11.73598
G1 X5.126 Y11.1 E11.75338
G1 X5.667 Y11.585 E11.77633
G1 X5.955 Y11.891 E11.78961
G1 X6.318 Y12.303 E11.80696
G1 X6.768 Y12.873 E11.82991
G1 X7.032 Y13.281 E11.84526
G1 X7.302 Y13.733 E11.8619
G1 X7.64 Y14.377 E11.88488
G1 X7.816 Y14.802 E11.89941
G1 X8.009 Y15.317 E11.91679
G1 X8.226 Y16.01 E11.93974
G1 X8.328 Y16.481 E11.95496
G1 X8.423 Y17.017 E11.97216
G1 X8.514 Y17.809 E11.99735
G1 X8.534 Y18.351 E12.01449
G1 X8.535 Y24.425 E12.20641
G1 X8.506 Y25.042 E12.22593
G1 X8.455 Y25.586 E12.24319
G1 X8.348 Y26.304 E12.26613
G1 X8.215 Y26.836 E12.28346
G1 X8.044 Y27.416 E12.30256
G1 X7.732 Y28.258 E12.33094
G1 X7.512 Y28.704 E12.34665
G1 X7.226 Y29.234 E12.36568
G1 X6.898 Y29.779 E12.38578
G1 X6.476 Y30.343 E12.40803
G1 X6.136 Y30.751 E12.42482
G1 X5.641 Y31.283 E12.44778
G1 X5.328 Y31.566 E12.46111
G1 X4.907 Y31.922 E12.47853
G1 X4.327 Y32.359 E12.50148
G1 X3.808 Y32.675 E12.52068
G1 X3.253 Y32.978 E12.54065
G1 X2.597 Y33.29 E12.56361
G1 X2.054 Y33.486 E12.58185
G1 X1.531 Y33.649 E12.59916
G1 X1.152 Y33.755 E12.61159
G1 X0.302 Y33.909 E12.63889
G1 X-.239 Y33.971 E12.65609
G1 X-.989 Y34.014 E12.67983
G1 X-7.063 Y34.015 E12.87175
G1 X-7.671 Y33.987 E12.89098
G1 X-8.152 Y33.943 E12.90624
G1 X-8.34 Y34.426 E12.92262
G1 X-8.558 Y34.882 E12.93859
G1 X-9.021 Y35.696 E12.96818
G1 X-9.037 Y35.72 E12.96909
G1 X-9.51 Y36.345 E12.99386
G1 X-9.826 Y36.715 E13.00923
G1 X-10.331 Y37.244 E13.03234
G1 X-11.156 Y37.907 E13.06578
G1 X-11.567 Y38.186 E13.08148
G1 X-12.233 Y38.582 E13.10596
G1 X-13.057 Y38.945 E13.13441
G1 X-13.523 Y39.113 E13.15006
G1 X-14.526 Y39.387 E13.18292
G1 X-15.03 Y39.465 E13.19903
G1 X-15.396 Y39.507 E13.21067
G1 X-16.15 Y39.55 E13.23453
G1 X-22.298 Y39.548 E13.42879
G1 X-23.023 Y39.508 E13.45174
G1 X-23.851 Y39.378 E13.47822
G1 X-24.664 Y39.186 E13.50461
G1 X-24.687 Y39.179 E13.50537
G1 X-25.442 Y38.898 E13.53083
G1 X-25.895 Y38.697 E13.54649
G1 X-26.761 Y38.232 E13.57755
G1 X-26.783 Y38.218 E13.57837
G1 X-27.445 Y37.737 E13.60423
G1 X-27.866 Y37.389 E13.62148
G1 X-28.4 Y36.896 E13.64445
G1 X-28.707 Y36.556 E13.65892
G1 X-29.168 Y35.946 E13.68308
G1 X-29.479 Y35.48 E13.70078
G1 X-29.892 Y34.768 E13.72679
G1 X-29.905 Y34.742 E13.72771
G1 X-30.294 Y33.783 E13.76041
G1 X-30.441 Y33.319 E13.77579
G1 X-30.59 Y32.767 E13.79386
G1 X-30.72 Y31.969 E13.8194
G1 X-30.751 Y31.663 E13.82912
G1 X-30.785 Y30.997 E13.85019
G1 X-30.784 Y24.892 E14.04309
G1 X-30.701 Y23.85 E14.07612
G1 X-30.621 Y23.35 E14.09212
G1 X-30.432 Y22.518 E14.11908
G1 X-30.424 Y22.491 E14.11997
G1 X-30.085 Y21.593 E14.1503
G1 X-29.86 Y21.107 E14.16722
G1 X-29.329 Y20.169 E14.20128
G1 X-29.312 Y20.144 E14.20223
G1 X-28.867 Y19.562 E14.22538
G1 X-28.551 Y19.193 E14.24073
G1 X-27.953 Y18.58 E14.26779
G1 X-27.933 Y18.562 E14.26864
G1 X-27.193 Y17.986 E14.29827
G1 X-26.735 Y17.679 E14.31569
G1 X-26.098 Y17.302 E14.33908
G1 X-26.071 Y17.288 E14.34004
G1 X-25.409 Y16.989 E14.36299
G1 X-24.977 Y16.84 E14.37743
G1 X-24.458 Y16.68 E14.39459
G1 X-23.893 Y16.533 E14.41304
G1 X-23.093 Y16.41 E14.43862
G1 X-22.842 Y16.387 E14.44658
G1 X-22.239 Y16.359 E14.46565
G1 X-16.429 Y16.36 E14.64923
G1 X-16.299 Y15.861 E14.66553
G1 X-16.141 Y15.348 E14.68249
