;FLAVOR:Marlin
;TIME:10722
;Filament used: 10.9863m
;Layer height: 0.3
;MINX:28.949
;MINY:147.16
;MINZ:0.3
;MAXX:255.62
;MAXY:289.321
;MAXZ:11.4
;Generated with Cura_SteamEngine 4.10.0
M104 S228
M105
M109 S228
M82 ;absolute extrusion mode
G28 ; home all axes
 M117 Purge extruder
 G92 E0 ; reset extruder
 G1 Z1.0 F3000 ; move z up little to prevent scratching of surface
 G1 X2 Y20 Z0.3 F5000.0 ; move to start-line position
 G1 X2 Y200.0 Z0.3 F1500.0 E15 ; draw 1st line
 G1 X2 Y200.0 Z0.4 F5000.0 ; move to side a little
 G1 X2 Y20 Z0.4 F1500.0 E30 ; draw 2nd line
 G92 E0 ; reset extruder
 G1 Z1.0 F3000 ; move z up little to prevent scratching of surface
G92 E0
G92 E0
G1 F2400 E-1.6
;LAYER_COUNT:38
;LAYER:0
M106 S89.3
;MESH:Vertical_Filament_Spool_Parts_Drawer_Stand_200mm_52mm_22mmCenterHole_v01.stl
G0 F6000 X92.81 Y160.619 Z0.3
;TYPE:WALL-INNER
G1 F2400 E0
G1 F900 X93.181 Y160.913 E0.02773
G1 X93.589 Y161.161 E0.0557
G1 X94.028 Y161.355 E0.08382
G1 X94.483 Y161.493 E0.11167
G1 X94.955 Y161.572 E0.13971
G1 X95.429 Y161.593 E0.1675
G1 X95.906 Y161.554 E0.19554
G1 X96.377 Y161.453 E0.22376
G1 X96.824 Y161.295 E0.25153
G1 X97.252 Y161.085 E0.27946
G1 X97.651 Y160.82 E0.30752
G1 X98.017 Y160.504 E0.33584
G1 X98.333 Y160.149 E0.36368
G1 X98.604 Y159.759 E0.39151
G1 X98.826 Y159.336 E0.41949
G1 X98.993 Y158.885 E0.44766
G1 X99.1 Y158.422 E0.4755
G1 X99.145 Y157.978 E0.50164
G1 X99.149 Y157.948 E0.50342
G1 X99.14 Y157.472 E0.53131
G1 X99.07 Y156.997 E0.55943
G1 X98.94 Y156.536 E0.58749
G1 X98.756 Y156.098 E0.61532
G1 X98.517 Y155.687 E0.64318
G1 X98.228 Y155.305 E0.67124
G1 X97.896 Y154.967 E0.69899
G1 X97.523 Y154.669 E0.72696
G1 X97.111 Y154.42 E0.75516
G1 X96.676 Y154.228 E0.78301
G1 X96.219 Y154.09 E0.81098
G1 X95.748 Y154.011 E0.83896
G1 X95.274 Y153.99 E0.86675
G1 X94.797 Y154.029 E0.89479
G1 X94.327 Y154.13 E0.92295
G1 X93.877 Y154.288 E0.95089
G1 X93.452 Y154.498 E0.97866
G1 X93.051 Y154.763 E1.00682
G1 X92.691 Y155.078 E1.03484
G1 X92.37 Y155.431 E1.06279
G1 X92.098 Y155.825 E1.09084
G1 X91.876 Y156.248 E1.11882
G1 X91.711 Y156.697 E1.14684
G1 X91.603 Y157.16 E1.17469
G1 X91.552 Y157.635 E1.20268
G1 X91.564 Y158.113 E1.23069
G1 X91.633 Y158.583 E1.25852
G1 X91.763 Y159.047 E1.28675
G1 X91.947 Y159.485 E1.31458
G1 X92.185 Y159.897 E1.34245
G1 X92.474 Y160.279 E1.37051
G1 X92.81 Y160.619 E1.39851
G0 F6000 X93.131 Y160.261
G1 F900 X93.456 Y160.518 E1.42279
G1 X93.812 Y160.735 E1.44721
G1 X94.195 Y160.904 E1.47173
G1 X94.593 Y161.025 E1.4961
G1 X95.005 Y161.094 E1.52057
G1 X95.42 Y161.112 E1.54491
G1 X95.836 Y161.078 E1.56936
G1 X96.246 Y160.99 E1.59393
G1 X96.638 Y160.852 E1.61827
G1 X97.012 Y160.668 E1.64269
G1 X97.36 Y160.437 E1.66716
G1 X97.679 Y160.161 E1.69187
G1 X97.955 Y159.851 E1.71618
G1 X98.193 Y159.509 E1.74059
G1 X98.387 Y159.14 E1.76501
G1 X98.532 Y158.747 E1.78955
G1 X98.626 Y158.343 E1.81385
G1 X98.669 Y157.928 E1.83829
G1 X98.661 Y157.512 E1.86267
G1 X98.6 Y157.098 E1.88718
G1 X98.486 Y156.695 E1.91172
G1 X98.325 Y156.312 E1.93605
G1 X98.117 Y155.953 E1.96036
G1 X97.864 Y155.619 E1.9849
G1 X97.574 Y155.324 E2.00914
G1 X97.248 Y155.064 E2.03357
G1 X96.889 Y154.847 E2.05814
G1 X96.509 Y154.679 E2.08248
G1 X96.109 Y154.558 E2.10696
G1 X95.698 Y154.489 E2.13137
G1 X95.283 Y154.471 E2.15571
G1 X94.867 Y154.505 E2.18016
G1 X94.457 Y154.593 E2.20472
G1 X94.064 Y154.731 E2.22912
G1 X93.692 Y154.915 E2.25344
G1 X93.343 Y155.146 E2.27795
G1 X93.028 Y155.421 E2.30245
G1 X92.747 Y155.73 E2.32692
G1 X92.51 Y156.074 E2.35139
G1 X92.316 Y156.443 E2.37581
G1 X92.172 Y156.835 E2.40027
G1 X92.077 Y157.24 E2.42464
G1 X92.033 Y157.655 E2.44909
G1 X92.043 Y158.072 E2.47353
G1 X92.103 Y158.483 E2.49786
G1 X92.217 Y158.888 E2.52251
G1 X92.378 Y159.271 E2.54684
G1 X92.586 Y159.631 E2.5712
G1 X92.838 Y159.964 E2.59566
G1 X93.131 Y160.261 E2.6201
G0 F6000 X93.452 Y159.903
;TYPE:WALL-OUTER
G1 F900 X93.731 Y160.123 E2.64092
G1 X94.035 Y160.309 E2.6618
G1 X94.362 Y160.453 E2.68273
G1 X94.703 Y160.557 E2.70361
G1 X95.055 Y160.616 E2.72452
G1 X95.411 Y160.631 E2.74539
G1 X95.766 Y160.602 E2.76626
G1 X96.116 Y160.527 E2.78723
G1 X96.452 Y160.409 E2.80809
G1 X96.772 Y160.251 E2.829
G1 X97.069 Y160.054 E2.84987
G1 X97.341 Y159.818 E2.87097
G1 X97.578 Y159.553 E2.8918
G1 X97.782 Y159.26 E2.91271
G1 X97.947 Y158.945 E2.93354
G1 X98.071 Y158.609 E2.95452
G1 X98.152 Y158.263 E2.97534
G1 X98.189 Y157.908 E2.99625
G1 X98.182 Y157.552 E3.01711
G1 X98.13 Y157.199 E3.03801
G1 X98.032 Y156.854 E3.05902
G1 X97.894 Y156.526 E3.07987
G1 X97.716 Y156.219 E3.10066
G1 X97.5 Y155.933 E3.12165
G1 X97.252 Y155.681 E3.14236
G1 X96.973 Y155.459 E3.16325
G1 X96.667 Y155.274 E3.1842
G1 X96.342 Y155.13 E3.20502
G1 X95.999 Y155.026 E3.22602
G1 X95.648 Y154.967 E3.24687
G1 X95.292 Y154.952 E3.26774
G1 X94.937 Y154.981 E3.28861
G1 X94.587 Y155.056 E3.30958
G1 X94.251 Y155.174 E3.33044
G1 X93.932 Y155.332 E3.35129
G1 X93.635 Y155.529 E3.37217
G1 X93.364 Y155.765 E3.39322
G1 X93.124 Y156.029 E3.41412
G1 X92.922 Y156.323 E3.43502
G1 X92.756 Y156.638 E3.45588
G1 X92.633 Y156.973 E3.47678
G1 X92.551 Y157.32 E3.49767
G1 X92.514 Y157.675 E3.51858
G1 X92.522 Y158.032 E3.5395
G1 X92.573 Y158.383 E3.56028
G1 X92.671 Y158.729 E3.58134
G1 X92.809 Y159.057 E3.60219
G1 X92.987 Y159.365 E3.62303
G1 X93.202 Y159.649 E3.64389
G1 X93.452 Y159.903 E3.66477
G0 F6000 X93.1 Y160.296
G1 F2400 E2.06477
G0 F6000 X94.493 Y160.74
G0 X97.348 Y161.251
G0 X99.111 Y163.094
G0 X100.551 Y162.479
;TYPE:WALL-INNER
G1 F2400 E3.66477
G1 F900 X99.378 Y163.165 E3.74438
G1 X133.65 Y222.526 E7.75977
G1 X135.579 Y221.545 E7.88654
G1 X137.539 Y220.696 E8.01167
G1 X140.623 Y219.585 E8.2037
G1 X122.962 Y153.672 E12.20116
G1 X122.899 Y153.437 E12.21541
G1 X122.665 Y153.505 E12.22459
G1 X118.46 Y154.726 E12.4811
G1 X112.333 Y156.931 E12.86256
G1 X106.358 Y159.516 E13.24394
G1 X100.551 Y162.479 E13.62584
G0 F6000 X100.781 Y162.9
G1 F900 X100.032 Y163.338 E13.67667
G1 X133.838 Y221.892 E17.63747
G1 X135.365 Y221.115 E17.73784
G1 X137.376 Y220.244 E17.86622
G1 X140.045 Y219.283 E18.0324
G1 X122.625 Y154.27 E21.97528
G1 X122.562 Y154.035 E21.98953
G1 X122.328 Y154.103 E21.99871
G1 X118.608 Y155.183 E22.22563
G1 X112.51 Y157.378 E22.60529
G1 X106.563 Y159.951 E22.98488
G1 X100.781 Y162.9 E23.36511
G0 F6000 X101.011 Y163.321
;TYPE:WALL-OUTER
G1 F900 X100.686 Y163.511 E23.38716
G1 X134.026 Y221.258 E27.29337
G1 X135.151 Y220.685 E27.36733
G1 X137.213 Y219.792 E27.49897
G1 X139.467 Y218.981 E27.6393
G1 X122.225 Y154.633 E31.54185
G1 X118.756 Y155.64 E31.75345
G1 X112.687 Y157.825 E32.13132
G1 X106.768 Y160.386 E32.50913
G1 X101.011 Y163.321 E32.88768
G0 F6000 X100.758 Y162.858
G1 F2400 E31.28768
G0 F6000 X100.449 Y163.319
G0 X99.907 Y164.499
G0 X98.884 Y165.089
G0 X98.076 Y165.554
G0 X97.74 Y164.992
G0 X95.799 Y166.126
G0 X84.43 Y173.434
;TYPE:WALL-INNER
G1 F2400 E32.88768
G1 F900 X79.55 Y177.74 E33.26893
G1 X77.979 Y179.303 E33.39875
G1 X77.809 Y179.472 E33.4128
G1 X77.978 Y179.641 E33.42183
G1 X126.257 Y227.92 E37.42156
G1 X128.134 Y226.266 E37.56812
G1 X129.857 Y224.929 E37.69588
G1 X132.25 Y223.301 E37.86543
G1 X98.124 Y164.193 E41.8637
G1 X98.004 Y163.985 E41.87777
G1 X97.797 Y164.107 E41.88685
G1 X94.957 Y165.784 E42.08006
G1 X89.575 Y169.445 E42.46137
G1 X84.43 Y173.434 E42.84275
G0 F6000 X84.736 Y173.804
G1 F900 X79.878 Y178.09 E43.22226
G1 X78.659 Y179.304 E43.32304
G1 X78.489 Y179.473 E43.33708
G1 X78.658 Y179.642 E43.34612
G1 X126.278 Y227.262 E47.29125
G1 X127.828 Y225.896 E47.41228
G1 X129.581 Y224.536 E47.54226
G1 X131.611 Y223.155 E47.68609
G1 X97.951 Y164.853 E51.62982
G1 X97.831 Y164.645 E51.64389
G1 X97.624 Y164.767 E51.65297
G1 X95.214 Y166.19 E51.81692
G1 X89.857 Y169.833 E52.19643
G1 X84.736 Y173.804 E52.57605
G0 F6000 X85.042 Y174.174
;TYPE:WALL-OUTER
G1 F900 X80.206 Y178.44 E52.95382
G1 X79.168 Y179.474 E53.03965
G1 X126.299 Y226.604 E56.94423
G1 X127.522 Y225.526 E57.03973
G1 X129.304 Y224.143 E57.17187
G1 X130.972 Y223.009 E57.29003
G1 X97.658 Y165.305 E61.1933
G1 X95.471 Y166.596 E61.34207
G1 X90.139 Y170.222 E61.71981
G1 X85.042 Y174.174 E62.09763
G0 F6000 X84.706 Y173.768
G1 F2400 E60.49763
G0 F6000 X78.845 Y179.474
G0 X81.972 Y183.904
G0 X83.425 Y182.451
G0 X80.637 Y187.088
G0 X76.681 Y183.227
G0 X63.737 Y200.128
G0 X70.431 Y204.071
G0 X67.727 Y208.573
G0 X68.755 Y206.792
G0 X60.641 Y203.172
G0 X56.722 Y209.154
;TYPE:WALL-INNER
G1 F2400 E62.09763
G1 F900 X54.13 Y215.146 E62.48008
G1 X51.932 Y221.253 E62.8603
G1 X50.71 Y225.458 E63.11683
G1 X50.642 Y225.692 E63.1311
G1 X50.877 Y225.755 E63.14027
G1 X116.791 Y243.417 E67.1378
G1 X117.902 Y240.333 E67.32983
G1 X118.755 Y238.364 E67.45553
G1 X119.731 Y236.444 E67.58171
G1 X60.383 Y202.178 E71.59626
G1 X59.68 Y203.351 E71.67637
G1 X56.722 Y209.154 E72.05794
G0 F6000 X57.157 Y209.358
G1 F900 X54.577 Y215.323 E72.43866
G1 X52.389 Y221.401 E72.81708
G1 X51.308 Y225.121 E73.04402
G1 X51.24 Y225.355 E73.05829
G1 X51.475 Y225.418 E73.06746
G1 X116.489 Y242.839 E77.01041
G1 X117.45 Y240.17 E77.17659
G1 X118.319 Y238.163 E77.30471
G1 X119.097 Y236.632 E77.40531
G1 X60.552 Y202.83 E81.36554
G1 X60.1 Y203.584 E81.41703
G1 X57.157 Y209.358 E81.79668
G0 F6000 X57.592 Y209.562
;TYPE:WALL-OUTER
G1 F900 X55.024 Y215.5 E82.17567
G1 X52.846 Y221.549 E82.5523
G1 X51.838 Y225.018 E82.76392
G1 X116.187 Y242.261 E86.66655
G1 X116.998 Y240.007 E86.80688
G1 X117.891 Y237.945 E86.93851
G1 X118.463 Y236.82 E87.01245
G1 X60.721 Y203.482 E90.91834
G1 X60.52 Y203.817 E90.94123
G1 X57.592 Y209.562 E91.31896
G0 F6000 X57.115 Y209.338
G1 F2400 E89.71896
G0 F6000 X52.574 Y218.965
G0 X54.489 Y219.654
G0 X40.464 Y251.349
G0 X40.725 Y249.309
G0 X38.417 Y250.779
G0 X37.853 Y251.309
G0 X37.481 Y251.896
G0 X36.613 Y254.449
;TYPE:WALL-INNER
G1 F2400 E91.31896
G1 F900 X36.787 Y254.889 E91.34668
G1 X37.018 Y255.311 E91.37486
G1 X37.3 Y255.697 E91.40287
G1 X37.625 Y256.043 E91.43068
G1 X37.992 Y256.346 E91.45856
G1 X38.394 Y256.602 E91.48648
G1 X38.828 Y256.805 E91.51454
G1 X39.28 Y256.953 E91.54241
G1 X39.749 Y257.042 E91.57037
G1 X40.227 Y257.073 E91.59843
G1 X40.705 Y257.042 E91.62649
G1 X41.174 Y256.953 E91.65446
G1 X41.626 Y256.805 E91.68232
G1 X42.06 Y256.601 E91.71041
G1 X42.46 Y256.346 E91.7382
G1 X42.832 Y256.041 E91.76638
G1 X43.158 Y255.691 E91.7944
G1 X43.438 Y255.307 E91.82224
G1 X43.653 Y254.912 E91.84859
G1 X43.668 Y254.886 E91.85034
G1 X43.845 Y254.441 E91.8784
G1 X43.961 Y253.981 E91.90619
G1 X44.022 Y253.508 E91.93413
G1 X44.022 Y253.029 E91.96219
G1 X43.961 Y252.555 E91.99019
G1 X43.841 Y252.092 E92.01821
G1 X43.666 Y251.65 E92.04605
G1 X43.436 Y251.233 E92.07395
G1 X43.156 Y250.844 E92.10203
G1 X42.829 Y250.497 E92.12996
G1 X42.46 Y250.195 E92.15789
G1 X42.06 Y249.94 E92.18568
G1 X41.627 Y249.736 E92.21372
G1 X41.174 Y249.587 E92.24166
G1 X40.701 Y249.499 E92.26984
G1 X40.227 Y249.469 E92.29767
G1 X39.753 Y249.499 E92.32549
G1 X39.28 Y249.587 E92.35367
G1 X38.827 Y249.736 E92.38161
G1 X38.394 Y249.939 E92.40962
G1 X37.992 Y250.195 E92.43754
G1 X37.621 Y250.502 E92.46575
G1 X37.296 Y250.85 E92.49365
G1 X37.016 Y251.235 E92.52153
G1 X36.786 Y251.654 E92.54953
G1 X36.609 Y252.099 E92.57759
G1 X36.493 Y252.561 E92.60549
G1 X36.432 Y253.033 E92.63337
G1 X36.432 Y253.512 E92.66143
G1 X36.493 Y253.987 E92.68949
G1 X36.613 Y254.449 E92.71745
G0 F6000 X37.07 Y254.3
G1 F900 X37.222 Y254.685 E92.7417
G1 X37.424 Y255.053 E92.76629
G1 X37.67 Y255.39 E92.79073
G1 X37.954 Y255.692 E92.81502
G1 X38.275 Y255.957 E92.8394
G1 X38.626 Y256.18 E92.86376
G1 X39.005 Y256.358 E92.88829
G1 X39.4 Y256.487 E92.91264
G1 X39.81 Y256.565 E92.93708
G1 X40.227 Y256.592 E92.96156
G1 X40.644 Y256.565 E92.98604
G1 X41.054 Y256.487 E93.01049
G1 X41.449 Y256.358 E93.03483
G1 X41.828 Y256.18 E93.05936
G1 X42.178 Y255.957 E93.08367
G1 X42.503 Y255.69 E93.10831
G1 X42.787 Y255.385 E93.13273
G1 X43.032 Y255.049 E93.15709
G1 X43.233 Y254.682 E93.1816
G1 X43.387 Y254.293 E93.20611
G1 X43.489 Y253.891 E93.23041
G1 X43.542 Y253.477 E93.25486
G1 X43.542 Y253.06 E93.27928
G1 X43.489 Y252.646 E93.30373
G1 X43.384 Y252.241 E93.32824
G1 X43.231 Y251.855 E93.35257
G1 X43.03 Y251.49 E93.37698
G1 X42.785 Y251.15 E93.40153
G1 X42.501 Y250.849 E93.42577
G1 X42.178 Y250.584 E93.45025
G1 X41.828 Y250.361 E93.47456
G1 X41.449 Y250.183 E93.49909
G1 X41.054 Y250.053 E93.52345
G1 X40.642 Y249.976 E93.548
G1 X40.227 Y249.95 E93.57236
G1 X39.812 Y249.976 E93.59672
G1 X39.4 Y250.053 E93.62127
G1 X39.005 Y250.183 E93.64563
G1 X38.626 Y250.361 E93.67016
G1 X38.275 Y250.584 E93.69452
G1 X37.951 Y250.852 E93.71915
G1 X37.667 Y251.156 E93.74352
G1 X37.422 Y251.493 E93.76793
G1 X37.221 Y251.859 E93.79239
G1 X37.067 Y252.247 E93.81685
G1 X36.965 Y252.651 E93.84126
G1 X36.912 Y253.064 E93.86565
G1 X36.912 Y253.481 E93.89008
G1 X36.965 Y253.896 E93.91459
G1 X37.07 Y254.3 E93.93904
G0 F6000 X37.527 Y254.151
;TYPE:WALL-OUTER
G1 F900 X37.657 Y254.48 E93.95976
G1 X37.83 Y254.795 E93.98082
G1 X38.04 Y255.083 E94.0017
G1 X38.283 Y255.341 E94.02246
G1 X38.558 Y255.568 E94.04335
G1 X38.858 Y255.759 E94.06418
G1 X39.182 Y255.911 E94.08515
G1 X39.52 Y256.021 E94.10597
G1 X39.871 Y256.088 E94.1269
G1 X40.227 Y256.111 E94.1478
G1 X40.583 Y256.088 E94.1687
G1 X40.934 Y256.021 E94.18963
G1 X41.272 Y255.911 E94.21045
G1 X41.596 Y255.759 E94.23142
G1 X41.896 Y255.568 E94.25225
G1 X42.173 Y255.34 E94.27327
G1 X42.416 Y255.079 E94.29416
G1 X42.626 Y254.791 E94.31504
G1 X42.798 Y254.478 E94.33596
G1 X42.929 Y254.145 E94.35693
G1 X43.017 Y253.801 E94.37773
G1 X43.062 Y253.447 E94.39863
G1 X43.062 Y253.09 E94.41954
G1 X43.017 Y252.737 E94.44039
G1 X42.927 Y252.39 E94.46139
G1 X42.796 Y252.06 E94.48219
G1 X42.624 Y251.747 E94.50311
G1 X42.414 Y251.457 E94.52409
G1 X42.172 Y251.2 E94.54477
G1 X41.896 Y250.973 E94.5657
G1 X41.596 Y250.782 E94.58653
G1 X41.272 Y250.63 E94.6075
G1 X40.934 Y250.519 E94.62834
G1 X40.583 Y250.453 E94.64926
G1 X40.227 Y250.431 E94.67016
G1 X39.871 Y250.453 E94.69105
G1 X39.52 Y250.519 E94.71197
G1 X39.182 Y250.63 E94.73282
G1 X38.858 Y250.782 E94.75378
G1 X38.558 Y250.973 E94.77461
G1 X38.281 Y251.202 E94.79567
G1 X38.038 Y251.462 E94.81652
G1 X37.828 Y251.751 E94.83744
G1 X37.656 Y252.064 E94.85837
G1 X37.525 Y252.395 E94.87922
G1 X37.437 Y252.741 E94.90013
G1 X37.392 Y253.094 E94.92098
G1 X37.392 Y253.451 E94.94189
G1 X37.437 Y253.805 E94.9628
G1 X37.527 Y254.151 E94.98374
G0 F6000 X37.026 Y254.314
G1 F2400 E93.38374
G0 F6000 X38.119 Y255.516
G0 X38.742 Y255.97
G0 X39.461 Y256.253
G0 X40.227 Y256.351
G0 X40.993 Y256.253
G0 X41.712 Y255.97
G0 X42.337 Y255.515
G0 X44.213 Y253.017
G0 X42.159 Y253.143
G0 X48.798 Y250.619
G0 X47.671 Y251.711
G0 X114.744 Y251.739
G0 X115.498 Y251.059
;TYPE:WALL-INNER
G1 F2400 E94.98374
G1 F900 X115.705 Y248.864 E95.1129
G1 X116.05 Y246.688 E95.24196
G1 X116.434 Y244.977 E95.34469
G1 X50.42 Y227.289 E99.34827
G1 X50.18 Y227.225 E99.36282
G1 X50.126 Y227.468 E99.37214
G1 X48.92 Y232.866 E99.69616
G1 X48.696 Y233.853 E99.75545
G1 X47.684 Y240.271 E100.13607
G1 X47.681 Y240.286 E100.13696
G1 X47.066 Y246.764 E100.51816
G1 X46.894 Y252.225 E100.83823
G1 X46.887 Y252.471 E100.85265
G1 X47.133 Y252.471 E100.8619
G1 X47.134 Y252.471 E100.86196
G1 X115.455 Y252.471 E104.86428
G1 X115.498 Y251.059 E104.94703
G0 F6000 X115.018 Y251.031
G1 F900 X115.228 Y248.807 E105.0779
G1 X115.578 Y246.602 E105.20868
G1 X115.865 Y245.321 E105.28559
G1 X50.779 Y227.882 E109.23289
G1 X50.539 Y227.818 E109.24744
G1 X50.485 Y228.061 E109.25676
G1 X49.388 Y232.972 E109.55154
G1 X49.168 Y233.944 E109.60992
G1 X48.157 Y240.346 E109.9896
G1 X47.545 Y246.794 E110.36903
G1 X47.389 Y251.745 E110.65921
G1 X47.382 Y251.991 E110.67363
G1 X47.628 Y251.991 E110.68288
G1 X47.629 Y251.991 E110.68294
G1 X114.989 Y251.991 E114.62896
G1 X115.018 Y251.031 E114.68523
G0 F6000 X114.523 Y251.511
;TYPE:WALL-OUTER
G1 F900 X114.538 Y251.003 E114.715
G1 X114.751 Y248.75 E114.84757
G1 X115.106 Y246.516 E114.98008
G1 X115.296 Y245.666 E115.0311
G1 X50.898 Y228.411 E118.93668
G1 X49.856 Y233.078 E119.21681
G1 X49.64 Y234.034 E119.27423
G1 X48.633 Y240.406 E119.65214
G1 X48.024 Y246.824 E120.0298
G1 X47.877 Y251.511 E120.3045
