;FLAVOR:Marlin
;TIME:10712
;Filament used: 10.9959m
;Layer height: 0.3
;MINX:23.764
;MINY:122.147
;MINZ:0.3
;MAXX:251.428
;MAXY:264.308
;MAXZ:11.4
;Generated with Cura_SteamEngine 4.10.0
M104 S228
M105
M109 S228
M82 ;absolute extrusion mode
G28 ; home all axes
 M117 Purge extruder
 G92 E0 ; reset extruder
 G1 Z1.0 F3000 ; move z up little to prevent scratching of surface
 G1 X2 Y20 Z0.3 F5000.0 ; move to start-line position
 G1 X2 Y200.0 Z0.3 F1500.0 E15 ; draw 1st line
 G1 X2 Y200.0 Z0.4 F5000.0 ; move to side a little
 G1 X2 Y20 Z0.4 F1500.0 E30 ; draw 2nd line
 G92 E0 ; reset extruder
 G1 Z1.0 F3000 ; move z up little to prevent scratching of surface
G92 E0
G92 E0
G1 F2400 E-1.6
;LAYER_COUNT:38
;LAYER:0
M106 S89.3
;MESH:Vertical_Filament_Spool_Parts_Drawer_Stand_200mm_52mm_14mmCenterHole_v01.stl
G0 F6000 X88.618 Y135.605 Z0.3
;TYPE:WALL-INNER
G1 F2400 E0
G1 F900 X88.989 Y135.901 E0.0278
G1 X89.399 Y136.148 E0.05584
G1 X89.834 Y136.343 E0.08377
G1 X90.292 Y136.48 E0.11177
G1 X90.732 Y136.554 E0.13791
G1 X90.763 Y136.56 E0.13976
G1 X91.24 Y136.58 E0.16773
G1 X91.715 Y136.541 E0.19565
G1 X92.182 Y136.44 E0.22364
G1 X92.633 Y136.286 E0.25156
G1 X93.062 Y136.071 E0.27967
G1 X93.461 Y135.807 E0.30769
G1 X93.822 Y135.492 E0.33576
G1 X94.141 Y135.139 E0.36363
G1 X94.414 Y134.746 E0.39167
G1 X94.635 Y134.322 E0.41967
G1 X94.799 Y133.875 E0.44757
G1 X94.909 Y133.413 E0.47539
G1 X94.96 Y132.936 E0.50349
G1 X94.948 Y132.456 E0.53162
G1 X94.878 Y131.986 E0.55946
G1 X94.75 Y131.526 E0.58743
G1 X94.565 Y131.086 E0.61539
G1 X94.327 Y130.673 E0.64331
G1 X94.036 Y130.291 E0.67144
G1 X93.703 Y129.953 E0.69924
G1 X93.331 Y129.657 E0.72709
G1 X92.922 Y129.41 E0.75508
G1 X92.487 Y129.215 E0.783
G1 X92.029 Y129.078 E0.81101
G1 X91.588 Y129.004 E0.8372
G1 X91.557 Y128.998 E0.83905
G1 X91.081 Y128.978 E0.86696
G1 X90.605 Y129.017 E0.89494
G1 X90.138 Y129.118 E0.92293
G1 X89.688 Y129.272 E0.95079
G1 X89.258 Y129.487 E0.97896
G1 X88.859 Y129.751 E1.00698
G1 X88.498 Y130.066 E1.03505
G1 X88.18 Y130.419 E1.06288
G1 X87.908 Y130.812 E1.09088
G1 X87.687 Y131.234 E1.11879
G1 X87.519 Y131.683 E1.14687
G1 X87.412 Y132.148 E1.17482
G1 X87.367 Y132.592 E1.20097
G1 X87.363 Y132.622 E1.20274
G1 X87.372 Y133.099 E1.23069
G1 X87.442 Y133.573 E1.25876
G1 X87.571 Y134.032 E1.28669
G1 X87.755 Y134.472 E1.31463
G1 X87.996 Y134.885 E1.34264
G1 X88.284 Y135.268 E1.37071
G1 X88.618 Y135.605 E1.3985
G0 F6000 X88.939 Y135.247
G1 F900 X89.264 Y135.506 E1.42285
G1 X89.622 Y135.722 E1.44734
G1 X90.002 Y135.892 E1.47173
G1 X90.402 Y136.012 E1.49619
G1 X90.813 Y136.082 E1.52062
G1 X91.23 Y136.099 E1.54507
G1 X91.645 Y136.065 E1.56946
G1 X92.053 Y135.977 E1.59391
G1 X92.447 Y135.842 E1.61831
G1 X92.821 Y135.655 E1.6428
G1 X93.169 Y135.424 E1.66727
G1 X93.485 Y135.149 E1.69181
G1 X93.764 Y134.84 E1.7162
G1 X94.002 Y134.497 E1.74066
G1 X94.195 Y134.127 E1.7651
G1 X94.339 Y133.736 E1.78951
G1 X94.435 Y133.332 E1.81384
G1 X94.479 Y132.916 E1.83834
G1 X94.469 Y132.497 E1.8629
G1 X94.408 Y132.086 E1.88724
G1 X94.296 Y131.684 E1.91168
G1 X94.134 Y131.3 E1.9361
G1 X93.926 Y130.939 E1.96051
G1 X93.673 Y130.606 E1.985
G1 X93.382 Y130.311 E2.00928
G1 X93.056 Y130.052 E2.03367
G1 X92.699 Y129.836 E2.05811
G1 X92.319 Y129.666 E2.0825
G1 X91.919 Y129.546 E2.10696
G1 X91.507 Y129.476 E2.13145
G1 X91.091 Y129.459 E2.15584
G1 X90.675 Y129.493 E2.18029
G1 X90.267 Y129.581 E2.20474
G1 X89.874 Y129.716 E2.22908
G1 X89.499 Y129.903 E2.25363
G1 X89.151 Y130.134 E2.2781
G1 X88.835 Y130.409 E2.30264
G1 X88.557 Y130.718 E2.32699
G1 X88.319 Y131.061 E2.35144
G1 X88.126 Y131.43 E2.37584
G1 X87.98 Y131.822 E2.40034
G1 X87.886 Y132.227 E2.4247
G1 X87.843 Y132.642 E2.44914
G1 X87.851 Y133.059 E2.47357
G1 X87.912 Y133.473 E2.49809
G1 X88.025 Y133.874 E2.52249
G1 X88.186 Y134.258 E2.54689
G1 X88.396 Y134.619 E2.57135
G1 X88.648 Y134.953 E2.59586
G1 X88.939 Y135.247 E2.62009
G0 F6000 X89.26 Y134.889
;TYPE:WALL-OUTER
G1 F900 X89.539 Y135.111 E2.64098
G1 X89.845 Y135.296 E2.66193
G1 X90.17 Y135.441 E2.68278
G1 X90.512 Y135.544 E2.7037
G1 X90.863 Y135.604 E2.72456
G1 X91.22 Y135.618 E2.74549
G1 X91.575 Y135.589 E2.76635
G1 X91.924 Y135.514 E2.78727
G1 X92.261 Y135.398 E2.80815
G1 X92.58 Y135.239 E2.82903
G1 X92.877 Y135.041 E2.84994
G1 X93.148 Y134.806 E2.87095
G1 X93.387 Y134.541 E2.89185
G1 X93.59 Y134.248 E2.91273
G1 X93.755 Y133.932 E2.93362
G1 X93.879 Y133.597 E2.95454
G1 X93.961 Y133.251 E2.97537
G1 X93.998 Y132.896 E2.99628
G1 X93.99 Y132.538 E3.01726
G1 X93.938 Y132.186 E3.03811
G1 X93.842 Y131.843 E3.05897
G1 X93.703 Y131.514 E3.07989
G1 X93.525 Y131.205 E3.10078
G1 X93.309 Y130.921 E3.12169
G1 X93.061 Y130.669 E3.1424
G1 X92.781 Y130.447 E3.16333
G1 X92.476 Y130.262 E3.18423
G1 X92.151 Y130.117 E3.20508
G1 X91.809 Y130.014 E3.226
G1 X91.457 Y129.954 E3.24692
G1 X91.101 Y129.94 E3.26779
G1 X90.745 Y129.969 E3.28871
G1 X90.396 Y130.044 E3.30962
G1 X90.06 Y130.16 E3.33045
G1 X89.74 Y130.319 E3.35138
G1 X89.443 Y130.517 E3.37229
G1 X89.172 Y130.752 E3.3933
G1 X88.934 Y131.017 E3.41417
G1 X88.73 Y131.31 E3.43508
G1 X88.565 Y131.625 E3.45591
G1 X88.441 Y131.96 E3.47684
G1 X88.36 Y132.307 E3.49771
G1 X88.323 Y132.662 E3.51862
G1 X88.33 Y133.019 E3.53954
G1 X88.382 Y133.372 E3.56044
G1 X88.479 Y133.715 E3.58132
G1 X88.617 Y134.044 E3.60222
G1 X88.796 Y134.353 E3.62314
G1 X89.012 Y134.638 E3.64409
G1 X89.26 Y134.889 E3.66476
G0 F6000 X88.908 Y135.281
G1 F2400 E2.06476
G0 F6000 X90.457 Y135.777
G0 X91.224 Y135.857
G0 X91.988 Y135.745
G0 X92.7 Y135.446
G0 X93.197 Y135.067
G0 X95.151 Y132.945
G0 X93.094 Y132.864
G0 X122.75 Y129.31
G0 X122.305 Y127.324
G0 X133.321 Y125.459
;TYPE:WALL-INNER
G1 F2400 E3.66476
G1 F900 X126.869 Y126.477 E4.0474
G1 X120.48 Y127.907 E4.43094
G1 X120.238 Y127.961 E4.44546
G1 X120.301 Y128.2 E4.45473
G1 X120.302 Y128.201 E4.45481
G1 X137.992 Y194.215 E8.45842
G1 X139.701 Y193.832 E8.56102
G1 X141.885 Y193.486 E8.69056
G1 X144.08 Y193.28 E8.81971
G1 X145.485 Y193.231 E8.90207
G1 X145.485 Y124.916 E12.90403
G1 X145.485 Y124.915 E12.90409
G1 X145.485 Y124.669 E12.9185
G1 X145.239 Y124.676 E12.92776
G1 X139.78 Y124.848 E13.24771
G1 X133.321 Y125.459 E13.62778
G0 F6000 X133.381 Y125.935
G1 F900 X126.959 Y126.949 E14.00865
G1 X121.074 Y128.266 E14.36192
G1 X120.831 Y128.32 E14.37651
G1 X120.895 Y128.56 E14.38581
G1 X138.336 Y193.646 E18.33313
G1 X139.596 Y193.365 E18.40876
G1 X139.615 Y193.36 E18.40991
G1 X141.828 Y193.009 E18.54117
G1 X144.052 Y192.8 E18.67203
G1 X145.005 Y192.767 E18.72789
G1 X145.005 Y125.411 E22.67368
G1 X145.005 Y125.41 E22.67374
G1 X145.005 Y125.164 E22.68815
G1 X144.759 Y125.171 E22.69741
G1 X139.81 Y125.327 E22.98747
G1 X133.381 Y125.935 E23.36577
G0 F6000 X133.441 Y126.411
;TYPE:WALL-OUTER
G1 F900 X127.049 Y127.421 E23.74486
G1 X121.424 Y128.679 E24.08252
G1 X138.681 Y193.077 E27.98813
G1 X139.533 Y192.887 E28.03927
G1 X141.771 Y192.532 E28.17201
G1 X144.024 Y192.32 E28.30458
G1 X144.525 Y192.303 E28.33394
G1 X144.525 Y125.659 E32.23802
G1 X139.84 Y125.806 E32.51261
G1 X133.441 Y126.411 E32.88914
G0 F6000 X133.375 Y125.888
G1 F2400 E31.28914
G0 F6000 X139.825 Y125.567
G0 X144.752 Y125.425
G0 X145.675 Y126.477
G0 X147.845 Y126.477
G0 X147.818 Y125.424
G0 X151.81 Y125.538
G0 X165.704 Y126.477
;TYPE:WALL-INNER
G1 F2400 E32.88914
G1 F900 X159.307 Y125.467 E33.26852
G1 X159.292 Y125.464 E33.26942
G1 X152.792 Y124.847 E33.65191
G1 X147.331 Y124.675 E33.97198
G1 X147.085 Y124.668 E33.98639
G1 X147.085 Y124.914 E33.99565
G1 X147.085 Y124.915 E33.99571
G1 X147.085 Y193.231 E37.99773
G1 X148.49 Y193.28 E38.08009
G1 X150.686 Y193.486 E38.2093
G1 X152.87 Y193.832 E38.33884
G1 X154.58 Y194.215 E38.44149
G1 X172.267 Y128.202 E42.445
G1 X172.331 Y127.962 E42.45955
G1 X172.088 Y127.908 E42.46887
G1 X166.191 Y126.589 E42.82286
G1 X165.704 Y126.477 E42.85214
G0 F6000 X165.613 Y126.949
G1 F900 X159.232 Y125.94 E43.23059
G1 X152.762 Y125.326 E43.61131
G1 X147.811 Y125.17 E43.90149
G1 X147.565 Y125.163 E43.91591
G1 X147.565 Y125.409 E43.92516
G1 X147.565 Y125.41 E43.92522
G1 X147.565 Y192.767 E47.87107
G1 X148.518 Y192.8 E47.92693
G1 X150.743 Y193.009 E48.05784
G1 X152.956 Y193.36 E48.1891
G1 X154.235 Y193.646 E48.26588
G1 X171.674 Y128.561 E52.21312
G1 X171.738 Y128.321 E52.22767
G1 X171.495 Y128.267 E52.23699
G1 X166.084 Y127.057 E52.5618
G1 X165.613 Y126.949 E52.59011
G0 F6000 X165.522 Y127.421
;TYPE:WALL-OUTER
G1 F900 X159.172 Y126.416 E52.96673
G1 X152.732 Y125.805 E53.34569
G1 X148.045 Y125.658 E53.62039
G1 X148.045 Y192.303 E57.52453
G1 X148.546 Y192.32 E57.55389
G1 X150.8 Y192.532 E57.68652
G1 X153.038 Y192.887 E57.81926
G1 X153.89 Y193.077 E57.8704
G1 X171.145 Y128.68 E61.77592
G1 X165.977 Y127.525 E62.08613
G1 X165.522 Y127.421 E62.11348
G0 F6000 X165.622 Y126.903
G1 F2400 E60.51348
G0 F6000 X171.426 Y128.51
G0 X171.938 Y130.091
G0 X169.971 Y129.565
G0 X199.477 Y132.858
G0 X197.422 Y132.949
G0 X198.16 Y134.75
;TYPE:WALL-INNER
G1 F2400 E62.11348
G1 F900 X198.432 Y135.143 E62.14147
G1 X198.751 Y135.497 E62.16939
G1 X199.111 Y135.807 E62.19722
G1 X199.508 Y136.071 E62.22515
G1 X199.938 Y136.286 E62.25331
G1 X200.388 Y136.44 E62.28118
G1 X200.415 Y136.445 E62.28278
G1 X200.855 Y136.541 E62.30917
G1 X201.331 Y136.58 E62.33714
G1 X201.807 Y136.56 E62.36505
G1 X202.279 Y136.48 E62.3931
G1 X202.737 Y136.343 E62.4211
G1 X203.172 Y136.148 E62.44903
G1 X203.581 Y135.901 E62.47702
G1 X203.955 Y135.603 E62.50503
G1 X204.289 Y135.261 E62.53304
G1 X204.579 Y134.881 E62.56104
G1 X204.817 Y134.466 E62.58906
G1 X205.001 Y134.024 E62.61711
G1 X205.008 Y133.996 E62.6188
G1 X205.119 Y133.598 E62.64301
G1 X205.128 Y133.568 E62.64484
G1 X205.198 Y133.098 E62.67268
G1 X205.21 Y132.618 E62.70081
G1 X205.159 Y132.14 E62.72897
G1 X205.047 Y131.674 E62.75704
G1 X204.881 Y131.229 E62.78487
G1 X204.661 Y130.808 E62.81269
G1 X204.389 Y130.415 E62.84069
G1 X204.069 Y130.061 E62.86865
G1 X203.709 Y129.751 E62.89648
G1 X203.312 Y129.487 E62.92441
G1 X202.883 Y129.272 E62.95252
G1 X202.432 Y129.118 E62.98044
G1 X202.405 Y129.113 E62.98204
G1 X201.965 Y129.017 E63.00843
G1 X201.49 Y128.978 E63.03635
G1 X201.013 Y128.998 E63.06431
G1 X200.542 Y129.078 E63.0923
G1 X200.084 Y129.215 E63.12031
G1 X199.649 Y129.41 E63.14823
G1 X199.241 Y129.657 E63.17617
G1 X198.865 Y129.955 E63.20428
G1 X198.532 Y130.297 E63.23224
G1 X198.244 Y130.675 E63.26008
G1 X198.003 Y131.092 E63.28829
G1 X197.82 Y131.534 E63.31632
G1 X197.813 Y131.561 E63.31795
G1 X197.692 Y131.99 E63.34406
G1 X197.622 Y132.463 E63.37207
G1 X197.613 Y132.94 E63.40002
G1 X197.662 Y133.415 E63.428
G1 X197.772 Y133.882 E63.4561
G1 X197.939 Y134.328 E63.484
G1 X198.16 Y134.75 E63.51191
G0 F6000 X198.571 Y134.501
G1 F900 X198.809 Y134.844 E63.53636
G1 X199.087 Y135.153 E63.56071
G1 X199.402 Y135.424 E63.58505
G1 X199.749 Y135.655 E63.60947
G1 X200.124 Y135.842 E63.63402
G1 X200.517 Y135.977 E63.65836
G1 X200.925 Y136.065 E63.68282
G1 X201.341 Y136.099 E63.70727
G1 X201.757 Y136.082 E63.73166
G1 X202.169 Y136.012 E63.75614
G1 X202.569 Y135.892 E63.7806
G1 X202.949 Y135.722 E63.80499
G1 X203.306 Y135.506 E63.82943
G1 X203.633 Y135.246 E63.85391
G1 X203.925 Y134.947 E63.87839
G1 X204.178 Y134.615 E63.90284
G1 X204.386 Y134.253 E63.9273
G1 X204.547 Y133.867 E63.9518
G1 X204.658 Y133.468 E63.97606
G1 X204.719 Y133.057 E64.0004
G1 X204.729 Y132.638 E64.02495
G1 X204.685 Y132.222 E64.04946
G1 X204.587 Y131.814 E64.07404
G1 X204.442 Y131.425 E64.09836
G1 X204.249 Y131.057 E64.1227
G1 X204.012 Y130.714 E64.14713
G1 X203.733 Y130.405 E64.17151
G1 X203.418 Y130.134 E64.19586
G1 X203.071 Y129.903 E64.22028
G1 X202.697 Y129.716 E64.24477
G1 X202.303 Y129.581 E64.26917
G1 X201.895 Y129.493 E64.29362
G1 X201.48 Y129.459 E64.31801
G1 X201.063 Y129.476 E64.34246
G1 X200.652 Y129.546 E64.36689
G1 X200.252 Y129.666 E64.39135
G1 X199.872 Y129.836 E64.41574
G1 X199.515 Y130.052 E64.44018
G1 X199.187 Y130.312 E64.4647
G1 X198.896 Y130.611 E64.48914
G1 X198.644 Y130.942 E64.51351
G1 X198.434 Y131.305 E64.53808
G1 X198.274 Y131.691 E64.56256
G1 X198.162 Y132.09 E64.58683
G1 X198.101 Y132.503 E64.61129
G1 X198.093 Y132.92 E64.63572
G1 X198.136 Y133.335 E64.66016
G1 X198.232 Y133.742 E64.68466
G1 X198.378 Y134.132 E64.70906
G1 X198.571 Y134.501 E64.73345
G0 F6000 X198.982 Y134.252
;TYPE:WALL-OUTER
G1 F900 X199.186 Y134.545 E64.75437
G1 X199.423 Y134.809 E64.77515
G1 X199.693 Y135.041 E64.796
G1 X199.99 Y135.239 E64.81691
G1 X200.31 Y135.398 E64.83785
G1 X200.646 Y135.514 E64.85867
G1 X200.995 Y135.589 E64.87958
G1 X201.351 Y135.618 E64.9005
G1 X201.707 Y135.604 E64.92137
G1 X202.059 Y135.544 E64.94229
G1 X202.401 Y135.441 E64.96322
G1 X202.726 Y135.296 E64.98406
G1 X203.031 Y135.111 E65.00496
G1 X203.311 Y134.889 E65.02589
G1 X203.561 Y134.633 E65.04686
G1 X203.777 Y134.349 E65.06776
G1 X203.955 Y134.04 E65.08865
G1 X204.093 Y133.71 E65.1096
G1 X204.188 Y133.368 E65.1304
G1 X204.24 Y133.016 E65.15124
G1 X204.248 Y132.658 E65.17222
G1 X204.211 Y132.303 E65.19313
G1 X204.127 Y131.954 E65.21415
G1 X204.003 Y131.621 E65.23497
G1 X203.838 Y131.306 E65.2558
G1 X203.635 Y131.013 E65.27668
G1 X203.397 Y130.749 E65.29751
G1 X203.127 Y130.517 E65.31836
G1 X202.83 Y130.319 E65.33927
G1 X202.511 Y130.16 E65.36015
G1 X202.174 Y130.044 E65.38103
G1 X201.825 Y129.969 E65.40194
G1 X201.47 Y129.94 E65.42281
G1 X201.113 Y129.954 E65.44374
G1 X200.762 Y130.014 E65.4646
G1 X200.42 Y130.117 E65.48552
G1 X200.095 Y130.262 E65.50637
G1 X199.789 Y130.447 E65.52731
G1 X199.509 Y130.669 E65.54825
G1 X199.26 Y130.925 E65.56917
G1 X199.044 Y131.209 E65.59007
G1 X198.865 Y131.518 E65.61099
G1 X198.728 Y131.848 E65.63192
G1 X198.632 Y132.19 E65.65273
G1 X198.58 Y132.543 E65.67363
G1 X198.573 Y132.9 E65.69455
G1 X198.61 Y133.255 E65.71546
G1 X198.692 Y133.602 E65.73635
G1 X198.817 Y133.936 E65.75724
G1 X198.982 Y134.252 E65.77812
G0 F6000 X198.531 Y134.525
G1 F2400 E64.17812
G0 F6000 X201.827 Y136.75
G0 X201.73 Y134.688
G0 X221.986 Y160.342
G0 X223.512 Y158.996
G0 X230.112 Y167.356
;TYPE:WALL-INNER
G1 F2400 E65.77812
G1 F900 X226.122 Y162.212 E66.15949
G1 X221.816 Y157.332 E66.54074
G1 X220.253 Y155.761 E66.67056
G1 X220.084 Y155.591 E66.6846
G1 X219.915 Y155.76 E66.69364
G1 X171.636 Y204.039 E70.69337
G1 X173.29 Y205.916 E70.83993
G1 X174.627 Y207.639 E70.96768
G1 X176.255 Y210.032 E71.13723
G1 X235.363 Y175.906 E75.13551
G1 X235.571 Y175.786 E75.14958
G1 X235.449 Y175.579 E75.15866
G1 X233.77 Y172.736 E75.35208
G1 X233.444 Y172.26 E75.38587
G1 X230.112 Y167.356 E75.73319
G0 F6000 X229.723 Y167.638
G1 F900 X225.752 Y162.518 E76.11277
G1 X221.466 Y157.66 E76.49228
G1 X220.252 Y156.441 E76.59306
G1 X220.083 Y156.271 E76.6071
G1 X219.914 Y156.44 E76.61614
G1 X172.294 Y204.06 E80.56127
G1 X173.66 Y205.61 E80.6823
G1 X175.02 Y207.363 E80.81228
G1 X176.401 Y209.393 E80.95611
G1 X234.703 Y175.733 E84.89984
G1 X234.911 Y175.613 E84.91391
G1 X234.789 Y175.406 E84.92299
G1 X233.365 Y172.994 E85.08707
G1 X233.048 Y172.531 E85.11994
G1 X229.723 Y167.638 E85.4665
G0 F6000 X229.334 Y167.92
;TYPE:WALL-OUTER
G1 F900 X225.382 Y162.824 E85.84428
G1 X221.116 Y157.988 E86.22205
G1 X220.082 Y156.95 E86.30788
G1 X172.952 Y204.081 E90.21246
G1 X174.03 Y205.304 E90.30796
G1 X175.413 Y207.086 E90.4401
G1 X176.547 Y208.754 E90.55826
G1 X234.251 Y175.44 E94.46153
G1 X232.96 Y173.252 E94.61035
G1 X232.652 Y172.803 E94.64225
G1 X229.334 Y167.92 E94.98809
G0 F6000 X229.761 Y167.61
G1 F2400 E93.38809
G0 F6000 X233.162 Y173.123
G0 X234.564 Y175.522
G0 X234.997 Y176.36
G0 X235.586 Y177.381
G0 X236.28 Y178.429
G0 X239.605 Y184.344
;TYPE:WALL-INNER
G1 F2400 E94.98809
G1 F900 X236.655 Y178.56 E95.36845
G1 X236.216 Y177.814 E95.41915
G1 X177.664 Y211.62 E99.37985
G1 X178.443 Y213.151 E99.48048
G1 X178.454 Y213.178 E99.48219
G1 X179.312 Y215.158 E99.6086
G1 X180.273 Y217.826 E99.77472
G1 X245.286 Y200.406 E103.7176
G1 X245.521 Y200.343 E103.73186
G1 X245.453 Y200.109 E103.74103
G1 X244.372 Y196.389 E103.96797
G1 X242.178 Y190.292 E104.34756
G1 X239.605 Y184.344 E104.72721
G0 F6000 X239.17 Y184.549
;TYPE:WALL-OUTER
G1 F900 X236.234 Y178.791 E105.10583
G1 X236.044 Y178.468 E105.12779
G1 X178.298 Y211.808 E109.03394
