;FLAVOR:Marlin
;TIME:11482
;Filament used: 13.2304m
;Layer height: 0.3
;MINX:34.737
;MINY:71.043
;MINZ:0.3
;MAXX:262.672
;MAXY:233.184
;MAXZ:16.5
;Generated with Cura_SteamEngine 4.10.0
M104 S228
M105
M109 S228
M82 ;absolute extrusion mode
G28 ; home all axes
 M117 Purge extruder
 G92 E0 ; reset extruder
 G1 Z1.0 F3000 ; move z up little to prevent scratching of surface
 G1 X2 Y20 Z0.3 F5000.0 ; move to start-line position
 G1 X2 Y200.0 Z0.3 F1500.0 E15 ; draw 1st line
 G1 X2 Y200.0 Z0.4 F5000.0 ; move to side a little
 G1 X2 Y20 Z0.4 F1500.0 E30 ; draw 2nd line
 G92 E0 ; reset extruder
 G1 Z1.0 F3000 ; move z up little to prevent scratching of surface
G92 E0
G92 E0
G1 F2400 E-1.6
;LAYER_COUNT:55
;LAYER:0
M106 S127.5
;MESH:Vertical_Filament_Spool_Parts_Drawer_Stand_200mm_52mm_13mmCenterHole_v03.stl
G0 F6000 X96.03 Y79.789 Z0.3
;TYPE:WALL-INNER
G1 F2400 E0
G1 F900 X95.922 Y80.111 E0.02727
G1 X95.834 Y80.441 E0.05469
G1 X95.767 Y80.775 E0.08204
G1 X95.721 Y81.112 E0.10935
G1 X95.696 Y81.451 E0.13664
G1 X95.693 Y81.791 E0.16394
G1 X95.71 Y82.133 E0.19143
G1 X95.751 Y82.474 E0.21901
G1 X95.811 Y82.806 E0.24609
G1 X95.891 Y83.137 E0.27343
G1 X95.994 Y83.465 E0.30104
G1 X96.117 Y83.782 E0.32834
G1 X96.259 Y84.091 E0.35564
G1 X96.421 Y84.391 E0.38301
G1 X96.6 Y84.679 E0.41024
G1 X96.797 Y84.957 E0.4376
G1 X97.013 Y85.223 E0.46511
G1 X97.241 Y85.471 E0.49215
G1 X97.486 Y85.706 E0.51941
G1 X97.745 Y85.924 E0.54659
G1 X98.019 Y86.129 E0.57407
G1 X98.306 Y86.315 E0.60153
G1 X98.602 Y86.482 E0.62881
G1 X98.91 Y86.631 E0.65628
G1 X99.226 Y86.759 E0.68366
G1 X99.547 Y86.868 E0.71087
G1 X99.877 Y86.956 E0.73829
G1 X100.212 Y87.024 E0.76574
G1 X100.549 Y87.069 E0.79304
G1 X100.887 Y87.095 E0.82025
G1 X101.23 Y87.098 E0.84779
G1 X101.57 Y87.08 E0.87513
G1 X101.909 Y87.041 E0.90253
G1 X102.243 Y86.98 E0.92979
G1 X102.574 Y86.9 E0.95713
G1 X102.902 Y86.797 E0.98473
G1 X103.217 Y86.675 E1.01185
G1 X103.527 Y86.533 E1.03923
G1 X103.828 Y86.373 E1.0666
G1 X104.119 Y86.192 E1.09411
G1 X104.395 Y85.995 E1.12134
G1 X104.659 Y85.781 E1.14862
G1 X104.914 Y85.547 E1.17641
G1 X105.15 Y85.301 E1.20378
G1 X105.369 Y85.041 E1.23107
G1 X105.572 Y84.768 E1.25839
G1 X105.759 Y84.48 E1.28596
G1 X105.926 Y84.181 E1.31345
G1 X106.074 Y83.876 E1.34067
G1 X106.201 Y83.56 E1.36802
G1 X106.31 Y83.239 E1.39523
G1 X106.398 Y82.908 E1.42273
G1 X106.465 Y82.573 E1.45016
G1 X106.51 Y82.237 E1.47738
G1 X106.536 Y81.899 E1.5046
G1 X106.539 Y81.556 E1.53214
G1 X106.521 Y81.214 E1.55963
G1 X106.48 Y80.875 E1.58705
G1 X106.42 Y80.543 E1.61414
G1 X106.34 Y80.213 E1.6414
G1 X106.237 Y79.885 E1.669
G1 X106.114 Y79.567 E1.69638
G1 X105.972 Y79.26 E1.72354
G1 X105.812 Y78.961 E1.75076
G1 X105.632 Y78.669 E1.7783
G1 X105.433 Y78.39 E1.80582
G1 X105.218 Y78.127 E1.83309
G1 X104.992 Y77.881 E1.85991
G1 X104.746 Y77.643 E1.88739
G1 X104.485 Y77.423 E1.9148
G1 X104.211 Y77.22 E1.94218
G1 X103.924 Y77.034 E1.96964
G1 X103.628 Y76.868 E1.99689
G1 X103.322 Y76.72 E2.02418
G1 X103.006 Y76.59 E2.05161
G1 X102.683 Y76.482 E2.07896
G1 X102.354 Y76.394 E2.1063
G1 X102.021 Y76.326 E2.13359
G1 X101.682 Y76.28 E2.16105
G1 X101.343 Y76.255 E2.18835
G1 X101.003 Y76.252 E2.21564
G1 X100.662 Y76.269 E2.24306
G1 X100.322 Y76.308 E2.27053
G1 X99.988 Y76.369 E2.29779
G1 X99.657 Y76.449 E2.32513
G1 X99.332 Y76.552 E2.35251
G1 X99.014 Y76.674 E2.37985
G1 X98.704 Y76.816 E2.40723
G1 X98.404 Y76.977 E2.43457
G1 X98.115 Y77.156 E2.46186
G1 X97.837 Y77.353 E2.48921
G1 X97.57 Y77.569 E2.51679
G1 X97.316 Y77.804 E2.54457
G1 X97.082 Y78.049 E2.57177
G1 X96.863 Y78.307 E2.59894
G1 X96.658 Y78.583 E2.62655
G1 X96.473 Y78.87 E2.65396
G1 X96.307 Y79.167 E2.68128
G1 X96.159 Y79.473 E2.70857
G1 X96.03 Y79.789 E2.73597
G0 F6000 X96.608 Y80.003
;TYPE:WALL-OUTER
G1 F900 X96.512 Y80.289 E2.7602
G1 X96.434 Y80.581 E2.78446
G1 X96.375 Y80.877 E2.80869
G1 X96.334 Y81.176 E2.83293
G1 X96.312 Y81.477 E2.85716
G1 X96.309 Y81.779 E2.8814
G1 X96.324 Y82.081 E2.90568
G1 X96.36 Y82.382 E2.93002
G1 X96.414 Y82.678 E2.95418
G1 X96.485 Y82.972 E2.97846
G1 X96.576 Y83.261 E3.00279
G1 X96.685 Y83.542 E3.02699
G1 X96.811 Y83.816 E3.0512
G1 X96.954 Y84.082 E3.07545
G1 X97.113 Y84.338 E3.09964
G1 X97.288 Y84.584 E3.12388
G1 X97.479 Y84.82 E3.14826
G1 X97.681 Y85.039 E3.17218
G1 X97.899 Y85.248 E3.19643
G1 X98.128 Y85.442 E3.22052
G1 X98.371 Y85.623 E3.24485
G1 X98.625 Y85.788 E3.26917
G1 X98.888 Y85.936 E3.2934
G1 X99.16 Y86.068 E3.31767
G1 X99.44 Y86.181 E3.34191
G1 X99.726 Y86.278 E3.36616
G1 X100.018 Y86.356 E3.39043
G1 X100.314 Y86.416 E3.41468
G1 X100.613 Y86.456 E3.4389
G1 X100.914 Y86.479 E3.46313
G1 X101.217 Y86.482 E3.48746
G1 X101.518 Y86.466 E3.51166
G1 X101.818 Y86.431 E3.53591
G1 X102.115 Y86.377 E3.56015
G1 X102.409 Y86.306 E3.58443
G1 X102.698 Y86.215 E3.60876
G1 X102.978 Y86.107 E3.63285
G1 X103.254 Y85.981 E3.65721
G1 X103.52 Y85.839 E3.68142
G1 X103.777 Y85.679 E3.70573
G1 X104.022 Y85.504 E3.7299
G1 X104.257 Y85.314 E3.75417
G1 X104.483 Y85.107 E3.77877
G1 X104.691 Y84.889 E3.80296
G1 X104.886 Y84.658 E3.82724
G1 X105.066 Y84.416 E3.85145
G1 X105.231 Y84.162 E3.87577
G1 X105.379 Y83.897 E3.90014
G1 X105.51 Y83.626 E3.92431
G1 X105.623 Y83.346 E3.94855
G1 X105.72 Y83.06 E3.97279
G1 X105.798 Y82.768 E3.99706
G1 X105.857 Y82.472 E4.02129
G1 X105.897 Y82.173 E4.04551
G1 X105.92 Y81.872 E4.06975
G1 X105.923 Y81.569 E4.09408
G1 X105.907 Y81.267 E4.11836
G1 X105.871 Y80.967 E4.14262
G1 X105.817 Y80.671 E4.16678
G1 X105.746 Y80.378 E4.19098
G1 X105.655 Y80.089 E4.21531
G1 X105.546 Y79.807 E4.23958
G1 X105.42 Y79.534 E4.26372
G1 X105.278 Y79.268 E4.28793
G1 X105.119 Y79.01 E4.31227
G1 X104.943 Y78.764 E4.33655
G1 X104.752 Y78.53 E4.3608
G1 X104.551 Y78.311 E4.38467
G1 X104.333 Y78.101 E4.40897
G1 X104.102 Y77.906 E4.43324
G1 X103.86 Y77.726 E4.45746
G1 X103.606 Y77.562 E4.48173
G1 X103.343 Y77.414 E4.50596
G1 X103.071 Y77.283 E4.5302
G1 X102.791 Y77.168 E4.5545
G1 X102.505 Y77.072 E4.57873
G1 X102.213 Y76.994 E4.60299
G1 X101.918 Y76.934 E4.62716
G1 X101.618 Y76.893 E4.65147
G1 X101.317 Y76.871 E4.6757
G1 X101.015 Y76.868 E4.69995
G1 X100.713 Y76.883 E4.72423
G1 X100.413 Y76.918 E4.74848
G1 X100.116 Y76.972 E4.77272
G1 X99.823 Y77.043 E4.79692
G1 X99.535 Y77.134 E4.82117
G1 X99.253 Y77.242 E4.84542
G1 X98.978 Y77.368 E4.8697
G1 X98.712 Y77.511 E4.89395
G1 X98.455 Y77.67 E4.91821
G1 X98.209 Y77.844 E4.9424
G1 X97.973 Y78.035 E4.96678
G1 X97.748 Y78.243 E4.99138
G1 X97.54 Y78.461 E5.01557
G1 X97.346 Y78.69 E5.03967
G1 X97.165 Y78.934 E5.06406
G1 X97.001 Y79.188 E5.08834
G1 X96.853 Y79.452 E5.11264
G1 X96.722 Y79.723 E5.1368
G1 X96.608 Y80.003 E5.16108
G0 F6000 X95.974 Y79.768
G1 F2400 E3.56108
G0 F6000 X97.803 Y77.839
G0 X98.583 Y77.286
G0 X99.449 Y76.889
G0 X100.376 Y76.661
G0 X101.327 Y76.612
G0 X102.272 Y76.742
G0 X103.177 Y77.046
G0 X103.849 Y77.424
G0 X106.161 Y79.165
G0 X104.541 Y79.95
G0 X132.484 Y78.242
G0 X130.268 Y76.9
G0 X136.876 Y75.645
;TYPE:WALL-INNER
G1 F2400 E5.16108
G1 F900 X130.847 Y76.993 E5.65709
G1 X130.535 Y77.062 E5.68274
G1 X130.617 Y77.371 E5.69914
G1 X142.967 Y123.458 E9.52994
G1 X145.886 Y122.805 E9.77009
G1 X149.294 Y122.267 E10.0471
G1 X152.762 Y121.939 E10.32678
G1 X155.165 Y121.863 E10.51981
G1 X155.165 Y74.166 E14.34932
G1 X155.165 Y74.165 E14.3494
G1 X155.165 Y73.849 E14.37477
G1 X154.849 Y73.858 E14.39106
G1 X149.752 Y74.019 E14.80049
G1 X143.31 Y74.628 E15.32002
G1 X136.876 Y75.645 E15.84301
G0 F6000 X136.991 Y76.25
;TYPE:WALL-OUTER
G1 F900 X131.296 Y77.523 E16.31153
G1 X143.409 Y122.728 E20.069
G1 X145.767 Y122.201 E20.26299
G1 X149.22 Y121.655 E20.54367
G1 X152.732 Y121.323 E20.8269
G1 X154.549 Y121.266 E20.97286
G1 X154.549 Y74.485 E24.72883
G1 X149.791 Y74.634 E25.11103
G1 X143.387 Y75.239 E25.62748
G1 X136.991 Y76.25 E26.14738
G0 F6000 X136.865 Y75.585
G1 F2400 E24.54738
G0 F6000 X149.775 Y74.375
G0 X154.796 Y74.23
G0 X155.375 Y74.631
G0 X157.107 Y74.631
G0 X157.686 Y74.229
G0 X169.192 Y74.631
;TYPE:WALL-INNER
G1 F2400 E26.14738
G1 F900 X162.73 Y74.018 E26.66853
G1 X157.633 Y73.857 E27.07797
G1 X157.317 Y73.848 E27.10335
G1 X157.317 Y74.164 E27.11963
G1 X157.317 Y74.165 E27.11971
G1 X157.317 Y121.863 E30.9493
G1 X159.72 Y121.939 E31.14233
G1 X163.188 Y122.266 E31.422
G1 X166.595 Y122.805 E31.69895
G1 X169.514 Y123.458 E31.9391
G1 X181.864 Y77.372 E35.76982
G1 X181.946 Y77.063 E35.79549
G1 X181.634 Y76.994 E35.81188
G1 X176.082 Y75.754 E36.26862
G1 X175.607 Y75.645 E36.30775
G1 X169.192 Y74.631 E36.82919
G0 F6000 X169.115 Y75.242
;TYPE:WALL-OUTER
G1 F900 X162.691 Y74.633 E37.34728
G1 X157.933 Y74.484 E37.72948
G1 X157.933 Y121.266 E41.48552
G1 X159.75 Y121.323 E41.63148
G1 X163.262 Y121.655 E41.91471
G1 X166.714 Y122.201 E42.19531
G1 X169.072 Y122.728 E42.3893
G1 X181.185 Y77.524 E46.14669
G1 X175.948 Y76.355 E46.57751
G1 X175.49 Y76.25 E46.61524
G1 X169.115 Y75.242 E47.13343
G0 F6000 X169.199 Y74.571
G1 F2400 E45.53343
G0 F6000 X182.213 Y76.901
G0 X179.997 Y78.243
G0 X207.669 Y80.65
G0 X205.937 Y80.163
G0 X206.666 Y78.966
;TYPE:WALL-INNER
G1 F2400 E47.13343
G1 F900 X206.505 Y79.268 E47.16091
G1 X206.363 Y79.578 E47.18829
G1 X206.242 Y79.895 E47.21553
G1 X206.14 Y80.22 E47.24288
G1 X206.058 Y80.553 E47.27041
G1 X205.999 Y80.887 E47.29765
G1 X205.96 Y81.225 E47.32496
G1 X205.943 Y81.566 E47.35238
G1 X205.946 Y81.905 E47.37959
G1 X205.971 Y82.247 E47.40713
G1 X206.019 Y82.585 E47.43454
G1 X206.086 Y82.917 E47.46173
G1 X206.174 Y83.245 E47.48899
G1 X206.283 Y83.571 E47.51659
G1 X206.414 Y83.888 E47.54413
G1 X206.561 Y84.191 E47.57117
G1 X206.727 Y84.486 E47.59835
G1 X206.913 Y84.773 E47.62581
G1 X207.118 Y85.049 E47.65341
G1 X207.338 Y85.308 E47.68069
G1 X207.571 Y85.551 E47.70772
G1 X207.822 Y85.781 E47.73506
G1 X208.085 Y85.994 E47.76223
G1 X208.362 Y86.193 E47.78961
G1 X208.655 Y86.373 E47.81722
G1 X208.954 Y86.533 E47.84445
G1 X209.264 Y86.675 E47.87183
G1 X209.582 Y86.797 E47.89917
G1 X209.907 Y86.9 E47.92655
G1 X210.238 Y86.98 E47.95389
G1 X210.572 Y87.041 E47.98115
G1 X210.911 Y87.08 E48.00854
G1 X211.251 Y87.098 E48.03588
G1 X211.594 Y87.095 E48.06342
G1 X211.932 Y87.069 E48.09064
G1 X212.269 Y87.024 E48.11793
G1 X212.604 Y86.956 E48.14538
G1 X212.934 Y86.868 E48.1728
G1 X213.255 Y86.759 E48.20002
G1 X213.571 Y86.631 E48.22739
G1 X213.878 Y86.482 E48.25479
G1 X214.176 Y86.315 E48.28222
G1 X214.462 Y86.129 E48.30961
G1 X214.735 Y85.926 E48.33692
G1 X214.995 Y85.706 E48.36427
G1 X215.246 Y85.466 E48.39215
G1 X215.476 Y85.214 E48.41954
G1 X215.688 Y84.95 E48.44673
G1 X215.885 Y84.675 E48.47389
G1 X216.066 Y84.383 E48.50147
G1 X216.227 Y84.08 E48.52902
G1 X216.367 Y83.771 E48.55626
G1 X216.489 Y83.457 E48.5833
G1 X216.592 Y83.13 E48.61083
G1 X216.673 Y82.795 E48.6385
G1 X216.732 Y82.462 E48.66565
G1 X216.771 Y82.125 E48.69289
G1 X216.789 Y81.785 E48.72023
G1 X216.786 Y81.443 E48.74769
G1 X216.76 Y81.102 E48.77514
G1 X216.714 Y80.765 E48.80245
G1 X216.646 Y80.432 E48.82974
G1 X216.558 Y80.103 E48.85708
G1 X216.448 Y79.778 E48.88463
G1 X216.319 Y79.462 E48.91203
G1 X216.171 Y79.158 E48.93918
G1 X216.004 Y78.862 E48.96647
G1 X215.818 Y78.575 E48.99393
G1 X215.613 Y78.3 E49.02147
G1 X215.393 Y78.041 E49.04875
G1 X215.161 Y77.8 E49.07561
G1 X214.911 Y77.569 E49.10294
G1 X214.644 Y77.353 E49.13051
G1 X214.367 Y77.156 E49.1578
G1 X214.079 Y76.978 E49.18498
G1 X213.778 Y76.816 E49.21243
G1 X213.467 Y76.674 E49.23988
G1 X213.152 Y76.552 E49.267
G1 X212.824 Y76.449 E49.2946
G1 X212.493 Y76.369 E49.32194
G1 X212.159 Y76.308 E49.3492
G1 X211.819 Y76.269 E49.37668
G1 X211.478 Y76.252 E49.40409
G1 X211.138 Y76.255 E49.43139
G1 X210.799 Y76.28 E49.45868
G1 X210.46 Y76.326 E49.48615
G1 X210.127 Y76.394 E49.51344
G1 X209.798 Y76.482 E49.54078
G1 X209.475 Y76.59 E49.56812
G1 X209.159 Y76.72 E49.59556
G1 X208.853 Y76.868 E49.62285
G1 X208.557 Y77.035 E49.65014
G1 X208.271 Y77.219 E49.67744
G1 X207.995 Y77.424 E49.70504
G1 X207.736 Y77.644 E49.73233
G1 X207.487 Y77.883 E49.76004
G1 X207.258 Y78.133 E49.78726
G1 X207.042 Y78.398 E49.81471
G1 X206.845 Y78.677 E49.84213
G1 X206.666 Y78.966 E49.86942
G0 F6000 X207.2 Y79.274
;TYPE:WALL-OUTER
G1 F900 X207.057 Y79.541 E49.89374
G1 X206.932 Y79.816 E49.91799
G1 X206.824 Y80.098 E49.94224
G1 X206.733 Y80.386 E49.96649
G1 X206.661 Y80.68 E49.99079
G1 X206.609 Y80.976 E50.01492
G1 X206.574 Y81.276 E50.03917
G1 X206.559 Y81.578 E50.06345
G1 X206.562 Y81.88 E50.0877
G1 X206.584 Y82.182 E50.11201
G1 X206.626 Y82.481 E50.13625
G1 X206.686 Y82.776 E50.16042
G1 X206.764 Y83.068 E50.18469
G1 X206.86 Y83.355 E50.20898
G1 X206.976 Y83.635 E50.23332
G1 X207.107 Y83.905 E50.25741
G1 X207.255 Y84.168 E50.28164
G1 X207.419 Y84.422 E50.30592
G1 X207.6 Y84.665 E50.33024
G1 X207.795 Y84.895 E50.35445
G1 X208.002 Y85.11 E50.37841
G1 X208.224 Y85.314 E50.40262
G1 X208.459 Y85.504 E50.42688
G1 X208.704 Y85.68 E50.4511
G1 X208.962 Y85.839 E50.47544
G1 X209.228 Y85.981 E50.49965
G1 X209.503 Y86.107 E50.52393
G1 X209.785 Y86.215 E50.54818
G1 X210.073 Y86.306 E50.57243
G1 X210.366 Y86.377 E50.59663
G1 X210.663 Y86.431 E50.62087
G1 X210.963 Y86.466 E50.64512
G1 X211.264 Y86.482 E50.66932
G1 X211.567 Y86.479 E50.69365
G1 X211.868 Y86.456 E50.71789
G1 X212.167 Y86.416 E50.74211
G1 X212.463 Y86.356 E50.76635
G1 X212.755 Y86.278 E50.79062
G1 X213.041 Y86.181 E50.81487
G1 X213.321 Y86.068 E50.83911
G1 X213.593 Y85.936 E50.86338
G1 X213.857 Y85.788 E50.88768
G1 X214.11 Y85.623 E50.91194
G1 X214.352 Y85.443 E50.93615
G1 X214.583 Y85.248 E50.96042
G1 X214.805 Y85.035 E50.98512
G1 X215.008 Y84.813 E51.00928
G1 X215.197 Y84.578 E51.03349
G1 X215.372 Y84.333 E51.05766
G1 X215.532 Y84.076 E51.08197
G1 X215.674 Y83.808 E51.10632
G1 X215.799 Y83.533 E51.13057
G1 X215.907 Y83.253 E51.15467
G1 X215.998 Y82.964 E51.17899
G1 X216.07 Y82.669 E51.20337
G1 X216.122 Y82.373 E51.2275
G1 X216.157 Y82.073 E51.25175
G1 X216.173 Y81.772 E51.27595
G1 X216.17 Y81.469 E51.30028
G1 X216.147 Y81.167 E51.3246
G1 X216.106 Y80.868 E51.34883
G1 X216.046 Y80.573 E51.373
G1 X215.968 Y80.281 E51.39727
G1 X215.871 Y79.994 E51.42159
G1 X215.756 Y79.714 E51.44589
G1 X215.625 Y79.444 E51.46999
G1 X215.477 Y79.181 E51.49422
G1 X215.312 Y78.927 E51.51854
G1 X215.131 Y78.684 E51.54286
G1 X214.936 Y78.454 E51.56707
G1 X214.73 Y78.24 E51.59092
G1 X214.508 Y78.035 E51.61518
G1 X214.272 Y77.844 E51.63956
G1 X214.026 Y77.67 E51.66375
G1 X213.77 Y77.511 E51.68795
G1 X213.504 Y77.368 E51.71219
G1 X213.228 Y77.242 E51.73655
G1 X212.948 Y77.134 E51.76065
G1 X212.659 Y77.043 E51.78497
G1 X212.365 Y76.972 E51.80926
G1 X212.068 Y76.918 E51.83349
G1 X211.768 Y76.883 E51.85774
G1 X211.466 Y76.868 E51.88202
G1 X211.164 Y76.871 E51.90627
G1 X210.863 Y76.893 E51.9305
G1 X210.563 Y76.934 E51.95481
G1 X210.268 Y76.994 E51.97898
G1 X209.976 Y77.072 E52.00325
G1 X209.69 Y77.168 E52.02747
G1 X209.41 Y77.283 E52.05177
G1 X209.138 Y77.414 E52.07601
G1 X208.876 Y77.562 E52.10017
G1 X208.622 Y77.726 E52.12445
G1 X208.378 Y77.907 E52.14884
G1 X208.149 Y78.101 E52.17293
G1 X207.928 Y78.314 E52.19758
G1 X207.724 Y78.536 E52.22178
G1 X207.533 Y78.771 E52.2461
G1 X207.359 Y79.017 E52.27029
G1 X207.2 Y79.274 E52.29455
G0 F6000 X206.614 Y78.936
G1 F2400 E50.69455
G0 F6000 X206.3 Y81.574
G0 X206.37 Y82.524
G0 X206.617 Y83.446
G0 X207.206 Y84.57
G0 X207.821 Y85.295
G0 X208.56 Y85.896
G0 X209.403 Y86.346
G0 X210.312 Y86.631
G0 X211.259 Y86.741
G0 X211.797 Y86.703
G0 X214.582 Y86.302
G0 X213.562 Y84.82
G0 X216.063 Y94.847
G0 X217.123 Y93.393
G0 X222.112 Y97.53
;TYPE:WALL-INNER
G1 F2400 E52.29455
G1 F900 X216.999 Y93.563 E52.81414
G1 X211.612 Y89.902 E53.33708
G1 X209.08 Y88.403 E53.57332
G1 X208.814 Y88.246 E53.59812
G1 X208.661 Y88.513 E53.61401
G1 X208.66 Y88.514 E53.61413
G1 X184.818 Y129.81 E57.44263
G1 X185.88 Y130.438 E57.54169
G1 X188.762 Y132.396 E57.82143
G1 X191.509 Y134.527 E58.10056
G1 X194.611 Y137.262 E58.4326
G1 X228.299 Y103.575 E62.25764
G1 X228.516 Y103.358 E62.28228
G1 X228.299 Y103.142 E62.29814
G1 X226.965 Y101.81 E62.4495
G1 X222.112 Y97.53 E62.96902
G0 F6000 X221.719 Y98.005
;TYPE:WALL-OUTER
G1 F900 X216.637 Y94.062 E63.48545
G1 X211.282 Y90.422 E64.00532
G1 X209.036 Y89.093 E64.21485
G1 X185.656 Y129.59 E67.96925
