;FLAVOR:Marlin
;TIME:11277
;Filament used: 11.6404m
;Layer height: 0.3
;MINX:68.165
;MINY:139.498
;MINZ:0.3
;MAXX:296.123
;MAXY:281.659
;MAXZ:16.5
;Generated with Cura_SteamEngine 4.10.0
M104 S228
M105
M109 S228
M82 ;absolute extrusion mode
G28 ; home all axes
 M117 Purge extruder
 G92 E0 ; reset extruder
 G1 Z1.0 F3000 ; move z up little to prevent scratching of surface
 G1 X2 Y20 Z0.3 F5000.0 ; move to start-line position
 G1 X2 Y200.0 Z0.3 F1500.0 E15 ; draw 1st line
 G1 X2 Y200.0 Z0.4 F5000.0 ; move to side a little
 G1 X2 Y20 Z0.4 F1500.0 E30 ; draw 2nd line
 G92 E0 ; reset extruder
 G1 Z1.0 F3000 ; move z up little to prevent scratching of surface
G92 E0
G92 E0
G1 F2400 E-1.6
;LAYER_COUNT:55
;LAYER:0
M106 S89.3
;MESH:Vertical_Filament_Spool_Parts_Drawer_Stand_200mm_52mm_13mmCenterHole_v01.stl
G0 F6000 X132.026 Y152.956 Z0.3
;TYPE:WALL-INNER
G1 F2400 E0
G1 F900 X132.397 Y153.252 E0.0278
G1 X132.807 Y153.499 E0.05584
G1 X133.242 Y153.694 E0.08377
G1 X133.7 Y153.831 E0.11177
G1 X134.14 Y153.905 E0.13791
G1 X134.171 Y153.911 E0.13976
G1 X134.648 Y153.931 E0.16773
G1 X135.123 Y153.892 E0.19565
G1 X135.59 Y153.791 E0.22364
G1 X136.041 Y153.637 E0.25156
G1 X136.47 Y153.422 E0.27967
G1 X136.869 Y153.158 E0.30769
G1 X137.23 Y152.843 E0.33576
G1 X137.549 Y152.49 E0.36363
G1 X137.821 Y152.097 E0.39163
G1 X138.041 Y151.674 E0.41956
G1 X138.207 Y151.227 E0.4475
G1 X138.317 Y150.763 E0.47543
G1 X138.368 Y150.287 E0.50347
G1 X138.356 Y149.807 E0.5316
G1 X138.286 Y149.337 E0.55944
G1 X138.158 Y148.877 E0.58741
G1 X137.973 Y148.437 E0.61537
G1 X137.735 Y148.024 E0.6433
G1 X137.444 Y147.642 E0.67143
G1 X137.111 Y147.304 E0.69922
G1 X136.739 Y147.008 E0.72707
G1 X136.33 Y146.761 E0.75506
G1 X135.895 Y146.566 E0.78299
G1 X135.437 Y146.429 E0.81099
G1 X134.996 Y146.355 E0.83719
G1 X134.965 Y146.349 E0.83904
G1 X134.489 Y146.329 E0.86695
G1 X134.013 Y146.368 E0.89492
G1 X133.546 Y146.469 E0.92291
G1 X133.096 Y146.623 E0.95078
G1 X132.666 Y146.838 E0.97894
G1 X132.267 Y147.102 E1.00697
G1 X131.906 Y147.417 E1.03503
G1 X131.588 Y147.77 E1.06287
G1 X131.316 Y148.163 E1.09087
G1 X131.094 Y148.586 E1.11885
G1 X130.927 Y149.035 E1.14691
G1 X130.82 Y149.499 E1.17481
G1 X130.775 Y149.943 E1.20095
G1 X130.771 Y149.973 E1.20273
G1 X130.78 Y150.45 E1.23067
G1 X130.85 Y150.924 E1.25874
G1 X130.979 Y151.383 E1.28667
G1 X131.163 Y151.823 E1.31461
G1 X131.404 Y152.236 E1.34262
G1 X131.692 Y152.619 E1.37069
G1 X132.026 Y152.956 E1.39849
G0 F6000 X132.347 Y152.598
G1 F900 X132.672 Y152.857 E1.42284
G1 X133.03 Y153.073 E1.44733
G1 X133.41 Y153.243 E1.47172
G1 X133.81 Y153.363 E1.49618
G1 X134.221 Y153.433 E1.5206
G1 X134.638 Y153.45 E1.54505
G1 X135.053 Y153.416 E1.56944
G1 X135.461 Y153.328 E1.5939
G1 X135.855 Y153.193 E1.61829
G1 X136.229 Y153.006 E1.64279
G1 X136.577 Y152.775 E1.66726
G1 X136.893 Y152.5 E1.6918
G1 X137.172 Y152.191 E1.71619
G1 X137.409 Y151.848 E1.74061
G1 X137.602 Y151.479 E1.765
G1 X137.747 Y151.088 E1.78943
G1 X137.843 Y150.682 E1.81387
G1 X137.887 Y150.267 E1.83832
G1 X137.877 Y149.848 E1.86287
G1 X137.816 Y149.437 E1.88721
G1 X137.704 Y149.035 E1.91166
G1 X137.542 Y148.651 E1.93608
G1 X137.334 Y148.29 E1.96048
G1 X137.081 Y147.957 E1.98498
G1 X136.79 Y147.662 E2.00926
G1 X136.464 Y147.403 E2.03365
G1 X136.107 Y147.187 E2.05809
G1 X135.727 Y147.017 E2.08248
G1 X135.327 Y146.897 E2.10694
G1 X134.915 Y146.827 E2.13142
G1 X134.499 Y146.81 E2.15581
G1 X134.083 Y146.844 E2.18026
G1 X133.675 Y146.932 E2.20471
G1 X133.282 Y147.067 E2.22906
G1 X132.907 Y147.254 E2.2536
G1 X132.559 Y147.485 E2.27807
G1 X132.243 Y147.76 E2.30261
G1 X131.965 Y148.069 E2.32696
G1 X131.727 Y148.412 E2.35142
G1 X131.533 Y148.782 E2.37589
G1 X131.388 Y149.173 E2.40032
G1 X131.294 Y149.578 E2.42468
G1 X131.251 Y149.993 E2.44912
G1 X131.259 Y150.41 E2.47355
G1 X131.32 Y150.824 E2.49807
G1 X131.433 Y151.225 E2.52247
G1 X131.594 Y151.609 E2.54687
G1 X131.804 Y151.97 E2.57133
G1 X132.056 Y152.304 E2.59584
G1 X132.347 Y152.598 E2.62007
G0 F6000 X132.668 Y152.24
;TYPE:WALL-OUTER
G1 F900 X132.947 Y152.462 E2.64096
G1 X133.253 Y152.647 E2.66191
G1 X133.578 Y152.792 E2.68276
G1 X133.92 Y152.895 E2.70368
G1 X134.271 Y152.955 E2.72454
G1 X134.628 Y152.969 E2.74547
G1 X134.983 Y152.94 E2.76633
G1 X135.332 Y152.865 E2.78725
G1 X135.669 Y152.749 E2.80812
G1 X135.988 Y152.59 E2.82901
G1 X136.285 Y152.392 E2.84992
G1 X136.556 Y152.157 E2.87093
G1 X136.795 Y151.892 E2.89183
G1 X136.998 Y151.599 E2.91271
G1 X137.163 Y151.284 E2.93355
G1 X137.287 Y150.949 E2.95447
G1 X137.369 Y150.602 E2.97536
G1 X137.406 Y150.247 E2.99627
G1 X137.398 Y149.889 E3.01725
G1 X137.346 Y149.537 E3.03809
G1 X137.25 Y149.194 E3.05896
G1 X137.111 Y148.865 E3.07988
G1 X136.933 Y148.556 E3.10077
G1 X136.717 Y148.272 E3.12167
G1 X136.469 Y148.02 E3.14238
G1 X136.189 Y147.798 E3.16332
G1 X135.884 Y147.613 E3.18421
G1 X135.559 Y147.468 E3.20506
G1 X135.217 Y147.365 E3.22598
G1 X134.865 Y147.305 E3.2469
G1 X134.509 Y147.291 E3.26777
G1 X134.153 Y147.32 E3.2887
G1 X133.804 Y147.395 E3.30961
G1 X133.468 Y147.511 E3.33043
G1 X133.148 Y147.67 E3.35136
G1 X132.851 Y147.868 E3.37227
G1 X132.58 Y148.103 E3.39329
G1 X132.342 Y148.368 E3.41415
G1 X132.138 Y148.661 E3.43507
G1 X131.973 Y148.977 E3.45595
G1 X131.849 Y149.312 E3.47688
G1 X131.768 Y149.658 E3.49769
G1 X131.731 Y150.013 E3.5186
G1 X131.738 Y150.37 E3.53952
G1 X131.79 Y150.723 E3.56042
G1 X131.887 Y151.066 E3.5813
G1 X132.025 Y151.395 E3.6022
G1 X132.204 Y151.704 E3.62312
G1 X132.42 Y151.989 E3.64407
G1 X132.668 Y152.24 E3.66474
G0 F6000 X132.316 Y152.632
G1 F2400 E2.06474
G0 F6000 X133.865 Y153.128
G0 X134.632 Y153.208
G0 X135.396 Y153.096
G0 X136.108 Y152.797
G0 X136.605 Y152.418
G0 X138.559 Y150.296
G0 X136.502 Y150.215
G0 X152.24 Y151.004
G0 X151.48 Y149.095
G0 X161.881 Y145.844
;TYPE:WALL-INNER
G1 F2400 E3.66474
G1 F900 X157.678 Y147.065 E3.92114
G1 X157.206 Y147.232 E3.95047
G1 X151.55 Y149.272 E4.3027
G1 X145.575 Y151.855 E4.68402
G1 X139.767 Y154.816 E5.06593
G1 X138.592 Y155.501 E5.1456
G1 X172.867 Y214.864 E9.16118
G1 X174.783 Y213.89 E9.28709
G1 X176.771 Y213.029 E9.41401
G1 X179.839 Y211.924 E9.60504
G1 X162.178 Y146.011 E13.60249
G1 X162.115 Y145.776 E13.61675
G1 X161.881 Y145.844 E13.62593
G0 F6000 X161.778 Y146.374
G1 F900 X161.544 Y146.442 E13.6402
G1 X157.825 Y147.522 E13.86707
G1 X157.368 Y147.684 E13.89547
G1 X151.727 Y149.718 E14.24675
G1 X145.779 Y152.29 E14.62637
G1 X139.997 Y155.238 E15.00657
G1 X139.247 Y155.675 E15.05742
G1 X173.055 Y214.23 E19.01833
G1 X174.569 Y213.46 E19.11783
G1 X176.608 Y212.577 E19.248
G1 X179.261 Y211.622 E19.41318
G1 X161.841 Y146.609 E23.35606
G1 X161.778 Y146.374 E23.36522
G0 F6000 X161.441 Y146.972
;TYPE:WALL-OUTER
G1 F900 X157.972 Y147.979 E23.57683
G1 X157.53 Y148.136 E23.60431
G1 X151.904 Y150.164 E23.95464
G1 X145.984 Y152.725 E24.3325
G1 X140.227 Y155.66 E24.71105
G1 X139.902 Y155.849 E24.73308
G1 X173.243 Y213.596 E28.63931
G1 X174.368 Y213.023 E28.71327
G1 X176.43 Y212.131 E28.84488
G1 X178.683 Y211.32 E28.98516
G1 X161.441 Y146.972 E32.88771
G1 F2400 E31.28771
G0 F6000 X161.731 Y146.897
G0 X162.554 Y146.608
G0 X163.694 Y146.303
G0 X164.465 Y145.905
G0 X176.729 Y142.81
;TYPE:WALL-INNER
G1 F2400 E32.88771
G1 F900 X170.277 Y143.828 E33.27035
G1 X163.888 Y145.258 E33.65389
G1 X163.646 Y145.312 E33.66841
G1 X163.709 Y145.551 E33.67767
G1 X163.71 Y145.552 E33.67776
G1 X181.4 Y211.566 E37.68137
G1 X183.109 Y211.183 E37.78397
G1 X185.293 Y210.837 E37.9135
G1 X187.488 Y210.631 E38.04266
G1 X188.893 Y210.582 E38.12501
G1 X188.893 Y142.267 E42.12698
G1 X188.893 Y142.266 E42.12704
G1 X188.893 Y142.02 E42.14145
G1 X188.647 Y142.027 E42.15071
G1 X183.188 Y142.199 E42.47066
G1 X176.729 Y142.81 E42.85072
G0 F6000 X176.789 Y143.286
G1 F900 X170.367 Y144.3 E43.23159
G1 X164.482 Y145.617 E43.58487
G1 X164.239 Y145.671 E43.59945
G1 X164.303 Y145.911 E43.60875
G1 X181.744 Y210.997 E47.55608
G1 X183.004 Y210.716 E47.63171
G1 X183.023 Y210.711 E47.63286
G1 X185.236 Y210.36 E47.76412
G1 X187.46 Y210.151 E47.89498
G1 X188.413 Y210.118 E47.95084
G1 X188.413 Y142.762 E51.89662
G1 X188.413 Y142.761 E51.89668
G1 X188.413 Y142.515 E51.91109
G1 X188.167 Y142.522 E51.92035
G1 X183.218 Y142.678 E52.21041
G1 X176.789 Y143.286 E52.58871
G0 F6000 X176.849 Y143.762
;TYPE:WALL-OUTER
G1 F900 X170.457 Y144.772 E52.96781
G1 X164.832 Y146.03 E53.30547
G1 X182.089 Y210.428 E57.21108
G1 X182.941 Y210.238 E57.26221
G1 X185.179 Y209.883 E57.39496
G1 X187.432 Y209.671 E57.52752
G1 X187.933 Y209.654 E57.55689
G1 X187.933 Y143.01 E61.46097
G1 X183.248 Y143.157 E61.73555
G1 X176.849 Y143.762 E62.11208
G0 F6000 X176.783 Y143.239
G1 F2400 E60.51208
G0 F6000 X183.233 Y142.918
G0 X188.16 Y142.776
G0 X189.083 Y143.828
G0 X191.253 Y143.828
G0 X191.226 Y142.775
G0 X195.218 Y142.889
G0 X209.112 Y143.828
;TYPE:WALL-INNER
G1 F2400 E62.11208
G1 F900 X202.693 Y142.816 E62.49276
G1 X202.678 Y142.813 E62.49366
G1 X196.2 Y142.198 E62.87485
G1 X190.739 Y142.026 E63.19492
G1 X190.493 Y142.019 E63.20934
G1 X190.493 Y142.265 E63.21859
G1 X190.493 Y142.266 E63.21865
G1 X190.493 Y210.582 E67.22068
G1 X191.898 Y210.631 E67.30303
G1 X194.094 Y210.837 E67.43224
G1 X196.274 Y211.182 E67.56154
G1 X197.986 Y211.566 E67.66432
G1 X215.675 Y145.553 E71.66786
G1 X215.739 Y145.313 E71.68241
G1 X215.496 Y145.259 E71.69173
G1 X209.599 Y143.94 E72.04572
G1 X209.112 Y143.828 E72.075
G0 F6000 X209.021 Y144.3
G1 F900 X202.618 Y143.289 E72.45474
G1 X196.17 Y142.677 E72.83417
G1 X191.219 Y142.521 E73.12435
G1 X190.973 Y142.514 E73.13876
G1 X190.973 Y142.76 E73.14802
G1 X190.973 Y142.761 E73.14808
G1 X190.973 Y210.118 E77.09392
G1 X191.926 Y210.151 E77.14978
G1 X194.151 Y210.36 E77.2807
G1 X196.36 Y210.71 E77.41172
G1 X197.642 Y210.997 E77.48868
G1 X215.082 Y145.912 E81.43594
G1 X215.146 Y145.672 E81.45049
G1 X214.903 Y145.618 E81.45981
G1 X209.492 Y144.408 E81.78462
G1 X209.021 Y144.3 E81.81293
G0 F6000 X208.93 Y144.772
;TYPE:WALL-OUTER
G1 F900 X202.558 Y143.765 E82.19084
G1 X196.14 Y143.156 E82.5685
G1 X191.453 Y143.009 E82.8432
G1 X191.453 Y209.654 E86.74734
G1 X191.954 Y209.671 E86.77671
G1 X194.208 Y209.883 E86.90933
G1 X196.446 Y210.238 E87.04207
G1 X197.297 Y210.428 E87.09315
G1 X214.553 Y146.031 E90.99869
G1 X209.385 Y144.876 E91.30891
G1 X208.93 Y144.772 E91.33625
G0 F6000 X209.03 Y144.254
G1 F2400 E89.73625
G0 F6000 X214.834 Y145.861
G0 X215.346 Y147.442
G0 X213.379 Y146.915
G0 X242.966 Y150.691
G0 X240.998 Y151.29
G0 X241.568 Y152.101
;TYPE:WALL-INNER
G1 F2400 E91.33625
G1 F900 X241.84 Y152.494 E91.36425
G1 X242.159 Y152.848 E91.39216
G1 X242.519 Y153.158 E91.41999
G1 X242.916 Y153.422 E91.44792
G1 X243.346 Y153.637 E91.47608
G1 X243.796 Y153.791 E91.50395
G1 X243.823 Y153.796 E91.50556
G1 X244.263 Y153.892 E91.53194
G1 X244.739 Y153.931 E91.55992
G1 X245.215 Y153.911 E91.58783
G1 X245.687 Y153.831 E91.61587
G1 X246.145 Y153.694 E91.64387
G1 X246.58 Y153.499 E91.6718
G1 X246.989 Y153.252 E91.69979
G1 X247.363 Y152.954 E91.7278
G1 X247.697 Y152.612 E91.75581
G1 X247.987 Y152.232 E91.78381
G1 X248.225 Y151.817 E91.81184
G1 X248.409 Y151.375 E91.83988
G1 X248.416 Y151.347 E91.84157
G1 X248.527 Y150.949 E91.86578
G1 X248.536 Y150.919 E91.86761
G1 X248.606 Y150.449 E91.89545
G1 X248.618 Y149.969 E91.92358
G1 X248.567 Y149.49 E91.9518
G1 X248.455 Y149.024 E91.97987
G1 X248.289 Y148.581 E92.00759
G1 X248.07 Y148.159 E92.03544
G1 X247.797 Y147.766 E92.06347
G1 X247.477 Y147.412 E92.09143
G1 X247.117 Y147.102 E92.11926
G1 X246.72 Y146.838 E92.14719
G1 X246.291 Y146.623 E92.1753
G1 X245.84 Y146.469 E92.20321
G1 X245.813 Y146.464 E92.20482
G1 X245.373 Y146.368 E92.2312
G1 X244.898 Y146.329 E92.25912
G1 X244.421 Y146.349 E92.28709
G1 X243.95 Y146.429 E92.31508
G1 X243.492 Y146.566 E92.34308
G1 X243.057 Y146.761 E92.37101
G1 X242.649 Y147.008 E92.39895
G1 X242.273 Y147.306 E92.42705
G1 X241.94 Y147.648 E92.45502
G1 X241.652 Y148.026 E92.48286
G1 X241.411 Y148.443 E92.51107
G1 X241.228 Y148.885 E92.5391
G1 X241.221 Y148.912 E92.54073
G1 X241.1 Y149.341 E92.56684
G1 X241.03 Y149.814 E92.59485
G1 X241.021 Y150.291 E92.6228
G1 X241.07 Y150.766 E92.65077
G1 X241.18 Y151.234 E92.67894
G1 X241.347 Y151.68 E92.70684
G1 X241.568 Y152.101 E92.73469
G0 F6000 X241.979 Y151.852
G1 F900 X242.217 Y152.195 E92.75915
G1 X242.495 Y152.504 E92.7835
G1 X242.81 Y152.775 E92.80784
G1 X243.157 Y153.006 E92.83226
G1 X243.532 Y153.193 E92.85681
G1 X243.925 Y153.328 E92.88115
G1 X244.333 Y153.416 E92.9056
G1 X244.749 Y153.45 E92.93005
G1 X245.165 Y153.433 E92.95444
G1 X245.577 Y153.363 E92.97892
G1 X245.977 Y153.243 E93.00339
G1 X246.357 Y153.073 E93.02777
G1 X246.714 Y152.857 E93.05222
G1 X247.041 Y152.597 E93.07669
G1 X247.333 Y152.298 E93.10117
G1 X247.586 Y151.966 E93.12562
G1 X247.794 Y151.604 E93.15008
G1 X247.955 Y151.218 E93.17458
G1 X248.066 Y150.819 E93.19884
G1 X248.127 Y150.408 E93.22318
G1 X248.137 Y149.989 E93.24774
G1 X248.093 Y149.572 E93.2723
G1 X247.995 Y149.165 E93.29682
G1 X247.85 Y148.777 E93.32109
G1 X247.658 Y148.408 E93.34546
G1 X247.42 Y148.065 E93.36991
G1 X247.141 Y147.756 E93.3943
G1 X246.826 Y147.485 E93.41864
G1 X246.479 Y147.254 E93.44306
G1 X246.105 Y147.067 E93.46756
G1 X245.711 Y146.932 E93.49196
G1 X245.303 Y146.844 E93.51641
G1 X244.888 Y146.81 E93.5408
G1 X244.471 Y146.827 E93.56525
G1 X244.06 Y146.897 E93.58967
G1 X243.66 Y147.017 E93.61414
G1 X243.28 Y147.187 E93.63852
G1 X242.923 Y147.403 E93.66297
G1 X242.595 Y147.663 E93.68749
G1 X242.304 Y147.962 E93.71193
G1 X242.052 Y148.293 E93.7363
G1 X241.842 Y148.656 E93.76087
G1 X241.682 Y149.042 E93.78534
G1 X241.57 Y149.441 E93.80962
G1 X241.509 Y149.854 E93.83408
G1 X241.501 Y150.271 E93.85851
G1 X241.544 Y150.686 E93.88295
G1 X241.64 Y151.094 E93.90751
G1 X241.786 Y151.484 E93.9319
G1 X241.979 Y151.852 E93.95624
G0 F6000 X242.39 Y151.603
;TYPE:WALL-OUTER
G1 F900 X242.594 Y151.896 E93.97716
G1 X242.831 Y152.16 E93.99794
G1 X243.101 Y152.392 E94.0188
G1 X243.398 Y152.59 E94.03971
G1 X243.718 Y152.749 E94.06064
G1 X244.054 Y152.865 E94.08146
G1 X244.403 Y152.94 E94.10237
G1 X244.759 Y152.969 E94.1233
G1 X245.115 Y152.955 E94.14417
G1 X245.467 Y152.895 E94.16509
G1 X245.809 Y152.792 E94.18601
G1 X246.134 Y152.647 E94.20686
G1 X246.439 Y152.462 E94.22775
G1 X246.719 Y152.24 E94.24869
G1 X246.969 Y151.984 E94.26965
G1 X247.185 Y151.7 E94.29055
G1 X247.363 Y151.391 E94.31144
G1 X247.501 Y151.061 E94.3324
G1 X247.596 Y150.719 E94.35319
G1 X247.648 Y150.367 E94.37403
G1 X247.656 Y150.009 E94.39501
G1 X247.619 Y149.654 E94.41592
G1 X247.535 Y149.306 E94.43689
G1 X247.411 Y148.973 E94.45771
G1 X247.246 Y148.657 E94.47859
G1 X247.043 Y148.364 E94.49947
G1 X246.805 Y148.1 E94.52029
G1 X246.535 Y147.868 E94.54115
G1 X246.238 Y147.67 E94.56206
G1 X245.919 Y147.511 E94.58294
G1 X245.582 Y147.395 E94.60382
G1 X245.233 Y147.32 E94.62473
G1 X244.878 Y147.291 E94.64559
G1 X244.521 Y147.305 E94.66652
G1 X244.17 Y147.365 E94.68738
G1 X243.828 Y147.468 E94.70831
G1 X243.503 Y147.613 E94.72915
G1 X243.197 Y147.798 E94.7501
G1 X242.917 Y148.02 E94.77103
G1 X242.668 Y148.276 E94.79196
G1 X242.452 Y148.56 E94.81286
G1 X242.273 Y148.869 E94.83378
G1 X242.136 Y149.199 E94.85471
G1 X242.04 Y149.541 E94.87552
G1 X241.988 Y149.894 E94.89642
G1 X241.981 Y150.251 E94.91734
G1 X242.018 Y150.606 E94.93825
G1 X242.1 Y150.954 E94.95919
G1 X242.225 Y151.288 E94.98008
G1 X242.39 Y151.603 E95.00091
G0 F6000 X241.939 Y151.876
G1 F2400 E93.40091
G0 F6000 X245.235 Y154.101
G0 X245.138 Y152.039
G0 X249.515 Y163.303
G0 X250.725 Y161.643
G0 X255.28 Y165.418
;TYPE:WALL-INNER
G1 F2400 E95.00091
G1 F900 X250.625 Y161.807 E95.34604
G1 X250.613 Y161.797 E95.34695
G1 X245.213 Y158.123 E95.72956
G1 X245.2 Y158.116 E95.73043
G1 X242.374 Y156.445 E95.92275
G1 X242.167 Y156.323 E95.93683
G1 X242.047 Y156.531 E95.9459
G1 X207.92 Y215.639 E99.94421
G1 X210.301 Y217.258 E100.11288
G1 X212.036 Y218.604 E100.24152
G1 X213.913 Y220.258 E100.38807
G1 X262.19 Y171.981 E104.38764
G1 X262.359 Y171.813 E104.4016
G1 X262.19 Y171.645 E104.4106
G1 X260.607 Y170.064 E104.54166
G1 X255.738 Y165.77 E104.92197
G1 X255.28 Y165.418 E104.95581
G0 F6000 X254.988 Y165.799
