;FLAVOR:Marlin
;TIME:11190
;Filament used: 13.3699m
;Layer height: 0.32
;MINX:7.379
;MINY:126.59
;MINZ:0.3
;MAXX:233.995
;MAXY:289.565
;MAXZ:16.62
;Generated with Cura_SteamEngine 4.10.0
M104 S228
M105
M109 S228
M82 ;absolute extrusion mode
G28 ; home all axes
 M117 Purge extruder
 G92 E0 ; reset extruder
 G1 Z1.0 F3000 ; move z up little to prevent scratching of surface
 G1 X2 Y20 Z0.3 F5000.0 ; move to start-line position
 G1 X2 Y200.0 Z0.3 F1500.0 E15 ; draw 1st line
 G1 X2 Y200.0 Z0.4 F5000.0 ; move to side a little
 G1 X2 Y20 Z0.4 F1500.0 E30 ; draw 2nd line
 G92 E0 ; reset extruder
 G1 Z1.0 F3000 ; move z up little to prevent scratching of surface
G92 E0
G92 E0
G1 F2400 E-1.6
;LAYER_COUNT:52
;LAYER:0
M106 S89.3
;MESH:Vertical_Filament_Spool_Parts_Drawer_Stand_200mm_52mm_13mmCenterHole_v03.stl
G0 F6000 X68.301 Y135.197 Z0.3
;TYPE:WALL-INNER
G1 F2400 E0
G1 F900 X68.184 Y135.545 E0.02366
G1 X68.091 Y135.898 E0.04718
G1 X68.089 Y135.912 E0.04809
G1 X68.018 Y136.256 E0.07073
G1 X67.97 Y136.617 E0.09419
G1 X67.942 Y136.982 E0.11778
G1 X67.939 Y137.35 E0.1415
G1 X67.959 Y137.713 E0.16493
G1 X68 Y138.077 E0.18853
G1 X68.065 Y138.438 E0.21217
G1 X68.153 Y138.79 E0.23555
G1 X68.262 Y139.14 E0.25917
G1 X68.395 Y139.482 E0.28281
G1 X68.546 Y139.813 E0.30626
G1 X68.72 Y140.135 E0.32984
G1 X68.912 Y140.447 E0.35345
G1 X69.124 Y140.744 E0.37696
G1 X69.354 Y141.028 E0.40051
G1 X69.6 Y141.295 E0.42391
G1 X69.864 Y141.548 E0.44747
G1 X70.143 Y141.783 E0.47098
G1 X70.437 Y142.002 E0.4946
G1 X70.744 Y142.2 E0.51814
G1 X71.061 Y142.379 E0.5416
G1 X71.389 Y142.537 E0.56506
G1 X71.728 Y142.677 E0.5887
G1 X72.077 Y142.794 E0.61241
G1 X72.43 Y142.887 E0.63594
G1 X72.443 Y142.889 E0.63679
G1 X72.785 Y142.96 E0.65929
G1 X73.132 Y143.007 E0.68186
G1 X73.149 Y143.01 E0.68297
G1 X73.517 Y143.037 E0.70675
G1 X73.879 Y143.04 E0.73008
G1 X74.244 Y143.021 E0.75363
G1 X74.609 Y142.98 E0.7773
G1 X74.969 Y142.915 E0.80087
G1 X75.323 Y142.828 E0.82436
G1 X75.671 Y142.718 E0.84788
G1 X76.013 Y142.588 E0.87145
G1 X76.349 Y142.434 E0.89527
G1 X76.669 Y142.261 E0.91871
G1 X76.976 Y142.071 E0.94198
G1 X77.277 Y141.859 E0.9657
G1 X77.565 Y141.626 E0.98957
G1 X77.836 Y141.373 E1.01346
G1 X78.084 Y141.114 E1.03657
G1 X78.322 Y140.834 E1.06025
G1 X78.54 Y140.539 E1.08389
G1 X78.739 Y140.233 E1.10741
G1 X78.92 Y139.912 E1.13116
G1 X79.077 Y139.584 E1.15459
G1 X79.215 Y139.246 E1.17812
G1 X79.332 Y138.898 E1.20177
G1 X79.425 Y138.545 E1.2253
G1 X79.427 Y138.531 E1.22621
G1 X79.498 Y138.187 E1.24884
G1 X79.546 Y137.826 E1.27231
G1 X79.574 Y137.461 E1.2959
G1 X79.577 Y137.093 E1.31961
G1 X79.557 Y136.73 E1.34304
G1 X79.516 Y136.366 E1.36664
G1 X79.451 Y136.006 E1.39022
G1 X79.363 Y135.652 E1.41372
G1 X79.254 Y135.3 E1.43747
G1 X79.12 Y134.96 E1.46102
G1 X78.97 Y134.631 E1.48432
G1 X78.797 Y134.307 E1.50799
G1 X78.603 Y133.996 E1.53161
G1 X78.39 Y133.698 E1.55521
G1 X78.161 Y133.415 E1.57867
G1 X77.918 Y133.15 E1.60184
G1 X77.652 Y132.895 E1.62558
G1 X77.373 Y132.66 E1.64909
G1 X77.081 Y132.443 E1.67253
G1 X76.774 Y132.242 E1.69618
G1 X76.466 Y132.071 E1.71888
G1 X76.453 Y132.063 E1.71986
G1 X76.125 Y131.904 E1.74335
G1 X76.111 Y131.899 E1.74431
G1 X75.789 Y131.766 E1.76676
G1 X75.441 Y131.648 E1.79044
G1 X75.086 Y131.555 E1.81409
G1 X75.072 Y131.553 E1.815
G1 X74.728 Y131.482 E1.83763
G1 X74.384 Y131.436 E1.86
G1 X74.368 Y131.433 E1.86104
G1 X74.001 Y131.405 E1.88476
G1 X73.635 Y131.402 E1.90835
G1 X73.27 Y131.422 E1.9319
G1 X72.907 Y131.463 E1.95544
G1 X72.547 Y131.528 E1.97902
G1 X72.193 Y131.615 E2.00251
G1 X71.845 Y131.725 E2.02603
G1 X71.504 Y131.855 E2.04954
G1 X71.171 Y132.008 E2.07316
G1 X70.848 Y132.179 E2.09671
G1 X70.536 Y132.373 E2.12038
G1 X70.238 Y132.585 E2.14395
G1 X69.955 Y132.815 E2.16745
G1 X69.681 Y133.066 E2.19139
G1 X69.429 Y133.331 E2.21496
G1 X69.194 Y133.609 E2.23841
G1 X68.976 Y133.903 E2.262
G1 X68.777 Y134.21 E2.28558
G1 X68.596 Y134.532 E2.30938
G1 X68.439 Y134.858 E2.33269
G1 X68.301 Y135.197 E2.35628
G0 F6000 X68.796 Y135.381
G1 F900 X68.69 Y135.697 E2.37776
G1 X68.605 Y136.018 E2.39916
G1 X68.539 Y136.344 E2.42059
G1 X68.495 Y136.672 E2.44191
G1 X68.47 Y137.004 E2.46337
G1 X68.467 Y137.338 E2.48489
G1 X68.485 Y137.669 E2.50625
G1 X68.523 Y138 E2.52772
G1 X68.582 Y138.327 E2.54913
G1 X68.662 Y138.648 E2.57045
G1 X68.761 Y138.966 E2.59191
G1 X68.882 Y139.277 E2.61342
G1 X69.019 Y139.578 E2.63473
G1 X69.177 Y139.871 E2.65618
G1 X69.352 Y140.154 E2.67762
G1 X69.545 Y140.424 E2.69901
G1 X69.754 Y140.683 E2.72045
G1 X69.977 Y140.925 E2.74166
G1 X70.217 Y141.155 E2.76308
G1 X70.471 Y141.369 E2.78448
G1 X70.738 Y141.568 E2.80594
G1 X71.017 Y141.748 E2.82734
G1 X71.306 Y141.911 E2.84872
G1 X71.604 Y142.055 E2.87004
G1 X71.913 Y142.182 E2.89157
G1 X72.229 Y142.288 E2.91305
G1 X72.55 Y142.373 E2.93445
G1 X72.874 Y142.439 E2.95575
G1 X73.204 Y142.485 E2.97723
G1 X73.538 Y142.509 E2.9988
G1 X73.868 Y142.512 E3.02007
G1 X74.2 Y142.495 E3.04149
G1 X74.532 Y142.457 E3.06302
G1 X74.859 Y142.398 E3.08444
G1 X75.181 Y142.319 E3.1058
G1 X75.498 Y142.219 E3.12722
G1 X75.809 Y142.101 E3.14866
G1 X76.113 Y141.961 E3.17022
G1 X76.404 Y141.804 E3.19153
G1 X76.685 Y141.63 E3.21283
G1 X76.958 Y141.438 E3.23433
G1 X77.218 Y141.227 E3.25591
G1 X77.465 Y140.997 E3.27766
G1 X77.692 Y140.76 E3.29881
G1 X77.908 Y140.506 E3.32029
G1 X78.106 Y140.238 E3.34176
G1 X78.287 Y139.959 E3.36319
G1 X78.451 Y139.668 E3.38472
G1 X78.594 Y139.37 E3.40602
G1 X78.72 Y139.062 E3.42746
G1 X78.826 Y138.746 E3.44894
G1 X78.911 Y138.425 E3.47034
G1 X78.977 Y138.099 E3.49177
G1 X79.021 Y137.771 E3.5131
G1 X79.046 Y137.439 E3.53455
G1 X79.049 Y137.105 E3.55607
G1 X79.031 Y136.774 E3.57744
G1 X78.993 Y136.443 E3.59891
G1 X78.934 Y136.117 E3.62025
G1 X78.854 Y135.794 E3.6417
G1 X78.755 Y135.475 E3.66322
G1 X78.634 Y135.166 E3.6846
G1 X78.497 Y134.866 E3.70586
G1 X78.339 Y134.571 E3.72742
G1 X78.164 Y134.289 E3.74881
G1 X77.97 Y134.018 E3.77028
G1 X77.761 Y133.76 E3.79168
G1 X77.54 Y133.519 E3.81275
G1 X77.299 Y133.288 E3.83426
G1 X77.045 Y133.074 E3.85566
G1 X76.779 Y132.876 E3.87703
G1 X76.5 Y132.694 E3.8985
G1 X76.209 Y132.531 E3.91999
G1 X75.91 Y132.386 E3.9414
G1 X75.604 Y132.261 E3.9627
G1 X75.289 Y132.154 E3.98414
G1 X74.966 Y132.069 E4.00566
G1 X74.64 Y132.003 E4.0271
G1 X74.312 Y131.958 E4.04843
G1 X73.979 Y131.933 E4.06995
G1 X73.647 Y131.93 E4.09135
G1 X73.314 Y131.948 E4.11283
G1 X72.984 Y131.986 E4.13424
G1 X72.657 Y132.045 E4.15565
G1 X72.335 Y132.124 E4.17702
G1 X72.018 Y132.224 E4.19844
G1 X71.708 Y132.342 E4.21981
G1 X71.405 Y132.481 E4.24129
G1 X71.112 Y132.637 E4.26268
G1 X70.829 Y132.813 E4.28416
G1 X70.558 Y133.006 E4.3056
G1 X70.3 Y133.215 E4.32699
G1 X70.051 Y133.443 E4.34875
G1 X69.822 Y133.684 E4.37017
G1 X69.608 Y133.937 E4.39152
G1 X69.41 Y134.204 E4.41294
G1 X69.229 Y134.483 E4.43437
G1 X69.065 Y134.776 E4.45601
G1 X68.922 Y135.073 E4.47725
G1 X68.796 Y135.381 E4.4987
G0 F6000 X69.291 Y135.565
;TYPE:WALL-OUTER
G1 F900 X69.196 Y135.849 E4.51799
G1 X69.119 Y136.138 E4.53727
G1 X69.06 Y136.432 E4.55659
G1 X69.02 Y136.727 E4.57577
G1 X68.998 Y137.026 E4.59509
G1 X68.995 Y137.326 E4.61442
G1 X69.011 Y137.624 E4.63366
G1 X69.046 Y137.922 E4.65299
G1 X69.099 Y138.216 E4.67224
G1 X69.171 Y138.506 E4.6915
G1 X69.26 Y138.792 E4.7108
G1 X69.369 Y139.072 E4.73016
G1 X69.492 Y139.343 E4.74934
G1 X69.634 Y139.606 E4.7686
G1 X69.792 Y139.861 E4.78793
G1 X69.966 Y140.105 E4.80724
G1 X70.154 Y140.338 E4.82653
G1 X70.354 Y140.555 E4.84555
G1 X70.57 Y140.762 E4.86483
G1 X70.799 Y140.955 E4.88412
G1 X71.039 Y141.134 E4.90342
G1 X71.29 Y141.296 E4.92267
G1 X71.551 Y141.443 E4.94197
G1 X71.82 Y141.573 E4.96122
G1 X72.097 Y141.687 E4.98053
G1 X72.381 Y141.782 E4.99982
G1 X72.67 Y141.859 E5.0191
G1 X72.963 Y141.918 E5.03835
G1 X73.26 Y141.96 E5.05768
G1 X73.559 Y141.981 E5.077
G1 X73.857 Y141.984 E5.0962
G1 X74.156 Y141.969 E5.11549
G1 X74.454 Y141.934 E5.13483
G1 X74.749 Y141.881 E5.15414
G1 X75.039 Y141.81 E5.17338
G1 X75.325 Y141.72 E5.1927
G1 X75.604 Y141.614 E5.21193
G1 X75.877 Y141.488 E5.23131
G1 X76.14 Y141.347 E5.25054
G1 X76.394 Y141.189 E5.26982
G1 X76.639 Y141.017 E5.28911
G1 X76.871 Y140.828 E5.30839
G1 X77.094 Y140.621 E5.32799
G1 X77.3 Y140.406 E5.34718
G1 X77.494 Y140.178 E5.36647
G1 X77.672 Y139.937 E5.38578
G1 X77.835 Y139.686 E5.40506
G1 X77.982 Y139.424 E5.42442
G1 X78.111 Y139.155 E5.44365
G1 X78.225 Y138.878 E5.46295
G1 X78.32 Y138.594 E5.48225
G1 X78.397 Y138.305 E5.50152
G1 X78.456 Y138.011 E5.52084
G1 X78.496 Y137.716 E5.54003
G1 X78.518 Y137.417 E5.55935
G1 X78.521 Y137.117 E5.57868
G1 X78.505 Y136.819 E5.59791
G1 X78.47 Y136.521 E5.61724
G1 X78.417 Y136.227 E5.63649
G1 X78.345 Y135.936 E5.65581
G1 X78.256 Y135.65 E5.67511
G1 X78.147 Y135.371 E5.69442
G1 X78.024 Y135.1 E5.71359
G1 X77.882 Y134.836 E5.73291
G1 X77.724 Y134.582 E5.75219
G1 X77.55 Y134.338 E5.7715
G1 X77.361 Y134.105 E5.79083
G1 X77.162 Y133.888 E5.8098
G1 X76.946 Y133.681 E5.82908
G1 X76.717 Y133.488 E5.84838
G1 X76.477 Y133.309 E5.86767
G1 X76.226 Y133.146 E5.88696
G1 X75.965 Y132.999 E5.90626
G1 X75.695 Y132.869 E5.92557
G1 X75.419 Y132.756 E5.94479
G1 X75.136 Y132.66 E5.96405
G1 X74.846 Y132.583 E5.98338
G1 X74.552 Y132.524 E6.0027
G1 X74.256 Y132.483 E6.02196
G1 X73.957 Y132.461 E6.04128
G1 X73.658 Y132.458 E6.06055
G1 X73.359 Y132.474 E6.07984
G1 X73.062 Y132.509 E6.09911
G1 X72.767 Y132.562 E6.11843
G1 X72.477 Y132.633 E6.13767
G1 X72.191 Y132.723 E6.15699
G1 X71.912 Y132.829 E6.17622
G1 X71.64 Y132.954 E6.19551
G1 X71.376 Y133.095 E6.2148
G1 X71.122 Y133.253 E6.23407
G1 X70.877 Y133.427 E6.25344
G1 X70.645 Y133.615 E6.27268
G1 X70.421 Y133.82 E6.29224
G1 X70.215 Y134.037 E6.31153
G1 X70.022 Y134.265 E6.33077
G1 X69.844 Y134.505 E6.35003
G1 X69.681 Y134.756 E6.36931
G1 X69.534 Y135.019 E6.38873
G1 X69.405 Y135.288 E6.40795
G1 X69.291 Y135.565 E6.42726
G0 F6000 X68.748 Y135.363
G1 F2400 E4.82726
G0 F6000 X70.239 Y133.635
G0 X71.246 Y132.87
G0 X72.106 Y132.478
G0 X73.025 Y132.252
G0 X73.967 Y132.202
G0 X75.211 Y132.411
G0 X76.36 Y132.924
G0 X79.453 Y135.23
G0 X77.375 Y135.944
G0 X105.346 Y133.753
G0 X104.871 Y131.631
G0 X115.904 Y129.782
;TYPE:WALL-INNER
G1 F2400 E6.42726
G1 F900 X109.444 Y130.803 E6.8487
G1 X102.954 Y132.254 E7.27724
G1 X102.687 Y132.313 E7.29486
G1 X102.757 Y132.577 E7.30611
G1 X115.325 Y179.475 E10.43481
G1 X118.583 Y178.746 E10.64994
G1 X121.989 Y178.206 E10.87217
G1 X125.439 Y177.88 E11.09547
G1 X128.203 Y177.794 E11.27367
G1 X128.203 Y129.259 E14.40122
G1 X128.203 Y129.258 E14.40129
G1 X128.203 Y128.988 E14.41869
G1 X127.933 Y128.996 E14.42986
G1 X124.571 Y129.101 E14.64661
G1 X122.37 Y129.171 E14.78851
G1 X115.904 Y129.782 E15.20703
G0 F6000 X115.97 Y130.306
G1 F900 X109.543 Y131.322 E15.62632
G1 X103.607 Y132.649 E16.01827
G1 X103.34 Y132.708 E16.03589
G1 X103.41 Y132.972 E16.04714
G1 X115.704 Y178.849 E19.10773
G1 X118.497 Y178.224 E19.29216
G1 X121.92 Y177.682 E19.51548
G1 X125.404 Y177.353 E19.74099
G1 X127.675 Y177.282 E19.8874
G1 X127.675 Y129.804 E22.94684
G1 X127.675 Y129.803 E22.94691
G1 X127.675 Y129.533 E22.96431
G1 X127.405 Y129.541 E22.97547
G1 X122.403 Y129.698 E23.29796
G1 X115.97 Y130.306 E23.71434
G0 F6000 X116.036 Y130.83
;TYPE:WALL-OUTER
G1 F900 X109.642 Y131.841 E24.13149
G1 X103.993 Y133.103 E24.50448
G1 X116.083 Y178.223 E27.51454
G1 X118.396 Y177.706 E27.66726
G1 X121.866 Y177.156 E27.89366
G1 X125.369 Y176.826 E28.12039
G1 X127.147 Y176.77 E28.23502
G1 X127.147 Y130.078 E31.24381
G1 X122.436 Y130.225 E31.54753
G1 X116.036 Y130.83 E31.96178
G0 F6000 X115.964 Y130.255
G1 F2400 E30.36178
G0 F6000 X109.594 Y131.586
G0 X103.687 Y132.918
G0 X115.222 Y175.904
G0 X115.16 Y179.748
G0 X114.28 Y179.996
G0 X112.408 Y180.518
G0 X105.474 Y183.008
;TYPE:WALL-INNER
G1 F2400 E31.96178
G1 F900 X108.674 Y181.624 E32.18645
G1 X111.915 Y180.458 E32.4084
G1 X114.017 Y179.847 E32.54946
G1 X101.457 Y132.978 E35.67622
G1 X101.388 Y132.719 E35.6935
G1 X101.13 Y132.794 E35.70462
G1 X96.828 Y134.044 E35.99331
G1 X90.697 Y136.25 E36.41318
G1 X84.714 Y138.838 E36.83324
G1 X78.897 Y141.804 E37.254
G1 X77.621 Y142.553 E37.34934
G1 X102.001 Y184.78 E40.49137
G1 X105.474 Y183.008 E40.74262
G0 F6000 X105.234 Y182.539
G1 F900 X105.26 Y182.525 E40.74452
G1 X108.476 Y181.134 E40.97031
G1 X111.746 Y179.957 E41.19426
G1 X113.373 Y179.484 E41.30345
G1 X101.087 Y133.635 E44.36215
G1 X101.018 Y133.376 E44.37943
G1 X100.76 Y133.451 E44.39055
G1 X96.991 Y134.546 E44.64347
G1 X90.891 Y136.741 E45.06122
G1 X84.939 Y139.316 E45.47912
G1 X79.151 Y142.267 E45.89777
G1 X78.34 Y142.743 E45.95837
G1 X102.208 Y184.082 E49.03435
G1 X105.234 Y182.539 E49.25323
G0 F6000 X105.046 Y182.042
;TYPE:WALL-OUTER
G1 F900 X108.278 Y180.644 E49.48014
G1 X111.581 Y179.455 E49.70636
G1 X112.729 Y179.121 E49.7834
G1 X100.648 Y134.033 E52.79132
G1 X97.154 Y135.048 E53.02578
G1 X91.085 Y137.232 E53.44141
G1 X85.164 Y139.794 E53.85714
G1 X79.405 Y142.73 E54.27369
G1 X79.059 Y142.933 E54.29954
G1 X102.415 Y183.384 E57.30947
G1 X105.046 Y182.042 E57.49979
G0 F6000 X105.293 Y182.566
G1 F2400 E55.89979
G0 F6000 X101.916 Y185.065
G0 X101.124 Y185.521
G0 X96.596 Y188.262
;TYPE:WALL-INNER
G1 F2400 E57.49979
G1 F900 X99.467 Y186.311 E57.72347
G1 X100.844 Y185.496 E57.82658
G1 X76.586 Y143.48 E60.95291
G1 X76.454 Y143.25 E60.97
G1 X76.225 Y143.385 E60.98103
G1 X73.299 Y145.114 E61.20004
G1 X67.911 Y148.778 E61.61991
G1 X62.759 Y152.771 E62.03994
G1 X57.873 Y157.081 E62.45978
G1 X56.232 Y158.716 E62.60905
G1 X56.231 Y158.717 E62.60914
G1 X56.046 Y158.901 E62.62596
G1 X56.231 Y159.086 E62.63684
G1 X90.495 Y193.352 E65.75944
G1 X93.862 Y190.383 E66.04871
G1 X96.596 Y188.262 E66.27169
G0 F6000 X96.289 Y187.832
G1 F900 X99.175 Y185.871 E66.49653
G1 X99.198 Y185.858 E66.49823
G1 X100.126 Y185.308 E66.56774
G1 X76.396 Y144.206 E69.62605
G1 X76.263 Y143.976 E69.64317
G1 X76.034 Y144.111 E69.65421
G1 X73.582 Y145.56 E69.83774
G1 X68.221 Y149.205 E70.25548
G1 X63.096 Y153.178 E70.67335
G1 X58.234 Y157.466 E71.09109
G1 X56.979 Y158.717 E71.20528
G1 X56.978 Y158.718 E71.20537
G1 X56.793 Y158.902 E71.22218
G1 X56.978 Y159.087 E71.23307
G1 X90.518 Y192.628 E74.28964
G1 X93.528 Y189.974 E74.54823
G1 X96.289 Y187.832 E74.77341
G0 F6000 X95.982 Y187.402
;TYPE:WALL-OUTER
G1 F900 X98.883 Y185.431 E74.99941
G1 X99.408 Y185.12 E75.03874
G1 X76.072 Y144.702 E78.04618
G1 X73.865 Y146.006 E78.21136
G1 X68.531 Y149.632 E78.62698
G1 X63.433 Y153.585 E79.04268
G1 X58.595 Y157.851 E79.45833
G1 X57.54 Y158.903 E79.55433
G1 X90.541 Y191.904 E82.56174
G1 X93.194 Y189.565 E82.78965
G1 X95.982 Y187.402 E83.01703
G0 F6000 X96.322 Y187.871
G1 F2400 E81.41703
G0 F6000 X90.485 Y193.648
G0 X89.849 Y194.303
G0 X81.944 Y204.212
;TYPE:WALL-INNER
G1 F2400 E83.01703
G1 F900 X82.488 Y203.294 E83.0858
G1 X84.445 Y200.414 E83.31017
G1 X86.569 Y197.676 E83.53347
G1 X89.534 Y194.313 E83.82238
G1 X55.272 Y160.05 E86.94475
G1 X55.087 Y159.865 E86.96161
G1 X54.903 Y160.05 E86.97244
G1 X54.902 Y160.051 E86.97253
G1 X53.25 Y161.706 E87.12321
G1 X48.954 Y166.577 E87.54173
G1 X44.972 Y171.709 E87.96031
G1 X41.647 Y176.6 E88.34141
G1 X41.296 Y177.116 E88.38163
G1 X39.431 Y180.271 E88.6178
G1 X81.679 Y204.661 E91.76132
G1 X81.944 Y204.212 E91.79492
G0 F6000 X81.491 Y203.943
G1 F900 X82.051 Y202.997 E91.86576
G1 X84.015 Y200.107 E92.09092
G1 X86.16 Y197.342 E92.31643
G1 X88.81 Y194.336 E92.57465
G1 X55.272 Y160.797 E95.63104
G1 X55.087 Y160.612 E95.6479
G1 X54.903 Y160.797 E95.65873
G1 X54.902 Y160.798 E95.65883
G1 X53.635 Y162.067 E95.77438
G1 X49.361 Y166.914 E96.1908
G1 X45.399 Y172.02 E96.60726
G1 X41.742 Y177.399 E97.0264
G1 X40.292 Y179.851 E97.20997
G1 X40.157 Y180.08 E97.2271
G1 X40.387 Y180.212 E97.23811
G1 X81.491 Y203.943 E100.29656
G0 F6000 X81.303 Y203.225
;TYPE:WALL-OUTER
G1 F900 X81.614 Y202.7 E100.33588
G1 X83.585 Y199.8 E100.56183
G1 X85.751 Y197.008 E100.78954
G1 X88.086 Y194.359 E101.01708
G1 X55.087 Y161.359 E104.02435
G1 X54.02 Y162.428 E104.12168
G1 X49.768 Y167.251 E104.536
G1 X45.826 Y172.331 E104.95035
G1 X42.188 Y177.682 E105.36731
G1 X40.883 Y179.889 E105.53253
G1 X81.303 Y203.225 E108.54008
G1 F2400 E106.94008
