;FLAVOR:Marlin
;TIME:10039
;Filament used: 11.2927m
;Layer height: 0.3
;MINX:43.668
;MINY:65.123
;MINZ:0.3
;MAXX:270.283
;MAXY:207.264
;MAXZ:16.5
;Generated with Cura_SteamEngine 4.10.0
M104 S220
M105
M109 S220
M82 ;absolute extrusion mode
G28 ; home all axes
 M117 Purge extruder
 G92 E0 ; reset extruder
 G1 Z1.0 F3000 ; move z up little to prevent scratching of surface
 G1 X2 Y20 Z0.3 F5000.0 ; move to start-line position
 G1 X2 Y200.0 Z0.3 F1500.0 E15 ; draw 1st line
 G1 X2 Y200.0 Z0.4 F5000.0 ; move to side a little
 G1 X2 Y20 Z0.4 F1500.0 E30 ; draw 2nd line
 G92 E0 ; reset extruder
 G1 Z1.0 F3000 ; move z up little to prevent scratching of surface
G92 E0
G92 E0
G1 F2400 E-1.6
;LAYER_COUNT:55
;LAYER:0
M106 S89.3
;MESH:Vertical_Filament_Spool_Parts_Drawer_Stand_200mm_52mm_13mmCenterHole_v02.stl
G0 F6000 X104.886 Y73.064 Z0.3
;TYPE:WALL-INNER
G1 F2400 E0
G1 F900 X104.728 Y73.392 E0.02346
G1 X104.591 Y73.73 E0.04696
G1 X104.474 Y74.075 E0.07044
G1 X104.38 Y74.43 E0.0941
G1 X104.307 Y74.79 E0.11777
G1 X104.259 Y75.15 E0.14118
G1 X104.231 Y75.515 E0.16476
G1 X104.228 Y75.882 E0.18841
G1 X104.248 Y76.25 E0.21216
G1 X104.292 Y76.612 E0.23566
G1 X104.355 Y76.968 E0.25896
G1 X104.442 Y77.324 E0.28257
G1 X104.552 Y77.675 E0.30628
G1 X104.684 Y78.016 E0.32984
G1 X104.836 Y78.346 E0.35325
G1 X105.007 Y78.667 E0.37669
G1 X105.201 Y78.98 E0.40042
G1 X105.415 Y79.278 E0.42406
G1 X105.644 Y79.561 E0.44752
G1 X105.887 Y79.826 E0.47069
G1 X106.153 Y80.081 E0.49443
G1 X106.431 Y80.316 E0.51789
G1 X106.724 Y80.534 E0.54142
G1 X107.035 Y80.736 E0.56532
G1 X107.353 Y80.913 E0.58877
G1 X107.677 Y81.07 E0.61197
G1 X108.018 Y81.21 E0.63573
G1 X108.364 Y81.327 E0.65926
G1 X108.72 Y81.421 E0.68299
G1 X109.076 Y81.493 E0.70639
G1 X109.436 Y81.543 E0.72981
G1 X109.806 Y81.571 E0.75372
G1 X110.172 Y81.573 E0.77731
G1 X110.534 Y81.554 E0.80067
G1 X110.899 Y81.513 E0.82434
G1 X111.258 Y81.448 E0.84785
G1 X111.614 Y81.361 E0.87146
G1 X111.961 Y81.251 E0.89492
G1 X112.301 Y81.121 E0.91838
G1 X112.634 Y80.968 E0.94199
G1 X112.956 Y80.797 E0.96548
G1 X113.27 Y80.603 E0.98927
G1 X113.567 Y80.391 E1.01278
G1 X113.851 Y80.161 E1.03633
G1 X114.124 Y79.91 E1.06023
G1 X114.377 Y79.645 E1.08384
G1 X114.611 Y79.367 E1.10725
G1 X114.83 Y79.075 E1.13077
G1 X115.031 Y78.763 E1.15469
G1 X115.21 Y78.442 E1.17837
G1 X115.366 Y78.117 E1.2016
G1 X115.504 Y77.781 E1.22501
G1 X115.621 Y77.434 E1.24861
G1 X115.717 Y77.076 E1.27249
G1 X115.786 Y76.719 E1.29592
G1 X115.836 Y76.363 E1.31909
G1 X115.864 Y75.992 E1.34306
G1 X115.866 Y75.626 E1.36665
G1 X115.847 Y75.262 E1.39014
G1 X115.803 Y74.897 E1.41383
G1 X115.74 Y74.541 E1.43712
G1 X115.653 Y74.185 E1.46074
G1 X115.543 Y73.834 E1.48444
G1 X115.411 Y73.493 E1.508
G1 X115.259 Y73.165 E1.5313
G1 X115.088 Y72.842 E1.55485
G1 X114.893 Y72.529 E1.57861
G1 X114.68 Y72.231 E1.60222
G1 X114.451 Y71.948 E1.62568
G1 X114.208 Y71.683 E1.64885
G1 X113.942 Y71.428 E1.67259
G1 X113.664 Y71.193 E1.69605
G1 X113.371 Y70.975 E1.71958
G1 X113.06 Y70.773 E1.74348
G1 X112.743 Y70.597 E1.76684
G1 X112.417 Y70.438 E1.79021
G1 X112.076 Y70.299 E1.81394
G1 X111.731 Y70.182 E1.83742
G1 X111.378 Y70.088 E1.86096
G1 X111.018 Y70.015 E1.88463
G1 X110.674 Y69.969 E1.90699
G1 X110.658 Y69.966 E1.90804
G1 X110.291 Y69.938 E1.93176
G1 X109.923 Y69.935 E1.95547
G1 X109.56 Y69.955 E1.9789
G1 X109.196 Y69.996 E2.00251
G1 X108.837 Y70.061 E2.02602
G1 X108.481 Y70.148 E2.04963
G1 X108.134 Y70.258 E2.07309
G1 X107.793 Y70.388 E2.0966
G1 X107.462 Y70.54 E2.12007
G1 X107.138 Y70.712 E2.14371
G1 X106.825 Y70.907 E2.16748
G1 X106.528 Y71.118 E2.19095
G1 X106.244 Y71.348 E2.2145
G1 X105.971 Y71.599 E2.2384
G1 X105.718 Y71.864 E2.26201
G1 X105.484 Y72.142 E2.28542
G1 X105.265 Y72.434 E2.30894
G1 X105.064 Y72.746 E2.33286
G1 X104.886 Y73.064 E2.35634
G0 F6000 X105.355 Y73.308
G1 F900 X105.211 Y73.606 E2.37767
G1 X105.086 Y73.914 E2.39909
G1 X104.98 Y74.228 E2.42045
G1 X104.894 Y74.55 E2.44192
G1 X104.828 Y74.877 E2.46342
G1 X104.784 Y75.205 E2.48475
G1 X104.759 Y75.537 E2.5062
G1 X104.756 Y75.87 E2.52766
G1 X104.774 Y76.204 E2.54921
G1 X104.814 Y76.534 E2.57063
G1 X104.872 Y76.859 E2.59191
G1 X104.951 Y77.182 E2.61333
G1 X105.051 Y77.5 E2.63482
G1 X105.171 Y77.81 E2.65624
G1 X105.309 Y78.111 E2.67757
G1 X105.465 Y78.403 E2.69891
G1 X105.641 Y78.687 E2.72044
G1 X105.835 Y78.958 E2.74191
G1 X106.044 Y79.216 E2.76331
G1 X106.265 Y79.457 E2.78438
G1 X106.506 Y79.688 E2.80589
G1 X106.76 Y79.902 E2.82729
G1 X107.026 Y80.101 E2.8487
G1 X107.307 Y80.283 E2.87027
G1 X107.597 Y80.444 E2.89165
G1 X107.893 Y80.588 E2.91286
G1 X108.203 Y80.715 E2.93445
G1 X108.517 Y80.821 E2.9558
G1 X108.84 Y80.907 E2.97734
G1 X109.165 Y80.972 E2.9987
G1 X109.492 Y81.018 E3.01998
G1 X109.827 Y81.043 E3.04163
G1 X110.16 Y81.045 E3.06308
G1 X110.49 Y81.028 E3.08438
G1 X110.822 Y80.99 E3.10591
G1 X111.148 Y80.931 E3.12726
G1 X111.471 Y80.852 E3.14869
G1 X111.787 Y80.752 E3.17004
G1 X112.097 Y80.634 E3.19142
G1 X112.4 Y80.495 E3.2129
G1 X112.693 Y80.339 E3.23429
G1 X112.977 Y80.163 E3.25582
G1 X113.247 Y79.97 E3.27721
G1 X113.506 Y79.761 E3.29865
G1 X113.754 Y79.533 E3.32036
G1 X113.984 Y79.292 E3.34183
G1 X114.197 Y79.039 E3.36314
G1 X114.396 Y78.773 E3.38455
G1 X114.578 Y78.491 E3.40617
G1 X114.741 Y78.199 E3.42772
G1 X114.883 Y77.902 E3.44894
G1 X115.009 Y77.596 E3.47026
G1 X115.115 Y77.281 E3.49168
G1 X115.202 Y76.957 E3.5133
G1 X115.265 Y76.632 E3.53463
G1 X115.311 Y76.306 E3.55584
G1 X115.336 Y75.971 E3.57749
G1 X115.338 Y75.638 E3.59895
G1 X115.321 Y75.307 E3.62031
G1 X115.281 Y74.975 E3.64186
G1 X115.223 Y74.65 E3.66313
G1 X115.144 Y74.327 E3.68456
G1 X115.044 Y74.009 E3.70604
G1 X114.924 Y73.699 E3.72746
G1 X114.786 Y73.399 E3.74874
G1 X114.63 Y73.105 E3.77018
G1 X114.454 Y72.822 E3.79166
G1 X114.26 Y72.551 E3.81314
G1 X114.051 Y72.293 E3.83453
G1 X113.83 Y72.052 E3.8556
G1 X113.589 Y71.821 E3.87711
G1 X113.335 Y71.607 E3.89852
G1 X113.069 Y71.408 E3.91992
G1 X112.788 Y71.226 E3.9415
G1 X112.499 Y71.065 E3.96282
G1 X112.202 Y70.92 E3.98411
G1 X111.892 Y70.794 E4.00568
G1 X111.578 Y70.688 E4.02703
G1 X111.257 Y70.602 E4.04845
G1 X110.93 Y70.536 E4.06994
G1 X110.602 Y70.491 E4.09128
G1 X110.269 Y70.466 E4.1128
G1 X109.935 Y70.463 E4.13432
G1 X109.604 Y70.481 E4.15568
G1 X109.273 Y70.519 E4.17715
G1 X108.947 Y70.578 E4.1985
G1 X108.624 Y70.657 E4.21993
G1 X108.308 Y70.757 E4.24128
G1 X107.998 Y70.875 E4.26266
G1 X107.696 Y71.014 E4.28408
G1 X107.401 Y71.17 E4.30558
G1 X107.118 Y71.346 E4.32706
G1 X106.848 Y71.539 E4.34845
G1 X106.589 Y71.748 E4.36989
G1 X106.341 Y71.976 E4.3916
G1 X106.111 Y72.217 E4.41307
G1 X105.898 Y72.47 E4.43438
G1 X105.699 Y72.736 E4.45579
G1 X105.517 Y73.018 E4.47741
G1 X105.355 Y73.308 E4.49882
G0 F6000 X105.824 Y73.552
;TYPE:WALL-OUTER
G1 F900 X105.694 Y73.821 E4.51807
G1 X105.581 Y74.098 E4.53735
G1 X105.486 Y74.381 E4.55659
G1 X105.408 Y74.671 E4.57594
G1 X105.349 Y74.965 E4.59526
G1 X105.309 Y75.26 E4.61444
G1 X105.287 Y75.559 E4.63376
G1 X105.284 Y75.859 E4.6531
G1 X105.3 Y76.158 E4.67239
G1 X105.336 Y76.455 E4.69167
G1 X105.389 Y76.749 E4.71092
G1 X105.46 Y77.04 E4.73022
G1 X105.55 Y77.325 E4.74948
G1 X105.658 Y77.605 E4.76882
G1 X105.782 Y77.876 E4.78802
G1 X105.923 Y78.139 E4.80725
G1 X106.081 Y78.394 E4.82658
G1 X106.255 Y78.638 E4.84589
G1 X106.444 Y78.871 E4.86523
G1 X106.643 Y79.088 E4.8842
G1 X106.859 Y79.295 E4.90348
G1 X107.088 Y79.488 E4.92278
G1 X107.328 Y79.667 E4.94207
G1 X107.58 Y79.83 E4.96141
G1 X107.841 Y79.976 E4.98068
G1 X108.109 Y80.106 E4.99988
G1 X108.387 Y80.22 E5.01924
G1 X108.67 Y80.315 E5.03847
G1 X108.96 Y80.393 E5.05783
G1 X109.253 Y80.451 E5.07707
G1 X109.549 Y80.493 E5.09634
G1 X109.848 Y80.515 E5.11566
G1 X110.148 Y80.517 E5.13499
G1 X110.446 Y80.502 E5.15422
G1 X110.744 Y80.467 E5.17355
G1 X111.038 Y80.414 E5.1928
G1 X111.329 Y80.343 E5.2121
G1 X111.614 Y80.253 E5.23136
G1 X111.893 Y80.147 E5.2506
G1 X112.165 Y80.022 E5.26988
G1 X112.429 Y79.881 E5.28917
G1 X112.684 Y79.723 E5.3085
G1 X112.928 Y79.549 E5.32781
G1 X113.161 Y79.361 E5.34711
G1 X113.384 Y79.156 E5.36662
G1 X113.591 Y78.939 E5.38595
G1 X113.783 Y78.711 E5.40516
G1 X113.962 Y78.471 E5.42445
G1 X114.125 Y78.219 E5.44379
G1 X114.272 Y77.956 E5.46321
G1 X114.4 Y77.688 E5.48234
G1 X114.514 Y77.411 E5.50165
G1 X114.609 Y77.128 E5.52088
G1 X114.687 Y76.838 E5.54023
G1 X114.744 Y76.544 E5.55953
G1 X114.786 Y76.249 E5.57873
G1 X114.808 Y75.95 E5.59805
G1 X114.81 Y75.65 E5.61738
G1 X114.795 Y75.352 E5.63661
G1 X114.759 Y75.054 E5.65595
G1 X114.706 Y74.76 E5.6752
G1 X114.635 Y74.469 E5.69451
G1 X114.545 Y74.184 E5.71377
G1 X114.437 Y73.904 E5.7331
G1 X114.313 Y73.633 E5.75231
G1 X114.172 Y73.369 E5.77159
G1 X114.014 Y73.115 E5.79087
G1 X113.84 Y72.871 E5.81018
G1 X113.651 Y72.638 E5.82952
G1 X113.452 Y72.421 E5.84849
G1 X113.236 Y72.214 E5.86777
G1 X113.007 Y72.021 E5.88706
G1 X112.767 Y71.842 E5.90636
G1 X112.515 Y71.679 E5.9257
G1 X112.254 Y71.533 E5.94497
G1 X111.986 Y71.402 E5.96419
G1 X111.708 Y71.289 E5.98353
G1 X111.425 Y71.194 E6.00277
G1 X111.136 Y71.116 E6.02205
G1 X110.842 Y71.057 E6.04138
G1 X110.546 Y71.016 E6.06063
G1 X110.247 Y70.994 E6.07995
G1 X109.947 Y70.991 E6.09929
G1 X109.649 Y71.007 E6.11852
G1 X109.351 Y71.042 E6.13785
G1 X109.057 Y71.095 E6.1571
G1 X108.766 Y71.166 E6.1764
G1 X108.481 Y71.256 E6.19566
G1 X108.202 Y71.362 E6.21489
G1 X107.93 Y71.487 E6.23418
G1 X107.665 Y71.628 E6.25353
G1 X107.411 Y71.786 E6.2728
G1 X107.167 Y71.96 E6.29211
G1 X106.934 Y72.148 E6.31141
G1 X106.711 Y72.353 E6.33093
G1 X106.504 Y72.57 E6.35025
G1 X106.312 Y72.798 E6.36946
G1 X106.133 Y73.038 E6.38875
G1 X105.97 Y73.29 E6.40809
G1 X105.824 Y73.552 E6.42742
G0 F6000 X105.31 Y73.285
G1 F2400 E4.82742
G0 F6000 X107.01 Y71.754
G0 X107.815 Y71.255
G0 X108.697 Y70.916
G0 X109.627 Y70.749
G0 X110.573 Y70.758
G0 X111.5 Y70.945
G0 X112.374 Y71.303
G0 X113.168 Y71.818
G0 X113.848 Y72.468
G0 X114.292 Y73.091
G0 X116.046 Y76.386
G0 X117.362 Y78.97
G0 X121.004 Y77.371
;TYPE:WALL-INNER
G1 F2400 E6.42742
G1 F900 X115.186 Y80.337 E6.84823
G1 X113.912 Y81.088 E6.94353
G1 X148.299 Y140.649 E11.37533
G1 X150.279 Y139.638 E11.51859
G1 X152.326 Y138.752 E11.66232
G1 X155.464 Y137.625 E11.87717
G1 X137.746 Y71.511 E16.28784
G1 X137.677 Y71.252 E16.30511
G1 X137.419 Y71.327 E16.31624
G1 X133.117 Y72.577 E16.60492
G1 X126.986 Y74.783 E17.0248
G1 X121.004 Y77.371 E17.4448
G0 F6000 X121.229 Y77.849
G1 F900 X115.44 Y80.8 E17.86351
G1 X114.631 Y81.277 E17.92403
G1 X148.506 Y139.951 E22.28983
G1 X150.039 Y139.169 E22.40072
G1 X150.065 Y139.155 E22.40263
G1 X152.128 Y138.262 E22.54748
G1 X154.828 Y137.292 E22.73236
G1 X137.376 Y72.168 E27.07697
G1 X137.307 Y71.909 E27.09424
G1 X137.049 Y71.984 E27.10537
G1 X133.28 Y73.079 E27.35828
G1 X127.18 Y75.274 E27.77603
G1 X121.229 Y77.849 E28.19387
G0 F6000 X121.454 Y78.327
;TYPE:WALL-OUTER
G1 F900 X115.694 Y81.263 E28.61048
G1 X115.35 Y81.466 E28.63622
G1 X148.713 Y139.253 E32.93602
G1 X149.851 Y138.672 E33.01835
G1 X151.93 Y137.772 E33.16434
G1 X154.192 Y136.959 E33.31923
G1 X136.937 Y72.566 E37.61505
G1 X133.443 Y73.581 E37.84951
G1 X127.374 Y75.765 E38.26514
G1 X121.454 Y78.327 E38.68081
G0 F6000 X121.207 Y77.803
G1 F2400 E37.08081
G0 F6000 X127.279 Y75.523
G0 X133.363 Y73.334
G0 X137.11 Y72.258
G0 X138.117 Y72.086
G0 X139.008 Y71.848
G0 X139.88 Y71.491
G0 X152.193 Y68.315
;TYPE:WALL-INNER
G1 F2400 E38.68081
G1 F900 X145.734 Y69.336 E39.1022
G1 X139.244 Y70.787 E39.53073
G1 X138.977 Y70.846 E39.54835
G1 X139.047 Y71.11 E39.5596
G1 X156.793 Y137.334 E43.97758
G1 X158.619 Y136.925 E44.09816
G1 X160.785 Y136.582 E44.23948
G1 X162.983 Y136.373 E44.38175
G1 X164.492 Y136.327 E44.47904
G1 X164.492 Y67.792 E48.89538
G1 X164.492 Y67.791 E48.89544
G1 X164.492 Y67.521 E48.91284
G1 X164.222 Y67.529 E48.92401
G1 X160.86 Y67.634 E49.14076
G1 X158.659 Y67.704 E49.28266
G1 X152.193 Y68.315 E49.70118
G0 F6000 X152.259 Y68.839
G1 F900 X145.833 Y69.855 E50.12041
G1 X139.897 Y71.182 E50.51236
G1 X139.63 Y71.241 E50.52998
G1 X139.7 Y71.505 E50.54123
G1 X157.172 Y136.708 E54.89109
G1 X158.503 Y136.411 E54.97897
G1 X158.518 Y136.407 E54.97997
G1 X158.536 Y136.405 E54.98114
G1 X160.731 Y136.056 E55.12436
G1 X162.948 Y135.846 E55.26786
G1 X163.964 Y135.815 E55.33336
G1 X163.964 Y68.337 E59.68159
G1 X163.964 Y68.336 E59.68165
G1 X163.964 Y68.066 E59.69905
G1 X163.694 Y68.074 E59.71022
G1 X158.692 Y68.231 E60.0327
G1 X152.259 Y68.839 E60.44909
G0 F6000 X152.325 Y69.363
;TYPE:WALL-OUTER
G1 F900 X145.932 Y70.374 E60.86617
G1 X140.283 Y71.636 E61.23916
G1 X157.551 Y136.082 E65.5385
G1 X158.433 Y135.885 E65.59673
G1 X160.662 Y135.532 E65.74216
G1 X162.913 Y135.319 E65.88786
G1 X163.436 Y135.303 E65.92158
G1 X163.436 Y68.611 E70.21916
G1 X158.725 Y68.758 E70.52288
G1 X152.325 Y69.363 E70.93713
G0 F6000 X152.253 Y68.788
G1 F2400 E69.33713
G0 F6000 X145.884 Y70.119
G0 X139.977 Y71.451
G0 X142.264 Y83.922
G0 X144.383 Y83.354
G0 X139.645 Y85.964
G0 X136.294 Y73.707
G0 X116.614 Y81.823
G0 X123.928 Y94.628
G0 X119.332 Y97.162
G0 X121.248 Y96.054
G0 X112.451 Y82.895
G0 X110.016 Y84.32
G0 X105.188 Y87.603
G0 X92.523 Y97.249
;TYPE:WALL-INNER
G1 F2400 E70.93713
G1 F900 X92.336 Y97.435 E70.95412
G1 X92.522 Y97.621 E70.96506
G1 X140.948 Y146.048 E75.37821
G1 X142.9 Y144.327 E75.5459
G1 X144.641 Y142.976 E75.6879
G1 X147.106 Y141.302 E75.87991
G1 X112.876 Y82.013 E80.29147
G1 X112.744 Y81.783 E80.30856
G1 X112.515 Y81.918 E80.31959
G1 X109.589 Y83.647 E80.5386
G1 X104.181 Y87.324 E80.96001
G1 X99.049 Y91.305 E81.37855
G1 X94.163 Y95.615 E81.79839
G1 X92.523 Y97.249 E81.94757
G0 F6000 X93.083 Y97.436
G1 F900 X93.268 Y97.621 E81.96443
G1 X140.971 Y145.324 E86.31164
G1 X142.566 Y143.918 E86.44865
G1 X144.334 Y142.546 E86.59286
G1 X146.403 Y141.141 E86.75402
G1 X112.685 Y82.739 E91.09958
G1 X112.553 Y82.509 E91.11667
G1 X112.324 Y82.644 E91.12771
G1 X109.872 Y84.093 E91.31124
G1 X104.492 Y87.751 E91.73047
G1 X99.386 Y91.712 E92.14689
G1 X94.524 Y96 E92.56463
G1 X93.269 Y97.251 E92.67882
G1 X93.268 Y97.252 E92.67891
G1 X93.083 Y97.436 E92.68974
G0 F6000 X93.83 Y97.437
;TYPE:WALL-OUTER
G1 F900 X140.994 Y144.6 E96.98779
G1 X142.232 Y143.509 E97.09412
G1 X144.027 Y142.116 E97.24053
G1 X145.7 Y140.98 E97.37084
G1 X112.362 Y83.235 E101.6675
G1 X110.155 Y84.539 E101.83268
G1 X104.803 Y88.178 E102.24973
G1 X99.723 Y92.119 E102.66404
G1 X94.885 Y96.385 E103.07968
G1 X93.83 Y97.437 E103.17569
G1 F2400 E101.57569
G0 F6000 X93.606 Y97.211
G0 X92.191 Y97.588
G0 X91.541 Y98.238
G0 X89.539 Y100.239
;TYPE:WALL-INNER
G1 F2400 E103.17569
G1 F900 X85.24 Y105.112 E103.59443
G1 X84.889 Y105.568 E103.63151
G1 X81.262 Y110.242 E104.01275
G1 X77.935 Y115.133 E104.39393
G1 X77.585 Y115.649 E104.43411
G1 X75.721 Y118.804 E104.67024
G1 X134.814 Y152.919 E109.06716
G1 X135.239 Y153.165 E109.0988
G1 X136.92 Y150.695 E109.29133
G1 X138.256 Y148.971 E109.43187
G1 X139.987 Y147.009 E109.60048
G1 X91.561 Y98.583 E114.01357
G1 X91.376 Y98.398 E114.03043
G1 X91.192 Y98.583 E114.04127
G1 X91.191 Y98.584 E114.04136
G1 X89.539 Y100.239 E114.19204
G0 F6000 X89.924 Y100.6
G1 F900 X85.648 Y105.448 E114.6086
G1 X85.306 Y105.892 E114.64471
G1 X81.689 Y110.553 E115.02489
G1 X78.031 Y115.932 E115.44406
G1 X76.582 Y118.384 E115.6276
G1 X76.447 Y118.613 E115.64473
G1 X76.677 Y118.746 E115.65576
G1 X135.078 Y152.463 E120.00123
G1 X136.483 Y150.398 E120.16218
G1 X137.853 Y148.63 E120.30631
G1 X139.263 Y147.032 E120.44363
G1 X91.561 Y99.33 E124.79075
G1 X91.376 Y99.145 E124.80761
G1 X91.192 Y99.33 E124.81844
G1 X91.191 Y99.331 E124.81854
G1 X89.924 Y100.6 E124.93409
G0 F6000 X90.309 Y100.961
;TYPE:WALL-OUTER
G1 F900 X86.056 Y105.784 E125.34846
G1 X85.723 Y106.216 E125.3836
G1 X82.116 Y110.864 E125.76273
G1 X78.477 Y116.215 E126.17972
G1 X77.173 Y118.422 E126.34491
G1 X134.917 Y151.761 E130.64154
G1 X136.055 Y150.089 E130.77187
G1 X137.45 Y148.289 E130.91861
G1 X138.539 Y147.055 E131.02467
G1 X91.376 Y99.892 E135.32267
G1 X90.309 Y100.961 E135.41999
G0 F6000 X89.887 Y100.565
G1 F2400 E133.81999
G0 F6000 X75.41 Y118.858
G0 X75.023 Y119.527
G0 X68.715 Y133.066
;TYPE:WALL-INNER
G1 F2400 E135.41999
