;FLAVOR:Marlin
;TIME:790
;Filament used: 0.444m
;Layer height: 0.2
;MINX:-17.8
;MINY:-17.8
;MINZ:0.3
;MAXX:17.8
;MAXY:17.8
;MAXZ:20
;Generated with Cura_SteamEngine 4.10.0
M104 S210
M105
M109 S210
M82 ;absolute extrusion mode
G21        ;metric values
G90        ;absolute positioning
M107       ;start with the fan off
G28   ;move to endstops

;Z-Offset Reset und dann Z +0,1 für PLA
;MacroZOffset0
;MacroZOffsetPlus0100

G92 E0                  ;zero the extruded length
G1 F200 E3              ;extrude 3mm of feed stock
G92 E0                  ;zero the extruded length again
G1 F150.0
;Put printing message on LCD screen
M117 Printing...
G92 E0
G92 E0
;LAYER_COUNT:100
;LAYER:0
M107
M204 S3000
G0 F6000 X17.8 Y-10 Z0.3
M204 S1500
;TYPE:SKIRT
G1 F1200 X17.8 Y10 E0.84364
G1 X17.76 Y10.789 E0.87697
G1 X17.641 Y11.569 E0.91025
G1 X17.443 Y12.334 E0.94358
G1 X17.169 Y13.074 E0.97687
G1 X16.821 Y13.783 E1.01018
G1 X16.403 Y14.454 E1.04353
G1 X15.92 Y15.078 E1.07682
G1 X15.377 Y15.651 E1.11012
G1 X14.778 Y16.166 E1.14344
G1 X14.13 Y16.617 E1.17674
G1 X13.439 Y17.001 E1.21009
G1 X12.714 Y17.313 E1.24338
G1 X11.961 Y17.55 E1.27668
G1 X11.187 Y17.709 E1.31001
G1 X10.402 Y17.79 E1.3433
G1 X10 Y17.8 E1.36026
G1 X-10 Y17.8 E2.20391
G1 X-10.789 Y17.76 E2.23723
G1 X-11.569 Y17.641 E2.27051
G1 X-12.334 Y17.443 E2.30385
G1 X-13.074 Y17.169 E2.33713
G1 X-13.783 Y16.821 E2.37045
G1 X-14.454 Y16.403 E2.40379
G1 X-15.078 Y15.92 E2.43708
G1 X-15.651 Y15.377 E2.47038
G1 X-16.166 Y14.778 E2.5037
G1 X-16.617 Y14.13 E2.537
G1 X-17.001 Y13.439 E2.57035
G1 X-17.313 Y12.714 E2.60364
G1 X-17.55 Y11.961 E2.63694
G1 X-17.709 Y11.187 E2.67027
G1 X-17.79 Y10.402 E2.70356
G1 X-17.8 Y10 E2.72052
G1 X-17.8 Y-10 E3.56417
G1 X-17.76 Y-10.789 E3.59749
G1 X-17.641 Y-11.569 E3.63078
G1 X-17.443 Y-12.334 E3.66411
G1 X-17.169 Y-13.074 E3.69739
G1 X-16.821 Y-13.783 E3.73071
G1 X-16.403 Y-14.454 E3.76406
G1 X-15.92 Y-15.078 E3.79734
G1 X-15.377 Y-15.651 E3.83064
G1 X-14.778 Y-16.166 E3.86396
G1 X-14.13 Y-16.617 E3.89727
G1 X-13.439 Y-17.001 E3.93061
G1 X-12.714 Y-17.313 E3.96391
G1 X-11.961 Y-17.55 E3.99721
G1 X-11.187 Y-17.709 E4.03054
G1 X-10.402 Y-17.79 E4.06382
G1 X-10 Y-17.8 E4.08079
G1 X10 Y-17.8 E4.92443
G1 X10.789 Y-17.76 E4.95776
G1 X11.569 Y-17.641 E4.99104
G1 X12.334 Y-17.443 E5.02437
G1 X13.074 Y-17.169 E5.05766
G1 X13.783 Y-16.821 E5.09097
G1 X14.454 Y-16.403 E5.12432
G1 X15.078 Y-15.92 E5.1576
G1 X15.651 Y-15.377 E5.1909
G1 X16.166 Y-14.778 E5.22423
G1 X16.617 Y-14.13 E5.25753
G1 X17.001 Y-13.439 E5.29087
G1 X17.313 Y-12.714 E5.32417
G1 X17.55 Y-11.961 E5.35747
G1 X17.709 Y-11.187 E5.3908
G1 X17.79 Y-10.402 E5.42409
G1 X17.8 Y-10 E5.44105
M204 S3000
G0 F6000 X17.4 Y-10
M204 S1500
G1 F1200 X17.4 Y10 E6.28469
G1 X17.36 Y10.768 E6.31713
G1 X17.241 Y11.528 E6.34958
G1 X17.043 Y12.271 E6.38202
G1 X16.769 Y12.99 E6.41447
G1 X16.422 Y13.676 E6.4469
G1 X16.006 Y14.323 E6.47935
G1 X15.525 Y14.923 E6.51179
G1 X14.984 Y15.47 E6.54424
G1 X14.389 Y15.958 E6.5767
G1 X13.747 Y16.381 E6.60913
G1 X13.064 Y16.736 E6.6416
G1 X12.349 Y17.017 E6.67401
G1 X11.607 Y17.223 E6.70649
G1 X10.849 Y17.351 E6.73892
G1 X10 Y17.4 E6.77479
G1 X-10 Y17.4 E7.61843
G1 X-10.768 Y17.36 E7.65087
G1 X-11.528 Y17.241 E7.68332
G1 X-12.271 Y17.043 E7.71575
G1 X-12.99 Y16.769 E7.74821
G1 X-13.676 Y16.422 E7.78064
G1 X-14.323 Y16.006 E7.81309
G1 X-14.923 Y15.525 E7.84552
G1 X-15.47 Y14.984 E7.87798
G1 X-15.958 Y14.389 E7.91044
G1 X-16.381 Y13.747 E7.94287
G1 X-16.736 Y13.064 E7.97534
G1 X-17.017 Y12.349 E8.00774
G1 X-17.223 Y11.607 E8.04023
G1 X-17.351 Y10.849 E8.07265
G1 X-17.4 Y10 E8.10853
G1 X-17.4 Y-10 E8.95217
G1 X-17.36 Y-10.768 E8.98461
G1 X-17.241 Y-11.528 E9.01706
G1 X-17.043 Y-12.271 E9.04949
G1 X-16.769 Y-12.99 E9.08195
G1 X-16.422 Y-13.676 E9.11438
G1 X-16.006 Y-14.323 E9.14682
G1 X-15.525 Y-14.923 E9.17926
G1 X-14.984 Y-15.47 E9.21171
G1 X-14.389 Y-15.958 E9.24418
G1 X-13.747 Y-16.381 E9.27661
G1 X-13.064 Y-16.736 E9.30908
G1 X-12.349 Y-17.017 E9.34148
G1 X-11.607 Y-17.223 E9.37396
G1 X-10.849 Y-17.351 E9.40639
G1 X-10 Y-17.4 E9.44226
G1 X10 Y-17.4 E10.28591
G1 X10.768 Y-17.36 E10.31835
G1 X11.528 Y-17.241 E10.3508
G1 X12.271 Y-17.043 E10.38323
G1 X12.99 Y-16.769 E10.41569
G1 X13.676 Y-16.422 E10.44812
G1 X14.323 Y-16.006 E10.48056
G1 X14.923 Y-15.525 E10.513
G1 X15.47 Y-14.984 E10.54545
G1 X15.958 Y-14.389 E10.57791
G1 X16.381 Y-13.747 E10.61034
G1 X16.736 Y-13.064 E10.64281
G1 X17.017 Y-12.349 E10.67522
G1 X17.223 Y-11.607 E10.7077
G1 X17.351 Y-10.849 E10.74013
G1 X17.4 Y-10 E10.776
M204 S3000
G0 F6000 X17 Y-10
M204 S1500
G1 F1200 X17 Y10 E11.61964
G1 X16.96 Y10.747 E11.6512
G1 X16.841 Y11.485 E11.68273
G1 X16.643 Y12.207 E11.71431
G1 X16.37 Y12.903 E11.74585
G1 X16.023 Y13.566 E11.77741
G1 X15.608 Y14.189 E11.80899
G1 X15.129 Y14.763 E11.84053
G1 X14.592 Y15.284 E11.87209
G1 X14.002 Y15.743 E11.90362
G1 X13.366 Y16.138 E11.9352
G1 X12.692 Y16.462 E11.96675
G1 X11.987 Y16.712 E11.9983
G1 X11.259 Y16.886 E12.02987
G1 X10.517 Y16.981 E12.06143
G1 X10 Y17 E12.08325
G1 X-10 Y17 E12.92689
G1 X-10.747 Y16.96 E12.95845
G1 X-11.485 Y16.841 E12.98998
G1 X-12.207 Y16.643 E13.02156
G1 X-12.903 Y16.37 E13.0531
G1 X-13.566 Y16.023 E13.08466
G1 X-14.189 Y15.608 E13.11624
G1 X-14.763 Y15.129 E13.14777
G1 X-15.284 Y14.592 E13.17934
G1 X-15.743 Y14.002 E13.21087
G1 X-16.138 Y13.366 E13.24245
G1 X-16.462 Y12.692 E13.27399
G1 X-16.712 Y11.987 E13.30555
G1 X-16.886 Y11.259 E13.33712
G1 X-16.981 Y10.517 E13.36867
G1 X-17 Y10 E13.3905
G1 X-17 Y-10 E14.23414
G1 X-16.96 Y-10.747 E14.2657
G1 X-16.841 Y-11.485 E14.29723
G1 X-16.643 Y-12.207 E14.32881
G1 X-16.37 Y-12.903 E14.36034
G1 X-16.023 Y-13.566 E14.39191
G1 X-15.608 Y-14.189 E14.42349
G1 X-15.129 Y-14.763 E14.45502
G1 X-14.592 Y-15.284 E14.48658
G1 X-14.002 Y-15.743 E14.51812
G1 X-13.366 Y-16.138 E14.5497
G1 X-12.692 Y-16.462 E14.58124
G1 X-11.987 Y-16.712 E14.61279
G1 X-11.259 Y-16.886 E14.64437
G1 X-10.517 Y-16.981 E14.67592
G1 X-10 Y-17 E14.69775
G1 X10 Y-17 E15.54139
G1 X10.747 Y-16.96 E15.57294
G1 X11.485 Y-16.841 E15.60448
G1 X12.207 Y-16.643 E15.63606
G1 X12.903 Y-16.37 E15.66759
G1 X13.566 Y-16.023 E15.69916
G1 X14.189 Y-15.608 E15.73073
G1 X14.763 Y-15.129 E15.76227
G1 X15.284 Y-14.592 E15.79383
G1 X15.743 Y-14.002 E15.82536
G1 X16.138 Y-13.366 E15.85694
G1 X16.462 Y-12.692 E15.88849
G1 X16.712 Y-11.987 E15.92004
G1 X16.886 Y-11.259 E15.95162
G1 X16.981 Y-10.517 E15.98317
G1 X17 Y-10 E16.00499
M204 S3000
G0 F6000 X16.6 Y-10
M204 S1500
G1 F1200 X16.6 Y10 E16.84864
G1 X16.56 Y10.725 E16.87926
G1 X16.441 Y11.442 E16.90992
G1 X16.243 Y12.141 E16.94057
G1 X15.97 Y12.814 E16.9712
G1 X15.625 Y13.453 E17.00184
G1 X15.211 Y14.05 E17.03248
G1 X14.735 Y14.598 E17.0631
G1 X14.201 Y15.091 E17.09376
G1 X13.616 Y15.521 E17.12438
G1 X12.987 Y15.885 E17.15504
G1 X12.322 Y16.178 E17.18569
G1 X11.629 Y16.396 E17.21634
G1 X10.917 Y16.536 E17.24694
G1 X10 Y16.6 E17.28572
G1 X-10 Y16.6 E18.12936
G1 X-10.725 Y16.56 E18.15999
G1 X-11.442 Y16.441 E18.19065
G1 X-12.141 Y16.243 E18.2213
G1 X-12.814 Y15.97 E18.25193
G1 X-13.453 Y15.625 E18.28256
G1 X-14.05 Y15.211 E18.31321
G1 X-14.598 Y14.735 E18.34383
G1 X-15.091 Y14.201 E18.37448
G1 X-15.521 Y13.616 E18.40511
G1 X-15.885 Y12.987 E18.43576
G1 X-16.178 Y12.322 E18.46642
G1 X-16.396 Y11.629 E18.49706
G1 X-16.536 Y10.917 E18.52767
G1 X-16.6 Y10 E18.56645
G1 X-16.6 Y-10 E19.41009
G1 X-16.56 Y-10.725 E19.44072
G1 X-16.441 Y-11.442 E19.47138
G1 X-16.243 Y-12.141 E19.50202
G1 X-15.97 Y-12.814 E19.53266
G1 X-15.625 Y-13.453 E19.56329
G1 X-15.211 Y-14.05 E19.59393
G1 X-14.735 Y-14.598 E19.62455
G1 X-14.201 Y-15.091 E19.65521
G1 X-13.616 Y-15.521 E19.68584
G1 X-12.987 Y-15.885 E19.71649
G1 X-12.322 Y-16.178 E19.74714
G1 X-11.629 Y-16.396 E19.77779
G1 X-10.917 Y-16.536 E19.8084
G1 X-10 Y-16.6 E19.84717
G1 X10 Y-16.6 E20.69082
G1 X10.725 Y-16.56 E20.72144
G1 X11.442 Y-16.441 E20.7521
G1 X12.141 Y-16.243 E20.78275
G1 X12.814 Y-15.97 E20.81338
G1 X13.453 Y-15.625 E20.84402
G1 X14.05 Y-15.211 E20.87466
G1 X14.598 Y-14.735 E20.90528
G1 X15.091 Y-14.201 E20.93594
G1 X15.521 Y-13.616 E20.96656
G1 X15.885 Y-12.987 E20.99722
G1 X16.178 Y-12.322 E21.02787
G1 X16.396 Y-11.629 E21.05852
G1 X16.536 Y-10.917 E21.08912
G1 X16.6 Y-10 E21.1279
M204 S3000
G0 F6000 X16.2 Y-10
M204 S1500
G1 F1200 X16.2 Y10 E21.97154
G1 X16.16 Y10.703 E22.00124
G1 X16.041 Y11.397 E22.03095
G1 X15.843 Y12.072 E22.06062
G1 X15.571 Y12.721 E22.0903
G1 X15.226 Y13.335 E22.12001
G1 X14.815 Y13.906 E22.14969
G1 X14.341 Y14.427 E22.1794
G1 X13.811 Y14.891 E22.20911
G1 X13.232 Y15.291 E22.2388
G1 X12.611 Y15.623 E22.2685
G1 X11.957 Y15.883 E22.29819
G1 X11.277 Y16.067 E22.3279
G1 X10.581 Y16.173 E22.3576
G1 X10 Y16.2 E22.38214
G1 X-10 Y16.2 E23.22578
G1 X-10.703 Y16.16 E23.25548
G1 X-11.397 Y16.041 E23.28518
G1 X-12.072 Y15.843 E23.31485
G1 X-12.721 Y15.571 E23.34454
G1 X-13.335 Y15.226 E23.37425
G1 X-13.906 Y14.815 E23.40392
G1 X-14.427 Y14.341 E23.43363
G1 X-14.891 Y13.811 E23.46335
G1 X-15.291 Y13.232 E23.49303
G1 X-15.623 Y12.611 E23.52274
G1 X-15.883 Y11.957 E23.55242
G1 X-16.067 Y11.277 E23.58214
G1 X-16.173 Y10.581 E23.61184
G1 X-16.2 Y10 E23.63637
G1 X-16.2 Y-10 E24.48001
G1 X-16.16 Y-10.703 E24.50972
G1 X-16.041 Y-11.397 E24.53942
G1 X-15.843 Y-12.072 E24.56909
G1 X-15.571 Y-12.721 E24.59877
G1 X-15.226 Y-13.335 E24.62848
G1 X-14.815 Y-13.906 E24.65816
G1 X-14.341 Y-14.427 E24.68787
G1 X-13.811 Y-14.891 E24.71758
G1 X-13.232 Y-15.291 E24.74727
G1 X-12.611 Y-15.623 E24.77697
G1 X-11.957 Y-15.883 E24.80666
G1 X-11.277 Y-16.067 E24.83638
G1 X-10.581 Y-16.173 E24.86607
G1 X-10 Y-16.2 E24.89061
G1 X10 Y-16.2 E25.73425
G1 X10.703 Y-16.16 E25.76395
G1 X11.397 Y-16.041 E25.79365
G1 X12.072 Y-15.843 E25.82333
G1 X12.721 Y-15.571 E25.85301
G1 X13.335 Y-15.226 E25.88272
G1 X13.906 Y-14.815 E25.91239
G1 X14.427 Y-14.341 E25.94211
G1 X14.891 Y-13.811 E25.97182
G1 X15.291 Y-13.232 E26.0015
G1 X15.623 Y-12.611 E26.03121
G1 X15.883 Y-11.957 E26.0609
G1 X16.067 Y-11.277 E26.09061
G1 X16.173 Y-10.581 E26.12031
G1 X16.2 Y-10 E26.14484
M204 S3000
G0 F6000 X15.8 Y-10
M204 S1500
G1 F1200 X15.8 Y10 E26.98849
G1 X15.76 Y10.68 E27.01722
G1 X15.641 Y11.35 E27.04592
G1 X15.444 Y12.002 E27.07465
G1 X15.172 Y12.626 E27.10337
G1 X14.828 Y13.214 E27.1321
G1 X14.418 Y13.758 E27.16084
G1 X13.947 Y14.249 E27.18954
G1 X13.422 Y14.683 E27.21827
G1 X12.85 Y15.052 E27.24698
G1 X12.238 Y15.351 E27.27572
G1 X11.596 Y15.576 E27.30441
G1 X10.931 Y15.725 E27.33316
G1 X10 Y15.8 E27.37256
G1 X-10 Y15.8 E28.2162
G1 X-10.68 Y15.76 E28.24493
G1 X-11.35 Y15.641 E28.27364
G1 X-12.002 Y15.444 E28.30237
G1 X-12.626 Y15.172 E28.33108
G1 X-13.214 Y14.828 E28.35982
G1 X-13.758 Y14.418 E28.38855
G1 X-14.249 Y13.947 E28.41725
G1 X-14.683 Y13.422 E28.44599
G1 X-15.052 Y12.85 E28.4747
G1 X-15.351 Y12.238 E28.50343
G1 X-15.576 Y11.596 E28.53213
G1 X-15.725 Y10.931 E28.56087
G1 X-15.8 Y10 E28.60027
G1 X-15.8 Y-10 E29.44392
G1 X-15.76 Y-10.68 E29.47265
G1 X-15.641 Y-11.35 E29.50135
G1 X-15.444 Y-12.002 E29.53009
G1 X-15.172 Y-12.626 E29.5588
G1 X-14.828 Y-13.214 E29.58753
G1 X-14.418 Y-13.758 E29.61627
G1 X-13.947 Y-14.249 E29.64497
G1 X-13.422 Y-14.683 E29.6737
G1 X-12.85 Y-15.052 E29.70242
G1 X-12.238 Y-15.351 E29.73115
G1 X-11.596 Y-15.576 E29.75984
G1 X-10.931 Y-15.725 E29.78859
G1 X-10 Y-15.8 E29.82799
G1 X10 Y-15.8 E30.67163
G1 X10.68 Y-15.76 E30.70037
G1 X11.35 Y-15.641 E30.72907
G1 X12.002 Y-15.444 E30.7578
G1 X12.626 Y-15.172 E30.78651
G1 X13.214 Y-14.828 E30.81525
G1 X13.758 Y-14.418 E30.84398
G1 X14.249 Y-13.947 E30.87268
G1 X14.683 Y-13.422 E30.90142
G1 X15.052 Y-12.85 E30.93013
G1 X15.351 Y-12.238 E30.95886
G1 X15.576 Y-11.596 E30.98756
G1 X15.725 Y-10.931 E31.01631
G1 X15.8 Y-10 E31.0557
M204 S3000
G0 F6000 X15.4 Y-10
M204 S1500
G1 F1200 X15.4 Y10 E31.89935
G1 X15.36 Y10.656 E31.92707
G1 X15.241 Y11.302 E31.95478
G1 X15.044 Y11.929 E31.9825
G1 X14.772 Y12.527 E32.01021
G1 X14.43 Y13.088 E32.03793
G1 X14.022 Y13.603 E32.06564
G1 X13.555 Y14.065 E32.09335
G1 X13.035 Y14.466 E32.12105
G1 X12.471 Y14.802 E32.14874
G1 X11.869 Y15.066 E32.17647
G1 X11.24 Y15.256 E32.20419
G1 X10.593 Y15.367 E32.23188
G1 X10 Y15.4 E32.25693
G1 X-10 Y15.4 E33.10058
G1 X-10.656 Y15.36 E33.1283
G1 X-11.302 Y15.241 E33.15601
G1 X-11.929 Y15.044 E33.18373
G1 X-12.527 Y14.772 E33.21144
G1 X-13.088 Y14.43 E33.23916
G1 X-13.603 Y14.022 E33.26687
G1 X-14.065 Y13.555 E33.29458
G1 X-14.466 Y13.035 E33.32228
G1 X-14.802 Y12.471 E33.34997
G1 X-15.066 Y11.869 E33.3777
G1 X-15.256 Y11.24 E33.40542
G1 X-15.367 Y10.593 E33.43311
G1 X-15.4 Y10 E33.45816
G1 X-15.4 Y-10 E34.3018
G1 X-15.36 Y-10.656 E34.32953
G1 X-15.241 Y-11.302 E34.35724
G1 X-15.044 Y-11.929 E34.38496
G1 X-14.772 Y-12.527 E34.41267
G1 X-14.43 Y-13.088 E34.44039
G1 X-14.022 Y-13.603 E34.4681
G1 X-13.555 Y-14.065 E34.49581
G1 X-13.035 Y-14.466 E34.52351
G1 X-12.471 Y-14.802 E34.5512
G1 X-11.869 Y-15.066 E34.57893
G1 X-11.24 Y-15.256 E34.60665
G1 X-10.593 Y-15.367 E34.63434
G1 X-10 Y-15.4 E34.65939
G1 X10 Y-15.4 E35.50303
G1 X10.656 Y-15.36 E35.53076
G1 X11.302 Y-15.241 E35.55846
G1 X11.929 Y-15.044 E35.58619
G1 X12.527 Y-14.772 E35.6139
G1 X13.088 Y-14.43 E35.64161
G1 X13.603 Y-14.022 E35.66933
G1 X14.065 Y-13.555 E35.69704
G1 X14.466 Y-13.035 E35.72474
G1 X14.802 Y-12.471 E35.75243
G1 X15.066 Y-11.869 E35.78016
G1 X15.256 Y-11.24 E35.80788
G1 X15.367 Y-10.593 E35.83557
G1 X15.4 Y-10 E35.86062
M204 S3000
G0 F6000 X15 Y-10
M204 S1500
G1 F1200 X15 Y10 E36.70426
G1 X14.96 Y10.631 E36.73093
G1 X14.841 Y11.252 E36.7576
G1 X14.644 Y11.852 E36.78424
G1 X14.373 Y12.424 E36.81094
G1 X14.033 Y12.956 E36.83757
G1 X13.627 Y13.441 E36.86426
G1 X13.164 Y13.871 E36.89091
G1 X12.65 Y14.24 E36.9176
G1 X12.094 Y14.54 E36.94425
G1 X11.505 Y14.768 E36.97089
G1 X10.891 Y14.92 E36.99757
G1 X10 Y15 E37.03531
G1 X-10 Y15 E37.87895
G1 X-10.631 Y14.96 E37.90562
G1 X-11.252 Y14.841 E37.93229
G1 X-11.852 Y14.644 E37.95893
G1 X-12.424 Y14.373 E37.98563
G1 X-12.956 Y14.033 E38.01226
G1 X-13.441 Y13.627 E38.03894
G1 X-13.871 Y13.164 E38.0656
G1 X-14.24 Y12.65 E38.09229
G1 X-14.54 Y12.094 E38.11894
G1 X-14.768 Y11.505 E38.14558
G1 X-14.92 Y10.891 E38.17226
G1 X-15 Y10 E38.21
G1 X-15 Y-10 E39.05364
G1 X-14.96 Y-10.631 E39.08031
G1 X-14.841 Y-11.252 E39.10698
G1 X-14.644 Y-11.852 E39.13362
G1 X-14.373 Y-12.424 E39.16032
G1 X-14.033 Y-12.956 E39.18695
G1 X-13.627 Y-13.441 E39.21363
G1 X-13.164 Y-13.871 E39.24029
G1 X-12.65 Y-14.24 E39.26698
G1 X-12.094 Y-14.54 E39.29363
G1 X-11.505 Y-14.768 E39.32027
G1 X-10.891 Y-14.92 E39.34695
G1 X-10 Y-15 E39.38469
G1 X10 Y-15 E40.22833
G1 X10.631 Y-14.96 E40.255
G1 X11.252 Y-14.841 E40.28167
G1 X11.852 Y-14.644 E40.30831
G1 X12.424 Y-14.373 E40.33501
G1 X12.956 Y-14.033 E40.36164
G1 X13.441 Y-13.627 E40.38832
G1 X13.871 Y-13.164 E40.41498
G1 X14.24 Y-12.65 E40.44167
G1 X14.54 Y-12.094 E40.46832
G1 X14.768 Y-11.505 E40.49496
G1 X14.92 Y-10.891 E40.52164
G1 X15 Y-10 E40.55937
M204 S3000
G0 F6000 X14.6 Y-10
M204 S1500
G1 F1200 X14.6 Y10 E41.40302
G1 X14.56 Y10.605 E41.42859
G1 X14.441 Y11.199 E41.45415
G1 X14.245 Y11.773 E41.47973
G1 X13.974 Y12.316 E41.50533
G1 X13.635 Y12.819 E41.53092
G1 X13.233 Y13.272 E41.55647
G1 X12.775 Y13.669 E41.58203
G1 X12.268 Y14.002 E41.60762
G1 X11.722 Y14.266 E41.6332
G1 X11.146 Y14.455 E41.65877
G1 X10.55 Y14.567 E41.68435
G1 X10 Y14.6 E41.7076
G1 X-10 Y14.6 E42.55124
G1 X-10.605 Y14.56 E42.57682
G1 X-11.199 Y14.441 E42.60237
G1 X-11.773 Y14.245 E42.62795
G1 X-12.316 Y13.974 E42.65355
G1 X-12.819 Y13.635 E42.67914
G1 X-13.272 Y13.233 E42.70469
G1 X-13.669 Y12.775 E42.73026
G1 X-14.002 Y12.268 E42.75584
G1 X-14.266 Y11.722 E42.78142
G1 X-14.455 Y11.146 E42.807
G1 X-14.567 Y10.55 E42.83258
G1 X-14.6 Y10 E42.85582
G1 X-14.6 Y-10 E43.69946
G1 X-14.56 Y-10.605 E43.72504
G1 X-14.441 Y-11.199 E43.75059
G1 X-14.245 Y-11.773 E43.77618
G1 X-13.974 Y-12.316 E43.80178
G1 X-13.635 Y-12.819 E43.82736
G1 X-13.233 Y-13.272 E43.85291
G1 X-12.775 Y-13.669 E43.87848
G1 X-12.268 Y-14.002 E43.90406
G1 X-11.722 Y-14.266 E43.92965
G1 X-11.146 Y-14.455 E43.95522
G1 X-10.55 Y-14.567 E43.9808
G1 X-10 Y-14.6 E44.00404
G1 X10 Y-14.6 E44.84768
