;FLAVOR:Marlin
;TIME:669
;Filament used: 0.364423m
;Layer height: 0.2
;MINX:-13.875
;MINY:-13.875
;MINZ:0.2
;MAXX:13.875
;MAXY:13.875
;MAXZ:20.1
;Generated with Cura_SteamEngine 4.10.0
M104 S220
M105
M109 S220
M82 ;absolute extrusion mode
G21        ;metric values
G90        ;absolute positioning
M107       ;start with the fan off
G28   ;move to endstops
G92 E0                  ;zero the extruded length
G1 F200 E3              ;extrude 3mm of feed stock
G92 E0                  ;zero the extruded length again
G1 F150.0
;Put printing message on LCD screen
M117 Printing...
G92 E0
G92 E0
G1 F2700 E-7
;LAYER_COUNT:100
;LAYER:0
M107
M204 S3000
G0 F3000 X13.875 Y9.312 Z0.2
M204 S1500
;TYPE:SKIRT
G1 F2700 E0
G1 F1200 X13.866 Y10.039 E0.02116
G1 X13.819 Y10.593 E0.03734
G1 X13.693 Y11.135 E0.05353
G1 X13.491 Y11.654 E0.06974
G1 X13.217 Y12.138 E0.08593
G1 X12.876 Y12.578 E0.10213
G1 X12.476 Y12.964 E0.11831
G1 X12.024 Y13.29 E0.13453
G1 X11.531 Y13.547 E0.15071
G1 X11.006 Y13.731 E0.1669
G1 X10.46 Y13.838 E0.18309
G1 X9.779 Y13.873 E0.20293
G1 X9.67 Y13.875 E0.20611
G1 X-9.343 Y13.875 E0.75943
G1 X-10.041 Y13.866 E0.77975
G1 X-10.595 Y13.819 E0.79593
G1 X-11.137 Y13.693 E0.81212
G1 X-11.656 Y13.49 E0.82834
G1 X-12.14 Y13.216 E0.84453
G1 X-12.579 Y12.875 E0.86071
G1 X-12.966 Y12.474 E0.87692
G1 X-13.291 Y12.023 E0.8931
G1 X-13.548 Y11.529 E0.90931
G1 X-13.731 Y11.004 E0.92549
G1 X-13.838 Y10.458 E0.94168
G1 X-13.874 Y9.763 E0.96193
G1 X-13.875 Y-9.378 E1.51899
G1 X-13.866 Y-10.043 E1.53834
G1 X-13.818 Y-10.598 E1.55456
G1 X-13.692 Y-11.14 E1.57075
G1 X-13.489 Y-11.658 E1.58694
G1 X-13.214 Y-12.142 E1.60314
G1 X-12.873 Y-12.581 E1.61932
G1 X-12.472 Y-12.967 E1.63552
G1 X-12.021 Y-13.292 E1.6517
G1 X-11.527 Y-13.549 E1.6679
G1 X-11.002 Y-13.732 E1.68408
G1 X-10.455 Y-13.838 E1.7003
G1 X-9.779 Y-13.873 E1.72
G1 X-9.67 Y-13.875 E1.72317
G1 X9.349 Y-13.875 E2.27667
G1 X10.047 Y-13.865 E2.29699
G1 X10.601 Y-13.817 E2.31317
G1 X11.143 Y-13.69 E2.32937
G1 X11.661 Y-13.487 E2.34556
G1 X12.144 Y-13.212 E2.36174
G1 X12.583 Y-12.87 E2.37793
G1 X12.969 Y-12.469 E2.39413
G1 X13.294 Y-12.017 E2.41033
G1 X13.55 Y-11.523 E2.42653
G1 X13.733 Y-10.998 E2.44271
G1 X13.838 Y-10.451 E2.45892
G1 X13.873 Y-9.779 E2.4785
G1 X13.875 Y-9.67 E2.48167
G1 X13.875 Y9.312 E3.0341
M204 S3000
G0 F3000 X13.525 Y9.308
M204 S1500
G1 F1200 X13.516 Y10.035 E3.05526
G1 X13.469 Y10.563 E3.07069
G1 X13.344 Y11.079 E3.08614
G1 X13.143 Y11.57 E3.10158
G1 X12.87 Y12.025 E3.11702
G1 X12.532 Y12.434 E3.13246
G1 X12.136 Y12.788 E3.14792
G1 X11.692 Y13.078 E3.16335
G1 X11.209 Y13.299 E3.17881
G1 X10.699 Y13.444 E3.19424
G1 X10.09 Y13.515 E3.21208
G1 X9.67 Y13.525 E3.22431
G1 X-9.338 Y13.525 E3.77749
G1 X-10.036 Y13.516 E3.79781
G1 X-10.565 Y13.469 E3.81327
G1 X-11.081 Y13.343 E3.82872
G1 X-11.572 Y13.142 E3.84416
G1 X-12.027 Y12.869 E3.85961
G1 X-12.436 Y12.531 E3.87505
G1 X-12.789 Y12.135 E3.89049
G1 X-13.079 Y11.691 E3.90592
G1 X-13.299 Y11.208 E3.92137
G1 X-13.445 Y10.697 E3.93683
G1 X-13.515 Y10.086 E3.95473
G1 X-13.525 Y9.658 E3.96719
G1 X-13.525 Y-9.374 E4.52107
G1 X-13.516 Y-10.039 E4.54043
G1 X-13.469 Y-10.567 E4.55585
G1 X-13.343 Y-11.083 E4.57131
G1 X-13.141 Y-11.574 E4.58676
G1 X-12.868 Y-12.028 E4.60218
G1 X-12.529 Y-12.437 E4.61764
G1 X-12.133 Y-12.79 E4.63308
G1 X-11.689 Y-13.08 E4.64851
G1 X-11.206 Y-13.3 E4.66396
G1 X-10.695 Y-13.445 E4.67942
G1 X-10.09 Y-13.515 E4.69714
G1 X-9.67 Y-13.525 E4.70937
G1 X9.343 Y-13.525 E5.2627
G1 X10.041 Y-13.515 E5.28301
G1 X10.57 Y-13.467 E5.29847
G1 X11.085 Y-13.341 E5.3139
G1 X11.576 Y-13.139 E5.32935
G1 X12.031 Y-12.865 E5.34481
G1 X12.439 Y-12.526 E5.36025
G1 X12.792 Y-12.13 E5.37569
G1 X13.082 Y-11.685 E5.39114
G1 X13.301 Y-11.202 E5.40658
G1 X13.446 Y-10.691 E5.42204
G1 X13.515 Y-10.089 E5.43967
G1 X13.525 Y-9.67 E5.45187
G1 X13.525 Y9.308 E6.00418
M204 S3000
G0 F3000 X13.175 Y9.303
M204 S1500
G1 F1200 X13.166 Y10.03 E6.02534
G1 X13.12 Y10.532 E6.04001
G1 X12.995 Y11.02 E6.05467
G1 X12.794 Y11.482 E6.06933
G1 X12.523 Y11.906 E6.08398
G1 X12.189 Y12.282 E6.09861
G1 X11.799 Y12.601 E6.11328
G1 X11.363 Y12.854 E6.12795
G1 X10.893 Y13.035 E6.1426
G1 X10.401 Y13.139 E6.15724
G1 X9.759 Y13.174 E6.17595
G1 X-9.334 Y13.175 E6.73161
G1 X-10.032 Y13.166 E6.75192
G1 X-10.533 Y13.119 E6.76657
G1 X-11.021 Y12.994 E6.78123
G1 X-11.483 Y12.794 E6.79588
G1 X-11.907 Y12.522 E6.81054
G1 X-12.284 Y12.188 E6.8252
G1 X-12.602 Y11.797 E6.83986
G1 X-12.855 Y11.362 E6.85451
G1 X-13.036 Y10.892 E6.86917
G1 X-13.14 Y10.399 E6.88383
G1 X-13.174 Y9.744 E6.90292
G1 X-13.175 Y-9.369 E7.45916
G1 X-13.166 Y-10.034 E7.47851
G1 X-13.119 Y-10.535 E7.49315
G1 X-12.994 Y-11.023 E7.50782
G1 X-12.793 Y-11.485 E7.52248
G1 X-12.521 Y-11.909 E7.53714
G1 X-12.186 Y-12.285 E7.55179
G1 X-11.796 Y-12.603 E7.56644
G1 X-11.36 Y-12.856 E7.58111
G1 X-10.89 Y-13.036 E7.59576
G1 X-10.397 Y-13.14 E7.61042
G1 X-9.759 Y-13.174 E7.62901
G1 X9.338 Y-13.175 E8.18479
G1 X10.036 Y-13.165 E8.2051
G1 X10.538 Y-13.118 E8.21978
G1 X11.025 Y-12.992 E8.23441
G1 X11.487 Y-12.79 E8.24909
G1 X11.911 Y-12.519 E8.26373
G1 X12.287 Y-12.183 E8.27841
G1 X12.605 Y-11.793 E8.29305
G1 X12.857 Y-11.357 E8.30771
G1 X13.037 Y-10.887 E8.32236
G1 X13.14 Y-10.394 E8.33701
G1 X13.174 Y-9.759 E8.35552
G1 X13.175 Y9.303 E8.91027
M204 S3000
G1 F2700 E1.91027
;MESH:20mm_cube.stl
G0 F3000 X10.64 Y9.303
G0 X9.78 Y9.303
G0 X-9.7 Y9.73
G0 X-9.8 Y9.8
M204 S1500
;TYPE:WALL-OUTER
G1 F2700 E8.91027
G1 F1200 X-9.8 Y-9.8 E9.48069
G1 X9.8 Y-9.8 E10.0511
G1 X9.8 Y9.8 E10.62151
G1 X-9.8 Y9.8 E11.19192
M204 S3000
G0 F3000 X-9.8 Y9.6
G0 X-9.46 Y9.46
M204 S1500
;TYPE:SKIN
G1 F1200 X-9.46 Y-9.46 E11.74254
G1 X9.46 Y-9.46 E12.29316
G1 X9.46 Y9.46 E12.84378
G1 X-9.46 Y9.46 E13.39441
M204 S3000
G0 F3000 X-9.302 Y9.011
M204 S1500
G1 F1200 X-9.011 Y9.302 E13.40638
M204 S3000
G0 F3000 X-8.516 Y9.302
M204 S1500
G1 F1200 X-9.302 Y8.516 E13.43873
M204 S3000
G0 F3000 X-9.302 Y8.021
M204 S1500
G1 F1200 X-8.021 Y9.302 E13.49146
M204 S3000
G0 F3000 X-7.526 Y9.302
M204 S1500
G1 F1200 X-9.302 Y7.526 E13.56455
M204 S3000
G0 F3000 X-9.302 Y7.031
M204 S1500
G1 F1200 X-7.031 Y9.302 E13.65802
M204 S3000
G0 F3000 X-6.536 Y9.302
M204 S1500
G1 F1200 X-9.302 Y6.536 E13.77186
M204 S3000
G0 F3000 X-9.302 Y6.041
M204 S1500
G1 F1200 X-6.041 Y9.302 E13.90607
M204 S3000
G0 F3000 X-5.546 Y9.302
M204 S1500
G1 F1200 X-9.302 Y5.546 E14.06066
M204 S3000
G0 F3000 X-9.302 Y5.051
M204 S1500
G1 F1200 X-5.051 Y9.302 E14.23562
M204 S3000
G0 F3000 X-4.556 Y9.302
M204 S1500
G1 F1200 X-9.302 Y4.556 E14.43095
M204 S3000
G0 F3000 X-9.302 Y4.061
M204 S1500
G1 F1200 X-4.061 Y9.302 E14.64666
M204 S3000
G0 F3000 X-3.566 Y9.302
M204 S1500
G1 F1200 X-9.302 Y3.566 E14.88274
M204 S3000
G0 F3000 X-9.302 Y3.071
M204 S1500
G1 F1200 X-3.071 Y9.302 E15.13919
M204 S3000
G0 F3000 X-2.576 Y9.302
M204 S1500
G1 F1200 X-9.302 Y2.576 E15.41601
M204 S3000
G0 F3000 X-9.302 Y2.081
M204 S1500
G1 F1200 X-2.081 Y9.302 E15.71321
M204 S3000
G0 F3000 X-1.586 Y9.302
M204 S1500
G1 F1200 X-9.302 Y1.586 E16.03078
M204 S3000
G0 F3000 X-9.302 Y1.091
M204 S1500
G1 F1200 X-1.091 Y9.302 E16.36872
M204 S3000
G0 F3000 X-.596 Y9.302
M204 S1500
G1 F1200 X-9.302 Y0.596 E16.72704
M204 S3000
G0 F3000 X-9.302 Y0.101
M204 S1500
G1 F1200 X-.101 Y9.302 E17.10573
M204 S3000
G0 F3000 X0.393 Y9.302
M204 S1500
G1 F1200 X-9.302 Y-.393 E17.50475
M204 S3000
G0 F3000 X-9.302 Y-.888
M204 S1500
G1 F1200 X0.888 Y9.302 E17.92414
M204 S3000
G0 F3000 X1.383 Y9.302
M204 S1500
G1 F1200 X-9.302 Y-1.383 E18.36391
M204 S3000
G0 F3000 X-9.302 Y-1.878
M204 S1500
G1 F1200 X1.878 Y9.302 E18.82404
M204 S3000
G0 F3000 X2.373 Y9.302
M204 S1500
G1 F1200 X-9.302 Y-2.373 E19.30456
M204 S3000
G0 F3000 X-9.302 Y-2.868
M204 S1500
G1 F1200 X2.868 Y9.302 E19.80544
M204 S3000
G0 F3000 X3.362 Y9.302
M204 S1500
G1 F1200 X-9.302 Y-3.362 E20.32666
M204 S3000
G0 F3000 X-9.302 Y-3.857
M204 S1500
G1 F1200 X3.857 Y9.302 E20.86825
M204 S3000
G0 F3000 X4.352 Y9.302
M204 S1500
G1 F1200 X-9.302 Y-4.352 E21.43021
M204 S3000
G0 F3000 X-9.302 Y-4.847
M204 S1500
G1 F1200 X4.847 Y9.302 E22.01254
M204 S3000
G0 F3000 X5.342 Y9.302
M204 S1500
G1 F1200 X-9.302 Y-5.342 E22.61525
M204 S3000
G0 F3000 X-9.302 Y-5.837
M204 S1500
G1 F1200 X5.837 Y9.302 E23.23833
M204 S3000
G0 F3000 X6.332 Y9.302
M204 S1500
G1 F1200 X-9.302 Y-6.332 E23.88178
M204 S3000
G0 F3000 X-9.302 Y-6.827
M204 S1500
G1 F1200 X6.827 Y9.302 E24.54561
M204 S3000
G0 F3000 X7.322 Y9.302
M204 S1500
G1 F1200 X-9.302 Y-7.322 E25.22981
M204 S3000
G0 F3000 X-9.302 Y-7.817
M204 S1500
G1 F1200 X7.817 Y9.302 E25.93438
M204 S3000
G0 F3000 X8.312 Y9.302
M204 S1500
G1 F1200 X-9.302 Y-8.312 E26.65933
M204 S3000
G0 F3000 X-9.302 Y-8.807
M204 S1500
G1 F1200 X8.807 Y9.302 E27.40465
M204 S3000
G0 F3000 X9.302 Y9.302
M204 S1500
G1 F1200 X-9.302 Y-9.302 E28.17034
M204 S3000
G0 F3000 X-8.807 Y-9.302
M204 S1500
G1 F1200 X9.302 Y8.807 E28.91565
M204 S3000
G0 F3000 X9.302 Y8.312
M204 S1500
G1 F1200 X-8.312 Y-9.302 E29.6406
M204 S3000
G0 F3000 X-7.817 Y-9.302
M204 S1500
G1 F1200 X9.302 Y7.817 E30.34517
M204 S3000
G0 F3000 X9.302 Y7.322
M204 S1500
G1 F1200 X-7.322 Y-9.302 E31.02937
M204 S3000
G0 F3000 X-6.827 Y-9.302
M204 S1500
G1 F1200 X9.302 Y6.827 E31.6932
M204 S3000
G0 F3000 X9.302 Y6.332
M204 S1500
G1 F1200 X-6.332 Y-9.302 E32.33665
M204 S3000
G0 F3000 X-5.837 Y-9.302
M204 S1500
G1 F1200 X9.302 Y5.837 E32.95973
M204 S3000
G0 F3000 X9.302 Y5.342
M204 S1500
G1 F1200 X-5.342 Y-9.302 E33.56244
M204 S3000
G0 F3000 X-4.847 Y-9.302
M204 S1500
G1 F1200 X9.302 Y4.847 E34.14477
M204 S3000
G0 F3000 X9.302 Y4.352
M204 S1500
G1 F1200 X-4.352 Y-9.302 E34.70674
M204 S3000
G0 F3000 X-3.857 Y-9.302
M204 S1500
G1 F1200 X9.302 Y3.857 E35.24832
M204 S3000
G0 F3000 X9.302 Y3.362
M204 S1500
G1 F1200 X-3.362 Y-9.302 E35.76954
M204 S3000
G0 F3000 X-2.868 Y-9.302
M204 S1500
G1 F1200 X9.302 Y2.868 E36.27043
M204 S3000
G0 F3000 X9.302 Y2.373
M204 S1500
G1 F1200 X-2.373 Y-9.302 E36.75094
M204 S3000
G0 F3000 X-1.878 Y-9.302
M204 S1500
G1 F1200 X9.302 Y1.878 E37.21108
M204 S3000
G0 F3000 X9.302 Y1.383
M204 S1500
G1 F1200 X-1.383 Y-9.302 E37.65084
M204 S3000
G0 F3000 X-.888 Y-9.302
M204 S1500
G1 F1200 X9.302 Y0.888 E38.07023
M204 S3000
G0 F3000 X9.302 Y0.393
M204 S1500
G1 F1200 X-.393 Y-9.302 E38.46925
M204 S3000
G0 F3000 X0.101 Y-9.302
M204 S1500
G1 F1200 X9.302 Y-.101 E38.84794
M204 S3000
G0 F3000 X9.302 Y-.596
M204 S1500
G1 F1200 X0.596 Y-9.302 E39.20626
M204 S3000
G0 F3000 X1.091 Y-9.302
M204 S1500
G1 F1200 X9.302 Y-1.091 E39.5442
M204 S3000
G0 F3000 X9.302 Y-1.586
M204 S1500
G1 F1200 X1.586 Y-9.302 E39.86177
M204 S3000
G0 F3000 X2.081 Y-9.302
M204 S1500
G1 F1200 X9.302 Y-2.081 E40.15897
M204 S3000
G0 F3000 X9.302 Y-2.576
M204 S1500
G1 F1200 X2.576 Y-9.302 E40.43579
M204 S3000
G0 F3000 X3.071 Y-9.302
M204 S1500
G1 F1200 X9.302 Y-3.071 E40.69224
M204 S3000
G0 F3000 X9.302 Y-3.566
M204 S1500
G1 F1200 X3.566 Y-9.302 E40.92832
M204 S3000
G0 F3000 X4.061 Y-9.302
M204 S1500
G1 F1200 X9.302 Y-4.061 E41.14403
M204 S3000
G0 F3000 X9.302 Y-4.556
M204 S1500
G1 F1200 X4.556 Y-9.302 E41.33936
M204 S3000
G0 F3000 X5.051 Y-9.302
M204 S1500
G1 F1200 X9.302 Y-5.051 E41.51432
M204 S3000
G0 F3000 X9.302 Y-5.546
M204 S1500
G1 F1200 X5.546 Y-9.302 E41.66891
M204 S3000
G0 F3000 X6.041 Y-9.302
M204 S1500
G1 F1200 X9.302 Y-6.041 E41.80312
M204 S3000
G0 F3000 X9.302 Y-6.536
M204 S1500
G1 F1200 X6.536 Y-9.302 E41.91696
M204 S3000
G0 F3000 X7.031 Y-9.302
M204 S1500
G1 F1200 X9.302 Y-7.031 E42.01043
M204 S3000
G0 F3000 X9.302 Y-7.526
M204 S1500
G1 F1200 X7.526 Y-9.302 E42.08353
M204 S3000
G0 F3000 X8.021 Y-9.302
M204 S1500
G1 F1200 X9.302 Y-8.021 E42.13625
M204 S3000
G0 F3000 X9.302 Y-8.516
M204 S1500
G1 F1200 X8.516 Y-9.302 E42.1686
M204 S3000
G0 F3000 X9.011 Y-9.302
M204 S1500
G1 F1200 X9.302 Y-9.011 E42.18057
M204 S3000
;MESH:NONMESH
G0 F600 X9.302 Y-9.011 Z0.4
G0 F3000 X-8.075 Y8.075
;TIME_ELAPSED:77.633249
;LAYER:1
M106 S255
M204 S1500
;TYPE:WALL-INNER
;MESH:20mm_cube.stl
G1 F3600 X-8.075 Y-8.075 E42.65058
G1 X8.075 Y-8.075 E43.12059
G1 X8.075 Y8.075 E43.5906
G1 X-8.075 Y8.075 E44.0606
M204 S3000
G0 F6000 X-8.425 Y8.425
M204 S1500
G1 F3600 X-8.425 Y-8.425 E44.55098
G1 X8.425 Y-8.425 E45.04136
G1 X8.425 Y8.425 E45.53174
G1 X-8.425 Y8.425 E46.02212
M204 S3000
G0 F6000 X-8.775 Y8.775
M204 S1500
G1 F3600 X-8.775 Y-8.775 E46.53287
G1 X8.775 Y-8.775 E47.04362
G1 X8.775 Y8.775 E47.55437
G1 X-8.775 Y8.775 E48.06512
M204 S3000
G0 F6000 X-9.125 Y9.125
M204 S1500
G1 F3600 X-9.125 Y-9.125 E48.59625
G1 X9.125 Y-9.125 E49.12737
G1 X9.125 Y9.125 E49.65849
G1 X-9.125 Y9.125 E50.18962
M204 S3000
G0 F6000 X-9.475 Y9.475
M204 S1500
G1 F3600 X-9.475 Y-9.475 E50.74111
G1 X9.475 Y-9.475 E51.2926
G1 X9.475 Y9.475 E51.8441
G1 X-9.475 Y9.475 E52.39559
M204 S3000
G0 F6000 X-9.8 Y9.8
M204 S1500
;TYPE:WALL-OUTER
G1 F2100 X-9.8 Y-9.8 E52.96601
G1 X9.8 Y-9.8 E53.53642
G1 X9.8 Y9.8 E54.10683
G1 X-9.8 Y9.8 E54.67724
M204 S3000
G0 F6000 X-9.8 Y9.6
G0 X-9.405 Y9.405
G0 X-7.735 Y7.735
M204 S1500
;TYPE:SKIN
G1 F1500 X-7.735 Y-7.735 E55.12746
G1 X7.735 Y-7.735 E55.57767
G1 X7.735 Y7.735 E56.02789
G1 X-7.735 Y7.735 E56.47811
M204 S3000
G0 F6000 X-7.577 Y-7.271
M204 S1500
G1 F1500 X-7.271 Y-7.577 E56.4907
M204 S3000
G0 F6000 X-6.776 Y-7.577
M204 S1500
G1 F1500 X-7.577 Y-6.776 E56.52367
M204 S3000
G0 F6000 X-7.577 Y-6.281
M204 S1500
G1 F1500 X-6.281 Y-7.577 E56.57701
M204 S3000
G0 F6000 X-5.786 Y-7.577
M204 S1500
G1 F1500 X-7.577 Y-5.786 E56.65072
M204 S3000
G0 F6000 X-7.577 Y-5.291
M204 S1500
G1 F1500 X-5.291 Y-7.577 E56.74481
M204 S3000
G0 F6000 X-4.797 Y-7.577
M204 S1500
G1 F1500 X-7.577 Y-4.797 E56.85923
M204 S3000
G0 F6000 X-7.577 Y-4.302
M204 S1500
G1 F1500 X-4.302 Y-7.577 E56.99402
M204 S3000
G0 F6000 X-3.807 Y-7.577
M204 S1500
G1 F1500 X-7.577 Y-3.807 E57.14918
M204 S3000
G0 F6000 X-7.577 Y-3.312
M204 S1500
G1 F1500 X-3.312 Y-7.577 E57.32472
M204 S3000
G0 F6000 X-2.817 Y-7.577
M204 S1500
G1 F1500 X-7.577 Y-2.817 E57.52062
M204 S3000
G0 F6000 X-7.577 Y-2.322
M204 S1500
G1 F1500 X-2.322 Y-7.577 E57.73691
M204 S3000
G0 F6000 X-1.827 Y-7.577
M204 S1500
G1 F1500 X-7.577 Y-1.827 E57.97356
M204 S3000
G0 F6000 X-7.577 Y-1.332
M204 S1500
G1 F1500 X-1.332 Y-7.577 E58.23059
M204 S3000
G0 F6000 X-.837 Y-7.577
M204 S1500
G1 F1500 X-7.577 Y-.837 E58.50799
M204 S3000
G0 F6000 X-7.577 Y-.342
M204 S1500
G1 F1500 X-.342 Y-7.577 E58.80576
M204 S3000
G0 F6000 X0.152 Y-7.577
M204 S1500
G1 F1500 X-7.577 Y0.152 E59.12387
M204 S3000
G0 F6000 X-7.577 Y0.647
M204 S1500
G1 F1500 X0.647 Y-7.577 E59.46234
M204 S3000
G0 F6000 X1.142 Y-7.577
M204 S1500
G1 F1500 X-7.577 Y1.142 E59.82119
M204 S3000
G0 F6000 X-7.577 Y1.637
M204 S1500
G1 F1500 X1.637 Y-7.577 E60.20042
M204 S3000
G0 F6000 X2.132 Y-7.577
M204 S1500
G1 F1500 X-7.577 Y2.132 E60.60001
M204 S3000
G0 F6000 X-7.577 Y2.627
M204 S1500
G1 F1500 X2.627 Y-7.577 E61.01998
M204 S3000
G0 F6000 X3.122 Y-7.577
M204 S1500
G1 F1500 X-7.577 Y3.122 E61.46033
M204 S3000
G0 F6000 X-7.577 Y3.617
M204 S1500
G1 F1500 X3.617 Y-7.577 E61.92104
M204 S3000
G0 F6000 X4.112 Y-7.577
M204 S1500
G1 F1500 X-7.577 Y4.112 E62.40213
M204 S3000
G0 F6000 X-7.577 Y4.607
M204 S1500
G1 F1500 X4.607 Y-7.577 E62.90359
M204 S3000
G0 F6000 X5.102 Y-7.577
M204 S1500
G1 F1500 X-7.577 Y5.102 E63.42542
M204 S3000
G0 F6000 X-7.577 Y5.597
M204 S1500
G1 F1500 X5.597 Y-7.577 E63.96763
M204 S3000
G0 F6000 X6.092 Y-7.577
M204 S1500
G1 F1500 X-7.577 Y6.092 E64.53021
M204 S3000
G0 F6000 X-7.577 Y6.587
M204 S1500
G1 F1500 X6.587 Y-7.577 E65.11316
M204 S3000
G0 F6000 X7.082 Y-7.577
M204 S1500
G1 F1500 X-7.577 Y7.082 E65.71649
M204 S3000
G0 F6000 X-7.577 Y7.577
M204 S1500
G1 F1500 X7.577 Y-7.577 E66.34018
M204 S3000
G0 F6000 X7.577 Y-7.082
M204 S1500
G1 F1500 X-7.082 Y7.577 E66.94351
M204 S3000
G0 F6000 X-6.587 Y7.577
M204 S1500
G1 F1500 X7.577 Y-6.587 E67.52646
M204 S3000
G0 F6000 X7.577 Y-6.092
M204 S1500
G1 F1500 X-6.092 Y7.577 E68.08904
M204 S3000
G0 F6000 X-5.597 Y7.577
M204 S1500
G1 F1500 X7.577 Y-5.597 E68.63125
M204 S3000
G0 F6000 X7.577 Y-5.102
M204 S1500
G1 F1500 X-5.102 Y7.577 E69.15308
M204 S3000
G0 F6000 X-4.607 Y7.577
M204 S1500
G1 F1500 X7.577 Y-4.607 E69.65454
M204 S3000
G0 F6000 X7.577 Y-4.112
