;FLAVOR:Marlin
;TIME:732
;Filament used: 0.308147m
;Layer height: 0.2
;MINX:-17.8
;MINY:-17.8
;MINZ:0.3
;MAXX:17.8
;MAXY:17.8
;MAXZ:20
;Generated with Cura_SteamEngine 4.10.0
M104 S220
M105
M109 S220
M82 ;absolute extrusion mode
G21        ;metric values
G90        ;absolute positioning
M107       ;start with the fan off
G28   ;move to endstops
G92 E0                  ;zero the extruded length
G1 F200 E3              ;extrude 3mm of feed stock
G92 E0                  ;zero the extruded length again
G1 F150.0
;Put printing message on LCD screen
M117 Printing...
G92 E0
G92 E0
G1 F2700 E-7
;LAYER_COUNT:100
;LAYER:0
M107
M204 S3000
G0 F3000 X17.8 Y-9.883 Z0.3
M204 S1500
;TYPE:SKIRT
G1 F2700 E0
G1 F1200 X17.8 Y9.883 E0.46249
G1 X17.76 Y10.672 E0.48098
G1 X17.641 Y11.452 E0.49944
G1 X17.443 Y12.217 E0.51793
G1 X17.169 Y12.957 E0.5364
G1 X16.821 Y13.666 E0.55488
G1 X16.403 Y14.337 E0.57337
G1 X15.92 Y14.961 E0.59184
G1 X15.515 Y15.398 E0.60578
G1 X15.398 Y15.515 E0.60965
G1 X14.812 Y16.045 E0.62814
G1 X14.176 Y16.512 E0.6466
G1 X13.496 Y16.913 E0.66507
G1 X12.778 Y17.243 E0.68356
G1 X12.031 Y17.498 E0.70203
G1 X11.262 Y17.677 E0.7205
G1 X10.478 Y17.777 E0.739
G1 X9.883 Y17.8 E0.75293
G1 X-9.883 Y17.8 E1.21542
G1 X-10.672 Y17.76 E1.23391
G1 X-11.452 Y17.641 E1.25237
G1 X-12.217 Y17.443 E1.27086
G1 X-12.957 Y17.169 E1.28933
G1 X-13.666 Y16.821 E1.30781
G1 X-14.337 Y16.403 E1.3263
G1 X-14.961 Y15.92 E1.34477
G1 X-15.398 Y15.515 E1.35871
G1 X-15.515 Y15.398 E1.36258
G1 X-16.045 Y14.812 E1.38107
G1 X-16.512 Y14.176 E1.39953
G1 X-16.913 Y13.496 E1.418
G1 X-17.243 Y12.778 E1.43649
G1 X-17.498 Y12.031 E1.45496
G1 X-17.677 Y11.262 E1.47343
G1 X-17.777 Y10.478 E1.49193
G1 X-17.8 Y9.883 E1.50586
G1 X-17.8 Y-9.883 E1.96835
G1 X-17.76 Y-10.672 E1.98684
G1 X-17.641 Y-11.452 E2.0053
G1 X-17.443 Y-12.217 E2.02379
G1 X-17.169 Y-12.957 E2.04225
G1 X-16.821 Y-13.666 E2.06074
G1 X-16.403 Y-14.337 E2.07923
G1 X-15.92 Y-14.961 E2.0977
G1 X-15.515 Y-15.398 E2.11164
G1 X-15.398 Y-15.515 E2.11551
G1 X-14.812 Y-16.045 E2.134
G1 X-14.176 Y-16.512 E2.15246
G1 X-13.496 Y-16.913 E2.17093
G1 X-12.778 Y-17.243 E2.18942
G1 X-12.031 Y-17.498 E2.20789
G1 X-11.262 Y-17.677 E2.22636
G1 X-10.478 Y-17.777 E2.24486
G1 X-9.883 Y-17.8 E2.25879
G1 X9.883 Y-17.8 E2.72128
G1 X10.672 Y-17.76 E2.73977
G1 X11.452 Y-17.641 E2.75823
G1 X12.217 Y-17.443 E2.77672
G1 X12.957 Y-17.169 E2.79518
G1 X13.666 Y-16.821 E2.81366
G1 X14.337 Y-16.403 E2.83216
G1 X14.961 Y-15.92 E2.85063
G1 X15.398 Y-15.515 E2.86457
G1 X15.515 Y-15.398 E2.86844
G1 X16.045 Y-14.812 E2.88693
G1 X16.512 Y-14.176 E2.90539
G1 X16.913 Y-13.496 E2.92386
G1 X17.243 Y-12.778 E2.94235
G1 X17.498 Y-12.031 E2.96082
G1 X17.677 Y-11.262 E2.97929
G1 X17.777 Y-10.478 E2.99779
G1 X17.8 Y-9.883 E3.01172
M204 S3000
G0 F3000 X17.4 Y-9.883
M204 S1500
G1 F1200 X17.4 Y9.883 E3.47421
G1 X17.36 Y10.651 E3.49221
G1 X17.241 Y11.411 E3.51021
G1 X17.043 Y12.154 E3.5282
G1 X16.769 Y12.873 E3.5462
G1 X16.422 Y13.559 E3.56419
G1 X16.006 Y14.206 E3.58219
G1 X15.525 Y14.806 E3.60018
G1 X15.116 Y15.233 E3.61402
G1 X14.544 Y15.747 E3.63201
G1 X13.922 Y16.2 E3.65002
G1 X13.257 Y16.586 E3.66801
G1 X12.555 Y16.901 E3.68601
G1 X11.824 Y17.141 E3.70401
G1 X11.073 Y17.304 E3.722
G1 X10.308 Y17.388 E3.74
G1 X9.883 Y17.4 E3.74995
G1 X-9.883 Y17.4 E4.21245
G1 X-10.651 Y17.36 E4.23044
G1 X-11.411 Y17.241 E4.24844
G1 X-12.154 Y17.043 E4.26643
G1 X-12.873 Y16.769 E4.28444
G1 X-13.559 Y16.422 E4.30242
G1 X-14.206 Y16.006 E4.32042
G1 X-14.806 Y15.525 E4.33841
G1 X-15.233 Y15.116 E4.35225
G1 X-15.747 Y14.544 E4.37024
G1 X-16.2 Y13.922 E4.38825
G1 X-16.586 Y13.257 E4.40624
G1 X-16.901 Y12.555 E4.42424
G1 X-17.141 Y11.824 E4.44225
G1 X-17.304 Y11.073 E4.46023
G1 X-17.388 Y10.308 E4.47823
G1 X-17.4 Y9.883 E4.48818
G1 X-17.4 Y-9.883 E4.95068
G1 X-17.36 Y-10.651 E4.96867
G1 X-17.241 Y-11.411 E4.98667
G1 X-17.043 Y-12.154 E5.00466
G1 X-16.769 Y-12.873 E5.02267
G1 X-16.422 Y-13.559 E5.04066
G1 X-16.006 Y-14.206 E5.05865
G1 X-15.525 Y-14.806 E5.07665
G1 X-15.116 Y-15.233 E5.09048
G1 X-14.544 Y-15.747 E5.10848
G1 X-13.922 Y-16.2 E5.12648
G1 X-13.257 Y-16.586 E5.14447
G1 X-12.555 Y-16.901 E5.16248
G1 X-11.824 Y-17.141 E5.18048
G1 X-11.073 Y-17.304 E5.19846
G1 X-10.308 Y-17.388 E5.21647
G1 X-9.883 Y-17.4 E5.22641
G1 X9.883 Y-17.4 E5.68891
G1 X10.651 Y-17.36 E5.7069
G1 X11.411 Y-17.241 E5.7249
G1 X12.154 Y-17.043 E5.7429
G1 X12.873 Y-16.769 E5.7609
G1 X13.559 Y-16.422 E5.77889
G1 X14.206 Y-16.006 E5.79689
G1 X14.806 Y-15.525 E5.81488
G1 X15.233 Y-15.116 E5.82871
G1 X15.747 Y-14.544 E5.84671
G1 X16.2 Y-13.922 E5.86471
G1 X16.586 Y-13.257 E5.8827
G1 X16.901 Y-12.555 E5.90071
G1 X17.141 Y-11.824 E5.91871
G1 X17.304 Y-11.073 E5.93669
G1 X17.388 Y-10.308 E5.9547
G1 X17.4 Y-9.883 E5.96465
M204 S3000
G0 F3000 X17 Y-9.883
M204 S1500
G1 F1200 X17 Y9.883 E6.42714
G1 X16.96 Y10.63 E6.44465
G1 X16.841 Y11.368 E6.46214
G1 X16.643 Y12.09 E6.47965
G1 X16.37 Y12.786 E6.49715
G1 X16.023 Y13.449 E6.51466
G1 X15.608 Y14.072 E6.53217
G1 X14.95 Y14.833 E6.55571
G1 X14.833 Y14.95 E6.55958
G1 X14.276 Y15.45 E6.5771
G1 X13.67 Y15.887 E6.59458
G1 X13.02 Y16.258 E6.61209
G1 X12.334 Y16.557 E6.6296
G1 X11.62 Y16.781 E6.64711
G1 X10.887 Y16.928 E6.6646
G1 X9.883 Y17 E6.68815
G1 X-9.883 Y17 E7.15065
G1 X-10.63 Y16.96 E7.16815
G1 X-11.368 Y16.841 E7.18564
G1 X-12.09 Y16.643 E7.20316
G1 X-12.786 Y16.37 E7.22066
G1 X-13.449 Y16.023 E7.23816
G1 X-14.072 Y15.608 E7.25568
G1 X-14.833 Y14.95 E7.27922
G1 X-14.95 Y14.833 E7.28309
G1 X-15.45 Y14.276 E7.30061
G1 X-15.887 Y13.67 E7.31809
G1 X-16.258 Y13.02 E7.3356
G1 X-16.557 Y12.334 E7.35311
G1 X-16.781 Y11.62 E7.37062
G1 X-16.928 Y10.887 E7.38811
G1 X-17 Y9.883 E7.41166
G1 X-17 Y-9.883 E7.87416
G1 X-16.96 Y-10.63 E7.89166
G1 X-16.841 Y-11.368 E7.90915
G1 X-16.643 Y-12.09 E7.92667
G1 X-16.37 Y-12.786 E7.94416
G1 X-16.023 Y-13.449 E7.96167
G1 X-15.608 Y-14.072 E7.97919
G1 X-14.95 Y-14.833 E8.00273
G1 X-14.833 Y-14.95 E8.0066
G1 X-14.276 Y-15.45 E8.02411
G1 X-13.67 Y-15.887 E8.04159
G1 X-13.02 Y-16.258 E8.05911
G1 X-12.334 Y-16.557 E8.07662
G1 X-11.62 Y-16.781 E8.09413
G1 X-10.887 Y-16.928 E8.11162
G1 X-9.883 Y-17 E8.13517
G1 X9.883 Y-17 E8.59767
G1 X10.63 Y-16.96 E8.61517
G1 X11.368 Y-16.841 E8.63266
G1 X12.09 Y-16.643 E8.65018
G1 X12.786 Y-16.37 E8.66767
G1 X13.449 Y-16.023 E8.68518
G1 X14.072 Y-15.608 E8.7027
G1 X14.833 Y-14.95 E8.72624
G1 X14.95 Y-14.833 E8.73011
G1 X15.45 Y-14.276 E8.74762
G1 X15.887 Y-13.67 E8.7651
G1 X16.258 Y-13.02 E8.78262
G1 X16.557 Y-12.334 E8.80013
G1 X16.781 Y-11.62 E8.81763
G1 X16.928 Y-10.887 E8.83513
G1 X17 Y-9.883 E8.85868
M204 S3000
G0 F3000 X16.6 Y-9.883
M204 S1500
G1 F1200 X16.6 Y9.883 E9.32117
G1 X16.56 Y10.608 E9.33816
G1 X16.441 Y11.325 E9.35517
G1 X16.243 Y12.024 E9.37217
G1 X15.97 Y12.697 E9.38916
G1 X15.625 Y13.336 E9.40615
G1 X15.211 Y13.933 E9.42315
G1 X14.667 Y14.55 E9.4424
G1 X14.55 Y14.667 E9.44627
G1 X14.009 Y15.151 E9.46326
G1 X13.418 Y15.574 E9.48026
G1 X12.784 Y15.928 E9.49725
G1 X12.115 Y16.211 E9.51425
G1 X11.419 Y16.419 E9.53125
G1 X10.704 Y16.549 E9.54825
G1 X9.883 Y16.6 E9.5675
G1 X-9.883 Y16.6 E10.02999
G1 X-10.608 Y16.56 E10.04698
G1 X-11.325 Y16.441 E10.06399
G1 X-12.024 Y16.243 E10.08099
G1 X-12.697 Y15.97 E10.09798
G1 X-13.336 Y15.625 E10.11497
G1 X-13.933 Y15.211 E10.13197
G1 X-14.55 Y14.667 E10.15122
G1 X-14.667 Y14.55 E10.15509
G1 X-15.151 Y14.009 E10.17208
G1 X-15.574 Y13.418 E10.18908
G1 X-15.928 Y12.784 E10.20607
G1 X-16.211 Y12.115 E10.22307
G1 X-16.419 Y11.419 E10.24007
G1 X-16.549 Y10.704 E10.25707
G1 X-16.6 Y9.883 E10.27632
G1 X-16.6 Y-9.883 E10.73881
G1 X-16.56 Y-10.608 E10.7558
G1 X-16.441 Y-11.325 E10.77281
G1 X-16.243 Y-12.024 E10.78981
G1 X-15.97 Y-12.697 E10.8068
G1 X-15.625 Y-13.336 E10.82379
G1 X-15.211 Y-13.933 E10.84079
G1 X-14.667 Y-14.55 E10.86004
G1 X-14.55 Y-14.667 E10.86391
G1 X-14.009 Y-15.151 E10.88089
G1 X-13.418 Y-15.574 E10.8979
G1 X-12.784 Y-15.928 E10.91489
G1 X-12.115 Y-16.211 E10.93189
G1 X-11.419 Y-16.419 E10.94888
G1 X-10.704 Y-16.549 E10.96589
G1 X-9.883 Y-16.6 E10.98514
G1 X9.883 Y-16.6 E11.44763
G1 X10.608 Y-16.56 E11.46462
G1 X11.325 Y-16.441 E11.48163
G1 X12.024 Y-16.243 E11.49863
G1 X12.697 Y-15.97 E11.51562
G1 X13.336 Y-15.625 E11.53261
G1 X13.933 Y-15.211 E11.54961
G1 X14.55 Y-14.667 E11.56886
G1 X14.667 Y-14.55 E11.57273
G1 X15.151 Y-14.009 E11.58971
G1 X15.574 Y-13.418 E11.60672
G1 X15.928 Y-12.784 E11.62371
G1 X16.211 Y-12.115 E11.64071
G1 X16.419 Y-11.419 E11.6577
G1 X16.549 Y-10.704 E11.67471
G1 X16.6 Y-9.883 E11.69395
M204 S3000
G0 F3000 X16.2 Y-9.883
M204 S1500
G1 F1200 X16.2 Y9.883 E12.15645
G1 X16.16 Y10.586 E12.17292
G1 X16.041 Y11.28 E12.1894
G1 X15.843 Y11.955 E12.20586
G1 X15.571 Y12.604 E12.22233
G1 X15.226 Y13.218 E12.2388
G1 X14.815 Y13.789 E12.25527
G1 X14.384 Y14.267 E12.27033
G1 X14.267 Y14.384 E12.2742
G1 X13.742 Y14.853 E12.29067
G1 X13.167 Y15.259 E12.30714
G1 X12.549 Y15.597 E12.32362
G1 X11.898 Y15.864 E12.34009
G1 X11.22 Y16.054 E12.35656
G1 X10.525 Y16.167 E12.37304
G1 X9.883 Y16.2 E12.38808
G1 X-9.883 Y16.2 E12.85057
G1 X-10.586 Y16.16 E12.86705
G1 X-11.28 Y16.041 E12.88352
G1 X-11.955 Y15.843 E12.89998
G1 X-12.604 Y15.571 E12.91645
G1 X-13.218 Y15.226 E12.93293
G1 X-13.789 Y14.815 E12.94939
G1 X-14.267 Y14.384 E12.96445
G1 X-14.384 Y14.267 E12.96832
G1 X-14.853 Y13.742 E12.98479
G1 X-15.259 Y13.167 E13.00126
G1 X-15.597 Y12.549 E13.01774
G1 X-15.864 Y11.898 E13.03421
G1 X-16.054 Y11.22 E13.05068
G1 X-16.167 Y10.525 E13.06716
G1 X-16.2 Y9.883 E13.0822
G1 X-16.2 Y-9.883 E13.5447
G1 X-16.16 Y-10.586 E13.56117
G1 X-16.041 Y-11.28 E13.57765
G1 X-15.843 Y-11.955 E13.59411
G1 X-15.571 Y-12.604 E13.61057
G1 X-15.226 Y-13.218 E13.62705
G1 X-14.815 Y-13.789 E13.64351
G1 X-14.384 Y-14.267 E13.65857
G1 X-14.267 Y-14.384 E13.66244
G1 X-13.742 Y-14.853 E13.67892
G1 X-13.167 Y-15.259 E13.69539
G1 X-12.549 Y-15.597 E13.71187
G1 X-11.898 Y-15.864 E13.72833
G1 X-11.22 Y-16.054 E13.74481
G1 X-10.525 Y-16.167 E13.76128
G1 X-9.883 Y-16.2 E13.77632
G1 X9.883 Y-16.2 E14.23882
G1 X10.586 Y-16.16 E14.25529
G1 X11.28 Y-16.041 E14.27177
G1 X11.955 Y-15.843 E14.28823
G1 X12.604 Y-15.571 E14.3047
G1 X13.218 Y-15.226 E14.32117
G1 X13.789 Y-14.815 E14.33764
G1 X14.267 Y-14.384 E14.3527
G1 X14.384 Y-14.267 E14.35657
G1 X14.853 Y-13.742 E14.37304
G1 X15.259 Y-13.167 E14.38951
G1 X15.597 Y-12.549 E14.40599
G1 X15.864 Y-11.898 E14.42246
G1 X16.054 Y-11.22 E14.43893
G1 X16.167 Y-10.525 E14.45541
G1 X16.2 Y-9.883 E14.47045
M204 S3000
G0 F3000 X15.8 Y-9.883
M204 S1500
G1 F1200 X15.8 Y9.883 E14.93294
G1 X15.76 Y10.563 E14.94888
G1 X15.641 Y11.233 E14.9648
G1 X15.444 Y11.885 E14.98074
G1 X15.172 Y12.509 E14.99667
G1 X14.828 Y13.097 E15.01261
G1 X14.418 Y13.641 E15.02855
G1 X13.984 Y14.101 E15.04334
G1 X13.475 Y14.554 E15.05929
G1 X12.917 Y14.943 E15.0752
G1 X12.317 Y15.265 E15.09114
G1 X11.683 Y15.514 E15.10707
G1 X11.024 Y15.687 E15.12302
G1 X10.35 Y15.781 E15.13894
G1 X9.883 Y15.8 E15.14988
G1 X-9.883 Y15.8 E15.61237
G1 X-10.563 Y15.76 E15.62831
G1 X-11.233 Y15.641 E15.64423
G1 X-11.885 Y15.444 E15.66017
G1 X-12.509 Y15.172 E15.6761
G1 X-13.097 Y14.828 E15.69204
G1 X-13.641 Y14.418 E15.70798
G1 X-14.101 Y13.984 E15.72277
G1 X-14.554 Y13.475 E15.73872
G1 X-14.943 Y12.917 E15.75463
G1 X-15.265 Y12.317 E15.77057
G1 X-15.514 Y11.683 E15.7865
G1 X-15.687 Y11.024 E15.80245
G1 X-15.781 Y10.35 E15.81837
G1 X-15.8 Y9.883 E15.8293
G1 X-15.8 Y-9.883 E16.2918
G1 X-15.76 Y-10.563 E16.30774
G1 X-15.641 Y-11.233 E16.32366
G1 X-15.444 Y-11.885 E16.3396
G1 X-15.172 Y-12.509 E16.35552
G1 X-14.828 Y-13.097 E16.37146
G1 X-14.418 Y-13.641 E16.3874
G1 X-13.984 Y-14.101 E16.4022
G1 X-13.475 Y-14.554 E16.41814
G1 X-12.917 Y-14.943 E16.43406
G1 X-12.317 Y-15.265 E16.44999
G1 X-11.683 Y-15.514 E16.46593
G1 X-11.024 Y-15.687 E16.48187
G1 X-10.35 Y-15.781 E16.4978
G1 X-9.883 Y-15.8 E16.50873
G1 X9.883 Y-15.8 E16.97123
G1 X10.563 Y-15.76 E16.98717
G1 X11.233 Y-15.641 E17.00309
G1 X11.885 Y-15.444 E17.01903
G1 X12.509 Y-15.172 E17.03495
G1 X13.097 Y-14.828 E17.05089
G1 X13.641 Y-14.418 E17.06683
G1 X14.101 Y-13.984 E17.08163
G1 X14.554 Y-13.475 E17.09757
G1 X14.943 Y-12.917 E17.11349
G1 X15.265 Y-12.317 E17.12942
G1 X15.514 Y-11.683 E17.14536
G1 X15.687 Y-11.024 E17.1613
G1 X15.781 Y-10.35 E17.17723
G1 X15.8 Y-9.883 E17.18816
M204 S3000
G0 F3000 X15.4 Y-9.883
M204 S1500
G1 F1200 X15.4 Y9.883 E17.65066
G1 X15.36 Y10.539 E17.66603
G1 X15.241 Y11.185 E17.6814
G1 X15.044 Y11.812 E17.69678
G1 X14.772 Y12.41 E17.71215
G1 X14.43 Y12.971 E17.72753
G1 X13.818 Y13.701 E17.74982
G1 X13.701 Y13.818 E17.75369
G1 X13.209 Y14.254 E17.76907
G1 X12.668 Y14.626 E17.78443
G1 X12.086 Y14.93 E17.7998
G1 X11.471 Y15.161 E17.81517
G1 X10.832 Y15.316 E17.83055
G1 X9.883 Y15.4 E17.85285
G1 X-9.883 Y15.4 E18.31534
G1 X-10.539 Y15.36 E18.33072
G1 X-11.185 Y15.241 E18.34609
G1 X-11.812 Y15.044 E18.36147
G1 X-12.41 Y14.772 E18.37684
G1 X-12.971 Y14.43 E18.39221
G1 X-13.701 Y13.818 E18.4145
G1 X-13.818 Y13.701 E18.41837
G1 X-14.254 Y13.209 E18.43375
G1 X-14.626 Y12.668 E18.44912
G1 X-14.93 Y12.086 E18.46448
G1 X-15.161 Y11.471 E18.47985
G1 X-15.316 Y10.832 E18.49524
G1 X-15.4 Y9.883 E18.51753
G1 X-15.4 Y-9.883 E18.98002
G1 X-15.36 Y-10.539 E18.9954
G1 X-15.241 Y-11.185 E19.01077
G1 X-15.044 Y-11.812 E19.02615
G1 X-14.772 Y-12.41 E19.04152
G1 X-14.43 Y-12.971 E19.05689
G1 X-13.818 Y-13.701 E19.07918
G1 X-13.701 Y-13.818 E19.08306
G1 X-13.209 Y-14.254 E19.09844
G1 X-12.668 Y-14.626 E19.1138
G1 X-12.086 Y-14.93 E19.12916
G1 X-11.471 Y-15.161 E19.14454
G1 X-10.832 Y-15.316 E19.15992
G1 X-9.883 Y-15.4 E19.18221
G1 X9.883 Y-15.4 E19.64471
G1 X10.539 Y-15.36 E19.66009
G1 X11.185 Y-15.241 E19.67545
G1 X11.812 Y-15.044 E19.69083
G1 X12.41 Y-14.772 E19.7062
G1 X12.971 Y-14.43 E19.72158
G1 X13.701 Y-13.818 E19.74387
G1 X13.818 Y-13.701 E19.74774
G1 X14.254 Y-13.209 E19.76312
G1 X14.626 Y-12.668 E19.77848
G1 X14.93 Y-12.086 E19.79385
G1 X15.161 Y-11.471 E19.80922
G1 X15.316 Y-10.832 E19.8246
G1 X15.4 Y-9.883 E19.8469
M204 S3000
G0 F3000 X15 Y-9.883
M204 S1500
G1 F1200 X15 Y9.883 E20.30939
G1 X14.96 Y10.514 E20.32419
G1 X14.841 Y11.135 E20.33898
G1 X14.644 Y11.735 E20.35376
G1 X14.373 Y12.307 E20.36857
G1 X14.033 Y12.839 E20.38334
G1 X13.536 Y13.419 E20.40121
G1 X13.419 Y13.536 E20.40508
G1 X12.944 Y13.953 E20.41987
G1 X12.421 Y14.308 E20.43466
G1 X11.857 Y14.594 E20.44946
G1 X11.262 Y14.806 E20.46424
G1 X10.644 Y14.942 E20.47905
G1 X9.883 Y15 E20.4969
G1 X-9.883 Y15 E20.9594
G1 X-10.514 Y14.96 E20.97419
G1 X-11.135 Y14.841 E20.98899
G1 X-11.735 Y14.644 E21.00376
G1 X-12.307 Y14.373 E21.01857
G1 X-12.839 Y14.033 E21.03335
G1 X-13.419 Y13.536 E21.05122
G1 X-13.536 Y13.419 E21.05509
G1 X-13.953 Y12.944 E21.06988
G1 X-14.308 Y12.421 E21.08467
G1 X-14.594 Y11.857 E21.09947
G1 X-14.806 Y11.262 E21.11425
G1 X-14.942 Y10.644 E21.12905
G1 X-15 Y9.883 E21.14691
G1 X-15 Y-9.883 E21.6094
G1 X-14.96 Y-10.514 E21.6242
G1 X-14.841 Y-11.135 E21.63899
G1 X-14.644 Y-11.735 E21.65377
G1 X-14.373 Y-12.307 E21.66858
G1 X-14.033 Y-12.839 E21.68335
G1 X-13.536 Y-13.419 E21.70123
G1 X-13.419 Y-13.536 E21.7051
G1 X-12.944 Y-13.953 E21.71989
G1 X-12.421 Y-14.308 E21.73468
G1 X-11.857 Y-14.594 E21.74947
G1 X-11.262 Y-14.806 E21.76425
G1 X-10.644 Y-14.942 E21.77906
G1 X-9.883 Y-15 E21.79692
G1 X9.883 Y-15 E22.25941
G1 X10.514 Y-14.96 E22.27421
G1 X11.135 Y-14.841 E22.289
G1 X11.735 Y-14.644 E22.30378
G1 X12.307 Y-14.373 E22.31859
G1 X12.839 Y-14.033 E22.33336
G1 X13.419 Y-13.536 E22.35123
G1 X13.536 Y-13.419 E22.3551
G1 X13.953 Y-12.944 E22.36989
G1 X14.308 Y-12.421 E22.38468
G1 X14.594 Y-11.857 E22.39948
G1 X14.806 Y-11.262 E22.41426
G1 X14.942 Y-10.644 E22.42907
G1 X15 Y-9.883 E22.44692
M204 S3000
G0 F3000 X14.6 Y-9.883
M204 S1500
G1 F1200 X14.6 Y9.883 E22.90942
G1 X14.56 Y10.488 E22.92361
G1 X14.441 Y11.082 E22.93778
G1 X14.245 Y11.656 E22.95197
G1 X13.974 Y12.199 E22.96617
G1 X13.635 Y12.702 E22.98037
G1 X13.253 Y13.136 E22.99389
G1 X13.136 Y13.253 E22.99777
G1 X12.68 Y13.652 E23.01194
G1 X12.175 Y13.988 E23.02614
G1 X11.631 Y14.255 E23.04031
G1 X11.056 Y14.448 E23.05451
G1 X10.461 Y14.564 E23.06869
G1 X9.883 Y14.6 E23.08224
