;FLAVOR:Marlin
;TIME:1158
;Filament used: 0.440683m
;Layer height: 0.1
;MINX:120.908
;MINY:120.979
;MINZ:0.1
;MAXX:170.423
;MAXY:173.179
;MAXZ:4
;Generated with Cura_SteamEngine 4.10.0
M140 S60
M105
M190 S60
M104 S205
M105
M109 S205
M82 ;absolute extrusion mode
G28 ; home all axes
 M117 Purge extruder
 G92 E0 ; reset extruder
 G1 Z1.0 F3000 ; move z up little to prevent scratching of surface
 G1 X2 Y20 Z0.3 F5000.0 ; move to start-line position
 G1 X2 Y200.0 Z0.3 F1500.0 E15 ; draw 1st line
 G1 X2 Y200.0 Z0.4 F5000.0 ; move to side a little
 G1 X2 Y20 Z0.4 F1500.0 E30 ; draw 2nd line
 G92 E0 ; reset extruder
 G1 Z1.0 F3000 ; move z up little to prevent scratching of surface
G92 E0
G92 E0
G1 F1500 E-1.7
;LAYER_COUNT:40
;LAYER:0
M106 S89.3
G0 F6000 X124.817 Y130.218 Z0.1
;TYPE:SKIRT
G1 F1500 E0
G1 F1200 X125.783 Y129.444 E0.02347
G1 X126.067 Y129.24 E0.0301
G1 X126.339 Y129.05 E0.03639
G1 X134.875 Y123.28 E0.23172
G1 X135.46 Y122.897 E0.24497
G1 X136.29 Y122.402 E0.2633
G1 X137.158 Y121.976 E0.28163
G1 X138.058 Y121.624 E0.29995
G1 X138.984 Y121.348 E0.31827
G1 X139.93 Y121.149 E0.33659
G1 X140.889 Y121.029 E0.35492
G1 X141.689 Y120.99 E0.3701
G1 X142.549 Y120.979 E0.38641
G1 X154.366 Y120.979 E0.61044
G1 X155.234 Y120.99 E0.62689
G1 X156.199 Y121.044 E0.64522
G1 X157.156 Y121.177 E0.66353
G1 X158.099 Y121.389 E0.68186
G1 X159.021 Y121.679 E0.70018
G1 X159.916 Y122.043 E0.7185
G1 X160.778 Y122.48 E0.73682
G1 X161.6 Y122.987 E0.75513
G1 X162.379 Y123.561 E0.77347
G1 X163.107 Y124.196 E0.79179
G1 X163.779 Y124.89 E0.8101
G1 X164.393 Y125.637 E0.82843
G1 X164.942 Y126.432 E0.84675
G1 X165.258 Y126.963 E0.85847
G1 X165.613 Y127.599 E0.87227
G1 X166.296 Y128.862 E0.8995
G1 X168.194 Y132.103 E0.9707
G1 X168.69 Y132.911 E0.98867
G1 X169.161 Y133.755 E1.007
G1 X169.56 Y134.635 E1.02532
G1 X169.885 Y135.545 E1.04364
G1 X170.134 Y136.479 E1.06196
G1 X170.305 Y137.43 E1.08028
G1 X170.412 Y138.845 E1.10718
G1 X170.423 Y139.695 E1.1233
G1 X170.422 Y151.694 E1.35078
G1 X170.412 Y152.396 E1.36409
G1 X170.358 Y153.361 E1.38241
G1 X170.225 Y154.319 E1.40075
G1 X170.013 Y155.261 E1.41905
G1 X169.724 Y156.184 E1.43739
G1 X169.359 Y157.079 E1.45571
G1 X168.922 Y157.941 E1.47404
G1 X168.499 Y158.636 E1.48946
G1 X167.978 Y159.428 E1.50743
G1 X162.445 Y167.607 E1.69464
G1 X162.047 Y168.177 E1.70782
G1 X161.461 Y168.946 E1.72615
G1 X160.814 Y169.663 E1.74446
G1 X160.11 Y170.325 E1.76278
G1 X159.353 Y170.927 E1.78112
G1 X158.549 Y171.463 E1.79944
G1 X157.704 Y171.932 E1.81776
G1 X156.823 Y172.329 E1.83608
G1 X155.912 Y172.651 E1.85439
G1 X154.977 Y172.898 E1.87273
G1 X154.026 Y173.066 E1.89104
G1 X152.804 Y173.165 E1.91428
G1 X152.489 Y173.174 E1.92025
G1 X152.155 Y173.179 E1.92659
G1 X142.085 Y173.178 E2.1175
G1 X141.389 Y173.168 E2.13069
G1 X140.424 Y173.114 E2.14902
G1 X139.467 Y172.981 E2.16733
G1 X138.524 Y172.768 E2.18566
G1 X137.602 Y172.479 E2.20398
G1 X136.707 Y172.114 E2.2223
G1 X135.845 Y171.677 E2.24063
G1 X135.023 Y171.17 E2.25894
G1 X134.245 Y170.597 E2.27725
G1 X133.517 Y169.961 E2.29558
G1 X132.844 Y169.267 E2.31391
G1 X132.231 Y168.52 E2.33223
G1 X131.889 Y168.042 E2.34337
G1 X131.222 Y167.058 E2.36591
G1 X129.749 Y164.945 E2.41474
G1 X128.259 Y162.934 E2.46219
G1 X126.72 Y160.973 E2.50945
G1 X124.548 Y158.387 E2.57347
G1 X123.796 Y157.525 E2.59516
G1 X123.191 Y156.771 E2.61349
G1 X122.651 Y155.969 E2.63182
G1 X122.179 Y155.126 E2.65013
G1 X121.778 Y154.247 E2.66845
G1 X121.452 Y153.337 E2.68678
G1 X121.201 Y152.404 E2.70509
G1 X121.029 Y151.453 E2.72341
G1 X120.933 Y150.43 E2.74289
G1 X120.915 Y149.898 E2.75299
G1 X120.908 Y149.232 E2.76561
G1 X120.908 Y139.471 E2.95066
G1 X120.918 Y138.765 E2.96405
G1 X120.972 Y137.8 E2.98237
G1 X121.105 Y136.842 E3.00071
G1 X121.317 Y135.9 E3.01901
G1 X121.606 Y134.977 E3.03735
G1 X121.971 Y134.082 E3.05568
G1 X122.408 Y133.22 E3.074
G1 X122.915 Y132.397 E3.09232
G1 X123.488 Y131.619 E3.11064
G1 X124.123 Y130.891 E3.12896
G1 X124.817 Y130.218 E3.14728
G0 F6000 X125.284 Y130.447
G1 F1200 X126.063 Y129.834 E3.16608
G1 X126.347 Y129.63 E3.17271
G1 X126.608 Y129.448 E3.17874
G1 X135.138 Y123.682 E3.37393
G1 X135.723 Y123.299 E3.38719
G1 X136.536 Y122.814 E3.40514
G1 X137.387 Y122.4 E3.42308
G1 X138.27 Y122.059 E3.44102
G1 X139.178 Y121.794 E3.45895
G1 X140.106 Y121.607 E3.4769
G1 X141.046 Y121.498 E3.49484
G1 X141.696 Y121.47 E3.50718
G1 X142.549 Y121.459 E3.52335
G1 X154.366 Y121.459 E3.74738
G1 X155.227 Y121.47 E3.7637
G1 X156.172 Y121.524 E3.78165
G1 X157.109 Y121.657 E3.79959
G1 X158.031 Y121.868 E3.81752
G1 X158.932 Y122.157 E3.83546
G1 X159.806 Y122.521 E3.85341
G1 X160.646 Y122.957 E3.87135
G1 X161.446 Y123.463 E3.8893
G1 X162.2 Y124.034 E3.90723
G1 X162.903 Y124.667 E3.92516
G1 X163.551 Y125.357 E3.94311
G1 X164.138 Y126.1 E3.96106
G1 X164.839 Y127.197 E3.98574
G1 X165.19 Y127.827 E3.99941
G1 X165.87 Y129.085 E4.02652
G1 X167.778 Y132.343 E4.0981
G1 X168.281 Y133.162 E4.11632
G1 X168.741 Y133.989 E4.13426
G1 X169.13 Y134.852 E4.15221
G1 X169.444 Y135.744 E4.17014
G1 X169.682 Y136.66 E4.18808
G1 X169.842 Y137.593 E4.20603
G1 X169.932 Y138.852 E4.22996
G1 X169.943 Y139.695 E4.24594
G1 X169.942 Y151.688 E4.47331
G1 X169.932 Y152.39 E4.48662
G1 X169.878 Y153.334 E4.50454
G1 X169.745 Y154.271 E4.52248
G1 X169.534 Y155.194 E4.54043
G1 X169.245 Y156.095 E4.55837
G1 X168.881 Y156.969 E4.57632
G1 X168.445 Y157.808 E4.59425
G1 X168.098 Y158.373 E4.60682
G1 X167.581 Y159.159 E4.62465
G1 X162.051 Y167.332 E4.81173
G1 X161.653 Y167.902 E4.82491
G1 X161.079 Y168.654 E4.84285
G1 X160.443 Y169.356 E4.86081
G1 X159.751 Y170.001 E4.87874
G1 X159.006 Y170.585 E4.89669
G1 X158.215 Y171.104 E4.91462
G1 X157.383 Y171.555 E4.93257
G1 X156.516 Y171.934 E4.9505
G1 X155.62 Y172.238 E4.96844
G1 X154.701 Y172.466 E4.98639
G1 X153.767 Y172.615 E5.00432
G1 X152.79 Y172.685 E5.02289
G1 X152.475 Y172.694 E5.02887
G1 X152.155 Y172.699 E5.03493
G1 X142.092 Y172.698 E5.22571
G1 X141.396 Y172.688 E5.23891
G1 X140.451 Y172.634 E5.25685
G1 X139.514 Y172.501 E5.2748
G1 X138.592 Y172.289 E5.29273
G1 X137.691 Y172.001 E5.31066
G1 X136.817 Y171.637 E5.32861
G1 X135.977 Y171.2 E5.34656
G1 X135.177 Y170.695 E5.3645
G1 X134.423 Y170.123 E5.38244
G1 X133.72 Y169.49 E5.40038
G1 X133.072 Y168.8 E5.41832
G1 X132.286 Y167.773 E5.44284
G1 X131.637 Y166.815 E5.46478
G1 X130.127 Y164.651 E5.5148
G1 X128.629 Y162.629 E5.56251
G1 X127.111 Y160.694 E5.60914
G1 X124.864 Y158.018 E5.67538
G1 X124.158 Y157.209 E5.69574
G1 X123.566 Y156.47 E5.71369
G1 X123.039 Y155.684 E5.73163
G1 X122.581 Y154.856 E5.74957
G1 X122.194 Y153.993 E5.7675
G1 X121.881 Y153.1 E5.78544
G1 X121.644 Y152.183 E5.80339
G1 X121.486 Y151.25 E5.82133
G1 X121.412 Y150.406 E5.8374
G1 X121.395 Y149.892 E5.84715
G1 X121.388 Y149.232 E5.85966
G1 X121.388 Y139.477 E6.0446
G1 X121.398 Y138.771 E6.05798
G1 X121.451 Y137.827 E6.07591
G1 X121.584 Y136.89 E6.09385
G1 X121.796 Y135.967 E6.1118
G1 X122.085 Y135.066 E6.12974
G1 X122.448 Y134.192 E6.14769
G1 X122.885 Y133.352 E6.16564
G1 X123.39 Y132.552 E6.18357
G1 X123.961 Y131.798 E6.2015
G1 X124.594 Y131.094 E6.21945
G1 X125.284 Y130.447 E6.23738
G0 F6000 X125.751 Y130.681
G1 F1200 X126.343 Y130.223 E6.25157
G1 X126.627 Y130.019 E6.2582
G1 X126.877 Y129.845 E6.26398
G1 X135.401 Y124.083 E6.45904
G1 X135.986 Y123.7 E6.47229
G1 X136.782 Y123.227 E6.48985
G1 X137.616 Y122.824 E6.50741
G1 X138.481 Y122.495 E6.52495
G1 X139.371 Y122.241 E6.5425
G1 X140.28 Y122.066 E6.56005
G1 X141.201 Y121.969 E6.5776
G1 X141.703 Y121.95 E6.58713
G1 X142.549 Y121.939 E6.60317
G1 X154.366 Y121.939 E6.8272
G1 X155.22 Y121.95 E6.84339
G1 X156.144 Y122.003 E6.86094
G1 X157.061 Y122.136 E6.8785
G1 X157.962 Y122.347 E6.89605
G1 X158.842 Y122.636 E6.91361
G1 X159.693 Y122.999 E6.93115
G1 X160.511 Y123.434 E6.94871
G1 X161.287 Y123.938 E6.96625
G1 X162.017 Y124.507 E6.9838
G1 X162.696 Y125.138 E7.00137
G1 X163.317 Y125.824 E7.01892
G1 X163.877 Y126.561 E7.03646
G1 X164.421 Y127.432 E7.05593
G1 X164.768 Y128.055 E7.06945
G1 X165.451 Y129.318 E7.09667
G1 X167.397 Y132.64 E7.16966
G1 X167.871 Y133.413 E7.18685
G1 X168.321 Y134.222 E7.2044
G1 X168.699 Y135.067 E7.22195
G1 X169.003 Y135.942 E7.23951
G1 X169.23 Y136.84 E7.25707
G1 X169.378 Y137.753 E7.27461
G1 X169.452 Y138.859 E7.29562
G1 X169.463 Y139.695 E7.31147
G1 X169.462 Y151.681 E7.53871
G1 X169.452 Y152.383 E7.55202
G1 X169.399 Y153.307 E7.56956
G1 X169.266 Y154.223 E7.58711
G1 X169.055 Y155.125 E7.60467
G1 X168.766 Y156.005 E7.62223
G1 X168.403 Y156.856 E7.63977
G1 X167.968 Y157.673 E7.65732
G1 X167.697 Y158.11 E7.66707
G1 X167.268 Y158.764 E7.6819
G1 X161.657 Y167.057 E7.87172
G1 X161.259 Y167.627 E7.8849
G1 X160.697 Y168.363 E7.90246
G1 X160.073 Y169.047 E7.92001
G1 X159.393 Y169.675 E7.93756
G1 X158.661 Y170.242 E7.95512
G1 X157.883 Y170.743 E7.97266
G1 X157.064 Y171.176 E7.99022
G1 X156.211 Y171.536 E8.00777
G1 X155.33 Y171.821 E8.02533
G1 X154.428 Y172.03 E8.04288
G1 X153.512 Y172.159 E8.06042
G1 X152.776 Y172.206 E8.0744
G1 X152.461 Y172.215 E8.08038
G1 X152.155 Y172.219 E8.08618
G1 X142.099 Y172.218 E8.27682
G1 X141.403 Y172.208 E8.29002
G1 X140.479 Y172.155 E8.30756
G1 X139.562 Y172.022 E8.32513
G1 X138.661 Y171.81 E8.34268
G1 X137.781 Y171.522 E8.36023
G1 X136.93 Y171.159 E8.37777
G1 X136.112 Y170.723 E8.39535
G1 X135.336 Y170.219 E8.41289
G1 X134.606 Y169.65 E8.43043
G1 X133.928 Y169.02 E8.44798
G1 X133.306 Y168.333 E8.46555
G1 X132.683 Y167.504 E8.48521
G1 X131.993 Y166.485 E8.50854
G1 X130.519 Y164.372 E8.55738
G1 X129.021 Y162.351 E8.60508
G1 X127.472 Y160.377 E8.65265
G1 X125.277 Y157.763 E8.71736
G1 X124.519 Y156.894 E8.73922
G1 X123.942 Y156.17 E8.75677
G1 X123.428 Y155.4 E8.77432
G1 X122.983 Y154.588 E8.79188
G1 X122.61 Y153.741 E8.80942
G1 X122.311 Y152.864 E8.82699
G1 X122.089 Y151.965 E8.84454
G1 X121.946 Y151.051 E8.86208
G1 X121.891 Y150.382 E8.87481
G1 X121.875 Y149.887 E8.8842
G1 X121.868 Y149.232 E8.89662
G1 X121.868 Y139.484 E9.08142
G1 X121.878 Y138.778 E9.09481
G1 X121.931 Y137.854 E9.11235
G1 X122.064 Y136.938 E9.1299
G1 X122.275 Y136.036 E9.14746
G1 X122.563 Y135.156 E9.16502
G1 X122.926 Y134.305 E9.18256
G1 X123.361 Y133.487 E9.20012
G1 X123.865 Y132.711 E9.21766
G1 X124.435 Y131.981 E9.23522
G1 X125.065 Y131.302 E9.25278
G1 X125.751 Y130.681 E9.27033
G0 F6000 X125.534 Y131.515
G1 F1200 X126.217 Y130.921 E9.28749
G1 X126.623 Y130.613 E9.29715
G1 X126.907 Y130.409 E9.30378
G1 X127.145 Y130.243 E9.30928
G1 X135.537 Y124.569 E9.50133
G1 X136.249 Y124.102 E9.51747
G1 X137.027 Y123.64 E9.53462
G1 X137.843 Y123.249 E9.55178
G1 X138.69 Y122.931 E9.56893
G1 X139.563 Y122.69 E9.5861
G1 X140.452 Y122.526 E9.60324
G1 X141.71 Y122.43 E9.62716
G1 X142.549 Y122.419 E9.64306
G1 X154.366 Y122.419 E9.86709
G1 X155.213 Y122.43 E9.88315
G1 X156.116 Y122.483 E9.9003
G1 X157.012 Y122.615 E9.91747
G1 X157.891 Y122.826 E9.93461
G1 X158.749 Y123.114 E9.95177
G1 X159.579 Y123.476 E9.96894
G1 X160.372 Y123.911 E9.98608
G1 X161.125 Y124.413 E10.00324
G1 X161.83 Y124.98 E10.02039
G1 X162.482 Y125.607 E10.03754
G1 X163.077 Y126.289 E10.0547
G1 X163.609 Y127.021 E10.07185
G1 X164.002 Y127.666 E10.08617
G1 X164.346 Y128.283 E10.09957
G1 X165.05 Y129.585 E10.12763
G1 X166.959 Y132.843 E10.19921
G1 X167.462 Y133.664 E10.21747
G1 X167.901 Y134.455 E10.23462
G1 X168.268 Y135.282 E10.25177
G1 X168.56 Y136.139 E10.26894
G1 X168.776 Y137.017 E10.28608
G1 X168.913 Y137.912 E10.30324
G1 X168.972 Y138.866 E10.32136
G1 X168.983 Y139.695 E10.33708
G1 X168.982 Y151.674 E10.56418
G1 X168.972 Y152.376 E10.57749
G1 X168.919 Y153.279 E10.59464
G1 X168.787 Y154.174 E10.61179
G1 X168.576 Y155.054 E10.62895
G1 X168.288 Y155.912 E10.64611
G1 X167.926 Y156.741 E10.66326
G1 X167.295 Y157.847 E10.6874
G1 X166.786 Y158.621 E10.70496
G1 X161.264 Y166.782 E10.89177
G1 X160.866 Y167.352 E10.90495
G1 X160.316 Y168.071 E10.92211
G1 X159.704 Y168.738 E10.93927
G1 X159.036 Y169.348 E10.95642
G1 X158.317 Y169.897 E10.97357
G1 X157.552 Y170.38 E10.99072
G1 X156.747 Y170.794 E11.00788
G1 X155.909 Y171.135 E11.02504
G1 X155.044 Y171.401 E11.04219
G1 X154.159 Y171.59 E11.05935
G1 X153.261 Y171.699 E11.0765
G1 X152.762 Y171.726 E11.08597
G1 X152.447 Y171.735 E11.09195
G1 X152.155 Y171.739 E11.09748
G1 X142.106 Y171.738 E11.288
G1 X141.41 Y171.728 E11.30119
G1 X140.507 Y171.675 E11.31834
G1 X139.611 Y171.542 E11.33551
G1 X138.732 Y171.331 E11.35265
G1 X137.874 Y171.044 E11.3698
G1 X137.045 Y170.681 E11.38696
G1 X136.251 Y170.247 E11.40412
G1 X135.498 Y169.744 E11.42128
G1 X134.793 Y169.177 E11.43843
G1 X134.141 Y168.55 E11.45558
G1 X133.546 Y167.868 E11.47274
G1 X133.081 Y167.234 E11.48765
G1 X132.447 Y166.298 E11.50908
G1 X130.899 Y164.078 E11.56039
G1 X129.41 Y162.069 E11.6078
G1 X127.852 Y160.083 E11.65565
G1 X125.616 Y157.42 E11.72157
G1 X124.881 Y156.578 E11.74276
G1 X124.317 Y155.871 E11.75991
G1 X123.818 Y155.116 E11.77707
G1 X123.387 Y154.32 E11.79423
G1 X123.028 Y153.49 E11.81137
G1 X122.744 Y152.631 E11.82852
G1 X122.536 Y151.75 E11.84569
G1 X122.408 Y150.854 E11.86284
G1 X122.371 Y150.358 E11.87227
G1 X122.355 Y149.882 E11.8813
G1 X122.348 Y149.232 E11.89363
G1 X122.348 Y139.491 E12.0783
G1 X122.358 Y138.785 E12.09169
G1 X122.411 Y137.882 E12.10883
G1 X122.543 Y136.986 E12.126
G1 X122.754 Y136.107 E12.14314
G1 X123.042 Y135.249 E12.1603
G1 X123.404 Y134.419 E12.17747
G1 X123.838 Y133.625 E12.19462
G1 X124.341 Y132.873 E12.21177
G1 X124.907 Y132.168 E12.22891
G1 X125.534 Y131.515 E12.24608
G1 F1500 E10.54608
;MESH:ornament_right.stl
G0 F6000 X141.136 Y132.342
G0 X142.267 Y134.013
;TYPE:WALL-INNER
G1 F1500 E12.24608
G1 F1200 X133.942 Y139.645 E12.43663
G1 X133.943 Y147.796 E12.59116
G1 X146.745 Y142.309 E12.85521
G1 X151.597 Y135.299 E13.01684
G1 X150.922 Y134.014 E13.04436
G1 X142.267 Y134.013 E13.20844
G0 F6000 X142.414 Y134.493
G1 F1200 X134.422 Y139.9 E13.39138
G1 X134.423 Y146.705 E13.52039
G1 X134.423 Y146.706 E13.52041
G1 X134.423 Y147.068 E13.52727
G1 X134.756 Y146.925 E13.53127
G1 X146.429 Y141.922 E13.77204
G1 X151.037 Y135.265 E13.92553
G1 X150.632 Y134.494 E13.94204
G1 X142.414 Y134.493 E14.09784
G0 F6000 X142.561 Y134.973
;TYPE:WALL-OUTER
G1 F1200 X134.902 Y140.155 E14.27316
G1 X134.903 Y146.34 E14.39041
G1 X146.113 Y141.535 E14.62164
G1 X150.477 Y135.231 E14.76699
G1 X150.342 Y134.974 E14.7725
G1 X142.561 Y134.973 E14.92001
G0 F6000 X142.407 Y134.469
G1 F1500 E13.22001
G0 F6000 X142.838 Y135.876
G0 X152.783 Y131.994
G0 X152.783 Y133.859
;TYPE:WALL-INNER
G1 F1500 E14.92001
G1 F1200 X151.725 Y135.387 E14.95524
G1 X146.872 Y142.396 E15.00721
G1 X146.845 Y142.434 E15.0078
G1 X146.806 Y142.45 E15.0086
G1 X134.004 Y147.937 E15.09294
G1 X133.788 Y148.03 E15.0974
G1 X133.788 Y147.796 E15.09912
G1 X133.788 Y139.646 E15.14896
G1 X133.787 Y139.562 E15.15055
G1 X133.854 Y139.517 E15.15208
G1 X142.181 Y133.887 E15.21315
G1 X142.222 Y133.859 E15.21409
G1 X142.267 Y133.859 E15.21466
G1 X150.922 Y133.859 E15.26758
G1 X152.783 Y133.859 E15.30287
G0 F6000 X153.699 Y133.379
G1 F1200 X153.439 Y133.754 E15.31152
G1 X147.162 Y142.82 E15.52057
G1 X147.034 Y142.874 E15.5232
G1 X133.641 Y148.615 E15.79945
G1 X133.308 Y148.758 E15.80632
G1 X133.308 Y148.396 E15.81032
G1 X133.308 Y148.395 E15.81034
G1 X133.307 Y139.307 E15.98264
G1 X142.074 Y133.379 E16.18327
G1 X153.242 Y133.379 E16.395
G1 X153.243 Y133.379 E16.39502
G1 X153.699 Y133.379 E16.39983
G0 F6000 X154.615 Y132.899
;TYPE:WALL-OUTER
G1 F1200 X147.479 Y143.206 E16.6375
G1 X132.828 Y149.486 E16.9397
G1 X132.827 Y139.052 E17.13751
G1 X141.926 Y132.899 E17.34575
G1 X154.615 Y132.899 E17.58631
G0 F6000 X151.886 Y134.329
;TYPE:SKIN
G1 F1200 X151.734 Y134.548 E17.59136
G1 X151.619 Y134.329 E17.59605
G1 X151.886 Y134.329 E17.60112
G0 F6000 X152.105 Y134.286
;TYPE:SKIN
G1 F1200 X152.187 Y134.367 E17.60203
G0 F6000 X152.303 Y134.201
G1 F1200 X152.161 Y134.059 E17.60361
G0 F6000 X153.007 Y133.774
G1 F1200 X153.162 Y133.646 E17.60476
G1 X154.091 Y133.161 E17.61076
G1 F1500 E15.91076
;MESH:ornament_left.stl
G0 F6000 X155.073 Y133.825
G0 X154.952 Y140.83
G0 X156.102 Y142.49
;TYPE:WALL-INNER
G1 F1500 E17.61076
G1 F1200 X149.091 Y147.342 E17.7724
G1 X143.605 Y160.144 E18.03645
