;FLAVOR:Marlin
;TIME:7802
;Filament used: 16.7949m
;Layer height: 0.3
;MINX:-59.57
;MINY:-67.755
;MINZ:0.3
;MAXX:61.312
;MAXY:86.921
;MAXZ:39.9
;Generated with Cura_SteamEngine 4.10.0
M104 S228
M105
M109 S228
M82 ;absolute extrusion mode
G21        ;metric values
G90        ;absolute positioning
M107       ;start with the fan off
G28   ;move to endstops

;Z-Offset Reset und dann Z +0,1 für PLA
;MacroZOffset0
;MacroZOffsetPlus0100

G92 E0                  ;zero the extruded length
G1 F200 E3              ;extrude 3mm of feed stock
G92 E0                  ;zero the extruded length again
G1 F120
;Put printing message on LCD screen
M117 Printing...
G92 E0
G92 E0
G1 F2400 E-6
;LAYER_COUNT:134
;LAYER:0
M107
G0 X-18.529 Y27.068 Z0.3
;TYPE:SKIRT
G1 F2400 E0
G1 F1200 X-20.838 Y25.653 E0.17023
G1 X-23.204 Y24.294 E0.34175
G1 X-25.373 Y23.124 E0.49667
G1 X-26.219 Y22.68 E0.55673
G1 X-26.829 Y22.35 E0.60033
G1 X-27.296 Y22.052 E0.63515
G1 X-27.715 Y21.69 E0.66996
G1 X-28.078 Y21.272 E0.70476
G1 X-28.377 Y20.805 E0.73962
G1 X-28.604 Y20.305 E0.77414
G1 X-29.563 Y17.712 E0.94793
G1 X-30.564 Y15.221 E1.11669
G1 X-31.656 Y12.711 E1.28876
G1 X-32.798 Y10.277 E1.45777
G1 X-34.035 Y7.822 E1.63058
G1 X-35.332 Y5.422 E1.80206
G1 X-36.682 Y3.081 E1.97194
G1 X-38.096 Y0.784 E2.1415
G1 X-39.613 Y-1.531 E2.31548
G1 X-41.146 Y-3.731 E2.48404
G1 X-42.78 Y-5.941 E2.65682
G1 X-44.452 Y-8.075 E2.82724
G1 X-46.173 Y-10.147 E2.99655
G1 X-47.975 Y-12.196 E3.16808
G1 X-49.842 Y-14.201 E3.3403
G1 X-51.763 Y-16.149 E3.51228
G1 X-53.7 Y-18.008 E3.68105
G1 X-55.706 Y-19.826 E3.85123
G1 X-58.25 Y-22 E4.06159
G1 X-58.584 Y-22.322 E4.09075
G1 X-58.924 Y-22.759 E4.12556
G1 X-59.198 Y-23.241 E4.16041
G1 X-59.399 Y-23.757 E4.19522
G1 X-59.524 Y-24.297 E4.23007
G1 X-59.57 Y-24.849 E4.26489
G1 X-59.536 Y-25.402 E4.29971
G1 X-59.423 Y-25.944 E4.33452
G1 X-59.19 Y-26.556 E4.37568
G1 X-58.992 Y-26.963 E4.40413
G1 X-43.251 Y-57.123 E6.54273
G1 X-42.933 Y-57.711 E6.58475
G1 X-42.635 Y-58.178 E6.61958
G1 X-42.273 Y-58.597 E6.65438
G1 X-41.854 Y-58.96 E6.68923
G1 X-41.388 Y-59.258 E6.724
G1 X-40.883 Y-59.487 E6.75886
G1 X-40.351 Y-59.641 E6.79367
G1 X-39.802 Y-59.716 E6.82851
G1 X-39.248 Y-59.712 E6.86333
G1 X-38.592 Y-59.601 E6.90516
G1 X-37.801 Y-59.396 E6.95652
G1 X-36.666 Y-59.084 E7.03052
G1 X-34.057 Y-58.447 E7.19934
G1 X-31.343 Y-57.862 E7.37387
G1 X-28.712 Y-57.376 E7.54205
G1 X-26.012 Y-56.956 E7.71382
G1 X-23.314 Y-56.612 E7.88479
G1 X-20.644 Y-56.348 E8.05345
G1 X-17.9 Y-56.156 E8.22637
G1 X-15.181 Y-56.041 E8.39744
G1 X-12.467 Y-56.005 E8.56806
G1 X-9.713 Y-56.046 E8.7412
G1 X-7.037 Y-56.16 E8.90957
G1 X-4.322 Y-56.355 E9.08068
G1 X-1.623 Y-56.624 E9.25119
G1 X1.113 Y-56.976 E9.42459
G1 X3.756 Y-57.392 E9.59278
G1 X6.445 Y-57.894 E9.76474
G1 X9.112 Y-58.47 E9.93625
G1 X12.391 Y-59.288 E10.14869
G1 X13.005 Y-59.451 E10.18863
G1 X13.549 Y-59.554 E10.22343
G1 X14.103 Y-59.578 E10.25829
G1 X14.654 Y-59.523 E10.2931
G1 X15.036 Y-59.436 E10.31773
G1 X15.904 Y-59.19 E10.37444
G1 X16.825 Y-58.916 E10.43484
G1 X19.436 Y-58.216 E10.60477
G1 X22.133 Y-57.574 E10.77905
G1 X24.785 Y-57.021 E10.94934
G1 X27.422 Y-56.55 E11.11773
G1 X30.152 Y-56.141 E11.29126
G1 X32.821 Y-55.818 E11.46026
G1 X35.558 Y-55.565 E11.63305
G1 X38.231 Y-55.395 E11.80142
G1 X40.986 Y-55.297 E11.97471
G1 X43.701 Y-55.276 E12.14538
G1 X46.408 Y-55.334 E12.31559
G1 X48.696 Y-55.458 E12.45963
G1 X48.887 Y-55.455 E12.47164
G1 X50.081 Y-55.523 E12.54681
G1 X50.681 Y-55.519 E12.58453
G1 X51.193 Y-55.469 E12.61687
G1 X51.806 Y-55.343 E12.65621
G1 X52.473 Y-55.123 E12.70036
G1 X52.954 Y-54.911 E12.7334
G1 X53.766 Y-54.507 E12.79042
G1 X55.934 Y-53.38 E12.94401
G1 X56.572 Y-53.036 E12.98958
G1 X57.148 Y-52.673 E13.03238
G1 X57.763 Y-52.175 E13.08212
G1 X58.253 Y-51.662 E13.12672
G1 X58.412 Y-51.466 E13.14258
G1 X58.717 Y-51.033 E13.17588
G1 X59.025 Y-50.478 E13.21578
G1 X59.117 Y-50.28 E13.2295
G1 X59.299 Y-49.812 E13.26107
G1 X59.48 Y-49.162 E13.30348
G1 X59.534 Y-48.888 E13.32104
G1 X59.678 Y-48.023 E13.37616
G1 X59.886 Y-46.666 E13.46246
G1 X60.378 Y-43.968 E13.63486
G1 X61.085 Y-40.683 E13.84609
G1 X61.22 Y-40.101 E13.88364
G1 X61.306 Y-39.553 E13.91851
G1 X61.312 Y-39 E13.95328
G1 X61.238 Y-38.451 E13.9881
G1 X61.026 Y-37.763 E14.03336
G1 X60.816 Y-37.257 E14.0678
G1 X60.12 Y-35.642 E14.17834
G1 X59.1 Y-33.08 E14.35169
G1 X58.176 Y-30.553 E14.52083
G1 X57.319 Y-27.984 E14.69107
G1 X56.51 Y-25.308 E14.8668
G1 X55.817 Y-22.759 E15.03286
G1 X55.166 Y-20.07 E15.20677
G1 X54.612 Y-17.451 E15.37505
G1 X54.114 Y-14.727 E15.54912
G1 X53.704 Y-12.061 E15.71868
G1 X53.369 Y-9.372 E15.88903
G1 X53.11 Y-6.668 E16.05978
G1 X52.926 Y-3.956 E16.23065
G1 X52.819 Y-1.24 E16.40152
G1 X52.788 Y1.502 E16.5739
G1 X52.835 Y4.194 E16.74315
G1 X52.96 Y6.942 E16.91607
G1 X53.159 Y9.622 E17.085
G1 X53.439 Y12.355 E17.2577
G1 X53.788 Y15.015 E17.42635
G1 X54.223 Y17.735 E17.5995
G1 X54.729 Y20.411 E17.7707
G1 X55.297 Y23.005 E17.93763
G1 X55.968 Y25.705 E18.11252
G1 X56.689 Y28.294 E18.28146
G1 X57.507 Y30.938 E18.45544
G1 X58.369 Y33.463 E18.62316
G1 X59.332 Y36.05 E18.79668
G1 X60.408 Y38.702 E18.97659
G1 X60.631 Y39.229 E19.01256
G1 X60.81 Y39.753 E19.04737
G1 X60.911 Y40.298 E19.08221
G1 X60.933 Y40.851 E19.117
G1 X60.875 Y41.402 E19.15183
G1 X60.738 Y41.939 E19.18667
G1 X60.601 Y42.292 E19.21047
G1 X59.982 Y43.677 E19.30584
G1 X58.913 Y46.169 E19.47629
G1 X57.892 Y48.745 E19.65048
G1 X56.991 Y51.234 E19.81688
G1 X56.117 Y53.868 E19.99133
G1 X55.343 Y56.442 E20.1603
G1 X54.638 Y59.054 E20.33037
G1 X54.001 Y61.71 E20.50206
G1 X53.434 Y64.409 E20.67543
G1 X52.961 Y67.031 E20.84291
G1 X52.546 Y69.767 E21.01687
G1 X52.218 Y72.441 E21.18622
G1 X52.001 Y74.68 E21.32763
G1 X51.908 Y75.226 E21.36244
G1 X51.738 Y75.753 E21.39725
G1 X51.493 Y76.25 E21.43209
G1 X51.179 Y76.706 E21.46689
G1 X50.62 Y77.274 E21.51699
G1 X49.783 Y77.962 E21.58509
G1 X39.999 Y85.697 E22.36912
G1 X39.429 Y86.135 E22.41431
G1 X38.966 Y86.44 E22.44916
G1 X38.465 Y86.675 E22.48395
G1 X37.935 Y86.836 E22.51877
G1 X37.387 Y86.918 E22.5536
G1 X36.833 Y86.921 E22.58842
G1 X36.285 Y86.845 E22.6232
G1 X35.753 Y86.69 E22.65804
G1 X35.249 Y86.46 E22.69286
G1 X34.783 Y86.161 E22.72767
G1 X34.221 Y85.643 E22.77571
G1 X33.575 Y84.917 E22.8368
G1 X31.708 Y82.874 E23.01078
G1 X29.823 Y80.928 E23.18108
G1 X27.849 Y79 E23.35454
G1 X26.527 Y77.781 E23.46758
G1 X26.105 Y77.38 E23.50417
G1 X25.71 Y76.941 E23.5413
G1 X25.629 Y76.836 E23.54963
G1 X25.323 Y76.375 E23.58442
G1 X25.165 Y76.063 E23.6064
G1 X24.82 Y75.291 E23.65955
G1 X24.395 Y74.305 E23.72705
G1 X23.234 Y71.81 E23.90004
G1 X22.024 Y69.389 E24.07018
G1 X20.731 Y66.977 E24.24221
G1 X19.384 Y64.626 E24.41254
G1 X17.955 Y62.289 E24.58473
G1 X16.494 Y60.042 E24.75321
G1 X14.931 Y57.783 E24.92589
G1 X13.323 Y55.593 E25.09669
G1 X11.661 Y53.459 E25.26672
G1 X9.929 Y51.36 E25.43778
G1 X8.134 Y49.307 E25.60921
G1 X6.272 Y47.293 E25.78163
G1 X4.376 Y45.358 E25.95193
G1 X2.443 Y43.491 E26.12086
G1 X0.424 Y41.65 E26.29262
G1 X-1.663 Y39.853 E26.46575
G1 X-3.763 Y38.145 E26.63591
G1 X-5.419 Y36.866 E26.76744
G1 X-6.394 Y36.129 E26.84427
G1 X-6.561 Y35.995 E26.85773
G1 X-7.494 Y35.204 E26.93462
G1 X-7.58 Y35.128 E26.94183
G1 X-9.685 Y33.387 E27.11355
G1 X-11.834 Y31.709 E27.28495
G1 X-13.994 Y30.118 E27.45358
G1 X-16.243 Y28.559 E27.62561
G1 X-18.529 Y27.068 E27.79717
G0 F2400 X-18.208 Y26.608
G1 F1200 X-20.585 Y25.152 E27.9724
G1 X-22.894 Y23.826 E28.13978
G1 X-25.151 Y22.607 E28.30103
G1 X-25.953 Y22.188 E28.35791
G1 X-26.563 Y21.858 E28.4015
G1 X-26.993 Y21.58 E28.43369
G1 X-27.374 Y21.239 E28.46583
G1 X-27.697 Y20.842 E28.49801
G1 X-27.955 Y20.4 E28.53018
G1 X-28.078 Y20.111 E28.54992
G1 X-29.021 Y17.561 E28.72083
G1 X-30.051 Y14.997 E28.89453
G1 X-31.161 Y12.446 E29.06941
G1 X-32.292 Y10.037 E29.2367
G1 X-33.543 Y7.555 E29.41142
G1 X-34.84 Y5.153 E29.58302
G1 X-36.206 Y2.785 E29.75487
G1 X-37.627 Y0.477 E29.92525
G1 X-39.129 Y-1.816 E30.09756
G1 X-40.697 Y-4.066 E30.26996
G1 X-42.336 Y-6.283 E30.44327
G1 X-44.011 Y-8.419 E30.6139
G1 X-45.749 Y-10.513 E30.78497
G1 X-47.583 Y-12.597 E30.95948
G1 X-49.446 Y-14.598 E31.13134
G1 X-51.336 Y-16.515 E31.30057
G1 X-53.332 Y-18.43 E31.47445
G1 X-55.345 Y-20.254 E31.64521
G1 X-57.888 Y-22.428 E31.85552
G1 X-58.194 Y-22.726 E31.88237
G1 X-58.501 Y-23.135 E31.91452
G1 X-58.74 Y-23.588 E31.94671
G1 X-58.906 Y-24.072 E31.97888
G1 X-58.995 Y-24.576 E32.01105
G1 X-59.004 Y-25.088 E32.04324
G1 X-58.934 Y-25.595 E32.07541
G1 X-58.685 Y-26.314 E32.12325
G1 X-58.496 Y-26.704 E32.15049
G1 X-42.758 Y-56.856 E34.28855
G1 X-42.44 Y-57.444 E34.33057
G1 X-42.162 Y-57.874 E34.36276
G1 X-41.821 Y-58.256 E34.39495
G1 X-41.424 Y-58.579 E34.42712
G1 X-40.982 Y-58.837 E34.45929
G1 X-40.505 Y-59.023 E34.49148
G1 X-40.005 Y-59.133 E34.52366
G1 X-39.494 Y-59.163 E34.55584
G1 X-38.985 Y-59.114 E34.58798
G1 X-38.732 Y-59.059 E34.60426
G1 X-37.949 Y-58.856 E34.65511
G1 X-36.803 Y-58.541 E34.72982
G1 X-34.164 Y-57.897 E34.90058
G1 X-31.459 Y-57.314 E35.07452
G1 X-28.826 Y-56.828 E35.24283
G1 X-26.1 Y-56.403 E35.41626
G1 X-23.37 Y-56.055 E35.58926
G1 X-20.668 Y-55.788 E35.75994
G1 X-17.926 Y-55.596 E35.93273
G1 X-15.213 Y-55.482 E36.10343
G1 X-12.467 Y-55.445 E36.27606
G1 X-9.716 Y-55.486 E36.44901
G1 X-7.008 Y-55.601 E36.6194
G1 X-4.264 Y-55.798 E36.79233
G1 X-1.532 Y-56.071 E36.96492
G1 X1.168 Y-56.418 E37.13605
G1 X3.877 Y-56.845 E37.30844
G1 X6.556 Y-57.345 E37.47976
G1 X9.215 Y-57.919 E37.65076
G1 X12.535 Y-58.747 E37.86585
G1 X13.149 Y-58.91 E37.90578
G1 X13.653 Y-59.002 E37.93799
G1 X14.164 Y-59.016 E37.97012
G1 X14.884 Y-58.897 E38.016
G1 X15.744 Y-58.654 E38.07218
G1 X16.698 Y-58.37 E38.13475
G1 X19.305 Y-57.671 E38.30441
G1 X21.992 Y-57.031 E38.47805
G1 X24.676 Y-56.472 E38.65039
G1 X27.35 Y-55.995 E38.82114
G1 X30.075 Y-55.586 E38.99435
G1 X32.768 Y-55.26 E39.16487
G1 X35.507 Y-55.007 E39.33779
G1 X38.213 Y-54.835 E39.50823
G1 X40.962 Y-54.737 E39.68115
G1 X43.708 Y-54.716 E39.85377
G1 X46.42 Y-54.774 E40.02429
G1 X48.726 Y-54.899 E40.16946
G1 X48.905 Y-54.895 E40.18072
G1 X50.113 Y-54.964 E40.25678
G1 X50.664 Y-54.959 E40.29142
G1 X51.295 Y-54.885 E40.33136
G1 X51.868 Y-54.743 E40.36846
G1 X52.525 Y-54.492 E40.41268
G1 X52.705 Y-54.41 E40.42511
G1 X53.508 Y-54.01 E40.4815
G1 X55.67 Y-52.886 E40.63468
G1 X56.292 Y-52.551 E40.67909
G1 X56.813 Y-52.224 E40.71776
G1 X57.374 Y-51.772 E40.76305
G1 X57.818 Y-51.309 E40.80337
G1 X58.237 Y-50.743 E40.84764
G1 X58.518 Y-50.242 E40.88375
G1 X58.764 Y-49.644 E40.9244
G1 X58.931 Y-49.051 E40.96312
G1 X58.981 Y-48.796 E40.97946
G1 X59.124 Y-47.938 E41.03414
G1 X59.332 Y-46.583 E41.12031
G1 X59.824 Y-43.884 E41.29277
G1 X60.551 Y-40.505 E41.51004
G1 X60.674 Y-39.974 E41.54431
G1 X60.751 Y-39.468 E41.57648
G1 X60.747 Y-38.956 E41.60867
G1 X60.664 Y-38.451 E41.64084
G1 X60.32 Y-37.521 E41.70317
G1 X59.592 Y-35.832 E41.81879
G1 X58.585 Y-33.302 E41.98996
G1 X57.65 Y-30.745 E42.16111
G1 X56.783 Y-28.146 E42.33333
G1 X55.982 Y-25.496 E42.50736
G1 X55.272 Y-22.887 E42.67733
G1 X54.617 Y-20.181 E42.85235
G1 X54.06 Y-17.55 E43.0214
G1 X53.566 Y-14.844 E43.19432
G1 X53.151 Y-12.146 E43.36591
G1 X52.812 Y-9.422 E43.53847
G1 X52.553 Y-6.725 E43.70879
G1 X52.364 Y-3.932 E43.88476
G1 X52.26 Y-1.268 E44.05235
G1 X52.229 Y1.482 E44.22523
G1 X52.276 Y4.228 E44.39788
G1 X52.402 Y6.976 E44.5708
G1 X52.602 Y9.683 E44.74143
G1 X52.882 Y12.411 E44.91382
G1 X53.235 Y15.106 E45.08468
G1 X53.67 Y17.824 E45.25771
G1 X54.181 Y20.524 E45.43045
G1 X54.757 Y23.157 E45.59988
G1 X55.417 Y25.813 E45.77192
G1 X56.159 Y28.475 E45.94563
G1 X56.973 Y31.108 E46.11888
G1 X57.845 Y33.663 E46.28859
G1 X58.803 Y36.236 E46.46118
G1 X59.871 Y38.868 E46.63973
G1 X60.116 Y39.447 E46.67925
G1 X60.278 Y39.932 E46.7114
G1 X60.362 Y40.437 E46.74358
G1 X60.367 Y40.949 E46.77576
G1 X60.293 Y41.455 E46.80791
G1 X60.09 Y42.063 E46.8482
G1 X59.471 Y43.448 E46.94357
G1 X58.392 Y45.962 E47.11554
G1 X57.381 Y48.514 E47.28809
G1 X56.452 Y51.077 E47.45947
G1 X55.59 Y53.676 E47.6316
G1 X54.81 Y56.27 E47.80187
G1 X54.08 Y58.977 E47.97812
G1 X53.459 Y61.567 E48.14554
G1 X52.884 Y64.3 E48.3211
G1 X52.407 Y66.951 E48.49043
G1 X51.992 Y69.688 E48.66445
G1 X51.665 Y72.342 E48.83254
G1 X51.444 Y74.626 E48.97679
G1 X51.355 Y75.13 E49.00896
G1 X51.189 Y75.614 E49.04113
G1 X50.949 Y76.066 E49.0733
G1 X50.642 Y76.476 E49.10549
G1 X50.264 Y76.842 E49.13857
G1 X49.436 Y77.523 E49.20596
G1 X39.658 Y85.253 E49.9895
G1 X39.088 Y85.691 E50.03468
G1 X38.659 Y85.97 E50.06685
G1 X38.191 Y86.179 E50.09907
G1 X37.697 Y86.313 E50.13125
G1 X37.188 Y86.368 E50.16343
G1 X36.677 Y86.344 E50.19559
G1 X36.176 Y86.24 E50.22775
G1 X35.697 Y86.06 E50.25992
G1 X35.252 Y85.807 E50.2921
G1 X34.851 Y85.488 E50.32431
G1 X34.639 Y85.271 E50.34338
G1 X33.959 Y84.507 E50.40768
G1 X32.11 Y82.485 E50.57991
G1 X30.204 Y80.515 E50.75222
G1 X28.259 Y78.617 E50.92306
G1 X26.913 Y77.375 E51.03819
G1 X26.491 Y76.974 E51.07478
G1 X26.153 Y76.599 E51.10652
G1 X26.072 Y76.494 E51.11485
G1 X25.792 Y76.066 E51.147
G1 X25.676 Y75.834 E51.16331
G1 X25.334 Y75.07 E51.21593
G1 X24.897 Y74.055 E51.28539
G1 X23.742 Y71.574 E51.45743
G1 X22.51 Y69.11 E51.6306
G1 X21.233 Y66.727 E51.80055
G1 X19.861 Y64.334 E51.97395
G1 X18.442 Y62.011 E52.14507
G1 X16.948 Y59.713 E52.31737
G1 X15.388 Y57.459 E52.48968
G1 X13.785 Y55.275 E52.65998
G1 X12.073 Y53.078 E52.83507
G1 X10.353 Y50.993 E53.00498
G1 X8.554 Y48.936 E53.17676
G1 X6.687 Y46.916 E53.34967
G1 X4.788 Y44.977 E53.52028
G1 X2.814 Y43.072 E53.69273
G1 X0.769 Y41.207 E53.86671
G1 X-1.281 Y39.442 E54.03676
G1 X-3.403 Y37.716 E54.20871
G1 X-5.081 Y36.42 E54.34199
G1 X-6.056 Y35.683 E54.41882
G1 X-6.199 Y35.568 E54.43035
G1 X-7.125 Y34.782 E54.50671
G1 X-7.213 Y34.705 E54.51406
G1 X-9.341 Y32.944 E54.68769
G1 X-11.476 Y31.278 E54.85792
G1 X-13.662 Y29.667 E55.02863
G1 X-15.937 Y28.09 E55.20263
G1 X-18.208 Y26.608 E55.3731
G0 F2400 X-19.661 Y21.459
;TYPE:SUPPORT
G1 F1200 X-20.04 Y21.264 E55.3999
G1 X-24.737 Y18.808 E55.73308
G1 X-24.117 Y17.619 E55.81738
G1 X-20.622 Y19.464 E56.06581
G1 X-19.043 Y20.274 E56.17737
G1 X-19.661 Y21.459 E56.26138
G0 F2400 X-24 Y18.922
G1 F1200 X-24 Y17.953 E56.3223
G0 F2400 X-16.788 Y17.98
G1 F1200 X-16.349 Y17.842 E56.35122
G1 X-14.094 Y13.521 E56.65761
G1 X-13.793 Y13.521 E56.67653
G1 X-14.046 Y14.015 E56.71142
G1 X-14.092 Y14.404 E56.73605
G1 X-16.137 Y18.322 E57.01387
G1 X-16.788 Y17.98 E57.0601
G0 F2400 X27.011 Y37.873
G1 F1200 X27.361 Y37.112 E57.11275
G1 X27.865 Y36.434 E57.16586
G1 X28.471 Y35.897 E57.21675
G1 X28.847 Y35.657 E57.2448
G1 X29.63 Y35.321 E57.29836
G1 X30.449 Y35.158 E57.35085
G1 X30.871 Y35.141 E57.3774
G1 X31.699 Y35.238 E57.4298
G1 X32.492 Y35.505 E57.4824
G1 X33.249 Y35.96 E57.53792
G1 X33.835 Y36.505 E57.58823
G1 X34.321 Y37.188 E57.64092
G1 X34.654 Y37.961 E57.69383
G1 X34.818 Y38.778 E57.74622
G1 X34.806 Y39.639 E57.80034
G1 X34.615 Y40.472 E57.85407
G1 X34.274 Y41.211 E57.90523
G1 X33.773 Y41.883 E57.95792
G1 X33.138 Y42.441 E58.01106
G1 X32.394 Y42.856 E58.06461
G1 X31.566 Y43.108 E58.11902
G1 X30.74 Y43.178 E58.17113
G1 X29.939 Y43.08 E58.22186
G1 X29.127 Y42.804 E58.27577
G1 X28.433 Y42.392 E58.3265
G1 X27.812 Y41.823 E58.37945
G1 X27.318 Y41.129 E58.433
G1 X26.974 Y40.329 E58.48774
G1 X26.82 Y39.554 E58.53741
G1 X26.826 Y38.702 E58.59097
G1 X27.011 Y37.873 E58.64436
G0 F2400 X27.846 Y37.774
G1 F1200 X27.658 Y38.263 E58.6773
G1 X27.551 Y38.892 E58.7174
G1 X27.558 Y39.508 E58.75613
G1 X27.648 Y40.004 E58.78782
G1 X27.852 Y40.554 E58.82469
G1 X28.216 Y41.164 E58.86935
G1 X28.598 Y41.569 E58.90434
G1 X29.148 Y41.987 E58.94777
G1 X29.604 Y42.207 E58.9796
G1 X30.094 Y42.363 E59.01192
G1 X30.604 Y42.43 E59.04426
G1 X31.144 Y42.425 E59.0782
G1 X31.648 Y42.328 E59.11047
G1 X32.129 Y42.168 E59.14233
G1 X32.697 Y41.839 E59.1836
G1 X33.096 Y41.522 E59.21563
G1 X33.467 Y41.096 E59.25114
G1 X33.792 Y40.549 E59.29114
G1 X33.986 Y40.011 E59.32709
G1 X34.077 Y39.534 E59.35761
G1 X34.095 Y38.991 E59.39177
G1 X34.005 Y38.389 E59.43003
G1 X33.808 Y37.797 E59.46925
G1 X33.556 Y37.354 E59.50129
G1 X33.165 Y36.867 E59.54055
G1 X32.65 Y36.441 E59.58256
