;FLAVOR:Marlin
;TIME:4468
;Filament used: 9.14999m
;Layer height: 0.3
;MINX:-83.189
;MINY:-87.335
;MINZ:0.3
;MAXX:90.629
;MAXY:92.758
;MAXZ:7.5
;Generated with Cura_SteamEngine 4.10.0
M104 S228
M105
M109 S228
M82 ;absolute extrusion mode
G21        ;metric values
G90        ;absolute positioning
M107       ;start with the fan off
G28   ;move to endstops

;Z-Offset Reset und dann Z +0,1 für PLA
;MacroZOffset0
;MacroZOffsetPlus0100

G92 E0                  ;zero the extruded length
G1 F200 E3              ;extrude 3mm of feed stock
G92 E0                  ;zero the extruded length again
G1 F120
;Put printing message on LCD screen
M117 Printing...
G92 E0
G92 E0
G1 F2400 E-4
;LAYER_COUNT:25
;LAYER:0
M107
G0 X-23.779 Y-68.413 Z0.3
;TYPE:SKIRT
G1 F2400 E0
G1 F1200 X-21.237 Y-69.321 E0.16968
G1 X-18.69 Y-70.313 E0.34151
G1 X-16.184 Y-71.372 E0.51253
G1 X-13.72 Y-72.497 E0.6828
G1 X-11.248 Y-73.71 E0.85589
G1 X-8.884 Y-74.954 E1.02382
G1 X-6.47 Y-76.314 E1.19799
G1 X-4.163 Y-77.7 E1.36717
G1 X-1.89 Y-79.155 E1.53682
G1 X1.556 Y-81.535 E1.80009
G1 X2.033 Y-81.816 E1.83489
G1 X2.553 Y-82.028 E1.87019
G1 X3.319 Y-82.276 E1.9208
G1 X14.393 Y-85.688 E2.64922
G1 X15.063 Y-85.884 E2.69311
G1 X15.604 Y-86 E2.72789
G1 X15.935 Y-86.032 E2.74879
G1 X16.975 Y-86.088 E2.81426
G1 X19.209 Y-86.165 E2.95478
G1 X22.559 Y-86.339 E3.16565
G1 X23.764 Y-86.422 E3.24158
G1 X26.513 Y-86.65 E3.41498
G1 X29.68 Y-87.006 E3.61531
G1 X29.792 Y-87.017 E3.62239
G1 X30.671 Y-87.089 E3.67783
G1 X33.761 Y-87.297 E3.87251
G1 X34.39 Y-87.33 E3.91211
G1 X34.614 Y-87.335 E3.92619
G1 X35.508 Y-87.329 E3.98239
G1 X38.615 Y-87.264 E4.17774
G1 X39.199 Y-87.243 E4.21448
G1 X39.418 Y-87.228 E4.22828
G1 X40.325 Y-87.143 E4.28554
G1 X43.29 Y-86.818 E4.47304
G1 X44.02 Y-86.728 E4.51928
G1 X44.244 Y-86.694 E4.53352
G1 X45.057 Y-86.544 E4.58549
G1 X48.064 Y-85.945 E4.77823
G1 X48.726 Y-85.804 E4.82078
G1 X48.952 Y-85.748 E4.83541
G1 X49.794 Y-85.515 E4.89033
G1 X52.699 Y-84.664 E5.08062
G1 X53.355 Y-84.461 E5.12379
G1 X53.559 Y-84.392 E5.13732
G1 X54.4 Y-84.079 E5.19373
G1 X57.244 Y-82.967 E5.38569
G1 X57.852 Y-82.719 E5.42697
G1 X58.052 Y-82.63 E5.44073
G1 X58.816 Y-82.266 E5.49393
G1 X61.605 Y-80.883 E5.68962
G1 X62.157 Y-80.599 E5.72865
G1 X62.349 Y-80.492 E5.74246
G1 X63.126 Y-80.035 E5.79913
G1 X65.709 Y-78.455 E5.98947
G1 X66.281 Y-78.095 E6.03195
G1 X66.47 Y-77.968 E6.04627
G1 X67.174 Y-77.464 E6.10069
G1 X69.643 Y-75.641 E6.29362
G1 X70.158 Y-75.249 E6.33431
G1 X70.329 Y-75.11 E6.34816
G1 X71.008 Y-74.528 E6.40438
G1 X73.304 Y-72.497 E6.59707
G1 X73.773 Y-72.071 E6.6369
G1 X73.936 Y-71.914 E6.65113
G1 X74.558 Y-71.277 E6.70709
G1 X76.65 Y-69.071 E6.89821
G1 X77.096 Y-68.588 E6.93953
G1 X77.245 Y-68.417 E6.95379
G1 X77.818 Y-67.717 E7.01066
G1 X79.723 Y-65.317 E7.20327
G1 X80.108 Y-64.817 E7.24294
G1 X80.237 Y-64.638 E7.25681
G1 X80.734 Y-63.91 E7.31222
G1 X82.411 Y-61.368 E7.50366
G1 X82.763 Y-60.818 E7.54471
G1 X82.877 Y-60.628 E7.55863
G1 X83.338 Y-59.807 E7.61782
G1 X84.774 Y-57.148 E7.80779
G1 X85.07 Y-56.582 E7.84794
G1 X85.171 Y-56.373 E7.86253
G1 X85.541 Y-55.548 E7.91937
G1 X86.726 Y-52.8 E8.10749
G1 X86.993 Y-52.156 E8.15132
G1 X87.073 Y-51.947 E8.16538
G1 X87.37 Y-51.09 E8.2224
G1 X88.322 Y-48.216 E8.41272
G1 X88.522 Y-47.579 E8.45469
G1 X88.581 Y-47.371 E8.46828
G1 X88.789 Y-46.544 E8.52188
G1 X89.502 Y-43.525 E8.71688
G1 X89.637 Y-42.914 E8.75622
G1 X89.678 Y-42.696 E8.77016
G1 X89.818 Y-41.822 E8.82581
G1 X90.262 Y-38.759 E9.02036
G1 X90.335 Y-38.201 E9.05574
G1 X90.358 Y-37.972 E9.07021
G1 X90.429 Y-36.948 E9.13473
G1 X90.613 Y-33.4 E9.35806
G1 X90.627 Y-32.984 E9.38423
G1 X90.629 Y-32.19 E9.43414
G1 X90.615 Y-31.717 E9.46389
G1 X90.55 Y-30.285 E9.554
G1 X90.511 Y-29.559 E9.5997
G1 X86.34 Y41.772 E14.09135
G1 X86.287 Y42.512 E14.13798
G1 X86.208 Y43.061 E14.17285
G1 X86.051 Y43.592 E14.20766
G1 X85.822 Y44.092 E14.24223
G1 X85.529 Y44.637 E14.28112
G1 X73.734 Y65.95 E15.81238
G1 X73.383 Y66.562 E15.85673
G1 X73.074 Y67.022 E15.89156
G1 X72.701 Y67.432 E15.92641
G1 X72.304 Y67.762 E15.95886
G1 X71.874 Y68.071 E15.99214
G1 X71.585 Y68.266 E16.01406
G1 X71.105 Y68.542 E16.04887
G1 X70.492 Y68.779 E16.09018
G1 X69.867 Y68.958 E16.13105
G1 X69.324 Y69.067 E16.16586
G1 X68.68 Y69.095 E16.20638
G1 X65.458 Y68.935 E16.40917
G1 X62.741 Y68.877 E16.58001
G1 X60.025 Y68.896 E16.75074
G1 X57.275 Y68.993 E16.92372
G1 X54.591 Y69.164 E17.09278
G1 X51.857 Y69.415 E17.26537
G1 X49.188 Y69.738 E17.43437
G1 X46.479 Y70.142 E17.60655
G1 X43.816 Y70.619 E17.77661
G1 X41.12 Y71.179 E17.9497
G1 X38.538 Y71.791 E18.11651
G1 X35.866 Y72.507 E18.2904
G1 X33.261 Y73.284 E18.46129
G1 X30.675 Y74.136 E18.63244
G1 X28.134 Y75.053 E18.80226
G1 X25.584 Y76.055 E18.97449
G1 X23.072 Y77.127 E19.14617
G1 X20.64 Y78.246 E19.31446
G1 X18.172 Y79.467 E19.48755
G1 X15.771 Y80.741 E19.65841
G1 X13.42 Y82.076 E19.82836
G1 X11.077 Y83.493 E20.00049
G1 X8.804 Y84.958 E20.17048
G1 X6.13 Y86.795 E20.37442
G1 X5.653 Y87.076 E20.40922
G1 X5.149 Y87.283 E20.44347
G1 X4.396 Y87.531 E20.4933
G1 X-6.71 Y91.016 E21.22501
G1 X-7.326 Y91.201 E21.26544
G1 X-7.867 Y91.321 E21.30028
G1 X-8.206 Y91.356 E21.3217
G1 X-9.266 Y91.418 E21.38845
G1 X-11.508 Y91.508 E21.5295
G1 X-14.76 Y91.694 E21.73426
G1 X-16.025 Y91.787 E21.81399
G1 X-18.737 Y92.025 E21.98513
G1 X-21.432 Y92.339 E22.15568
G1 X-21.942 Y92.402 E22.18799
G1 X-22.045 Y92.413 E22.1945
G1 X-22.952 Y92.493 E22.25174
G1 X-25.995 Y92.712 E22.44352
G1 X-26.664 Y92.751 E22.48564
G1 X-26.892 Y92.758 E22.49998
G1 X-27.793 Y92.757 E22.55662
G1 X-30.79 Y92.709 E22.74504
G1 X-31.488 Y92.688 E22.78894
G1 X-31.71 Y92.675 E22.80292
G1 X-32.576 Y92.598 E22.85757
G1 X-35.597 Y92.283 E23.04851
G1 X-36.296 Y92.2 E23.09276
G1 X-36.514 Y92.168 E23.10661
G1 X-37.306 Y92.027 E23.15718
G1 X-40.394 Y91.429 E23.3549
G1 X-40.983 Y91.306 E23.39272
G1 X-41.202 Y91.253 E23.40689
G1 X-42.11 Y91.007 E23.46602
G1 X-45.008 Y90.175 E23.65556
G1 X-45.642 Y89.983 E23.6972
G1 X-45.85 Y89.913 E23.71099
G1 X-46.672 Y89.612 E23.76602
G1 X-49.518 Y88.516 E23.95773
G1 X-50.138 Y88.267 E23.99973
G1 X-50.336 Y88.181 E24.0133
G1 X-51.123 Y87.812 E24.06794
G1 X-53.914 Y86.445 E24.2633
G1 X-54.456 Y86.17 E24.30151
G1 X-54.654 Y86.063 E24.31566
G1 X-55.455 Y85.595 E24.37397
G1 X-58.062 Y84.02 E24.56544
G1 X-58.6 Y83.684 E24.60531
G1 X-58.782 Y83.563 E24.61905
G1 X-59.489 Y83.063 E24.67349
G1 X-61.946 Y81.267 E24.8648
G1 X-62.497 Y80.852 E24.90816
G1 X-62.669 Y80.715 E24.92199
G1 X-63.368 Y80.122 E24.97961
G1 X-65.625 Y78.148 E25.1681
G1 X-66.12 Y77.704 E25.2099
G1 X-66.289 Y77.542 E25.22461
G1 X-66.934 Y76.888 E25.28235
G1 X-68.988 Y74.746 E25.46891
G1 X-69.474 Y74.224 E25.51374
G1 X-69.622 Y74.055 E25.52786
G1 X-70.192 Y73.366 E25.58407
G1 X-72.087 Y71.003 E25.77448
G1 X-72.501 Y70.472 E25.81681
G1 X-72.634 Y70.291 E25.83093
G1 X-73.114 Y69.595 E25.88407
G1 X-74.84 Y67.01 E26.07946
G1 X-75.176 Y66.492 E26.11828
G1 X-75.295 Y66.295 E26.13275
G1 X-75.736 Y65.515 E26.18907
G1 X-77.179 Y62.876 E26.37814
G1 X-77.504 Y62.262 E26.42181
G1 X-77.604 Y62.06 E26.43598
G1 X-77.971 Y61.254 E26.49165
G1 X-79.193 Y58.462 E26.68324
G1 X-79.448 Y57.857 E26.72451
G1 X-79.53 Y57.645 E26.7388
G1 X-79.825 Y56.808 E26.79459
G1 X-80.792 Y53.937 E26.98502
G1 X-81.002 Y53.281 E27.02832
G1 X-81.062 Y53.073 E27.04193
G1 X-81.273 Y52.259 E27.09479
G1 X-81.998 Y49.256 E27.28899
G1 X-82.14 Y48.627 E27.32952
G1 X-82.182 Y48.41 E27.34342
G1 X-82.332 Y47.502 E27.40127
G1 X-82.778 Y44.528 E27.59031
G1 X-82.862 Y43.906 E27.62977
G1 X-82.886 Y43.68 E27.64405
G1 X-82.965 Y42.628 E27.71037
G1 X-83.161 Y39.19 E27.92684
G1 X-83.186 Y38.605 E27.96365
G1 X-83.189 Y38.369 E27.97848
G1 X-83.166 Y37.169 E28.05393
G1 X-83.117 Y35.943 E28.13106
G1 X-83.092 Y35.384 E28.16624
G1 X-79.286 Y-36.137 E32.66853
G1 X-79.241 Y-36.803 E32.71049
G1 X-79.164 Y-37.351 E32.74527
G1 X-78.905 Y-38.135 E32.79718
G1 X-78.556 Y-38.829 E32.84601
G1 X-66.811 Y-60.317 E34.38539
G1 X-66.469 Y-60.924 E34.42918
G1 X-66.163 Y-61.386 E34.46402
G1 X-65.793 Y-61.799 E34.49887
G1 X-65.394 Y-62.136 E34.53171
G1 X-64.7 Y-62.63 E34.58526
G1 X-64.223 Y-62.912 E34.62009
G1 X-63.733 Y-63.115 E34.65343
G1 X-62.957 Y-63.348 E34.70436
G1 X-62.415 Y-63.459 E34.73914
G1 X-61.773 Y-63.489 E34.77954
G1 X-60.953 Y-63.449 E34.83115
G1 X-58.579 Y-63.326 E34.98058
G1 X-55.849 Y-63.258 E35.15225
G1 X-53.135 Y-63.269 E35.32286
G1 X-50.415 Y-63.356 E35.49393
G1 X-47.704 Y-63.52 E35.66466
G1 X-45.002 Y-63.759 E35.83517
G1 X-42.296 Y-64.077 E36.00645
G1 X-39.579 Y-64.474 E36.17905
G1 X-36.919 Y-64.94 E36.34881
G1 X-34.303 Y-65.474 E36.51665
G1 X-31.615 Y-66.104 E36.6902
G1 X-28.96 Y-66.806 E36.86283
G1 X-26.37 Y-67.569 E37.03256
G1 X-23.779 Y-68.413 E37.20386
G0 F2400 X-23.595 Y-67.885
G1 F1200 X-21.023 Y-68.803 E37.37553
G1 X-18.477 Y-69.795 E37.5473
G1 X-15.97 Y-70.855 E37.7184
G1 X-13.48 Y-71.991 E37.89045
G1 X-11.005 Y-73.205 E38.06374
G1 X-8.599 Y-74.471 E38.23464
G1 X-6.2 Y-75.823 E38.40775
G1 X-3.876 Y-77.219 E38.57817
G1 X-1.567 Y-78.697 E38.7505
G1 X1.874 Y-81.074 E39.0134
G1 X2.316 Y-81.331 E39.04554
G1 X2.726 Y-81.495 E39.0733
G1 X3.484 Y-81.741 E39.1234
G1 X14.55 Y-85.15 E39.85128
G1 X15.22 Y-85.346 E39.89517
G1 X15.965 Y-85.473 E39.94267
G1 X16.994 Y-85.528 E40.00745
G1 X19.2 Y-85.604 E40.14621
G1 X22.616 Y-85.781 E40.36123
G1 X23.791 Y-85.862 E40.43527
G1 X26.583 Y-86.094 E40.61138
G1 X29.838 Y-86.459 E40.81728
G1 X30.709 Y-86.531 E40.87222
G1 X33.79 Y-86.737 E41.06633
G1 X34.419 Y-86.77 E41.10592
G1 X34.611 Y-86.775 E41.118
G1 X35.496 Y-86.769 E41.17363
G1 X38.595 Y-86.704 E41.36848
G1 X39.179 Y-86.683 E41.40522
G1 X39.366 Y-86.671 E41.41699
G1 X40.264 Y-86.587 E41.47369
G1 X43.221 Y-86.262 E41.66069
G1 X43.951 Y-86.172 E41.70693
G1 X44.142 Y-86.143 E41.71907
G1 X44.948 Y-85.995 E41.77059
G1 X47.947 Y-85.397 E41.96282
G1 X48.609 Y-85.256 E42.00537
G1 X48.802 Y-85.209 E42.01785
G1 X49.637 Y-84.977 E42.07233
G1 X52.534 Y-84.129 E42.26208
G1 X53.19 Y-83.926 E42.30525
G1 X53.364 Y-83.867 E42.3168
G1 X54.196 Y-83.557 E42.37261
G1 X57.033 Y-82.448 E42.56409
G1 X57.641 Y-82.2 E42.60537
G1 X57.812 Y-82.125 E42.61711
G1 X58.567 Y-81.764 E42.66972
G1 X61.349 Y-80.385 E42.8649
G1 X61.901 Y-80.101 E42.90393
G1 X62.065 Y-80.01 E42.91572
G1 X62.833 Y-79.557 E42.97177
G1 X65.411 Y-77.981 E43.16171
G1 X65.983 Y-77.621 E43.20419
G1 X66.144 Y-77.513 E43.21638
G1 X66.841 Y-77.014 E43.27026
G1 X69.304 Y-75.195 E43.46274
G1 X69.819 Y-74.803 E43.50342
G1 X69.965 Y-74.685 E43.51523
G1 X70.637 Y-74.109 E43.57086
G1 X72.927 Y-72.083 E43.76307
G1 X73.396 Y-71.657 E43.8029
G1 X73.536 Y-71.523 E43.81508
G1 X74.152 Y-70.892 E43.87051
G1 X76.239 Y-68.691 E44.06118
G1 X76.685 Y-68.208 E44.10251
G1 X76.812 Y-68.062 E44.11467
G1 X77.379 Y-67.369 E44.17096
G1 X79.279 Y-64.975 E44.36308
G1 X79.664 Y-64.475 E44.40275
G1 X79.774 Y-64.323 E44.41455
G1 X80.266 Y-63.601 E44.46947
G1 X81.94 Y-61.066 E44.66043
G1 X82.292 Y-60.516 E44.70148
G1 X82.389 Y-60.354 E44.71335
G1 X82.845 Y-59.541 E44.77195
G1 X84.278 Y-56.888 E44.96149
G1 X84.574 Y-56.322 E45.00164
G1 X84.66 Y-56.144 E45.01407
G1 X85.026 Y-55.326 E45.0704
G1 X86.209 Y-52.585 E45.25807
G1 X86.476 Y-51.941 E45.3019
G1 X86.544 Y-51.763 E45.31387
G1 X86.839 Y-50.914 E45.37037
G1 X87.787 Y-48.049 E45.56007
G1 X87.987 Y-47.412 E45.60204
G1 X88.038 Y-47.233 E45.61374
G1 X88.244 Y-46.416 E45.66671
G1 X88.955 Y-43.405 E45.86119
G1 X89.09 Y-42.794 E45.90053
G1 X89.125 Y-42.607 E45.91249
G1 X89.264 Y-41.742 E45.96756
G1 X89.706 Y-38.686 E46.16166
G1 X89.779 Y-38.128 E46.19704
G1 X89.799 Y-37.933 E46.20936
G1 X89.87 Y-36.919 E46.27326
G1 X90.053 Y-33.377 E46.49621
G1 X90.067 Y-32.982 E46.52106
G1 X90.069 Y-32.188 E46.57097
G1 X90.056 Y-31.743 E46.59896
G1 X89.99 Y-30.315 E46.68882
G1 X89.952 Y-29.592 E46.73433
G1 X85.782 Y41.732 E51.22553
G1 X85.729 Y42.472 E51.27217
G1 X85.652 Y42.978 E51.30434
G1 X85.498 Y43.467 E51.33657
G1 X85.055 Y44.336 E51.39788
G1 X73.248 Y65.672 E52.93077
G1 X72.897 Y66.284 E52.97512
G1 X72.609 Y66.707 E53.00729
G1 X72.258 Y67.079 E53.03944
G1 X71.649 Y67.545 E53.08764
G1 X71.272 Y67.802 E53.11632
G1 X70.826 Y68.054 E53.14853
G1 X70.315 Y68.248 E53.18289
G1 X69.717 Y68.418 E53.22197
G1 X69.215 Y68.516 E53.25412
G1 X68.703 Y68.535 E53.28633
G1 X65.463 Y68.375 E53.49025
G1 X62.748 Y68.317 E53.66095
G1 X60.001 Y68.336 E53.83364
G1 X57.254 Y68.433 E54.00643
G1 X54.542 Y68.606 E54.17725
G1 X51.809 Y68.857 E54.34978
G1 X49.113 Y69.183 E54.52049
G1 X46.401 Y69.588 E54.69286
G1 X43.672 Y70.076 E54.86713
G1 X41.021 Y70.627 E55.03734
G1 X38.391 Y71.25 E55.20724
G1 X35.714 Y71.968 E55.38147
G1 X33.092 Y72.749 E55.55345
G1 X30.497 Y73.604 E55.7252
G1 X27.916 Y74.536 E55.8977
G1 X25.397 Y75.526 E56.06784
G1 X22.868 Y76.605 E56.24068
G1 X20.365 Y77.757 E56.41389
G1 X17.926 Y78.963 E56.58493
G1 X15.495 Y80.254 E56.75796
G1 X13.147 Y81.587 E56.92768
G1 X10.786 Y83.014 E57.1011
G1 X8.478 Y84.502 E57.27372
G1 X5.812 Y86.334 E57.47707
G1 X5.37 Y86.591 E57.50921
G1 X4.974 Y86.751 E57.53606
G1 X4.228 Y86.997 E57.58543
G1 X-6.872 Y90.479 E58.31673
G1 X-7.488 Y90.664 E58.35716
G1 X-8.239 Y90.797 E58.4051
G1 X-9.289 Y90.858 E58.47122
G1 X-11.515 Y90.948 E58.61126
G1 X-14.83 Y91.137 E58.81999
G1 X-16.057 Y91.227 E58.89732
G1 X-18.781 Y91.467 E59.06922
G1 X-21.53 Y91.787 E59.2432
G1 X-22.094 Y91.855 E59.27891
G1 X-22.993 Y91.934 E59.33564
G1 X-26.027 Y92.153 E59.52686
G1 X-26.696 Y92.192 E59.56898
G1 X-26.891 Y92.198 E59.58125
G1 X-27.784 Y92.197 E59.63738
G1 X-30.774 Y92.15 E59.82536
G1 X-31.472 Y92.129 E59.86926
G1 X-31.661 Y92.117 E59.88116
G1 X-32.518 Y92.041 E59.93525
G1 X-35.531 Y91.727 E60.12567
G1 X-36.23 Y91.644 E60.16992
G1 X-36.416 Y91.617 E60.18174
G1 X-37.199 Y91.477 E60.23174
G1 X-40.279 Y90.881 E60.42894
G1 X-40.868 Y90.758 E60.46677
G1 X-41.055 Y90.713 E60.47886
G1 X-41.956 Y90.469 E60.53754
G1 X-44.846 Y89.639 E60.72655
G1 X-45.48 Y89.447 E60.76819
G1 X-45.658 Y89.388 E60.77998
G1 X-46.471 Y89.089 E60.83444
G1 X-49.309 Y87.997 E61.02559
G1 X-49.929 Y87.748 E61.06759
G1 X-50.098 Y87.674 E61.07918
G1 X-50.877 Y87.309 E61.13326
G1 X-53.661 Y85.946 E61.32812
G1 X-54.203 Y85.671 E61.36632
G1 X-54.371 Y85.579 E61.37836
G1 X-55.166 Y85.116 E61.4362
G1 X-57.765 Y83.545 E61.6271
G1 X-58.303 Y83.209 E61.66698
G1 X-58.459 Y83.106 E61.67873
G1 X-59.159 Y82.611 E61.73262
G1 X-61.609 Y80.82 E61.92339
G1 X-62.16 Y80.405 E61.96676
G1 X-62.307 Y80.288 E61.97857
G1 X-63 Y79.701 E62.03566
G1 X-65.251 Y77.731 E62.2237
G1 X-65.746 Y77.287 E62.2655
G1 X-65.89 Y77.149 E62.27803
G1 X-66.53 Y76.5 E62.33533
G1 X-68.579 Y74.364 E62.52139
G1 X-69.065 Y73.842 E62.56623
G1 X-69.191 Y73.698 E62.57826
G1 X-69.755 Y73.015 E62.63394
G1 X-71.646 Y70.659 E62.82384
G1 X-72.06 Y70.128 E62.86617
G1 X-72.173 Y69.973 E62.87823
G1 X-72.648 Y69.284 E62.93083
G1 X-74.37 Y66.705 E63.12577
G1 X-74.706 Y66.187 E63.16458
G1 X-74.808 Y66.019 E63.17694
G1 X-75.245 Y65.247 E63.2327
G1 X-76.684 Y62.614 E63.42132
G1 X-77.009 Y62 E63.465
G1 X-77.094 Y61.827 E63.47711
G1 X-77.458 Y61.03 E63.53219
G1 X-78.676 Y58.245 E63.72327
G1 X-78.931 Y57.64 E63.76454
G1 X-79.002 Y57.459 E63.77676
G1 X-79.294 Y56.629 E63.83207
G1 X-80.259 Y53.766 E64.022
G1 X-80.469 Y53.11 E64.06529
G1 X-80.52 Y52.932 E64.07693
G1 X-80.728 Y52.127 E64.1292
G1 X-81.451 Y49.132 E64.32288
G1 X-81.593 Y48.503 E64.36341
G1 X-81.63 Y48.318 E64.37527
G1 X-81.779 Y47.419 E64.43256
G1 X-82.223 Y44.453 E64.62108
G1 X-82.307 Y43.831 E64.66054
G1 X-82.328 Y43.638 E64.67274
G1 X-82.406 Y42.596 E64.73843
G1 X-82.602 Y39.166 E64.95439
G1 X-82.627 Y38.581 E64.9912
G1 X-82.629 Y38.379 E65.0039
G1 X-82.606 Y37.191 E65.07859
G1 X-82.558 Y35.968 E65.15553
G1 X-82.532 Y35.414 E65.1904
G1 X-78.728 Y-36.099 E69.69218
G1 X-78.683 Y-36.765 E69.73414
G1 X-78.608 Y-37.272 E69.76636
G1 X-78.395 Y-37.903 E69.80822
G1 X-78.061 Y-38.566 E69.85489
G1 X-66.323 Y-60.042 E71.39339
G1 X-65.981 Y-60.649 E71.43719
G1 X-65.695 Y-61.074 E71.46939
G1 X-65.347 Y-61.449 E71.50155
G1 X-64.778 Y-61.893 E71.54692
G1 X-64.381 Y-62.17 E71.57735
G1 X-63.939 Y-62.428 E71.60952
G1 X-63.382 Y-62.642 E71.64703
G1 X-62.805 Y-62.809 E71.68479
