;FLAVOR:Marlin
;TIME:6778
;Filament used: 9.9777m
;Layer height: 0.3
;MINX:90.164
;MINY:45.022
;MINZ:0.3
;MAXX:270.058
;MAXY:244.614
;MAXZ:7.2
;Generated with Cura_SteamEngine 4.10.0
M104 S230
M105
M109 S230
M82 ;absolute extrusion mode
G28 ; home all axes
 M117 Purge extruder
 G92 E0 ; reset extruder
 G1 Z1.0 F3000 ; move z up little to prevent scratching of surface
 G1 X2 Y20 Z0.3 F5000.0 ; move to start-line position
 G1 X2 Y200.0 Z0.3 F1500.0 E15 ; draw 1st line
 G1 X2 Y200.0 Z0.4 F5000.0 ; move to side a little
 G1 X2 Y20 Z0.4 F1500.0 E30 ; draw 2nd line
 G92 E0 ; reset extruder
 G1 Z1.0 F3000 ; move z up little to prevent scratching of surface
G92 E0
G92 E0
G1 F1500 E-2
;LAYER_COUNT:25
;LAYER:0
M107
M204 S2500
;MESH:AKLP_AKP_Under_Cabinet_ShowMount_KlammernGross_petg_04nz_1h14m_v01.3mf
G0 F6000 X114.258 Y94.265 Z0.3
;TYPE:WALL-INNER
G1 F1500 E0
G1 F900 X114.557 Y94.091 E0.02392
G1 X115.61 Y93.089 E0.12443
G1 X115.776 Y92.843 E0.14495
G1 X116.208 Y91.674 E0.23113
G1 X116.257 Y91.397 E0.25058
G1 X116.192 Y90.048 E0.34397
G1 X116.093 Y89.722 E0.36753
G1 X115.356 Y88.469 E0.46805
G1 X115.142 Y88.245 E0.48947
G1 X114.109 Y87.542 E0.57587
G1 X113.888 Y87.459 E0.59219
G1 X112.591 Y87.197 E0.68369
G1 X112.253 Y87.206 E0.70707
G1 X110.849 Y87.615 E0.80819
G1 X110.55 Y87.789 E0.83211
G1 X109.498 Y88.79 E0.93252
G1 X109.332 Y89.036 E0.95304
G1 X108.9 Y90.206 E1.03928
G1 X108.851 Y90.483 E1.05874
G1 X108.915 Y91.831 E1.15205
G1 X109.014 Y92.157 E1.17561
G1 X109.752 Y93.412 E1.27628
G1 X109.966 Y93.635 E1.29766
G1 X111 Y94.338 E1.38411
G1 X111.222 Y94.421 E1.4005
G1 X112.517 Y94.682 E1.49185
G1 X112.855 Y94.673 E1.51523
G1 X114.258 Y94.265 E1.61626
G0 F6000 X114.013 Y93.695
;TYPE:WALL-OUTER
G1 F900 X114.184 Y93.595 E1.62996
G1 X115.137 Y92.689 E1.72089
G1 X115.224 Y92.56 E1.73164
G1 X115.611 Y91.513 E1.80883
G1 X115.638 Y91.358 E1.81971
G1 X115.58 Y90.153 E1.90313
G1 X115.525 Y89.971 E1.91628
G1 X114.862 Y88.843 E2.00675
G1 X114.742 Y88.718 E2.01873
G1 X113.823 Y88.093 E2.09558
G1 X113.717 Y88.053 E2.10342
G1 X112.538 Y87.815 E2.18659
G1 X112.349 Y87.82 E2.19966
G1 X111.094 Y88.185 E2.29004
G1 X110.923 Y88.285 E2.30373
G1 X109.971 Y89.19 E2.39456
G1 X109.884 Y89.319 E2.40532
G1 X109.497 Y90.367 E2.48257
G1 X109.47 Y90.522 E2.49345
G1 X109.527 Y91.726 E2.5768
G1 X109.582 Y91.908 E2.58994
G1 X110.246 Y93.037 E2.68051
G1 X110.366 Y93.162 E2.69249
G1 X111.285 Y93.787 E2.76934
G1 X111.392 Y93.827 E2.77724
G1 X112.57 Y94.064 E2.86033
G1 X112.759 Y94.059 E2.8734
G1 X114.013 Y93.695 E2.96369
G0 F6000 X114.28 Y94.317
G1 F1500 E0.96369
G0 F6000 X113.61 Y92.801
G0 X129.478 Y90.264
G0 X129.466 Y89.739
G0 X219.813 Y73.342
G0 X221.516 Y75.553
G0 X236.692 Y73.128
G0 X234.753 Y74.177
;TYPE:WALL-INNER
G1 F1500 E2.96369
G1 F900 X236.483 Y78.187 E3.26568
G1 X237.84 Y82.291 E3.56458
G1 X238.838 Y86.512 E3.8645
G1 X239.46 Y90.809 E4.16472
G1 X239.713 Y95.675 E4.50165
G1 X239.608 Y98.018 E4.66382
G1 X235.396 Y170.046 E9.65291
G1 X223.342 Y191.825 E11.37416
G1 X223.164 Y191.92 E11.38811
G1 X222.973 Y191.907 E11.40135
G1 X211.516 Y185.577 E12.30645
G1 X211.416 Y185.522 E12.31434
G1 X211.318 Y185.321 E12.3298
G1 X211.35 Y185.16 E12.34115
G1 X211.366 Y185.079 E12.34686
G1 X211.449 Y185 E12.35478
G1 X211.537 Y184.915 E12.36324
G1 X211.826 Y184.903 E12.38325
G1 X211.898 Y184.942 E12.38891
G1 X217.772 Y188.138 E12.85131
G1 X219.06 Y187.763 E12.94407
G1 X226.261 Y174.691 E13.97605
G1 X226.357 Y174.346 E14.00081
G1 X226.572 Y171.23 E14.21679
G1 X226.7 Y171.086 E14.23011
G1 X226.821 Y171.033 E14.23924
G1 X227.802 Y170.935 E14.30741
G1 X228.632 Y170.068 E14.39041
G1 X233.216 Y92.622 E19.755
G1 X232.366 Y91.619 E19.84591
G1 X230.456 Y91.44 E19.97857
G1 X230.36 Y91.387 E19.98615
G1 X230.255 Y91.258 E19.99765
G1 X230.028 Y89.982 E20.08727
G1 X229.069 Y86.24 E20.35438
G1 X229.054 Y86.154 E20.36042
G1 X227.671 Y82.318 E20.64238
G1 X225.953 Y78.675 E20.92089
G1 X223.904 Y75.216 E21.19889
G1 X221.532 Y71.958 E21.47756
G1 X218.86 Y68.938 E21.75639
G1 X216.079 Y66.333 E22.01987
G1 X216.038 Y66.277 E22.02467
G1 X212.676 Y63.676 E22.3186
G1 X212.601 Y63.642 E22.32429
G1 X209.462 Y61.659 E22.58103
G1 X209.399 Y61.611 E22.58651
G1 X205.755 Y59.766 E22.86894
G1 X202.003 Y58.292 E23.14768
G1 X198.17 Y57.193 E23.42341
G1 X198.142 Y57.184 E23.42544
G1 X194.329 Y56.471 E23.69367
G1 X194.239 Y56.446 E23.70013
G1 X190.177 Y56.077 E23.98217
G1 X186.145 Y56.093 E24.26097
G1 X182.144 Y56.488 E24.53898
G1 X178.181 Y57.263 E24.8182
G1 X174.326 Y58.404 E25.0962
G1 X169.657 Y60.364 E25.44634
G1 X157.289 Y66.723 E26.40798
G1 X157.219 Y66.687 E26.41342
G1 X155.601 Y64.549 E26.59882
G1 X154.276 Y64.359 E26.69138
G1 X125.171 Y86.015 E29.19992
G1 X124.983 Y87.342 E29.29259
G1 X127.386 Y90.625 E29.57392
G1 X127.385 Y90.776 E29.58436
G1 X127.307 Y90.921 E29.59574
G1 X106.158 Y107.496 E31.45376
G1 X105.94 Y107.746 E31.4767
G1 X98.48 Y121.307 E32.54693
G1 X98.839 Y122.595 E32.63939
G1 X104.591 Y125.843 E33.09616
G1 X104.678 Y125.892 E33.10306
G1 X104.791 Y126.111 E33.1201
G1 X104.765 Y126.24 E33.1292
G1 X104.743 Y126.354 E33.13723
G1 X104.67 Y126.423 E33.14418
G1 X104.569 Y126.518 E33.15377
G1 X104.337 Y126.538 E33.16987
G1 X104.236 Y126.482 E33.17785
G1 X92.481 Y119.979 E34.10678
G1 X92.389 Y119.8 E34.12069
G1 X92.402 Y119.607 E34.13407
G1 X102.643 Y100.954 E35.60549
G1 X107.767 Y91.654 E36.33972
G1 X107.772 Y91.645 E36.34043
G1 X108.248 Y90.781 E36.40864
G1 X108.303 Y91.937 E36.45241
G1 X108.306 Y91.947 E36.45313
G1 X108.446 Y92.406 E36.48631
G1 X109.258 Y93.786 E36.59703
G1 X109.566 Y94.108 E36.62784
G1 X110.715 Y94.889 E36.72391
G1 X111.052 Y95.015 E36.74878
G1 X112.464 Y95.3 E36.84839
G1 X112.951 Y95.287 E36.88208
G1 X114.503 Y94.835 E36.99385
G1 X114.929 Y94.587 E37.02794
G1 X116.083 Y93.489 E37.13808
G1 X116.328 Y93.126 E37.16837
G1 X116.805 Y91.836 E37.26347
G1 X116.876 Y91.436 E37.29156
G1 X116.804 Y89.942 E37.39499
G1 X116.661 Y89.473 E37.42889
G1 X115.851 Y88.095 E37.53942
G1 X115.542 Y87.772 E37.57033
G1 X114.395 Y86.991 E37.66628
G1 X114.058 Y86.865 E37.69116
G1 X112.644 Y86.579 E37.79092
G1 X112.551 Y86.582 E37.79735
G1 X112.157 Y86.592 E37.8246
G1 X111.151 Y86.885 E37.89706
G1 X111.938 Y86.299 E37.91636
G1 X112.254 Y86.064 E37.9383
G1 X158.957 Y51.312 E41.96368
G1 X170.929 Y47.625 E42.82988
G1 X175.642 Y47.459 E43.15598
G1 X182.616 Y46.981 E43.63935
G1 X184.835 Y46.633 E43.79466
G1 X189.171 Y46.344 E44.09515
G1 X193.519 Y46.437 E44.39588
G1 X197.819 Y46.906 E44.69497
G1 X202.077 Y47.755 E44.9952
G1 X206.235 Y48.971 E45.29476
G1 X210.285 Y50.555 E45.59547
G1 X214.171 Y52.481 E45.89537
G1 X217.884 Y54.75 E46.19626
G1 X221.364 Y57.32 E46.4954
G1 X224.628 Y60.205 E46.79663
G1 X227.602 Y63.341 E47.09548
G1 X230.307 Y66.751 E47.39645
G1 X232.694 Y70.366 E47.696
G1 X234.753 Y74.177 E47.99552
G0 F6000 X235.309 Y73.91
G1 F900 X237.058 Y77.964 E48.30082
G1 X238.432 Y82.119 E48.60343
G1 X239.436 Y86.37 E48.90547
G1 X239.445 Y86.405 E48.90797
G1 X240.073 Y90.744 E49.21113
G1 X240.074 Y90.777 E49.21341
G1 X240.327 Y95.642 E49.55027
G1 X240.329 Y95.67 E49.55221
G1 X240.223 Y98.054 E49.71722
G1 X236.003 Y170.221 E54.71594
G1 X223.812 Y192.247 E56.45671
G1 X223.508 Y192.462 E56.48246
G1 X223.23 Y192.542 E56.50246
G1 X222.793 Y192.511 E56.53275
G1 X210.993 Y185.992 E57.46494
G1 X210.786 Y185.696 E57.48991
G1 X210.699 Y185.397 E57.51144
G1 X210.709 Y185.081 E57.53331
G1 X210.819 Y184.779 E57.55553
G1 X211.015 Y184.525 E57.57772
G1 X211.272 Y184.35 E57.59922
G1 X211.561 Y184.267 E57.62001
G1 X212.003 Y184.298 E57.65065
G1 X217.843 Y187.476 E58.11039
G1 X218.643 Y187.243 E58.16801
G1 X225.687 Y174.457 E59.17742
G1 X225.747 Y174.241 E59.19292
G1 X225.967 Y171.047 E59.4143
G1 X226.13 Y170.765 E59.43683
G1 X226.369 Y170.557 E59.45874
G1 X226.664 Y170.43 E59.48094
G1 X227.514 Y170.345 E59.54001
G1 X228.03 Y169.806 E59.59161
G1 X232.586 Y92.832 E64.92351
G1 X232.058 Y92.209 E64.97998
G1 X230.27 Y92.041 E65.10416
G1 X229.957 Y91.869 E65.12885
G1 X229.676 Y91.522 E65.15973
G1 X229.426 Y90.112 E65.25875
G1 X228.466 Y86.37 E65.52588
G1 X228.456 Y86.313 E65.52988
G1 X227.101 Y82.554 E65.80618
G1 X225.408 Y78.964 E66.08064
G1 X223.389 Y75.555 E66.3546
G1 X221.051 Y72.344 E66.62926
G1 X218.418 Y69.368 E66.90402
G1 X215.62 Y66.747 E67.16913
G1 X215.594 Y66.712 E67.17214
G1 X212.355 Y64.207 E67.45528
G1 X212.307 Y64.185 E67.45893
G1 X209.113 Y62.167 E67.72017
G1 X209.072 Y62.136 E67.72373
G1 X205.503 Y60.329 E68.00035
G1 X201.805 Y58.876 E68.27508
G1 X198 Y57.784 E68.54881
G1 X194.187 Y57.07 E68.81706
G1 X194.131 Y57.055 E68.82107
G1 X190.15 Y56.693 E69.09748
G1 X186.177 Y56.709 E69.37221
G1 X182.234 Y57.098 E69.64618
G1 X178.328 Y57.862 E69.92139
G1 X174.533 Y58.985 E70.19505
G1 X169.917 Y60.923 E70.54123
G1 X157.405 Y67.357 E71.51409
G1 X157.11 Y67.324 E71.53462
G1 X156.812 Y67.17 E71.55781
G1 X155.263 Y65.123 E71.73532
G1 X154.44 Y65.005 E71.79281
G1 X125.745 Y86.356 E74.26601
G1 X125.628 Y87.18 E74.32356
G1 X127.968 Y90.377 E74.59751
G1 X128.022 Y90.686 E74.6192
G1 X127.976 Y90.978 E74.63964
G1 X127.789 Y91.326 E74.66696
G1 X106.584 Y107.945 E76.52991
G1 X106.448 Y108.101 E76.54422
G1 X99.141 Y121.384 E77.59251
G1 X99.364 Y122.184 E77.64994
G1 X105.101 Y125.424 E78.10553
G1 X105.325 Y125.739 E78.13226
G1 X105.41 Y126.034 E78.15348
G1 X105.4 Y126.352 E78.17548
G1 X105.29 Y126.654 E78.19771
G1 X105.096 Y126.905 E78.21965
G1 X104.834 Y127.083 E78.24155
G1 X104.541 Y127.168 E78.26264
G1 X104.161 Y127.144 E78.28897
G1 X92.059 Y120.449 E79.24532
G1 X91.848 Y120.149 E79.27068
G1 X91.767 Y119.868 E79.2909
G1 X91.798 Y119.428 E79.3214
G1 X102.103 Y100.658 E80.80205
G1 X109.394 Y87.425 E81.84678
G1 X158.675 Y50.754 E86.09438
G1 X170.826 Y47.012 E86.97353
G1 X175.61 Y46.844 E87.30454
G1 X182.547 Y46.368 E87.78535
G1 X184.767 Y46.02 E87.94073
G1 X189.154 Y45.727 E88.24476
G1 X193.554 Y45.821 E88.54908
G1 X197.917 Y46.297 E88.85256
G1 X202.222 Y47.156 E89.15611
G1 X206.438 Y48.389 E89.45985
G1 X210.536 Y49.991 E89.7641
G1 X214.469 Y51.941 E90.06765
G1 X218.223 Y54.235 E90.37186
G1 X221.758 Y56.846 E90.67574
G1 X225.054 Y59.759 E90.97991
G1 X228.07 Y62.939 E91.28297
G1 X230.802 Y66.383 E91.58694
G1 X233.225 Y70.053 E91.89103
G1 X235.309 Y73.91 E92.19418
G0 F6000 X235.865 Y73.643
;TYPE:WALL-OUTER
G1 F900 X237.633 Y77.741 E92.50279
G1 X239.024 Y81.947 E92.80912
G1 X240.052 Y86.298 E93.11827
G1 X240.686 Y90.679 E93.42436
G1 X240.945 Y95.665 E93.76959
G1 X240.838 Y98.09 E93.93744
G1 X236.61 Y170.396 E98.94578
G1 X224.282 Y192.669 E100.70609
G1 X223.779 Y193.025 E100.7487
G1 X223.297 Y193.164 E100.78339
G1 X222.613 Y193.115 E100.83081
G1 X210.571 Y186.462 E101.78212
G1 X210.222 Y185.965 E101.82411
G1 X210.08 Y185.476 E101.85932
G1 X210.096 Y184.963 E101.89481
G1 X210.272 Y184.479 E101.93042
G1 X210.587 Y184.072 E101.96601
G1 X211.009 Y183.785 E102.0013
G1 X211.497 Y183.645 E102.0364
G1 X212.178 Y183.692 E102.08361
G1 X217.914 Y186.814 E102.53518
G1 X218.226 Y186.723 E102.55765
G1 X225.113 Y174.222 E103.54457
G1 X225.137 Y174.136 E103.55074
G1 X225.362 Y170.863 E103.7776
G1 X225.648 Y170.369 E103.81707
G1 X226.037 Y170.029 E103.85279
G1 X226.508 Y169.827 E103.88823
G1 X227.226 Y169.755 E103.93813
G1 X227.428 Y169.544 E103.95833
G1 X231.956 Y93.042 E109.25753
G1 X231.75 Y92.799 E109.27956
G1 X230.084 Y92.642 E109.39527
G1 X229.553 Y92.349 E109.43721
G1 X229.097 Y91.786 E109.48731
G1 X228.824 Y90.242 E109.59573
G1 X227.864 Y86.502 E109.86272
G1 X227.859 Y86.475 E109.86462
G1 X226.531 Y82.79 E110.13547
G1 X224.863 Y79.253 E110.40588
G1 X222.874 Y75.894 E110.67581
G1 X220.57 Y72.73 E110.94646
G1 X217.976 Y69.798 E111.21716
G1 X215.16 Y67.16 E111.48397
G1 X215.151 Y67.148 E111.48501
G1 X212.03 Y64.735 E111.7578
G1 X212.009 Y64.725 E111.75941
G1 X208.765 Y62.676 E112.02472
G1 X208.744 Y62.66 E112.02655
G1 X205.251 Y60.892 E112.29726
G1 X201.607 Y59.46 E112.56799
G1 X197.858 Y58.384 E112.83769
G1 X194.038 Y57.668 E113.10643
G1 X194.02 Y57.663 E113.10773
G1 X190.123 Y57.309 E113.3783
G1 X186.209 Y57.325 E113.64895
G1 X182.324 Y57.708 E113.91889
G1 X178.475 Y58.461 E114.19009
G1 X174.74 Y59.566 E114.45942
G1 X170.177 Y61.482 E114.80163
G1 X157.522 Y67.99 E115.78563
G1 X156.928 Y67.923 E115.82696
G1 X156.405 Y67.653 E115.86766
G1 X154.925 Y65.697 E116.03727
G1 X154.604 Y65.651 E116.05969
G1 X126.319 Y86.697 E118.49756
G1 X126.273 Y87.019 E118.52005
G1 X128.55 Y90.13 E118.78663
G1 X128.646 Y90.679 E118.82517
G1 X128.567 Y91.18 E118.86024
G1 X128.271 Y91.731 E118.90349
G1 X107.01 Y108.394 E120.77136
G1 X106.956 Y108.456 E120.77705
G1 X99.802 Y121.461 E121.8034
G1 X99.889 Y121.773 E121.82579
G1 X105.525 Y124.956 E122.27337
G1 X105.888 Y125.468 E122.31677
G1 X106.029 Y125.956 E122.35189
G1 X106.013 Y126.47 E122.38745
G1 X105.837 Y126.954 E122.42306
G1 X105.522 Y127.361 E122.45865
G1 X105.099 Y127.648 E122.49399
G1 X104.61 Y127.789 E122.52919
G1 X103.985 Y127.751 E122.57248
G1 X91.638 Y120.92 E123.5482
G1 X91.284 Y120.418 E123.59068
G1 X91.145 Y119.936 E123.62537
G1 X91.193 Y119.25 E123.67292
G1 X101.563 Y100.362 E125.16288
G1 X108.919 Y87.01 E126.21698
G1 X158.393 Y50.196 E130.4812
G1 X170.723 Y46.399 E131.3733
G1 X175.578 Y46.229 E131.70922
G1 X182.478 Y45.755 E132.18746
G1 X184.699 Y45.407 E132.34291
G1 X189.137 Y45.11 E132.65048
G1 X193.589 Y45.205 E132.95839
G1 X198.012 Y45.688 E133.26605
G1 X202.369 Y46.557 E133.57326
G1 X206.641 Y47.807 E133.88105
G1 X210.787 Y49.427 E134.18884
G1 X214.767 Y51.401 E134.49604
G1 X218.569 Y53.725 E134.80417
G1 X222.145 Y56.366 E135.11157
G1 X225.48 Y59.313 E135.41931
G1 X228.538 Y62.537 E135.72657
G1 X231.297 Y66.015 E136.03355
G1 X233.756 Y69.74 E136.34219
G1 X235.865 Y73.643 E136.64895
G0 F6000 X235.256 Y73.938
G0 X234.204 Y74.435
;TYPE:SKIN
G1 F900 X235.918 Y78.409 E136.94822
G1 X237.254 Y82.45 E137.24252
G1 X238.242 Y86.627 E137.53932
G1 X238.856 Y90.862 E137.83522
G1 X239.105 Y95.675 E138.16847
G1 X238.996 Y98.126 E138.33812
G1 X234.8 Y169.872 E143.30768
G1 X222.985 Y191.221 E144.99491
G1 X218.279 Y188.621 E145.36668
G1 X219.47 Y188.275 E145.45244
G1 X226.826 Y174.921 E146.50666
G1 X226.957 Y174.449 E146.54053
G1 X227.153 Y171.609 E146.73738
G1 X228.085 Y171.516 E146.80215
G1 X229.224 Y170.326 E146.91605
G1 X233.836 Y92.415 E152.31286
G1 X232.669 Y91.039 E152.43762
G1 X230.8 Y90.863 E152.56743
G1 X230.62 Y89.854 E152.6383
G1 X229.662 Y86.113 E152.90533
G1 X229.643 Y85.999 E152.91332
G1 X228.232 Y82.086 E153.20095
G1 X226.489 Y78.391 E153.48345
G1 X224.411 Y74.882 E153.76544
G1 X222.005 Y71.578 E154.04806
G1 X219.295 Y68.515 E154.33086
G1 X216.536 Y65.931 E154.59225
G1 X216.477 Y65.85 E154.59918
G1 X212.991 Y63.153 E154.90394
G1 X212.884 Y63.105 E154.91205
G1 X209.819 Y61.168 E155.16277
G1 X209.721 Y61.095 E155.17122
G1 X206.003 Y59.213 E155.45937
G1 X202.198 Y57.717 E155.74208
G1 X198.282 Y56.594 E156.02378
G1 X194.461 Y55.879 E156.29258
G1 X194.349 Y55.848 E156.30062
G1 X190.203 Y55.471 E156.58848
G1 X186.114 Y55.487 E156.87123
G1 X182.056 Y55.888 E157.1532
G1 X178.037 Y56.674 E157.43637
G1 X174.122 Y57.832 E157.71868
G1 X169.401 Y59.815 E158.07275
G1 X157.435 Y65.966 E159.00309
G1 X155.934 Y63.984 E159.17501
G1 X154.115 Y63.724 E159.30207
G1 X124.606 Y85.68 E161.8454
G1 X124.348 Y87.501 E161.97258
G1 X126.659 Y90.658 E162.24311
G1 X105.739 Y107.055 E164.08108
G1 X105.44 Y107.397 E164.11249
G1 X97.83 Y121.232 E165.20432
G1 X98.164 Y122.43 E165.29032
G1 X93.085 Y119.62 E165.69169
G1 X103.174 Y101.245 E167.14121
G1 X107.898 Y92.671 E167.81811
G1 X108.772 Y94.154 E167.93714
G1 X109.172 Y94.573 E167.9772
G1 X110.434 Y95.432 E168.08276
G1 X110.885 Y95.599 E168.11601
G1 X112.411 Y95.908 E168.22368
G1 X113.045 Y95.891 E168.26753
G1 X114.743 Y95.396 E168.38983
G1 X115.295 Y95.075 E168.43399
G1 X116.549 Y93.883 E168.55362
G1 X116.871 Y93.405 E168.59347
G1 X117.392 Y91.995 E168.69742
G1 X117.484 Y91.475 E168.73393
G1 X117.406 Y89.838 E168.84725
G1 X117.22 Y89.227 E168.89142
G1 X116.337 Y87.727 E169.01178
G1 X115.936 Y87.307 E169.05193
G1 X114.676 Y86.45 E169.1573
G1 X114.225 Y86.281 E169.1906
G1 X113.245 Y86.082 E169.25975
G1 X159.235 Y51.86 E173.22369
