;FLAVOR:Marlin
;TIME:776
;Filament used: 0.828881m
;Layer height: 0.25
;MINX:-29.103
;MINY:-23.243
;MINZ:0.25
;MAXX:29.094
;MAXY:31.09
;MAXZ:5.25
;Generated with Cura_SteamEngine 4.10.0
M104 S205
M105
M109 S205
M82 ;absolute extrusion mode
G21        ;metric values
G90        ;absolute positioning
M107       ;start with the fan off
G28   ;move to endstops

;Z-Offset Reset und dann Z +0,1 für PLA
;MacroZOffset0
;MacroZOffsetPlus0100

G92 E0                  ;zero the extruded length
G1 F200 E3              ;extrude 3mm of feed stock
G92 E0                  ;zero the extruded length again
G1 F150.0
;Put printing message on LCD screen
M117 Printing...
G92 E0
G92 E0
G1 F2400 E-6
;LAYER_COUNT:17
;LAYER:0
M106 S255
M204 S3000
G1 F600 Z1.25
G0 F1500 X6.671 Y-11.215 Z1.25
M204 S1500
;TYPE:SKIRT
G1 F600 Z0.25
G1 F2400 E0
G1 F600 X7.296 Y-10.821 E0.03317
G1 X7.991 Y-10.327 E0.07146
G1 X10.233 Y-8.662 E0.19685
G1 X12.437 Y-7.12 E0.31763
G1 X14.707 Y-5.623 E0.43973
G1 X16.99 Y-4.21 E0.56028
G1 X19.305 Y-2.866 E0.68047
G1 X22.184 Y-1.315 E0.82731
G1 X22.733 Y-.998 E0.85578
G1 X23.252 Y-.674 E0.88325
G1 X23.76 Y-.323 E0.91097
G1 X24.224 Y0.036 E0.93731
G1 X24.71 Y0.446 E0.96586
G1 X25.171 Y0.875 E0.99414
G1 X25.527 Y1.24 E1.01703
G1 X25.899 Y1.648 E1.04182
G1 X26.33 Y2.165 E1.07205
G1 X26.705 Y2.676 E1.10051
G1 X27.235 Y3.488 E1.14405
G1 X27.634 Y4.205 E1.18089
G1 X27.925 Y4.801 E1.21067
G1 X28.175 Y5.387 E1.23928
G1 X28.366 Y5.903 E1.26398
G1 X28.41 Y6.036 E1.27027
G1 X28.6 Y6.645 E1.29892
G1 X28.731 Y7.131 E1.32152
G1 X28.853 Y7.692 E1.3473
G1 X28.988 Y8.514 E1.3847
G1 X29.058 Y9.18 E1.41477
G1 X29.083 Y9.639 E1.43541
G1 X29.094 Y10.375 E1.46846
G1 X29.077 Y10.94 E1.49384
G1 X29.036 Y11.46 E1.51726
G1 X28.97 Y12.02 E1.54258
G1 X28.888 Y12.526 E1.5656
G1 X28.786 Y13.027 E1.58855
G1 X28.668 Y13.518 E1.61123
G1 X28.502 Y14.109 E1.63879
G1 X28.252 Y14.832 E1.67314
G1 X28.043 Y15.348 E1.69814
G1 X27.802 Y15.881 E1.7244
G1 X27.496 Y16.474 E1.75437
G1 X27.239 Y16.919 E1.77744
G1 X26.779 Y17.631 E1.8155
G1 X26.444 Y18.095 E1.8412
G1 X26.108 Y18.517 E1.86542
G1 X25.964 Y18.686 E1.87539
G1 X25.563 Y19.133 E1.90235
G1 X25.021 Y19.681 E1.93696
G1 X24.583 Y20.081 E1.96359
G1 X24.168 Y20.424 E1.98777
G1 X23.753 Y20.74 E2.01119
G1 X23.258 Y21.085 E2.03828
G1 X22.462 Y21.575 E2.08025
G1 X21.831 Y21.906 E2.11224
G1 X21.311 Y22.147 E2.13798
G1 X20.573 Y22.448 E2.17377
G1 X19.991 Y22.649 E2.20141
G1 X19.719 Y22.732 E2.21418
G1 X19.231 Y22.864 E2.23688
G1 X18.689 Y22.996 E2.26193
G1 X16.045 Y23.675 E2.3845
G1 X13.471 Y24.415 E2.50476
G1 X10.878 Y25.239 E2.62692
G1 X8.367 Y26.118 E2.74638
G1 X5.855 Y27.078 E2.86713
G1 X3.357 Y28.112 E2.98852
G1 X0.867 Y29.228 E3.11104
G1 X-.316 Y29.792 E3.16989
G1 X-.561 Y29.9 E3.18191
G1 X-1.474 Y30.273 E3.22619
G1 X-2.099 Y30.489 E3.25588
G1 X-2.326 Y30.556 E3.26651
G1 X-3.012 Y30.74 E3.2984
G1 X-3.698 Y30.886 E3.32989
G1 X-4.369 Y30.991 E3.36039
G1 X-4.949 Y31.049 E3.38656
G1 X-5.108 Y31.059 E3.39371
G1 X-5.738 Y31.09 E3.42204
G1 X-6.332 Y31.09 E3.44871
G1 X-6.913 Y31.063 E3.47482
G1 X-7.543 Y31.004 E3.50324
G1 X-8.046 Y30.935 E3.52603
G1 X-8.795 Y30.793 E3.56026
G1 X-9.301 Y30.672 E3.58362
G1 X-9.803 Y30.532 E3.60702
G1 X-10.469 Y30.31 E3.63855
G1 X-10.98 Y30.111 E3.66317
G1 X-11.52 Y29.875 E3.68963
G1 X-12.172 Y29.548 E3.72238
G1 X-12.653 Y29.28 E3.7471
G1 X-13.143 Y28.976 E3.773
G1 X-13.725 Y28.574 E3.80476
G1 X-14.192 Y28.212 E3.83129
G1 X-14.593 Y27.876 E3.85478
G1 X-15.133 Y27.381 E3.88767
G1 X-15.505 Y27 E3.91158
G1 X-15.861 Y26.61 E3.93529
G1 X-16.305 Y26.075 E3.96651
G1 X-16.693 Y25.547 E3.99593
G1 X-17.213 Y24.746 E4.03881
G1 X-17.525 Y24.2 E4.06704
G1 X-17.771 Y23.711 E4.09162
G1 X-18.012 Y23.178 E4.11789
G1 X-18.304 Y22.434 E4.15377
G1 X-18.525 Y21.753 E4.18592
G1 X-18.697 Y21.115 E4.21559
G1 X-18.731 Y20.975 E4.22206
G1 X-19.077 Y19.411 E4.29398
G1 X-19.512 Y17.508 E4.38163
G1 X-20.2 Y14.832 E4.5057
G1 X-20.928 Y12.297 E4.62412
G1 X-21.756 Y9.695 E4.74673
G1 X-22.641 Y7.162 E4.86721
G1 X-23.59 Y4.677 E4.98664
G1 X-24.638 Y2.145 E5.10969
G1 X-25.744 Y-.323 E5.23112
G1 X-26.918 Y-2.759 E5.35254
G1 X-27.514 Y-3.922 E5.41122
G1 X-27.76 Y-4.417 E5.43604
G1 X-28.03 Y-5.006 E5.46513
G1 X-28.243 Y-5.525 E5.49032
G1 X-28.453 Y-6.112 E5.51832
G1 X-28.655 Y-6.782 E5.54974
G1 X-28.821 Y-7.492 E5.58248
G1 X-28.959 Y-8.258 E5.61742
G1 X-29.068 Y-9.176 E5.65893
G1 X-29.092 Y-9.626 E5.67917
G1 X-29.103 Y-10.377 E5.71289
G1 X-29.079 Y-11.057 E5.74344
G1 X-29.026 Y-11.652 E5.77027
G1 X-28.949 Y-12.208 E5.79547
G1 X-28.806 Y-12.96 E5.82984
G1 X-28.682 Y-13.488 E5.85419
G1 X-28.523 Y-14.052 E5.8805
G1 X-28.329 Y-14.624 E5.90762
G1 X-28.075 Y-15.277 E5.93908
G1 X-27.837 Y-15.808 E5.96521
G1 X-27.715 Y-16.053 E5.9775
G1 X-27.367 Y-16.7 E6.01049
G1 X-27.064 Y-17.199 E6.0367
G1 X-26.764 Y-17.654 E6.06117
G1 X-26.33 Y-18.24 E6.09391
G1 X-25.966 Y-18.682 E6.11962
G1 X-25.629 Y-19.062 E6.14243
G1 X-25.28 Y-19.425 E6.16504
G1 X-24.821 Y-19.862 E6.1935
G1 X-24.334 Y-20.275 E6.22217
G1 X-24.177 Y-20.4 E6.23118
G1 X-23.744 Y-20.728 E6.25557
G1 X-23.213 Y-21.102 E6.28473
G1 X-22.517 Y-21.532 E6.32147
G1 X-21.833 Y-21.896 E6.35626
G1 X-21.438 Y-22.077 E6.37577
G1 X-20.56 Y-22.436 E6.41836
G1 X-19.947 Y-22.651 E6.44753
G1 X-19.36 Y-22.818 E6.47493
G1 X-18.702 Y-22.973 E6.50528
G1 X-18.201 Y-23.064 E6.52815
G1 X-17.559 Y-23.155 E6.55726
G1 X-17.11 Y-23.195 E6.5775
G1 X-16.252 Y-23.237 E6.61607
G1 X-15.987 Y-23.243 E6.62798
G1 X-15.27 Y-23.215 E6.66019
G1 X-15.06 Y-23.199 E6.66965
G1 X-14.388 Y-23.132 E6.69997
G1 X-13.755 Y-23.039 E6.7287
G1 X-13.236 Y-22.935 E6.75247
G1 X-12.659 Y-22.792 E6.77916
G1 X-11.982 Y-22.592 E6.81086
G1 X-11.372 Y-22.374 E6.83994
G1 X-10.857 Y-22.165 E6.8649
G1 X-10.296 Y-21.902 E6.89272
G1 X-9.714 Y-21.598 E6.9222
G1 X-9.215 Y-21.305 E6.94818
G1 X-8.749 Y-21.006 E6.97305
G1 X-8.289 Y-20.683 E6.99828
G1 X-7.545 Y-20.133 E7.03983
G1 X-6.596 Y-19.415 E7.09326
G1 X-4.373 Y-17.83 E7.21585
G1 X-2.146 Y-16.334 E7.33631
G1 X0.108 Y-14.911 E7.456
G1 X2.454 Y-13.523 E7.57839
G1 X5.646 Y-11.773 E7.74184
G1 X6.197 Y-11.485 E7.76976
G1 X6.671 Y-11.215 E7.79425
M204 S3000
G0 F1500 X6.421 Y-10.806
M204 S1500
G1 F600 X7.033 Y-10.419 E7.82677
G1 X7.709 Y-9.939 E7.86399
G1 X8.128 Y-9.623 E7.88756
G1 X8.179 Y-9.591 E7.89026
G1 X9.953 Y-8.272 E7.98952
G1 X12.163 Y-6.726 E8.11062
G1 X14.432 Y-5.229 E8.23268
G1 X16.754 Y-3.792 E8.35529
G1 X19.088 Y-2.437 E8.47647
G1 X21.956 Y-.892 E8.62274
G1 X22.492 Y-.583 E8.65052
G1 X22.984 Y-.276 E8.67656
G1 X23.482 Y0.068 E8.70374
G1 X23.917 Y0.405 E8.72845
G1 X24.388 Y0.802 E8.75611
G1 X24.839 Y1.222 E8.78378
G1 X25.263 Y1.66 E8.81115
G1 X25.653 Y2.096 E8.83742
G1 X26.11 Y2.668 E8.87029
G1 X26.512 Y3.246 E8.9019
G1 X26.829 Y3.744 E8.92841
G1 X27.211 Y4.432 E8.96374
G1 X27.49 Y5.004 E8.99232
G1 X27.726 Y5.558 E9.01936
G1 X27.912 Y6.059 E9.04335
G1 X28.141 Y6.788 E9.07766
G1 X28.311 Y7.443 E9.10805
G1 X28.426 Y8.012 E9.13411
G1 X28.513 Y8.583 E9.16005
G1 X28.581 Y9.228 E9.18917
G1 X28.604 Y9.646 E9.20797
G1 X28.615 Y10.382 E9.24102
G1 X28.597 Y10.917 E9.26505
G1 X28.537 Y11.629 E9.29714
G1 X28.446 Y12.27 E9.32621
G1 X28.319 Y12.917 E9.35581
G1 X28.113 Y13.734 E9.39365
G1 X27.954 Y14.239 E9.41742
G1 X27.724 Y14.867 E9.44745
G1 X27.471 Y15.456 E9.47623
G1 X27.07 Y16.252 E9.51625
G1 X26.78 Y16.751 E9.54217
G1 X26.379 Y17.365 E9.57509
G1 X26.057 Y17.812 E9.59983
G1 X25.736 Y18.214 E9.62293
G1 X25.606 Y18.366 E9.63191
G1 X25.205 Y18.813 E9.65887
G1 X24.686 Y19.337 E9.69199
G1 X24.262 Y19.724 E9.71776
G1 X23.867 Y20.05 E9.74076
G1 X23.357 Y20.434 E9.76943
G1 X22.757 Y20.837 E9.80188
G1 X22.216 Y21.162 E9.83022
G1 X21.618 Y21.475 E9.86052
G1 X21.11 Y21.711 E9.88568
G1 X20.399 Y22 E9.92014
G1 X19.838 Y22.194 E9.94679
G1 X19.594 Y22.268 E9.95824
G1 X18.986 Y22.431 E9.9865
G1 X18.588 Y22.526 E10.00487
G1 X15.935 Y23.208 E10.12787
G1 X13.335 Y23.955 E10.24934
G1 X10.716 Y24.788 E10.37274
G1 X8.179 Y25.676 E10.49343
G1 X5.716 Y26.617 E10.61182
G1 X3.137 Y27.684 E10.73714
G1 X0.678 Y28.786 E10.85813
G1 X-.523 Y29.359 E10.91788
G1 X-.743 Y29.456 E10.92867
G1 X-1.656 Y29.829 E10.97296
G1 X-2.247 Y30.033 E11.00103
G1 X-2.45 Y30.093 E11.01054
G1 X-3.136 Y30.277 E11.04243
G1 X-3.791 Y30.416 E11.07249
G1 X-4.421 Y30.514 E11.10112
G1 X-4.989 Y30.57 E11.12675
G1 X-5.132 Y30.58 E11.13318
G1 X-5.762 Y30.611 E11.16151
G1 X-6.323 Y30.61 E11.1867
G1 X-6.872 Y30.585 E11.21137
G1 X-7.48 Y30.528 E11.23879
G1 X-8.246 Y30.415 E11.27356
G1 X-8.809 Y30.297 E11.29939
G1 X-9.302 Y30.176 E11.32218
G1 X-9.977 Y29.972 E11.35384
G1 X-10.482 Y29.793 E11.3779
G1 X-11.15 Y29.517 E11.41035
G1 X-11.709 Y29.248 E11.43821
G1 X-12.417 Y28.862 E11.47442
G1 X-12.886 Y28.571 E11.4992
G1 X-13.449 Y28.181 E11.52995
G1 X-13.883 Y27.844 E11.55462
G1 X-14.284 Y27.508 E11.57811
G1 X-14.802 Y27.034 E11.60964
G1 X-15.158 Y26.669 E11.63253
G1 X-15.506 Y26.287 E11.65574
G1 X-15.932 Y25.773 E11.68571
G1 X-16.302 Y25.268 E11.71382
G1 X-16.807 Y24.49 E11.75547
G1 X-17.1 Y23.978 E11.78196
G1 X-17.334 Y23.512 E11.80537
G1 X-17.571 Y22.99 E11.83111
G1 X-17.855 Y22.265 E11.86607
G1 X-18.067 Y21.609 E11.89703
G1 X-18.232 Y20.997 E11.92549
G1 X-18.262 Y20.871 E11.9313
G1 X-18.609 Y19.307 E12.00324
G1 X-19.053 Y17.365 E12.09269
G1 X-19.728 Y14.737 E12.21452
G1 X-20.477 Y12.128 E12.3364
G1 X-21.297 Y9.553 E12.45774
G1 X-22.194 Y6.985 E12.57987
G1 X-23.146 Y4.494 E12.69961
G1 X-24.19 Y1.97 E12.82226
G1 X-25.306 Y-.518 E12.94469
G1 X-26.488 Y-2.972 E13.067
G1 X-27.084 Y-4.136 E13.12572
G1 X-27.382 Y-4.738 E13.15588
G1 X-27.74 Y-5.559 E13.19609
G1 X-28 Y-6.27 E13.23008
G1 X-28.194 Y-6.916 E13.26037
G1 X-28.348 Y-7.577 E13.29085
G1 X-28.506 Y-8.463 E13.33126
G1 X-28.591 Y-9.222 E13.36555
G1 X-28.613 Y-9.633 E13.38403
G1 X-28.624 Y-10.384 E13.41775
G1 X-28.6 Y-11.033 E13.44691
G1 X-28.548 Y-11.606 E13.47275
G1 X-28.475 Y-12.137 E13.49682
G1 X-28.335 Y-12.864 E13.53006
G1 X-28.218 Y-13.363 E13.55307
G1 X-28.064 Y-13.91 E13.57859
G1 X-27.875 Y-14.468 E13.60504
G1 X-27.636 Y-15.084 E13.63471
G1 X-27.402 Y-15.605 E13.66035
G1 X-27.292 Y-15.826 E13.67144
G1 X-26.944 Y-16.473 E13.70442
G1 X-26.659 Y-16.941 E13.72903
G1 X-26.364 Y-17.389 E13.75311
G1 X-25.948 Y-17.949 E13.78444
G1 X-25.607 Y-18.364 E13.80855
G1 X-25.27 Y-18.744 E13.83136
G1 X-24.633 Y-19.381 E13.87181
G1 X-24.028 Y-19.905 E13.90775
G1 X-23.887 Y-20.017 E13.91583
G1 X-23.454 Y-20.345 E13.94022
G1 X-22.939 Y-20.708 E13.96851
G1 X-22.272 Y-21.119 E14.00369
G1 X-21.615 Y-21.468 E14.0371
G1 X-21.257 Y-21.633 E14.0548
G1 X-20.379 Y-21.992 E14.09739
G1 X-19.795 Y-22.196 E14.12516
G1 X-19.245 Y-22.352 E14.15083
G1 X-18.597 Y-22.504 E14.18072
G1 X-17.67 Y-22.657 E14.22291
G1 X-17.086 Y-22.716 E14.24926
G1 X-16.228 Y-22.758 E14.28783
G1 X-15.991 Y-22.763 E14.29848
G1 X-15.296 Y-22.736 E14.32971
G1 X-15.107 Y-22.721 E14.33822
G1 X-14.435 Y-22.654 E14.36854
G1 X-13.831 Y-22.565 E14.39596
G1 X-12.895 Y-22.357 E14.43901
G1 X-12.318 Y-22.195 E14.46592
G1 X-11.817 Y-22.027 E14.48964
G1 X-11.291 Y-21.828 E14.5149
G1 X-10.752 Y-21.589 E14.54137
G1 X-10.149 Y-21.289 E14.57161
G1 X-9.571 Y-20.959 E14.6015
G1 X-9.013 Y-20.605 E14.63117
G1 X-8.574 Y-20.297 E14.65525
G1 X-7.835 Y-19.75 E14.69653
G1 X-6.882 Y-19.029 E14.75019
G1 X-4.678 Y-17.458 E14.87172
G1 X-2.411 Y-15.935 E14.99435
G1 X-.125 Y-14.492 E15.11573
G1 X2.207 Y-13.112 E15.2374
G1 X5.464 Y-11.326 E15.40419
G1 X5.975 Y-11.059 E15.43007
G1 X6.421 Y-10.806 E15.4531
M204 S3000
G0 F1500 X6.459 Y-10.219
M204 S1500
G1 F600 X7.027 Y-9.841 E15.48373
G1 X7.48 Y-9.511 E15.5089
G1 X9.674 Y-7.882 E15.6316
G1 X11.923 Y-6.308 E15.75485
G1 X14.182 Y-4.818 E15.87636
G1 X16.476 Y-3.399 E15.99748
G1 X18.834 Y-2.03 E16.11991
G1 X21.729 Y-.47 E16.26757
G1 X22.251 Y-.168 E16.29465
G1 X22.717 Y0.123 E16.31931
G1 X23.203 Y0.459 E16.34584
G1 X23.61 Y0.774 E16.36895
G1 X24.066 Y1.158 E16.39572
G1 X24.507 Y1.568 E16.42276
G1 X24.907 Y1.983 E16.44864
G1 X25.285 Y2.404 E16.47404
G1 X25.719 Y2.947 E16.50525
G1 X26.114 Y3.513 E16.53625
G1 X26.423 Y4.001 E16.56218
G1 X26.788 Y4.66 E16.59601
G1 X27.055 Y5.207 E16.62334
G1 X27.278 Y5.729 E16.64882
G1 X27.458 Y6.216 E16.67214
G1 X27.493 Y6.322 E16.67715
G1 X27.683 Y6.931 E16.70579
G1 X27.841 Y7.541 E16.73409
G1 X27.954 Y8.101 E16.75974
G1 X28.037 Y8.652 E16.78476
G1 X28.103 Y9.275 E16.81289
G1 X28.124 Y9.653 E16.82989
G1 X28.135 Y10.389 E16.86294
G1 X28.118 Y10.894 E16.88563
G1 X28.059 Y11.58 E16.91654
G1 X27.971 Y12.196 E16.94448
G1 X27.852 Y12.806 E16.97239
G1 X27.65 Y13.61 E17.00961
G1 X27.498 Y14.089 E17.03218
G1 X27.281 Y14.681 E17.06049
G1 X27.032 Y15.262 E17.08887
G1 X26.645 Y16.029 E17.12744
G1 X26.372 Y16.497 E17.15177
G1 X25.979 Y17.099 E17.18405
G1 X25.669 Y17.528 E17.20782
G1 X25.249 Y18.045 E17.23773
G1 X24.848 Y18.492 E17.26469
G1 X24.351 Y18.994 E17.29641
G1 X23.941 Y19.367 E17.3213
G1 X23.476 Y19.746 E17.34823
G1 X23.015 Y20.088 E17.37401
G1 X22.496 Y20.434 E17.40201
G1 X21.971 Y20.75 E17.42953
G1 X21.406 Y21.045 E17.45815
G1 X20.909 Y21.275 E17.48274
G1 X20.225 Y21.553 E17.51589
G1 X19.684 Y21.739 E17.54157
G1 X19.468 Y21.805 E17.55172
G1 X18.874 Y21.964 E17.57933
G1 X18.473 Y22.06 E17.59784
G1 X15.79 Y22.749 E17.72222
G1 X13.197 Y23.494 E17.84336
G1 X10.584 Y24.325 E17.96648
G1 X8.033 Y25.218 E18.08783
G1 X5.502 Y26.185 E18.20949
G1 X2.971 Y27.233 E18.33249
G1 X0.455 Y28.36 E18.45628
G1 X-.729 Y28.925 E18.51519
G1 X-.924 Y29.012 E18.52477
G1 X-1.837 Y29.385 E18.56906
G1 X-2.394 Y29.576 E18.5955
G1 X-2.574 Y29.629 E18.60392
G1 X-3.26 Y29.813 E18.63581
G1 X-3.884 Y29.945 E18.66445
G1 X-4.473 Y30.036 E18.69121
G1 X-5.029 Y30.092 E18.7163
G1 X-5.155 Y30.101 E18.72198
G1 X-5.785 Y30.132 E18.7503
G1 X-6.314 Y30.13 E18.77405
G1 X-6.831 Y30.106 E18.79729
G1 X-7.418 Y30.053 E18.82375
G1 X-8.167 Y29.942 E18.85775
G1 X-8.696 Y29.831 E18.88202
G1 X-9.352 Y29.665 E18.91241
G1 X-9.831 Y29.515 E18.93494
G1 X-10.304 Y29.347 E18.95748
G1 X-10.96 Y29.076 E18.98935
G1 X-11.487 Y28.823 E19.0156
G1 X-12.181 Y28.444 E19.0511
G1 X-12.629 Y28.166 E19.07478
G1 X-13.173 Y27.788 E19.10452
G1 X-13.575 Y27.476 E19.12737
G1 X-13.976 Y27.14 E19.15086
G1 X-14.471 Y26.686 E19.18102
G1 X-14.876 Y26.267 E19.20719
G1 X-15.257 Y25.842 E19.23281
G1 X-15.695 Y25.292 E19.26438
G1 X-16.088 Y24.729 E19.29521
G1 X-16.401 Y24.234 E19.32151
G1 X-16.675 Y23.755 E19.34629
G1 X-17.092 Y22.885 E19.38961
G1 X-17.406 Y22.095 E19.42778
G1 X-17.609 Y21.466 E19.45746
G1 X-17.767 Y20.878 E19.48479
G1 X-17.794 Y20.767 E19.48992
G1 X-18.141 Y19.203 E19.56186
G1 X-18.591 Y17.236 E19.65246
G1 X-19.263 Y14.618 E19.77382
G1 X-20.018 Y11.991 E19.89655
G1 X-20.842 Y9.401 E20.01859
G1 X-21.741 Y6.828 E20.14097
G1 X-22.697 Y4.325 E20.26128
G1 X-23.753 Y1.772 E20.38533
G1 X-24.878 Y-.738 E20.50883
G1 X-26.049 Y-3.168 E20.62995
G1 X-26.654 Y-4.349 E20.68953
G1 X-26.946 Y-4.94 E20.71913
G1 X-27.297 Y-5.743 E20.75848
G1 X-27.547 Y-6.428 E20.79122
G1 X-27.733 Y-7.05 E20.82037
G1 X-27.876 Y-7.662 E20.84859
G1 X-28.032 Y-8.534 E20.88837
G1 X-28.113 Y-9.268 E20.92152
G1 X-28.133 Y-9.641 E20.9383
G1 X-28.144 Y-10.392 E20.97202
G1 X-28.12 Y-11.008 E20.9997
G1 X-28.071 Y-11.56 E21.02458
G1 X-28 Y-12.066 E21.04753
G1 X-27.865 Y-12.769 E21.07967
G1 X-27.672 Y-13.544 E21.11553
G1 X-27.421 Y-14.313 E21.15185
G1 X-27.196 Y-14.892 E21.17974
G1 X-26.967 Y-15.403 E21.20489
G1 X-26.869 Y-15.598 E21.21469
G1 X-26.521 Y-16.245 E21.24767
G1 X-26.254 Y-16.684 E21.27074
G1 X-25.964 Y-17.124 E21.29441
G1 X-25.567 Y-17.658 E21.32428
G1 X-25.248 Y-18.045 E21.3468
G1 X-24.911 Y-18.425 E21.36961
G1 X-24.3 Y-19.036 E21.40841
G1 X-23.722 Y-19.535 E21.44269
G1 X-23.597 Y-19.634 E21.44985
G1 X-23.164 Y-19.962 E21.47424
G1 X-22.665 Y-20.314 E21.50166
G1 X-22.028 Y-20.706 E21.53525
G1 X-21.397 Y-21.04 E21.5673
G1 X-21.075 Y-21.188 E21.58322
G1 X-20.197 Y-21.547 E21.62581
G1 X-19.643 Y-21.741 E21.65216
G1 X-19.13 Y-21.886 E21.6761
G1 X-18.493 Y-22.036 E21.70548
G1 X-17.6 Y-22.182 E21.74611
G1 X-17.063 Y-22.237 E21.77035
G1 X-16.205 Y-22.279 E21.80892
G1 X-15.995 Y-22.283 E21.81835
G1 X-15.322 Y-22.257 E21.8486
G1 X-15.155 Y-22.244 E21.85612
G1 X-14.483 Y-22.177 E21.88644
G1 X-13.907 Y-22.091 E21.91259
