;FLAVOR:Marlin
;TIME:2761
;Filament used: 3.84252m
;Layer height: 0.3
;MINX:-26.122
;MINY:-24.636
;MINZ:0.3
;MAXX:26.122
;MAXY:20.81
;MAXZ:62.4
;Generated with Cura_SteamEngine 4.10.0
M104 S205
M105
M109 S205
M82 ;absolute extrusion mode
G21        ;metric values
G90        ;absolute positioning
M107       ;start with the fan off
G28   ;move to endstops
G92 E0                  ;zero the extruded length
G1 F200 E3              ;extrude 3mm of feed stock
G92 E0                  ;zero the extruded length again
G1 F120
;Put printing message on LCD screen
M117 Printing...
G92 E0
G92 E0
G1 F2400 E-6
;LAYER_COUNT:208
;LAYER:0
M107
G0 X-16.836 Y17.616 Z0.3
;TYPE:SKIRT
G1 F2400 E0
G1 F1200 X-17.542 Y17.606 E0.03409
G1 X-18.123 Y17.575 E0.06218
G1 X-18.988 Y17.473 E0.10423
G1 X-19.409 Y17.383 E0.12501
G1 X-19.928 Y17.25 E0.15088
G1 X-20.582 Y17.027 E0.18424
G1 X-20.738 Y16.963 E0.19238
G1 X-21.206 Y16.76 E0.217
G1 X-21.791 Y16.45 E0.24897
G1 X-21.923 Y16.37 E0.25642
G1 X-22.367 Y16.089 E0.28179
G1 X-22.887 Y15.701 E0.31311
G1 X-23.015 Y15.593 E0.32119
G1 X-23.439 Y15.219 E0.34849
G1 X-23.862 Y14.785 E0.37775
G1 X-23.96 Y14.672 E0.38497
G1 X-24.334 Y14.221 E0.41325
G1 X-24.708 Y13.693 E0.44449
G1 X-24.796 Y13.55 E0.4526
G1 X-25.066 Y13.093 E0.47822
G1 X-25.353 Y12.509 E0.50964
G1 X-25.416 Y12.359 E0.51749
G1 X-25.613 Y11.861 E0.54335
G1 X-25.806 Y11.24 E0.57474
G1 X-25.843 Y11.09 E0.5822
G1 X-25.961 Y10.57 E0.60794
G1 X-26.056 Y9.911 E0.64009
G1 X-26.069 Y9.762 E0.64731
G1 X-26.11 Y9.103 E0.67919
G1 X-26.122 Y8.404 E0.71294
G1 X-26.122 Y-5.356 E1.37724
G1 X-26.111 Y-6.168 E1.41644
G1 X-26.086 Y-6.8 E1.44698
G1 X-26.068 Y-7.143 E1.46356
G1 X-26.022 Y-7.826 E1.49661
G1 X-25.919 Y-8.634 E1.53593
G1 X-25.846 Y-9.09 E1.55823
G1 X-25.727 Y-9.768 E1.59146
G1 X-25.623 Y-10.236 E1.61461
G1 X-25.438 Y-10.939 E1.6497
G1 X-25.236 Y-11.651 E1.68543
G1 X-24.984 Y-12.375 E1.72244
G1 X-24.811 Y-12.823 E1.74563
G1 X-24.554 Y-13.465 E1.77901
G1 X-24.323 Y-13.966 E1.80565
G1 X-24.024 Y-14.556 E1.83758
G1 X-23.682 Y-15.205 E1.873
G1 X-23.423 Y-15.644 E1.8976
G1 X-23.039 Y-16.242 E1.93191
G1 X-22.646 Y-16.83 E1.96606
G1 X-22.303 Y-17.29 E1.99376
G1 X-21.876 Y-17.82 E2.02662
G1 X-21.413 Y-18.375 E2.06151
G1 X-20.848 Y-18.975 E2.1013
G1 X-20.537 Y-19.287 E2.12257
G1 X-20.055 Y-19.754 E2.15497
G1 X-19.672 Y-20.093 E2.17966
G1 X-19.137 Y-20.53 E2.21301
G1 X-18.545 Y-20.996 E2.24938
G1 X-17.865 Y-21.467 E2.28932
G1 X-17.548 Y-21.672 E2.30754
G1 X-16.906 Y-22.075 E2.34414
G1 X-16.468 Y-22.323 E2.36844
G1 X-15.848 Y-22.642 E2.4021
G1 X-15.187 Y-22.968 E2.43768
G1 X-14.434 Y-23.282 E2.47707
G1 X-13.992 Y-23.451 E2.49991
G1 X-13.37 Y-23.679 E2.5319
G1 X-12.867 Y-23.837 E2.55735
G1 X-12.186 Y-24.021 E2.59141
G1 X-11.498 Y-24.194 E2.62566
G1 X-10.668 Y-24.352 E2.66645
G1 X-10.274 Y-24.414 E2.6857
G1 X-9.555 Y-24.516 E2.72076
G1 X-9.084 Y-24.561 E2.7436
G1 X-8.452 Y-24.597 E2.77416
G1 X-7.687 Y-24.626 E2.81112
G1 X-6.864 Y-24.636 E2.85086
G1 X6.986 Y-24.634 E3.5195
G1 X7.896 Y-24.621 E3.56344
G1 X8.397 Y-24.601 E3.58765
G1 X8.618 Y-24.589 E3.59833
G1 X9.294 Y-24.544 E3.63104
G1 X9.859 Y-24.478 E3.6585
G1 X10.546 Y-24.371 E3.69207
G1 X11.219 Y-24.255 E3.72504
G1 X11.711 Y-24.146 E3.74937
G1 X12.397 Y-23.965 E3.78362
G1 X13.133 Y-23.756 E3.82056
G1 X13.623 Y-23.592 E3.8455
G1 X14.327 Y-23.323 E3.88189
G1 X14.934 Y-23.079 E3.91347
G1 X15.45 Y-22.843 E3.94087
G1 X16.037 Y-22.545 E3.97265
G1 X16.685 Y-22.203 E4.00802
G1 X17.123 Y-21.945 E4.03256
G1 X17.715 Y-21.564 E4.06655
G1 X18.311 Y-21.166 E4.10115
G1 X18.748 Y-20.841 E4.12744
G1 X19.314 Y-20.386 E4.1625
G1 X19.859 Y-19.931 E4.19678
G1 X20.222 Y-19.599 E4.22053
G1 X20.755 Y-19.068 E4.25685
G1 X21.227 Y-18.583 E4.28952
G1 X21.771 Y-17.95 E4.32982
G1 X22.014 Y-17.65 E4.34845
G1 X22.474 Y-17.066 E4.38434
G1 X22.771 Y-16.648 E4.4091
G1 X23.128 Y-16.104 E4.44051
G1 X23.54 Y-15.451 E4.47779
G1 X23.798 Y-14.993 E4.50317
G1 X24.119 Y-14.37 E4.537
G1 X24.44 Y-13.72 E4.572
G1 X24.737 Y-13.016 E4.60889
G1 X24.913 Y-12.558 E4.63258
G1 X25.154 Y-11.903 E4.66627
G1 X25.306 Y-11.418 E4.69081
G1 X25.49 Y-10.744 E4.72454
G1 X25.675 Y-10.01 E4.76108
G1 X25.78 Y-9.494 E4.7865
G1 X25.887 Y-8.831 E4.81893
G1 X25.992 Y-8.104 E4.85439
G1 X26.041 Y-7.601 E4.87879
G1 X26.082 Y-6.865 E4.91437
G1 X26.115 Y-5.986 E4.95684
G1 X26.122 Y-5.427 E4.98383
G1 X26.122 Y8.33 E5.64799
G1 X26.112 Y9.035 E5.68203
G1 X26.079 Y9.625 E5.71055
G1 X25.975 Y10.499 E5.75305
G1 X25.884 Y10.917 E5.7737
G1 X25.755 Y11.422 E5.79886
G1 X25.535 Y12.066 E5.83172
G1 X25.472 Y12.222 E5.83984
G1 X25.262 Y12.707 E5.86536
G1 X24.971 Y13.262 E5.89561
G1 X24.89 Y13.395 E5.90313
G1 X24.598 Y13.858 E5.92955
G1 X24.195 Y14.396 E5.96201
G1 X24.1 Y14.508 E5.9691
G1 X23.728 Y14.93 E5.99626
G1 X23.293 Y15.354 E6.02558
G1 X23.176 Y15.456 E6.03308
G1 X22.728 Y15.827 E6.06116
G1 X22.207 Y16.196 E6.09198
G1 X22.052 Y16.292 E6.10078
G1 X21.583 Y16.568 E6.12705
G1 X21.021 Y16.845 E6.1573
G1 X20.866 Y16.911 E6.16544
G1 X20.374 Y17.106 E6.19099
G1 X19.74 Y17.301 E6.22301
G1 X19.594 Y17.338 E6.23028
G1 X19.079 Y17.455 E6.25578
G1 X18.406 Y17.552 E6.2886
G1 X18.243 Y17.566 E6.2965
G1 X17.621 Y17.604 E6.32659
G1 X17.007 Y17.616 E6.35624
G1 X-16.836 Y17.616 E7.9901
G0 F2400 X-16.83 Y17.196
G1 F1200 X-17.536 Y17.186 E8.02419
G1 X-18.083 Y17.157 E8.05063
G1 X-18.905 Y17.062 E8.09058
G1 X-19.305 Y16.977 E8.11032
G1 X-19.824 Y16.844 E8.13619
G1 X-20.432 Y16.634 E8.16724
G1 X-20.57 Y16.578 E8.17443
G1 X-21.038 Y16.375 E8.19906
G1 X-21.581 Y16.086 E8.22876
G1 X-21.699 Y16.015 E8.23541
G1 X-22.143 Y15.734 E8.26077
G1 X-22.624 Y15.374 E8.28978
G1 X-22.737 Y15.278 E8.29694
G1 X-23.161 Y14.904 E8.32423
G1 X-23.55 Y14.504 E8.35117
G1 X-23.637 Y14.404 E8.35757
G1 X-24.011 Y13.953 E8.38585
G1 X-24.356 Y13.463 E8.41479
G1 X-24.435 Y13.337 E8.42197
G1 X-24.705 Y12.88 E8.44759
G1 X-24.97 Y12.337 E8.47676
G1 X-25.026 Y12.205 E8.48368
G1 X-25.223 Y11.707 E8.50954
G1 X-25.4 Y11.129 E8.53872
G1 X-25.433 Y10.997 E8.54529
G1 X-25.551 Y10.477 E8.57103
G1 X-25.638 Y9.867 E8.60078
G1 X-25.649 Y9.735 E8.60718
G1 X-25.69 Y9.085 E8.63862
G1 X-25.702 Y8.4 E8.67169
G1 X-25.702 Y-5.35 E9.33551
G1 X-25.691 Y-6.162 E9.37472
G1 X-25.667 Y-6.778 E9.40448
G1 X-25.649 Y-7.115 E9.42077
G1 X-25.603 Y-7.798 E9.45382
G1 X-25.503 Y-8.572 E9.4915
G1 X-25.433 Y-9.017 E9.51325
G1 X-25.314 Y-9.695 E9.54648
G1 X-25.217 Y-10.129 E9.56795
G1 X-25.034 Y-10.824 E9.60265
G1 X-24.832 Y-11.536 E9.63838
G1 X-24.59 Y-12.229 E9.67381
G1 X-24.421 Y-12.667 E9.69648
G1 X-24.164 Y-13.309 E9.72986
G1 X-23.949 Y-13.776 E9.75468
G1 X-23.653 Y-14.36 E9.78629
G1 X-23.311 Y-15.009 E9.82171
G1 X-22.928 Y-15.641 E9.85739
G1 X-22.662 Y-16.051 E9.88098
G1 X-22.297 Y-16.597 E9.91269
G1 X-21.976 Y-17.027 E9.93859
G1 X-21.554 Y-17.551 E9.97108
G1 X-21.091 Y-18.106 E10.00597
G1 X-20.549 Y-18.681 E10.04412
G1 X-20.245 Y-18.985 E10.06487
G1 X-19.763 Y-19.452 E10.09727
G1 X-19.143 Y-19.985 E10.13675
G1 X-18.846 Y-20.224 E10.15515
G1 X-18.285 Y-20.666 E10.18963
G1 X-17.632 Y-21.117 E10.22794
G1 X-17.325 Y-21.317 E10.24563
G1 X-16.683 Y-21.72 E10.28223
G1 X-16.045 Y-22.07 E10.31736
G1 X-15.662 Y-22.265 E10.33811
G1 X-15.001 Y-22.591 E10.37369
G1 X-14.279 Y-22.892 E10.41146
G1 X-13.848 Y-23.057 E10.43374
G1 X-13.226 Y-23.285 E10.46572
G1 X-12.757 Y-23.432 E10.48945
G1 X-12.084 Y-23.614 E10.5231
G1 X-11.396 Y-23.787 E10.55735
G1 X-10.598 Y-23.938 E10.59656
G1 X-10.215 Y-23.998 E10.61528
G1 X-9.496 Y-24.1 E10.65034
G1 X-9.059 Y-24.141 E10.67153
G1 X-8.436 Y-24.178 E10.70166
G1 X-7.681 Y-24.206 E10.73813
G1 X-6.865 Y-24.216 E10.77753
G1 X6.98 Y-24.214 E11.44594
G1 X7.89 Y-24.201 E11.48987
G1 X8.546 Y-24.173 E11.52157
G1 X9.266 Y-24.125 E11.55641
G1 X9.795 Y-24.063 E11.58212
G1 X10.474 Y-23.957 E11.6153
G1 X11.147 Y-23.841 E11.64827
G1 X11.908 Y-23.662 E11.68601
G1 X12.325 Y-23.549 E11.70687
G1 X13.019 Y-23.352 E11.7417
G1 X13.474 Y-23.199 E11.76487
G1 X14.17 Y-22.933 E11.80085
G1 X14.777 Y-22.689 E11.83243
G1 X15.26 Y-22.468 E11.85807
G1 X15.841 Y-22.174 E11.88951
G1 X16.489 Y-21.832 E11.92488
G1 X17.126 Y-21.446 E11.96084
G1 X17.523 Y-21.188 E11.9837
G1 X18.078 Y-20.817 E12.01593
G1 X18.485 Y-20.513 E12.04045
G1 X19.045 Y-20.063 E12.07514
G1 X19.59 Y-19.608 E12.10941
G1 X19.926 Y-19.301 E12.13138
G1 X20.454 Y-18.775 E12.16737
G1 X20.926 Y-18.29 E12.20004
G1 X21.448 Y-17.683 E12.23869
G1 X21.684 Y-17.39 E12.25685
G1 X22.144 Y-16.806 E12.29274
G1 X22.553 Y-16.219 E12.32728
G1 X22.795 Y-15.844 E12.34883
G1 X23.184 Y-15.227 E12.38404
G1 X23.425 Y-14.801 E12.40767
G1 X23.742 Y-14.184 E12.44116
G1 X24.063 Y-13.534 E12.47616
G1 X24.347 Y-12.861 E12.51142
G1 X24.519 Y-12.413 E12.53459
G1 X24.76 Y-11.758 E12.56829
G1 X24.901 Y-11.307 E12.5911
G1 X25.083 Y-10.642 E12.62438
G1 X25.268 Y-9.908 E12.66093
G1 X25.396 Y-9.246 E12.69348
G1 X25.478 Y-8.726 E12.71889
G1 X25.577 Y-8.043 E12.75221
G1 X25.638 Y-7.317 E12.78739
G1 X25.665 Y-6.798 E12.81248
G1 X25.695 Y-5.981 E12.85195
G1 X25.702 Y-5.422 E12.87893
G1 X25.702 Y8.325 E13.54261
G1 X25.692 Y9.03 E13.57665
G1 X25.661 Y9.586 E13.60353
G1 X25.563 Y10.414 E13.64379
G1 X25.477 Y10.813 E13.66349
G1 X25.348 Y11.318 E13.68865
G1 X25.143 Y11.917 E13.71922
G1 X25.087 Y12.055 E13.72641
G1 X24.877 Y12.54 E13.75192
G1 X24.606 Y13.053 E13.77993
G1 X24.535 Y13.171 E13.78658
G1 X24.243 Y13.634 E13.81301
G1 X23.869 Y14.131 E13.84304
G1 X23.785 Y14.231 E13.84934
G1 X23.413 Y14.653 E13.8765
G1 X23.012 Y15.043 E13.90351
G1 X22.908 Y15.132 E13.91012
G1 X22.46 Y15.503 E13.9382
G1 X21.976 Y15.845 E13.96681
G1 X21.839 Y15.931 E13.97462
G1 X21.37 Y16.207 E14.00089
G1 X20.848 Y16.462 E14.02894
G1 X20.712 Y16.52 E14.03607
G1 X20.22 Y16.715 E14.06163
G1 X19.63 Y16.896 E14.09142
G1 X19.501 Y16.928 E14.09784
G1 X18.986 Y17.045 E14.12333
G1 X18.361 Y17.134 E14.15381
G1 X18.217 Y17.147 E14.16079
G1 X17.606 Y17.184 E14.19034
G1 X17.002 Y17.196 E14.21951
G1 X-16.83 Y17.196 E15.85284
G1 F2400 E9.85284
;MESH:Moai__Plants.STL
G0 X-16.83 Y14.601
G0 X-16.83 Y13.336
G0 X21.684 Y-7.506
G0 X21.783 Y-7.516
;TYPE:WALL-INNER
G1 F2400 E15.85284
G1 F1200 X21.862 Y-6 E15.92613
G1 X21.862 Y8.962 E16.64846
G1 X21.806 Y9.668 E16.68265
G1 X21.645 Y10.341 E16.71606
G1 X21.385 Y10.969 E16.74887
G1 X21.027 Y11.553 E16.78194
G1 X20.581 Y12.075 E16.81509
G1 X20.064 Y12.517 E16.84793
G1 X19.473 Y12.879 E16.88139
G1 X18.842 Y13.14 E16.91435
G1 X18.172 Y13.301 E16.94762
G1 X17.469 Y13.356 E16.98166
G1 X-17.469 Y13.356 E18.66839
G1 X-18.172 Y13.301 E18.70244
G1 X-18.842 Y13.14 E18.7357
G1 X-19.473 Y12.879 E18.76867
G1 X-20.064 Y12.517 E18.80213
G1 X-20.581 Y12.075 E18.83497
G1 X-21.027 Y11.553 E18.86811
G1 X-21.385 Y10.969 E18.90118
G1 X-21.645 Y10.341 E18.934
G1 X-21.806 Y9.668 E18.9674
G1 X-21.862 Y8.962 E19.0016
G1 X-21.862 Y-6 E19.72393
G1 X-21.783 Y-7.516 E19.79722
G1 X-21.546 Y-9.007 E19.8701
G1 X-21.161 Y-10.448 E19.94211
G1 X-20.621 Y-11.852 E20.01473
G1 X-19.934 Y-13.202 E20.08786
G1 X-19.119 Y-14.456 E20.16006
G1 X-18.17 Y-15.628 E20.23287
G1 X-17.105 Y-16.693 E20.30558
G1 X-15.935 Y-17.641 E20.37828
G1 X-14.68 Y-18.456 E20.45052
G1 X-13.33 Y-19.143 E20.52365
G1 X-11.929 Y-19.681 E20.59611
G1 X-10.483 Y-20.068 E20.66837
G1 X-9.004 Y-20.303 E20.74067
G1 X-7.674 Y-20.371 E20.80496
G1 X-7.499 Y-20.376 E20.81342
G1 X7.603 Y-20.374 E21.54251
G1 X9.002 Y-20.303 E21.61013
G1 X10.483 Y-20.068 E21.68253
G1 X11.929 Y-19.681 E21.75479
G1 X13.33 Y-19.143 E21.82725
G1 X14.68 Y-18.456 E21.90038
G1 X15.935 Y-17.641 E21.97262
G1 X17.105 Y-16.693 E22.04532
G1 X18.17 Y-15.628 E22.11803
G1 X19.119 Y-14.456 E22.19084
G1 X19.934 Y-13.202 E22.26304
G1 X20.621 Y-11.852 E22.33617
G1 X21.161 Y-10.448 E22.40879
G1 X21.546 Y-9.007 E22.4808
G1 X21.783 Y-7.516 E22.55369
G0 F2400 X22.151 Y-7.556
;TYPE:WALL-OUTER
G1 F1200 X22.232 Y-6 E22.62891
G1 X22.232 Y8.978 E23.35201
G1 X22.173 Y9.726 E23.38824
G1 X21.998 Y10.454 E23.42438
G1 X21.717 Y11.134 E23.4599
G1 X21.326 Y11.772 E23.49603
G1 X20.843 Y12.337 E23.53191
G1 X20.278 Y12.82 E23.5678
G1 X19.641 Y13.21 E23.60386
G1 X18.958 Y13.493 E23.63955
G1 X18.23 Y13.668 E23.6757
G1 X17.485 Y13.726 E23.71177
G1 X-17.485 Y13.726 E25.40005
G1 X-18.23 Y13.668 E25.43612
G1 X-18.958 Y13.493 E25.47227
G1 X-19.641 Y13.21 E25.50796
G1 X-20.278 Y12.82 E25.54402
G1 X-20.843 Y12.337 E25.57991
G1 X-21.326 Y11.772 E25.61579
G1 X-21.717 Y11.134 E25.65192
G1 X-21.998 Y10.454 E25.68744
G1 X-22.173 Y9.726 E25.72359
G1 X-22.232 Y8.978 E25.75981
G1 X-22.232 Y-6 E26.48292
G1 X-22.151 Y-7.556 E26.55814
G1 X-21.908 Y-9.082 E26.63274
G1 X-21.512 Y-10.565 E26.70684
G1 X-20.957 Y-12.008 E26.78148
G1 X-20.256 Y-13.385 E26.85608
G1 X-19.416 Y-14.677 E26.93048
G1 X-18.445 Y-15.877 E27.005
G1 X-17.354 Y-16.968 E27.07949
G1 X-16.156 Y-17.938 E27.15391
G1 X-14.863 Y-18.778 E27.22835
G1 X-13.486 Y-19.479 E27.30294
G1 X-12.044 Y-20.033 E27.37752
G1 X-10.561 Y-20.43 E27.45164
G1 X-9.034 Y-20.672 E27.52628
G1 X-7.693 Y-20.741 E27.5911
G1 X-7.509 Y-20.746 E27.59999
G1 X7.622 Y-20.744 E28.33048
G1 X9.032 Y-20.672 E28.39864
G1 X10.561 Y-20.43 E28.47338
G1 X12.044 Y-20.033 E28.54749
G1 X13.486 Y-19.479 E28.62207
G1 X14.863 Y-18.778 E28.69667
G1 X16.156 Y-17.938 E28.77111
G1 X17.354 Y-16.968 E28.84553
G1 X18.445 Y-15.877 E28.92001
G1 X19.416 Y-14.677 E28.99454
G1 X20.256 Y-13.385 E29.06894
G1 X20.957 Y-12.008 E29.14353
G1 X21.512 Y-10.565 E29.21817
G1 X21.908 Y-9.082 E29.29228
G1 X22.151 Y-7.556 E29.36688
G0 F2400 X22.161 Y-7.357
G0 X21.374 Y-7.481
;TYPE:SKIN
G1 F1200 X21.452 Y-5.979 E29.43949
G1 X21.452 Y8.962 E30.16081
G1 X21.401 Y9.598 E30.19161
G1 X21.254 Y10.214 E30.22218
G1 X21.02 Y10.779 E30.25171
G1 X20.691 Y11.315 E30.28207
G1 X20.29 Y11.784 E30.31186
G1 X19.824 Y12.183 E30.34148
G1 X19.286 Y12.512 E30.37192
G1 X18.716 Y12.748 E30.40171
G1 X18.101 Y12.896 E30.43225
G1 X17.463 Y12.946 E30.46314
G1 X-17.463 Y12.946 E32.14929
G1 X-18.101 Y12.896 E32.18019
G1 X-18.716 Y12.748 E32.21072
G1 X-19.286 Y12.512 E32.24051
G1 X-19.824 Y12.183 E32.27095
G1 X-20.29 Y11.784 E32.30057
G1 X-20.691 Y11.315 E32.33036
G1 X-21.02 Y10.779 E32.36072
G1 X-21.254 Y10.214 E32.39025
G1 X-21.401 Y9.598 E32.42082
G1 X-21.452 Y8.962 E32.45162
G1 X-21.452 Y-5.979 E33.17294
G1 X-21.374 Y-7.481 E33.24555
G1 X-21.143 Y-8.927 E33.31625
G1 X-20.771 Y-10.319 E33.38581
G1 X-20.244 Y-11.691 E33.45676
G1 X-19.58 Y-12.994 E33.52737
G1 X-18.784 Y-14.218 E33.59786
G1 X-17.86 Y-15.36 E33.66878
G1 X-16.837 Y-16.383 E33.73862
G1 X-15.697 Y-17.306 E33.80944
G1 X-14.472 Y-18.102 E33.87996
G1 X-13.169 Y-18.766 E33.95057
G1 X-11.8 Y-19.291 E34.02135
G1 X-10.398 Y-19.666 E34.09142
G1 X-8.966 Y-19.894 E34.16142
G1 X-7.653 Y-19.961 E34.22489
G1 X-7.487 Y-19.966 E34.23291
G1 X7.582 Y-19.964 E34.96041
G1 X8.964 Y-19.894 E35.02721
G1 X10.398 Y-19.666 E35.09731
G1 X11.8 Y-19.291 E35.16738
G1 X13.169 Y-18.766 E35.23816
G1 X14.472 Y-18.102 E35.30877
G1 X15.697 Y-17.306 E35.3793
G1 X16.837 Y-16.383 E35.45011
G1 X17.86 Y-15.36 E35.51996
G1 X18.784 Y-14.218 E35.59088
G1 X19.58 Y-12.994 E35.66136
G1 X20.244 Y-11.691 E35.73197
G1 X20.771 Y-10.319 E35.80292
G1 X21.143 Y-8.927 E35.87248
G1 X21.374 Y-7.481 E35.94318
G0 F2400 X15.407 Y-17.26
G1 F1200 X18.736 Y-13.931 E36.17047
G1 X18.789 Y-13.878
G0 F2400 X19.654 Y-12.42
G1 F1200 X13.899 Y-18.174 E36.56335
G1 X13.846 Y-18.227
G0 F2400 X12.771 Y-18.709
G1 F1200 X20.188 Y-11.291 E37.06979
G1 X20.241 Y-11.238
G0 F2400 X20.557 Y-10.329
G1 F1200 X11.808 Y-19.077 E37.66709
G1 X11.755 Y-19.13
G0 F2400 X10.987 Y-19.305
G1 F1200 X20.785 Y-9.507 E38.33605
G0 F2400 X20.978 Y-8.72
G1 F1200 X10.199 Y-19.499 E39.07199
G0 F2400 X9.492 Y-19.611
G1 F1200 X21.09 Y-8.013 E39.86384
G0 F2400 X21.185 Y-7.324
G1 F1200 X8.804 Y-19.705 E40.70915
G0 F2400 X8.179 Y-19.737
G1 F1200 X21.218 Y-6.698 E41.59939
G0 F2400 X21.251 Y-6.071
G1 F1200 X7.554 Y-19.768 E42.53455
G0 F2400 X6.96 Y-19.768
G1 F1200 X21.256 Y-5.472 E43.51061
G0 F2400 X21.256 Y-4.878
G1 F1200 X6.366 Y-19.768 E44.52723
G0 F2400 X5.772 Y-19.768
G1 F1200 X21.256 Y-4.284 E45.5844
G0 F2400 X21.256 Y-3.69
G1 F1200 X5.178 Y-19.768 E46.68213
G0 F2400 X4.584 Y-19.768
G1 F1200 X21.256 Y-3.096 E47.82041
G0 F2400 X21.256 Y-2.502
G1 F1200 X3.99 Y-19.768 E48.99925
