;FLAVOR:Marlin
;TIME:2690
;Filament used: 7.34022m
;Layer height: 0.4
;MINX:27.474
;MINY:32.944
;MINZ:0.4
;MAXX:84.274
;MAXY:190.705
;MAXZ:14.4
;Generated with Cura_SteamEngine 4.10.0
M104 S220
M105
M109 S220
M82 ;absolute extrusion mode
G21 ;metric values
G90 ;absolute positioning
M82 ;set extruder to absolute mode
M107 ;start with the fan off
G28 X0 Y0 ;move X/Y to min endstops
G28 Z0 ;move Z to min endstops
G1 Z15.0 F120 ;move the platform down 15mm
G92 E0 ;zero the extruded length
G1 F200 E3 ;extrude 3mm of feed stock
G92 E0 ;zero the extruded length again
G1 F120
M117 Printing...
G5
G92 E0
G92 E0
G1 F2400 E-6
;LAYER_COUNT:36
;LAYER:0
M107
M204 S3000
M205 X10 Y10
G1 F600 Z0.475
G0 F4800 X29.945 Y34.308 Z0.475
M204 S1800
M205 X8 Y8
;TYPE:SKIRT
G1 F600 Z0.4
G1 F2400 E0
G1 X30.533 Y33.9 E0.06265
G1 X31.162 Y33.56 E0.12524
G1 X31.826 Y33.293 E0.18789
G1 X32.515 Y33.101 E0.25051
G1 X33.221 Y32.987 E0.31311
G1 X34.025 Y32.947 E0.38358
G1 X34.204 Y32.944 E0.39925
G1 X77.167 Y32.944 E4.16026
G1 X77.957 Y32.955 E4.22943
G1 X78.67 Y33.005 E4.292
G1 X79.374 Y33.134 E4.35465
G1 X80.058 Y33.342 E4.41724
G1 X80.715 Y33.624 E4.47983
G1 X81.337 Y33.978 E4.54248
G1 X81.915 Y34.399 E4.60508
G1 X82.443 Y34.882 E4.66772
G1 X82.913 Y35.42 E4.73026
G1 X83.321 Y36.008 E4.79291
G1 X83.66 Y36.638 E4.85554
G1 X83.927 Y37.301 E4.91811
G1 X84.118 Y37.991 E4.98078
G1 X84.231 Y38.697 E5.04337
G1 X84.271 Y39.494 E5.11323
G1 X84.274 Y39.674 E5.12899
G1 X84.273 Y45.61 E5.64863
G1 X84.263 Y46.312 E5.71009
G1 X84.169 Y47.318 E5.79854
G1 X84.075 Y47.77 E5.83895
G1 X83.832 Y48.759 E5.92811
G1 X83.611 Y49.61 E6.00507
G1 X83.018 Y52.191 E6.2369
G1 X82.489 Y54.825 E6.47209
G1 X82.054 Y57.388 E6.69967
G1 X81.677 Y60.049 E6.93494
G1 X81.383 Y62.644 E7.16356
G1 X81.161 Y65.279 E7.39505
G1 X81.013 Y67.916 E7.62625
G1 X80.938 Y70.597 E7.86104
G1 X80.94 Y73.241 E8.0925
G1 X81.015 Y75.877 E8.32335
G1 X81.165 Y78.49 E8.55247
G1 X81.393 Y81.152 E8.78636
G1 X81.694 Y83.784 E9.01827
G1 X82.067 Y86.4 E9.24959
G1 X82.518 Y89.022 E9.48249
G1 X83.032 Y91.584 E9.71124
G1 X83.636 Y94.199 E9.94618
G1 X83.864 Y95.077 E10.02559
G1 X84.079 Y95.952 E10.10447
G1 X84.211 Y96.655 E10.16709
G1 X84.263 Y97.383 E10.23098
G1 X84.274 Y98.147 E10.29787
G1 X84.273 Y120.609 E12.26421
G1 X84.263 Y121.311 E12.32567
G1 X84.169 Y122.317 E12.41412
G1 X84.075 Y122.77 E12.45462
G1 X83.829 Y123.772 E12.54494
G1 X83.622 Y124.566 E12.61677
G1 X83.028 Y127.145 E12.84845
G1 X82.502 Y129.757 E13.08169
G1 X82.067 Y132.316 E13.30892
G1 X81.69 Y134.963 E13.54298
G1 X81.393 Y137.58 E13.77355
G1 X81.168 Y140.223 E14.00575
G1 X81.018 Y142.888 E14.23942
G1 X80.944 Y145.499 E14.46808
G1 X80.944 Y148.177 E14.70251
G1 X81.018 Y150.785 E14.93091
G1 X81.169 Y153.457 E15.16519
G1 X81.393 Y156.088 E15.39634
G1 X81.693 Y158.72 E15.62824
G1 X82.068 Y161.355 E15.86124
G1 X82.512 Y163.95 E16.09171
G1 X83.028 Y166.522 E16.32135
G1 X83.626 Y169.115 E16.5543
G1 X83.987 Y170.543 E16.68324
G1 X84.055 Y170.803 E16.70677
G1 X84.197 Y171.504 E16.76938
G1 X84.261 Y172.231 E16.83327
G1 X84.274 Y172.755 E16.87915
G1 X84.274 Y183.648 E17.83273
G1 X84.265 Y184.375 E17.89638
G1 X84.216 Y185.089 E17.95903
G1 X84.088 Y185.793 E18.02167
G1 X83.882 Y186.478 E18.08429
G1 X83.601 Y187.135 E18.14684
G1 X83.248 Y187.758 E18.20953
G1 X82.828 Y188.337 E18.27214
G1 X82.346 Y188.865 E18.33473
G1 X81.809 Y189.337 E18.39731
G1 X81.221 Y189.745 E18.45997
G1 X80.592 Y190.086 E18.5226
G1 X79.929 Y190.354 E18.5852
G1 X79.24 Y190.546 E18.64782
G1 X78.534 Y190.661 E18.71043
G1 X77.723 Y190.702 E18.78152
G1 X77.544 Y190.705 E18.79719
G1 X34.498 Y190.704 E22.56547
G1 X33.8 Y190.695 E22.62658
G1 X33.087 Y190.646 E22.68914
G1 X32.383 Y190.518 E22.75178
G1 X31.698 Y190.312 E22.8144
G1 X31.041 Y190.03 E22.87699
G1 X30.419 Y189.677 E22.93959
G1 X29.84 Y189.257 E23.00221
G1 X29.311 Y188.775 E23.06486
G1 X28.84 Y188.237 E23.12746
G1 X28.432 Y187.65 E23.19004
G1 X28.092 Y187.02 E23.25271
G1 X27.824 Y186.357 E23.31531
G1 X27.632 Y185.668 E23.37792
G1 X27.518 Y184.962 E23.44052
G1 X27.476 Y184.136 E23.51293
G1 X27.474 Y183.963 E23.52807
G1 X27.475 Y39.931 E36.13673
G1 X27.484 Y39.266 E36.19495
G1 X27.533 Y38.553 E36.25751
G1 X27.662 Y37.849 E36.32017
G1 X27.869 Y37.165 E36.38273
G1 X28.151 Y36.507 E36.4454
G1 X28.504 Y35.885 E36.50801
G1 X28.924 Y35.307 E36.57055
G1 X29.407 Y34.779 E36.6332
G1 X29.945 Y34.308 E36.69579
M204 S3000
M205 X10 Y10
G0 F4800 X30.486 Y34.603
M204 S1800
M205 X8 Y8
G1 F2400 X31.064 Y34.238 E36.75563
G1 X31.681 Y33.944 E36.81546
G1 X32.327 Y33.724 E36.87521
G1 X32.995 Y33.581 E36.93501
G1 X33.719 Y33.515 E36.99865
G1 X34.204 Y33.504 E37.04112
G1 X77.167 Y33.504 E40.80213
G1 X77.949 Y33.515 E40.87059
G1 X78.63 Y33.564 E40.93036
G1 X79.301 Y33.693 E40.99018
G1 X79.952 Y33.9 E41.04998
G1 X80.575 Y34.181 E41.10981
G1 X81.161 Y34.533 E41.16965
G1 X81.701 Y34.951 E41.22943
G1 X82.189 Y35.429 E41.28923
G1 X82.618 Y35.961 E41.34905
G1 X82.982 Y36.539 E41.40885
G1 X83.276 Y37.156 E41.46868
G1 X83.495 Y37.803 E41.52848
G1 X83.638 Y38.471 E41.58828
G1 X83.703 Y39.19 E41.65148
G1 X83.714 Y39.674 E41.69386
G1 X83.713 Y45.602 E42.2128
G1 X83.703 Y46.304 E42.27426
G1 X83.618 Y47.222 E42.35496
G1 X83.531 Y47.637 E42.39208
G1 X83.29 Y48.618 E42.48051
G1 X83.066 Y49.479 E42.5584
G1 X82.464 Y52.101 E42.7939
G1 X81.944 Y54.687 E43.02481
G1 X81.497 Y57.327 E43.25921
G1 X81.125 Y59.947 E43.49087
G1 X80.824 Y62.607 E43.72521
G1 X80.602 Y65.235 E43.95609
G1 X80.453 Y67.904 E44.1901
G1 X80.378 Y70.581 E44.42453
G1 X80.38 Y73.221 E44.65564
G1 X80.457 Y75.925 E44.89245
G1 X80.607 Y78.533 E45.12113
G1 X80.837 Y81.228 E45.35791
G1 X81.138 Y83.857 E45.58956
G1 X81.511 Y86.47 E45.82062
G1 X81.967 Y89.125 E46.05644
G1 X82.486 Y91.71 E46.28725
G1 X83.09 Y94.321 E46.52186
G1 X83.32 Y95.21 E46.60224
G1 X83.535 Y96.085 E46.68112
G1 X83.659 Y96.757 E46.74094
G1 X83.703 Y97.392 E46.79666
G1 X83.714 Y98.147 E46.86276
G1 X83.713 Y120.601 E48.8284
G1 X83.703 Y121.303 E48.88986
G1 X83.618 Y122.221 E48.97057
G1 X83.531 Y122.636 E49.00769
G1 X83.287 Y123.63 E49.09728
G1 X83.08 Y124.426 E49.16928
G1 X82.482 Y127.02 E49.40232
G1 X81.952 Y129.656 E49.6377
G1 X81.516 Y132.217 E49.86511
G1 X81.135 Y134.891 E50.10156
G1 X80.834 Y137.539 E50.33486
G1 X80.609 Y140.181 E50.56698
G1 X80.46 Y142.84 E50.80012
G1 X80.384 Y145.518 E51.03465
G1 X80.384 Y148.158 E51.26575
G1 X80.46 Y150.833 E51.50002
G1 X80.611 Y153.499 E51.73378
G1 X80.838 Y156.164 E51.96792
G1 X81.133 Y158.758 E52.19646
G1 X81.517 Y161.454 E52.43485
G1 X81.962 Y164.051 E52.66551
G1 X82.475 Y166.614 E52.89433
G1 X83.092 Y169.287 E53.13448
G1 X83.444 Y170.68 E53.26025
G1 X83.513 Y170.945 E53.28422
G1 X83.648 Y171.615 E53.34406
G1 X83.701 Y172.248 E53.39966
G1 X83.714 Y172.755 E53.44406
G1 X83.714 Y183.641 E54.39703
G1 X83.705 Y184.368 E54.46068
G1 X83.656 Y185.05 E54.52053
G1 X83.528 Y185.721 E54.58033
G1 X83.323 Y186.373 E54.64016
G1 X83.043 Y186.996 E54.69996
G1 X82.693 Y187.582 E54.75971
G1 X82.276 Y188.124 E54.81957
G1 X81.799 Y188.613 E54.87937
G1 X81.268 Y189.042 E54.93913
G1 X80.69 Y189.407 E54.99897
G1 X80.074 Y189.702 E55.05876
G1 X79.427 Y189.923 E55.11862
G1 X78.759 Y190.067 E55.17844
G1 X78.029 Y190.134 E55.24261
G1 X77.544 Y190.145 E55.28508
G1 X34.506 Y190.145 E59.05265
G1 X33.808 Y190.136 E59.11376
G1 X33.126 Y190.087 E59.17362
G1 X32.455 Y189.959 E59.23342
G1 X31.804 Y189.753 E59.29319
G1 X31.18 Y189.473 E59.35306
G1 X30.594 Y189.122 E59.41286
G1 X30.053 Y188.705 E59.47266
G1 X29.564 Y188.227 E59.53252
G1 X29.135 Y187.696 E59.59228
G1 X28.77 Y187.118 E59.65212
G1 X28.476 Y186.502 E59.71187
G1 X28.255 Y185.855 E59.77173
G1 X28.111 Y185.187 E59.83155
G1 X28.045 Y184.454 E59.89597
G1 X28.034 Y183.963 E59.93897
G1 X28.035 Y39.939 E72.54692
G1 X28.044 Y39.274 E72.60514
G1 X28.093 Y38.593 E72.66491
G1 X28.221 Y37.921 E72.7248
G1 X28.427 Y37.27 E72.78457
G1 X28.708 Y36.647 E72.8444
G1 X29.059 Y36.061 E72.9042
G1 X29.477 Y35.52 E72.96405
G1 X29.954 Y35.032 E73.02379
G1 X30.486 Y34.603 E73.08361
M204 S3000
M205 X10 Y10
G0 F4800 X30.5 Y35.299
M204 S1800
M205 X8 Y8
G1 F2400 X31.023 Y34.915 E73.14041
G1 X31.59 Y34.597 E73.19732
G1 X32.191 Y34.351 E73.25417
G1 X32.818 Y34.181 E73.31104
G1 X33.735 Y34.075 E73.39185
G1 X34.204 Y34.064 E73.43292
G1 X77.167 Y34.064 E77.19393
G1 X77.941 Y34.075 E77.26169
G1 X78.588 Y34.124 E77.31849
G1 X79.225 Y34.252 E77.37537
G1 X79.841 Y34.458 E77.43223
G1 X80.428 Y34.738 E77.48916
G1 X80.975 Y35.087 E77.54596
G1 X81.476 Y35.501 E77.60286
G1 X81.921 Y35.974 E77.65971
G1 X82.306 Y36.498 E77.71663
G1 X82.623 Y37.065 E77.7735
G1 X82.868 Y37.666 E77.83031
G1 X83.037 Y38.293 E77.88716
G1 X83.143 Y39.206 E77.96762
G1 X83.154 Y39.674 E78.0086
G1 X83.153 Y45.594 E78.52684
G1 X83.143 Y46.296 E78.5883
G1 X83.066 Y47.126 E78.66127
G1 X82.988 Y47.503 E78.69497
G1 X82.748 Y48.477 E78.78279
G1 X82.521 Y49.349 E78.86167
G1 X81.917 Y51.982 E79.09815
G1 X81.395 Y54.58 E79.33013
G1 X80.945 Y57.228 E79.56526
G1 X80.571 Y59.87 E79.79885
G1 X80.265 Y62.571 E80.03681
G1 X80.044 Y65.192 E80.26706
G1 X79.893 Y67.893 E80.50388
G1 X79.818 Y70.565 E80.73788
G1 X79.82 Y73.238 E80.97188
G1 X79.897 Y75.94 E81.20851
G1 X80.049 Y78.576 E81.43965
G1 X80.279 Y81.27 E81.67634
G1 X80.582 Y83.926 E81.91036
G1 X80.961 Y86.575 E82.14461
G1 X81.415 Y89.22 E82.37955
G1 X81.937 Y91.818 E82.61152
G1 X82.55 Y94.47 E82.8498
G1 X82.776 Y95.344 E82.92883
G1 X82.991 Y96.219 E83.0077
G1 X83.107 Y96.858 E83.06456
G1 X83.143 Y97.4 E83.11211
G1 X83.154 Y98.147 E83.17751
G1 X83.153 Y120.593 E85.14245
G1 X83.143 Y121.295 E85.20391
G1 X83.066 Y122.125 E85.27688
G1 X82.988 Y122.503 E85.31066
G1 X82.745 Y123.489 E85.39956
G1 X82.533 Y124.304 E85.47328
G1 X81.937 Y126.893 E85.70585
G1 X81.402 Y129.548 E85.94295
G1 X80.959 Y132.154 E86.17435
G1 X80.579 Y134.818 E86.40992
G1 X80.279 Y137.467 E86.6433
G1 X80.051 Y140.134 E86.87762
G1 X79.9 Y142.829 E87.11391
G1 X79.824 Y145.502 E87.348
G1 X79.824 Y148.174 E87.58191
G1 X79.9 Y150.844 E87.81574
G1 X80.053 Y153.546 E88.05265
G1 X80.279 Y156.205 E88.28626
G1 X80.582 Y158.862 E88.52036
G1 X80.961 Y161.524 E88.75575
G1 X81.41 Y164.146 E88.98862
G1 X81.931 Y166.747 E89.22084
G1 X82.543 Y169.403 E89.45944
G1 X82.89 Y170.774 E89.58324
G1 X82.972 Y171.087 E89.61157
G1 X83.097 Y171.724 E89.66839
G1 X83.142 Y172.265 E89.71592
G1 X83.154 Y172.755 E89.75882
G1 X83.154 Y183.634 E90.71118
G1 X83.145 Y184.361 E90.77483
G1 X83.097 Y185.009 E90.83171
G1 X82.969 Y185.646 E90.88859
G1 X82.765 Y186.263 E90.94547
G1 X82.486 Y186.85 E91.00237
G1 X82.138 Y187.398 E91.0592
G1 X81.725 Y187.899 E91.11604
G1 X81.253 Y188.346 E91.17294
G1 X80.73 Y188.731 E91.22979
G1 X80.164 Y189.049 E91.28663
G1 X79.562 Y189.296 E91.34359
G1 X78.936 Y189.466 E91.40038
G1 X78.013 Y189.574 E91.48173
G1 X77.544 Y189.585 E91.52279
G1 X34.513 Y189.585 E95.28976
G1 X33.815 Y189.576 E95.35087
G1 X33.167 Y189.527 E95.40775
G1 X32.53 Y189.4 E95.46461
G1 X31.914 Y189.195 E95.52145
G1 X31.327 Y188.916 E95.57834
G1 X30.779 Y188.567 E95.63522
G1 X30.278 Y188.154 E95.69206
G1 X29.831 Y187.682 E95.74896
G1 X29.446 Y187.159 E95.80582
G1 X29.128 Y186.592 E95.86272
G1 X28.882 Y185.991 E95.91957
G1 X28.712 Y185.364 E95.97644
G1 X28.605 Y184.439 E96.05796
G1 X28.594 Y183.963 E96.09964
G1 X28.594 Y39.947 E108.7069
G1 X28.603 Y39.282 E108.76512
G1 X28.652 Y38.634 E108.822
G1 X28.78 Y37.997 E108.87888
G1 X28.985 Y37.38 E108.9358
G1 X29.265 Y36.794 E108.99265
G1 X29.614 Y36.246 E109.04953
G1 X30.028 Y35.745 E109.10642
G1 X30.5 Y35.299 E109.16327
M204 S3000
M205 X10 Y10
G1 F2400 E103.16327
;MESH:Cupholder_Audi_A6_C4_Part1.stl
G0 F4800 X34.728 Y38.679
G0 X34.728 Y40.198
G0 X51.828 Y151.675
G0 X52.298 Y153.737
G0 X52.893 Y155.664
G0 X53.734 Y157.756
G0 X54.738 Y159.75
G0 X55.909 Y161.655
G0 X57.188 Y163.398
G0 X58.658 Y165.084
G0 X60.265 Y166.639
G0 X61.974 Y168.036
G0 X63.819 Y169.302
G0 X65.765 Y170.409
G0 X67.797 Y171.348
G0 X69.691 Y172.035
G0 X76.454 Y173.825
M204 S1800
M205 X8 Y8
;TYPE:WALL-INNER
G1 F2400 E109.16327
G1 X76.474 Y173.825 E109.16502
G1 X76.474 Y182.905 E109.95989
G1 X35.274 Y182.905 E113.56657
G1 X35.274 Y40.744 E126.01144
G1 X76.474 Y40.744 E129.61811
G1 X76.474 Y44.885 E129.98062
G1 X75.534 Y44.926 E130.06298
G1 X73.192 Y45.234 E130.26977
G1 X70.934 Y45.734 E130.47222
G1 X70.834 Y45.76 E130.48127
G1 X68.653 Y46.448 E130.68147
G1 X66.471 Y47.351 E130.88819
G1 X64.395 Y48.43 E131.09301
G1 X64.297 Y48.49 E131.10307
G1 X62.389 Y49.704 E131.30104
G1 X60.569 Y51.099 E131.50178
G1 X60.472 Y51.179 E131.51279
G1 X58.775 Y52.735 E131.71434
G1 X57.178 Y54.475 E131.92109
G1 X55.79 Y56.284 E132.1207
G1 X55.677 Y56.446 E132.13799
G1 X54.524 Y58.257 E132.32593
G1 X54.451 Y58.38 E132.33845
G1 X53.423 Y60.355 E132.53336
G1 X53.344 Y60.527 E132.54993
G1 X52.503 Y62.552 E132.74188
G1 X52.408 Y62.832 E132.76776
G1 X51.856 Y64.581 E132.92832
G1 X51.769 Y64.878 E132.95541
G1 X51.627 Y65.479 E133.00947
G1 X51.339 Y66.772 E133.12543
G1 X51.202 Y67.538 E133.19355
G1 X51.102 Y68.281 E133.25918
G1 X51.016 Y68.878 E133.31198
G1 X50.952 Y69.541 E133.37029
G1 X50.888 Y70.289 E133.43601
G1 X50.84 Y71.938 E133.58043
G1 X50.85 Y72.335 E133.61519
G1 X50.898 Y73.544 E133.72111
G1 X50.962 Y74.291 E133.78675
G1 X51.022 Y74.863 E133.83709
G1 X51.201 Y76.16 E133.95171
G1 X51.337 Y76.919 E134.01921
G1 X51.624 Y78.215 E134.13541
G1 X51.767 Y78.815 E134.18941
G1 X51.852 Y79.107 E134.21603
G1 X52.403 Y80.863 E134.37714
G1 X52.502 Y81.144 E134.40322
G1 X53.337 Y83.166 E134.59473
G1 X53.417 Y83.339 E134.61142
G1 X54.446 Y85.314 E134.80637
G1 X54.518 Y85.435 E134.81869
G1 X55.67 Y87.245 E135.00651
G1 X55.782 Y87.408 E135.02382
G1 X57.174 Y89.22 E135.22385
G1 X58.72 Y90.909 E135.4243
G1 X58.818 Y91.007 E135.43643
G1 X60.51 Y92.556 E135.63724
G1 X62.359 Y93.975 E135.84128
G1 X64.351 Y95.248 E136.04823
G1 X66.466 Y96.349 E136.25696
G1 X68.65 Y97.253 E136.46388
G1 X70.902 Y97.96 E136.67051
G1 X73.19 Y98.467 E136.87566
G1 X75.532 Y98.775 E137.08244
G1 X76.474 Y98.816 E137.16499
G1 X76.474 Y119.884 E139.00929
G1 X75.534 Y119.925 E139.09166
G1 X73.192 Y120.233 E139.29844
G1 X70.935 Y120.733 E139.50081
G1 X70.835 Y120.759 E139.50986
G1 X68.654 Y121.447 E139.71006
G1 X66.472 Y122.35 E139.91678
G1 X64.396 Y123.429 E140.1216
G1 X64.298 Y123.489 E140.13166
G1 X62.391 Y124.704 E140.3296
G1 X60.571 Y126.098 E140.53029
G1 X60.474 Y126.178 E140.5413
G1 X58.776 Y127.734 E140.74291
G1 X57.181 Y129.475 E140.94961
G1 X55.793 Y131.284 E141.14922
G1 X55.68 Y131.446 E141.16651
G1 X54.527 Y133.257 E141.35445
G1 X54.454 Y133.38 E141.36697
G1 X53.426 Y135.355 E141.56188
G1 X53.347 Y135.527 E141.57845
G1 X52.507 Y137.551 E141.77029
G1 X52.412 Y137.831 E141.79617
G1 X51.86 Y139.582 E141.95689
G1 X51.773 Y139.878 E141.9839
G1 X51.631 Y140.479 E142.03796
G1 X51.345 Y141.771 E142.1538
G1 X51.209 Y142.536 E142.22182
G1 X51.043 Y143.737 E142.32795
G1 X50.99 Y144.148 E142.36423
G1 X50.929 Y144.88 E142.42853
G1 X50.864 Y145.937 E142.52124
G1 X50.853 Y146.345 E142.55697
G1 X50.864 Y147.619 E142.6685
G1 X50.873 Y148.044 E142.70571
G1 X51 Y149.623 E142.84438
G1 X51.182 Y150.995 E142.96554
G1 X51.317 Y151.774 E143.03475
G1 X51.573 Y152.972 E143.14199
G1 X51.715 Y153.583 E143.19691
G1 X51.798 Y153.882 E143.22407
G1 X52.309 Y155.56 E143.37762
G1 X52.404 Y155.844 E143.40384
G1 X53.185 Y157.805 E143.58862
G1 X53.264 Y157.98 E143.60543
G1 X54.219 Y159.886 E143.79205
G1 X54.287 Y160.011 E143.80451
G1 X55.418 Y161.86 E143.99425
G1 X55.485 Y161.957 E144.00457
G1 X56.781 Y163.723 E144.19633
G1 X58.28 Y165.443 E144.39606
G1 X59.918 Y167.029 E144.59565
G1 X61.661 Y168.452 E144.79263
G1 X63.543 Y169.744 E144.99247
G1 X65.527 Y170.872 E145.19226
G1 X67.599 Y171.83 E145.39209
G1 X69.745 Y172.609 E145.59195
G1 X71.948 Y173.202 E145.79166
G1 X74.193 Y173.609 E145.9914
G1 X76.454 Y173.825 E146.19023
M204 S3000
M205 X10 Y10
G0 F4800 X76.481 Y173.265
M204 S1800
M205 X8 Y8
G1 F2400 X77.034 Y173.265 E146.23864
G1 X77.034 Y183.465 E147.13155
G1 X34.714 Y183.465 E150.83627
G1 X34.714 Y40.184 E163.37919
G1 X77.034 Y40.184 E167.08391
G1 X77.034 Y45.421 E167.54236
G1 X75.583 Y45.484 E167.6695
G1 X73.289 Y45.786 E167.87205
