;FLAVOR:Marlin
;TIME:3979
;Filament used: 6.06492m
;Layer height: 0.3
;MINX:13.316
;MINY:36.356
;MINZ:0.3
;MAXX:126.525
;MAXY:199.542
;MAXZ:5.175
;Generated with Cura_SteamEngine 4.10.0
M104 S205
M105
M109 S205
M82 ;absolute extrusion mode
G21 ;metric values
G90 ;absolute positioning
M82 ;set extruder to absolute mode
M107 ;start with the fan off
G28 X0 Y0 ;move X/Y to min endstops
G28 Z0 ;move Z to min endstops
M501
M420 S1 ;Marlin Bed-leveling on
G1 Z15.0 F120 ;move the platform down 15mm
G92 E0 ;zero the extruded length
G1 F200 E3 ;extrude 3mm of feed stock
G92 E0 ;zero the extruded length again
G1 F120
M117 Printing...
G5
G92 E0
G92 E0
G1 F2400 E-6
;LAYER_COUNT:17
;LAYER:0
M107
M204 S3000
M205 X10 Y10
G1 F600 Z0.375
G0 F1200 X41.092 Y47.583 Z0.375
M204 S2500
M205 X8 Y8
;TYPE:SKIRT
G1 F600 Z0.3
G1 F2400 E0
G1 F1200 X41.928 Y46.89 E0.09007
G1 X42.989 Y46.051 E0.20226
G1 X43.115 Y45.953 E0.2155
G1 X43.989 Y45.296 E0.30619
G1 X44.125 Y45.197 E0.32014
G1 X45.077 Y44.518 E0.41713
G1 X45.222 Y44.417 E0.43178
G1 X46.193 Y43.762 E0.52893
G1 X46.34 Y43.666 E0.54349
G1 X47.264 Y43.077 E0.63438
G1 X47.423 Y42.979 E0.64987
G1 X48.479 Y42.348 E0.7519
G1 X49.591 Y41.717 E0.85795
G1 X49.784 Y41.612 E0.87617
G1 X50.643 Y41.161 E0.95664
G1 X50.792 Y41.085 E0.97052
G1 X52.031 Y40.473 E1.08514
G1 X52.227 Y40.38 E1.10313
G1 X53.182 Y39.946 E1.19013
G1 X53.373 Y39.863 E1.20741
G1 X54.467 Y39.406 E1.30575
G1 X54.646 Y39.334 E1.32175
G1 X55.629 Y38.956 E1.4091
G1 X55.837 Y38.88 E1.42747
G1 X56.876 Y38.519 E1.5187
G1 X57.055 Y38.459 E1.53436
G1 X58.316 Y38.06 E1.64406
G1 X58.544 Y37.993 E1.66377
G1 X59.551 Y37.713 E1.75046
G1 X59.769 Y37.656 E1.76915
G1 X60.751 Y37.418 E1.85296
G1 X60.951 Y37.373 E1.86996
G1 X62.196 Y37.111 E1.97549
G1 X62.429 Y37.066 E1.99517
G1 X63.624 Y36.858 E2.09578
G1 X63.843 Y36.824 E2.11416
G1 X65.061 Y36.653 E2.21617
G1 X65.296 Y36.624 E2.23581
G1 X66.365 Y36.512 E2.32496
G1 X66.606 Y36.491 E2.34503
G1 X67.671 Y36.418 E2.43357
G1 X67.907 Y36.406 E2.45317
G1 X69.252 Y36.361 E2.56479
G1 X69.47 Y36.357 E2.58287
G1 X70.351 Y36.356 E2.65595
G1 X70.584 Y36.36 E2.67527
G1 X71.874 Y36.403 E2.78233
G1 X72.109 Y36.415 E2.80185
G1 X73.133 Y36.485 E2.88698
G1 X73.356 Y36.504 E2.90554
G1 X74.526 Y36.623 E3.00308
G1 X74.743 Y36.648 E3.0212
G1 X75.798 Y36.79 E3.10949
G1 X76.01 Y36.822 E3.12728
G1 X77.118 Y37.007 E3.22045
G1 X77.332 Y37.047 E3.23851
G1 X78.435 Y37.268 E3.33181
G1 X78.666 Y37.318 E3.35141
G1 X79.725 Y37.569 E3.44168
G1 X79.919 Y37.618 E3.45828
G1 X81.01 Y37.911 E3.55198
G1 X81.204 Y37.966 E3.5687
G1 X82.244 Y38.279 E3.65878
G1 X82.453 Y38.346 E3.67699
G1 X83.537 Y38.711 E3.77186
G1 X83.734 Y38.78 E3.78917
G1 X84.765 Y39.163 E3.88039
G1 X84.946 Y39.234 E3.89652
G1 X85.989 Y39.656 E3.98984
G1 X86.18 Y39.737 E4.00705
G1 X87.212 Y40.192 E4.1006
G1 X87.386 Y40.271 E4.11645
G1 X88.295 Y40.703 E4.19992
G1 X88.473 Y40.791 E4.21639
G1 X89.487 Y41.31 E4.31087
G1 X89.631 Y41.386 E4.32438
G1 X90.7 Y41.966 E4.42525
G1 X90.873 Y42.063 E4.4417
G1 X91.766 Y42.582 E4.52737
G1 X91.917 Y42.673 E4.54199
G1 X92.898 Y43.278 E4.63759
G1 X93.043 Y43.37 E4.65183
G1 X94.075 Y44.045 E4.75411
G1 X94.99 Y44.675 E4.84625
G1 X95.13 Y44.774 E4.86048
G1 X96.048 Y45.441 E4.95459
G1 X97.047 Y46.201 E5.05871
G1 X97.167 Y46.294 E5.0713
G1 X98.04 Y46.991 E5.16395
G1 X98.993 Y47.79 E5.2671
G1 X99.108 Y47.888 E5.27964
G1 X100.029 Y48.698 E5.38137
G1 X100.67 Y49.285 E5.45346
G1 X101.761 Y50.325 E5.57847
G1 X102.699 Y51.252 E5.68786
G1 X102.824 Y51.379 E5.70264
G1 X103.48 Y52.066 E5.78142
G1 X104.517 Y53.183 E5.90784
G1 X105.12 Y53.86 E5.98304
G1 X105.221 Y53.976 E5.99579
G1 X106.153 Y55.072 E6.11512
G1 X106.464 Y55.446 E6.15547
G1 X107.544 Y56.79 E6.29847
G1 X107.827 Y57.155 E6.33678
G1 X108.755 Y58.384 E6.46451
G1 X109.059 Y58.8 E6.50725
G1 X109.977 Y60.091 E6.63864
G1 X110.245 Y60.48 E6.67782
G1 X111.116 Y61.782 E6.80775
G1 X111.432 Y62.268 E6.85583
G1 X112.175 Y63.443 E6.97114
G1 X112.523 Y64.011 E7.02639
G1 X113.25 Y65.233 E7.14432
G1 X113.497 Y65.66 E7.18524
G1 X114.31 Y67.104 E7.32268
G1 X114.527 Y67.504 E7.36043
G1 X115.231 Y68.83 E7.48495
G1 X115.477 Y69.306 E7.52939
G1 X116.137 Y70.621 E7.65143
G1 X116.432 Y71.229 E7.70748
G1 X116.995 Y72.419 E7.81667
G1 X117.313 Y73.115 E7.88014
G1 X117.815 Y74.243 E7.98254
G1 X118.172 Y75.07 E8.05726
G1 X118.551 Y75.976 E8.13871
G1 X118.902 Y76.839 E8.21598
G1 X119.364 Y78.011 E8.32047
G1 X119.631 Y78.714 E8.38285
G1 X120.06 Y79.871 E8.48519
G1 X120.366 Y80.725 E8.56044
G1 X120.696 Y81.679 E8.64416
G1 X121.004 Y82.597 E8.72448
G1 X121.327 Y83.596 E8.81156
G1 X121.598 Y84.464 E8.88698
G1 X121.947 Y85.616 E8.98682
G1 X122.155 Y86.333 E9.04874
G1 X122.499 Y87.556 E9.15412
G1 X122.702 Y88.305 E9.21848
G1 X123.014 Y89.498 E9.32076
G1 X123.226 Y90.342 E9.39294
G1 X123.476 Y91.377 E9.48125
G1 X123.677 Y92.243 E9.55499
G1 X123.91 Y93.294 E9.64428
G1 X124.099 Y94.189 E9.72015
G1 X124.323 Y95.283 E9.81277
G1 X124.479 Y96.088 E9.88078
G1 X124.7 Y97.272 E9.98068
G1 X124.857 Y98.168 E10.05613
G1 X125.024 Y99.167 E10.14014
G1 X125.188 Y100.207 E10.22747
G1 X125.331 Y101.174 E10.30854
G1 X125.434 Y101.911 E10.37027
G1 X125.607 Y103.213 E10.47921
G1 X125.723 Y104.165 E10.55875
G1 X125.829 Y105.107 E10.63738
G1 X125.914 Y105.918 E10.70501
G1 X126.039 Y107.201 E10.81193
G1 X126.113 Y108.04 E10.88179
G1 X126.197 Y109.105 E10.9704
G1 X126.266 Y110.083 E11.05172
G1 X126.327 Y111.077 E11.13432
G1 X126.382 Y112.099 E11.21921
G1 X126.423 Y112.985 E11.29277
G1 X126.463 Y114.098 E11.38515
G1 X126.487 Y114.899 E11.45161
G1 X126.513 Y116.181 E11.55797
G1 X126.521 Y116.954 E11.62208
G1 X126.525 Y118.035 E11.71175
G1 X126.52 Y119.027 E11.79403
G1 X126.505 Y120.121 E11.88477
G1 X126.488 Y120.928 E11.95172
G1 X126.455 Y122.046 E12.04449
G1 X126.422 Y122.925 E12.11745
G1 X126.368 Y124.072 E12.21269
G1 X126.322 Y124.915 E12.28272
G1 X126.245 Y126.125 E12.38328
G1 X126.191 Y126.873 E12.44548
G1 X126.094 Y128.076 E12.54559
G1 X126.021 Y128.896 E12.61387
G1 X125.914 Y129.994 E12.70537
G1 X125.813 Y130.948 E12.78494
G1 X125.686 Y132.044 E12.87645
G1 X125.588 Y132.831 E12.94223
G1 X125.436 Y133.983 E13.03861
G1 X125.306 Y134.894 E13.11494
G1 X125.153 Y135.916 E13.20065
G1 X125.004 Y136.853 E13.27934
G1 X124.826 Y137.918 E13.3689
G1 X124.662 Y138.837 E13.44633
G1 X124.476 Y139.837 E13.53069
G1 X124.294 Y140.769 E13.60946
G1 X124.074 Y141.843 E13.70039
G1 X123.888 Y142.712 E13.7741
G1 X123.642 Y143.816 E13.86791
G1 X123.451 Y144.631 E13.93734
G1 X123.181 Y145.742 E14.03217
G1 X122.948 Y146.664 E14.11105
G1 X122.707 Y147.581 E14.18969
G1 X122.414 Y148.654 E14.28194
G1 X122.14 Y149.615 E14.36483
G1 X121.887 Y150.479 E14.4395
G1 X121.565 Y151.536 E14.53115
G1 X121.277 Y152.449 E14.61055
G1 X120.985 Y153.347 E14.68887
G1 X120.599 Y154.486 E14.78862
G1 X120.312 Y155.309 E14.86092
G1 X119.94 Y156.343 E14.95206
G1 X119.629 Y157.181 E15.0262
G1 X119.235 Y158.21 E15.11759
G1 X118.878 Y159.108 E15.19774
G1 X118.493 Y160.056 E15.28261
G1 X118.109 Y160.968 E15.36468
G1 X117.682 Y161.955 E15.45388
G1 X117.324 Y162.756 E15.52665
G1 X116.805 Y163.881 E15.62941
G1 X116.493 Y164.54 E15.68989
G1 X115.93 Y165.696 E15.79653
G1 X115.561 Y166.431 E15.86475
G1 X115.004 Y167.507 E15.96524
G1 X114.644 Y168.181 E16.02862
G1 X113.992 Y169.368 E16.14095
G1 X113.722 Y169.845 E16.18641
G1 X112.945 Y171.187 E16.31503
G1 X112.622 Y171.726 E16.36715
G1 X111.867 Y172.949 E16.48636
G1 X111.544 Y173.458 E16.53636
G1 X110.745 Y174.68 E16.65746
G1 X110.409 Y175.18 E16.70742
G1 X109.563 Y176.401 E16.83063
G1 X109.237 Y176.855 E16.87699
G1 X108.39 Y178.009 E16.99572
G1 X108.05 Y178.455 E17.04223
G1 X107.159 Y179.599 E17.1625
G1 X106.833 Y180.005 E17.20569
G1 X105.798 Y181.252 E17.3401
G1 X105.545 Y181.546 E17.37228
G1 X104.435 Y182.802 E17.5113
G1 X104.222 Y183.034 E17.53743
G1 X103.032 Y184.299 E17.68148
G1 X102.818 Y184.518 E17.70687
G1 X101.554 Y185.775 E17.85473
G1 X101.372 Y185.948 E17.87556
G1 X100.096 Y187.133 E18.01999
G1 X99.912 Y187.298 E18.04049
G1 X98.565 Y188.46 E18.18804
G1 X98.388 Y188.608 E18.20718
G1 X96.831 Y189.861 E18.37294
G1 X96.638 Y190.01 E18.39317
G1 X95.496 Y190.863 E18.51139
G1 X95.358 Y190.964 E18.52558
G1 X94.731 Y191.408 E18.5893
G1 X93.874 Y191.991 E18.67527
G1 X92.971 Y192.579 E18.76465
G1 X92.845 Y192.659 E18.77703
G1 X92.093 Y193.124 E18.85036
G1 X91.142 Y193.685 E18.94194
G1 X91.01 Y193.761 E18.95457
G1 X90.236 Y194.193 E19.02809
G1 X89.313 Y194.684 E19.11481
G1 X89.16 Y194.763 E19.12909
G1 X88.437 Y195.122 E19.19604
G1 X87.442 Y195.593 E19.28735
G1 X86.23 Y196.137 E19.39754
G1 X86.054 Y196.213 E19.41344
G1 X85.305 Y196.522 E19.48064
G1 X84.335 Y196.898 E19.56693
G1 X83.356 Y197.252 E19.65327
G1 X83.19 Y197.31 E19.66786
G1 X82.411 Y197.568 E19.73592
G1 X82.243 Y197.621 E19.75053
G1 X81.403 Y197.875 E19.82332
G1 X80.205 Y198.21 E19.9265
G1 X80.006 Y198.262 E19.94356
G1 X79.222 Y198.453 E20.01049
G1 X78.099 Y198.702 E20.10589
G1 X77.923 Y198.739 E20.12081
G1 X76.979 Y198.922 E20.20056
G1 X76.77 Y198.959 E20.21817
G1 X76.12 Y199.064 E20.27278
G1 X75.965 Y199.087 E20.28578
G1 X74.752 Y199.254 E20.38734
G1 X74.539 Y199.28 E20.40513
G1 X73.705 Y199.368 E20.47469
G1 X73.522 Y199.385 E20.48994
G1 X72.664 Y199.452 E20.56132
G1 X72.489 Y199.463 E20.57586
G1 X71.527 Y199.513 E20.65576
G1 X71.328 Y199.52 E20.67227
G1 X70.435 Y199.54 E20.74636
G1 X70.269 Y199.542 E20.76013
G1 X69.369 Y199.54 E20.83478
G1 X69.178 Y199.537 E20.85062
G1 X68.196 Y199.507 E20.93211
G1 X68.01 Y199.499 E20.94755
G1 X67.168 Y199.45 E21.01751
G1 X66.993 Y199.437 E21.03206
G1 X66.056 Y199.358 E21.11006
G1 X65.866 Y199.339 E21.12589
G1 X64.918 Y199.232 E21.20502
G1 X64.736 Y199.209 E21.22024
G1 X63.853 Y199.085 E21.29419
G1 X63.675 Y199.058 E21.30913
G1 X62.769 Y198.906 E21.38532
G1 X62.586 Y198.873 E21.40075
G1 X61.679 Y198.695 E21.47741
G1 X61.5 Y198.657 E21.49259
G1 X60.587 Y198.452 E21.5702
G1 X60.408 Y198.409 E21.58547
G1 X59.532 Y198.187 E21.66042
G1 X59.36 Y198.141 E21.67519
G1 X58.533 Y197.908 E21.74645
G1 X58.369 Y197.86 E21.76063
G1 X57.431 Y197.57 E21.84206
G1 X57.261 Y197.515 E21.85688
G1 X56.401 Y197.224 E21.93218
G1 X55.381 Y196.853 E22.02221
G1 X55.225 Y196.794 E22.03604
G1 X54.407 Y196.472 E22.10896
G1 X54.255 Y196.41 E22.12257
G1 X53.39 Y196.045 E22.20044
G1 X53.241 Y195.98 E22.21393
G1 X52.391 Y195.597 E22.29125
G1 X52.249 Y195.531 E22.30424
G1 X51.367 Y195.107 E22.38541
G1 X50.349 Y194.588 E22.48019
G1 X50.161 Y194.488 E22.49785
G1 X48.907 Y193.798 E22.61656
G1 X48.71 Y193.685 E22.6354
G1 X47.493 Y192.961 E22.75285
G1 X47.31 Y192.848 E22.77069
G1 X46.197 Y192.137 E22.88023
G1 X46.018 Y192.019 E22.89802
G1 X45.032 Y191.344 E22.99713
G1 X44.885 Y191.24 E23.01206
G1 X43.568 Y190.286 E23.14694
G1 X43.399 Y190.16 E23.16443
G1 X42.438 Y189.417 E23.26518
G1 X42.285 Y189.295 E23.28141
G1 X41.176 Y188.385 E23.4004
G1 X41.035 Y188.266 E23.4157
G1 X40.054 Y187.415 E23.52342
G1 X39.917 Y187.293 E23.53863
G1 X38.868 Y186.332 E23.65663
G1 X38.739 Y186.21 E23.67136
G1 X37.662 Y185.168 E23.79565
G1 X36.789 Y184.284 E23.8987
G1 X35.703 Y183.132 E24.03001
G1 X34.691 Y182.003 E24.15577
G1 X34.5 Y181.783 E24.17993
G1 X33.776 Y180.935 E24.27242
G1 X33.512 Y180.62 E24.30651
G1 X32.805 Y179.753 E24.3993
G1 X32.549 Y179.432 E24.43335
G1 X31.883 Y178.578 E24.52318
G1 X31.635 Y178.251 E24.55722
G1 X30.984 Y177.38 E24.64741
G1 X30.68 Y176.963 E24.69021
G1 X30.144 Y176.212 E24.76674
G1 X29.882 Y175.837 E24.80468
G1 X29.276 Y174.951 E24.89371
G1 X29.038 Y174.596 E24.92916
G1 X28.492 Y173.766 E25.01157
G1 X27.636 Y172.411 E25.1445
G1 X27.472 Y172.145 E25.17042
G1 X26.846 Y171.105 E25.2711
G1 X26.097 Y169.811 E25.39511
G1 X25.381 Y168.524 E25.51727
G1 X24.626 Y167.106 E25.65051
G1 X24.083 Y166.042 E25.74959
G1 X23.807 Y165.488 E25.80093
G1 X23.484 Y164.827 E25.86195
G1 X23.244 Y164.324 E25.90817
G1 X22.769 Y163.305 E26.00142
G1 X22.196 Y162.034 E26.11706
G1 X22.008 Y161.609 E26.1556
G1 X21.672 Y160.829 E26.22605
G1 X21.435 Y160.266 E26.27671
G1 X21.097 Y159.445 E26.35035
G1 X20.866 Y158.87 E26.40175
G1 X20.6 Y158.198 E26.46169
G1 X20.311 Y157.449 E26.52828
G1 X20.09 Y156.858 E26.58062
G1 X19.832 Y156.159 E26.64242
G1 X19.58 Y155.46 E26.70405
G1 X19.351 Y154.811 E26.76113
G1 X19.073 Y154.002 E26.83208
G1 X18.872 Y153.402 E26.88456
G1 X18.634 Y152.676 E26.94793
G1 X18.459 Y152.126 E26.99581
G1 X18.196 Y151.282 E27.06913
G1 X18.072 Y150.874 E27.1045
G1 X17.761 Y149.83 E27.19485
G1 X17.603 Y149.286 E27.24184
G1 X17.398 Y148.557 E27.30465
G1 X17.217 Y147.896 E27.36149
G1 X16.997 Y147.07 E27.43239
G1 X16.84 Y146.463 E27.48439
G1 X16.659 Y145.746 E27.54573
G1 X16.494 Y145.071 E27.60336
G1 X16.34 Y144.428 E27.6582
G1 X16.152 Y143.613 E27.72757
G1 X16.01 Y142.976 E27.78171
G1 X15.852 Y142.248 E27.84349
G1 X15.708 Y141.564 E27.90147
G1 X15.573 Y140.9 E27.95767
G1 X15.422 Y140.134 E28.02243
G1 X15.152 Y138.686 E28.1446
G1 X15.044 Y138.081 E28.19557
G1 X14.919 Y137.348 E28.25725
G1 X14.677 Y135.846 E28.38343
G1 X14.497 Y134.631 E28.48531
G1 X14.371 Y133.725 E28.56118
G1 X14.286 Y133.078 E28.6153
G1 X14.196 Y132.369 E28.67458
G1 X14.037 Y131.016 E28.78757
G1 X13.948 Y130.176 E28.85763
G1 X13.871 Y129.417 E28.92091
G1 X13.805 Y128.712 E28.97964
G1 X13.686 Y127.33 E29.09469
G1 X13.631 Y126.598 E29.15558
G1 X13.589 Y126.009 E29.20455
G1 X13.533 Y125.149 E29.27603
G1 X13.499 Y124.562 E29.3248
G1 X13.432 Y123.202 E29.43774
G1 X13.397 Y122.347 E29.50872
G1 X13.371 Y121.567 E29.57345
G1 X13.353 Y120.936 E29.62581
G1 X13.332 Y119.789 E29.72096
G1 X13.318 Y118.684 E29.81262
G1 X13.316 Y118.071 E29.86346
G1 X13.323 Y116.663 E29.98024
G1 X13.333 Y115.907 E30.04295
G1 X13.348 Y115.18 E30.10327
G1 X13.389 Y113.754 E30.22159
G1 X13.416 Y113.062 E30.27903
G1 X13.471 Y111.89 E30.37635
G1 X13.515 Y111.077 E30.44388
G1 X13.581 Y110.026 E30.53122
G1 X13.65 Y109.055 E30.61196
G1 X13.72 Y108.171 E30.68551
G1 X13.805 Y107.19 E30.76718
G1 X13.911 Y106.076 E30.86
G1 X13.986 Y105.364 E30.91938
G1 X14.108 Y104.269 E31.01076
G1 X14.212 Y103.407 E31.08278
G1 X14.353 Y102.316 E31.17402
G1 X14.464 Y101.507 E31.24175
G1 X14.62 Y100.436 E31.33152
G1 X14.756 Y99.563 E31.4048
G1 X14.907 Y98.632 E31.48303
G1 X15.08 Y97.624 E31.56786
G1 X15.253 Y96.667 E31.64852
G1 X15.428 Y95.743 E31.72652
G1 X15.615 Y94.796 E31.80659
G1 X15.805 Y93.882 E31.88402
G1 X16.031 Y92.842 E31.97229
G1 X16.217 Y92.014 E32.04268
G1 X16.452 Y91.02 E32.1274
G1 X16.674 Y90.114 E32.20476
G1 X16.923 Y89.131 E32.28887
G1 X17.149 Y88.273 E32.36246
G1 X17.425 Y87.262 E32.44939
G1 X17.687 Y86.34 E32.52889
G1 X17.932 Y85.504 E32.60114
G1 X18.253 Y84.445 E32.69293
G1 X18.52 Y83.593 E32.76698
G1 X18.82 Y82.667 E32.84772
G1 X19.152 Y81.676 E32.9344
G1 X19.435 Y80.859 E33.00612
G1 X19.774 Y79.906 E33.09001
G1 X20.112 Y78.987 E33.17123
G1 X20.461 Y78.068 E33.25277
G1 X20.808 Y77.18 E33.33184
G1 X21.151 Y76.324 E33.40833
G1 X21.593 Y75.263 E33.50366
G1 X21.913 Y74.514 E33.57122
G1 X22.368 Y73.478 E33.66507
G1 X22.706 Y72.734 E33.73285
G1 X23.165 Y71.744 E33.82336
G1 X23.503 Y71.039 E33.8882
G1 X24.106 Y69.818 E34.00115
G1 X24.343 Y69.354 E34.04437
G1 X24.998 Y68.093 E34.16223
G1 X25.286 Y67.557 E34.21269
G1 X25.948 Y66.355 E34.32651
G1 X26.249 Y65.825 E34.37707
G1 X26.925 Y64.666 E34.48835
G1 X27.25 Y64.124 E34.54077
G1 X27.97 Y62.958 E34.65443
G1 X28.308 Y62.427 E34.70664
G1 X29.054 Y61.283 E34.81992
G1 X29.36 Y60.828 E34.8654
G1 X30.206 Y59.605 E34.98874
G1 X30.534 Y59.145 E35.0356
G1 X31.375 Y57.997 E35.15364
G1 X31.66 Y57.619 E35.1929
G1 X32.643 Y56.353 E35.32584
G1 X33.006 Y55.9 E35.37399
G1 X33.802 Y54.931 E35.478
G1 X34.618 Y53.979 E35.582
G1 X35.438 Y53.057 E35.68434
G1 X36.397 Y52.025 E35.80119
G1 X37.123 Y51.276 E35.88771
G1 X38.117 Y50.285 E36.00413
G1 X39.034 Y49.413 E36.10908
G1 X39.132 Y49.321 E36.12023
G1 X39.968 Y48.559 E36.21406
G1 X40.091 Y48.45 E36.22769
G1 X41.092 Y47.583 E36.33753
M204 S3000
M205 X10 Y10
G0 X41.539 Y48.122
M204 S2500
M205 X8 Y8
G1 X42.375 Y47.429 E36.42759
G1 X43.423 Y46.6 E36.53842
G1 X43.536 Y46.513 E36.55025
G1 X44.532 Y45.766 E36.65351
G1 X45.484 Y45.087 E36.7505
G1 X45.614 Y44.997 E36.76362
G1 X46.585 Y44.342 E36.86076
