;FLAVOR:Marlin
;TIME:6299
;Filament used: 8.11643m
;Layer height: 0.25
;MINX:-63.105
;MINY:-86.764
;MINZ:0.3
;MAXX:-5.905
;MAXY:90.436
;MAXZ:51.8
;Generated with Cura_SteamEngine 4.10.0
M104 S205
M105
M109 S205
M82 ;absolute extrusion mode
G21        ;metric values
G90        ;absolute positioning
M107       ;start with the fan off
G28   ;move to endstops
G92 E0                  ;zero the extruded length
G1 F200 E3              ;extrude 3mm of feed stock
G92 E0                  ;zero the extruded length again
G1 F150.0
;Put printing message on LCD screen
M117 Printing...
G92 E0
G92 E0
G1 F2700 E-7
;LAYER_COUNT:208
;LAYER:0
M107
M204 S3000
G0 F3000 X-5.969 Y59.908 Z0.3
M204 S1500
;TYPE:SKIRT
G1 F2700 E0
G1 F1200 X-5.923 Y60.595 E0.03435
G1 X-5.912 Y60.868 E0.04798
G1 X-5.905 Y61.396 E0.07433
G1 X-5.905 Y66.286 E0.31829
G1 X-5.915 Y67.004 E0.35411
G1 X-5.963 Y67.538 E0.38086
G1 X-6.089 Y68.06 E0.40765
G1 X-6.291 Y68.556 E0.43437
G1 X-6.565 Y69.017 E0.46113
G1 X-6.904 Y69.433 E0.4879
G1 X-7.301 Y69.793 E0.51464
G1 X-7.773 Y70.105 E0.54287
G1 X-8.717 Y70.626 E0.59666
G1 X-44.948 Y89.695 E2.6393
G1 X-45.613 Y90.033 E2.67652
G1 X-46.108 Y90.24 E2.70329
G1 X-46.628 Y90.371 E2.73004
G1 X-47.189 Y90.424 E2.75815
G1 X-47.971 Y90.436 E2.79717
G1 X-58.59 Y90.436 E3.32696
G1 X-59.288 Y90.426 E3.36178
G1 X-59.822 Y90.378 E3.38853
G1 X-60.343 Y90.252 E3.41527
G1 X-60.84 Y90.049 E3.44206
G1 X-61.301 Y89.775 E3.46881
G1 X-61.716 Y89.436 E3.49555
G1 X-62.076 Y89.038 E3.52232
G1 X-62.373 Y88.592 E3.54906
G1 X-62.601 Y88.106 E3.57584
G1 X-62.753 Y87.592 E3.60258
G1 X-62.835 Y86.922 E3.63625
G1 X-62.845 Y86.487 E3.65796
G1 X-62.844 Y74.103 E4.2758
G1 X-62.883 Y71.322 E4.41456
G1 X-63.001 Y68.551 E4.55293
G1 X-63.095 Y66.928 E4.63404
G1 X-63.105 Y66.507 E4.65505
G1 X-63.105 Y61.492 E4.90525
G1 X-63.095 Y60.785 E4.94052
G1 X-63.087 Y60.601 E4.94971
G1 X-63.042 Y59.917 E4.98391
G1 X-51.574 Y-80.629 E12.01908
G1 X-51.511 Y-81.277 E12.05157
G1 X-51.4 Y-81.941 E12.08515
G1 X-51.314 Y-82.307 E12.10391
G1 X-51.152 Y-82.819 E12.1307
G1 X-51.042 Y-83.068 E12.14428
G1 X-50.818 Y-83.525 E12.16967
G1 X-50.702 Y-83.748 E12.18221
G1 X-50.417 Y-84.202 E12.20896
G1 X-49.915 Y-84.795 E12.24772
G1 X-49.728 Y-84.999 E12.26153
G1 X-49.335 Y-85.363 E12.28825
G1 X-49.096 Y-85.538 E12.30303
G1 X-48.661 Y-85.83 E12.32917
G1 X-48.425 Y-85.979 E12.34309
G1 X-47.711 Y-86.316 E12.38248
G1 X-47.166 Y-86.501 E12.4112
G1 X-46.979 Y-86.558 E12.42095
G1 X-46.455 Y-86.675 E12.44774
G1 X-46.174 Y-86.706 E12.46184
G1 X-45.675 Y-86.74 E12.48679
G1 X-45.174 Y-86.759 E12.51181
G1 X-44.798 Y-86.764 E12.53057
G1 X-43.41 Y-86.764 E12.59981
G1 X-42.715 Y-86.754 E12.63449
G1 X-42.513 Y-86.745 E12.64458
G1 X-41.296 Y-86.659 E12.70545
G1 X-38.585 Y-86.505 E12.84092
G1 X-35.82 Y-86.427 E12.97892
G1 X-33.125 Y-86.427 E13.11337
G1 X-30.356 Y-86.505 E13.25157
G1 X-27.663 Y-86.657 E13.38614
G1 X-26.597 Y-86.74 E13.43948
G1 X-26.031 Y-86.763 E13.46775
G1 X-24.358 Y-86.763 E13.55121
G1 X-23.519 Y-86.751 E13.59307
G1 X-22.911 Y-86.717 E13.62346
G1 X-22.38 Y-86.644 E13.6502
G1 X-22.089 Y-86.569 E13.66519
G1 X-21.598 Y-86.42 E13.69079
G1 X-21.34 Y-86.334 E13.70436
G1 X-20.621 Y-85.994 E13.74404
G1 X-20.116 Y-85.681 E13.77368
G1 X-19.973 Y-85.586 E13.78224
G1 X-19.55 Y-85.256 E13.80901
G1 X-19.336 Y-85.046 E13.82397
G1 X-18.913 Y-84.592 E13.85492
G1 X-18.812 Y-84.477 E13.86256
G1 X-18.489 Y-84.048 E13.88935
G1 X-18.128 Y-83.399 E13.9264
G1 X-17.989 Y-83.121 E13.94191
G1 X-17.787 Y-82.624 E13.96867
G1 X-17.613 Y-81.935 E14.00413
G1 X-17.508 Y-81.363 E14.03314
G1 X-17.466 Y-80.981 E14.05231
G1 X-5.969 Y59.908 E21.10466
M204 S3000
G0 F3000 X-6.368 Y59.935
M204 S1500
G1 F1200 X-6.317 Y60.716 E21.14371
G1 X-6.312 Y60.874 E21.15159
G1 X-6.305 Y61.402 E21.17794
G1 X-6.305 Y66.281 E21.42135
G1 X-6.315 Y66.999 E21.45718
G1 X-6.362 Y67.502 E21.48238
G1 X-6.488 Y67.992 E21.50762
G1 X-6.689 Y68.455 E21.5328
G1 X-6.961 Y68.882 E21.55806
G1 X-7.296 Y69.26 E21.58326
G1 X-7.687 Y69.581 E21.6085
G1 X-7.967 Y69.754 E21.62492
G1 X-8.904 Y70.272 E21.67833
G1 X-45.129 Y89.339 E23.72067
G1 X-45.794 Y89.677 E23.75788
G1 X-46.261 Y89.869 E23.78308
G1 X-46.753 Y89.986 E23.80831
G1 X-47.195 Y90.024 E23.83044
G1 X-47.977 Y90.036 E23.86946
G1 X-58.584 Y90.036 E24.39864
G1 X-59.282 Y90.026 E24.43347
G1 X-59.785 Y89.979 E24.45867
G1 X-60.275 Y89.853 E24.48392
G1 X-60.739 Y89.651 E24.50916
G1 X-61.165 Y89.379 E24.53438
G1 X-61.543 Y89.044 E24.55958
G1 X-61.863 Y88.653 E24.58478
G1 X-62.118 Y88.216 E24.61003
G1 X-62.301 Y87.745 E24.63524
G1 X-62.408 Y87.251 E24.66045
G1 X-62.444 Y86.572 E24.69438
G1 X-62.444 Y74.097 E25.31676
G1 X-62.484 Y71.3 E25.45631
G1 X-62.599 Y68.585 E25.59189
G1 X-62.691 Y67.013 E25.67045
G1 X-62.705 Y66.507 E25.6957
G1 X-62.705 Y61.498 E25.9456
G1 X-62.695 Y60.791 E25.98088
G1 X-62.688 Y60.627 E25.98907
G1 X-62.643 Y59.95 E26.02292
G1 X-51.176 Y-80.591 E33.05784
G1 X-51.113 Y-81.239 E33.09032
G1 X-51.01 Y-81.85 E33.12123
G1 X-50.924 Y-82.216 E33.13999
G1 X-50.682 Y-82.892 E33.17581
G1 X-50.415 Y-83.434 E33.20595
G1 X-50.348 Y-83.561 E33.21312
G1 X-49.925 Y-84.177 E33.2504
G1 X-49.552 Y-84.6 E33.27854
G1 X-49.435 Y-84.726 E33.28711
G1 X-48.873 Y-85.206 E33.32399
G1 X-48.438 Y-85.498 E33.35013
G1 X-48.215 Y-85.638 E33.36326
G1 X-47.581 Y-85.937 E33.39823
G1 X-47.049 Y-86.118 E33.42627
G1 X-46.862 Y-86.175 E33.43602
G1 X-46.147 Y-86.307 E33.4723
G1 X-45.648 Y-86.341 E33.49725
G1 X-45.084 Y-86.361 E33.5254
G1 X-44.794 Y-86.364 E33.53987
G1 X-43.416 Y-86.364 E33.60862
G1 X-42.721 Y-86.354 E33.6433
G1 X-42.541 Y-86.346 E33.65229
G1 X-41.344 Y-86.261 E33.71216
G1 X-38.584 Y-86.105 E33.85007
G1 X-35.831 Y-86.027 E33.98748
G1 X-33.114 Y-86.027 E34.12303
G1 X-30.358 Y-86.105 E34.26058
G1 X-27.609 Y-86.26 E34.39795
G1 X-26.572 Y-86.341 E34.44984
G1 X-26.02 Y-86.363 E34.4774
G1 X-24.363 Y-86.363 E34.56007
G1 X-23.524 Y-86.351 E34.60193
G1 X-22.936 Y-86.318 E34.63131
G1 X-22.205 Y-86.186 E34.66837
G1 X-21.604 Y-86.002 E34.69973
G1 X-21.47 Y-85.956 E34.7068
G1 X-20.831 Y-85.654 E34.74206
G1 X-20.337 Y-85.347 E34.77108
G1 X-20.194 Y-85.252 E34.77964
G1 X-19.628 Y-84.773 E34.81664
G1 X-19.214 Y-84.328 E34.84696
G1 X-19.113 Y-84.213 E34.8546
G1 X-18.697 Y-83.613 E34.89102
G1 X-18.432 Y-83.116 E34.91912
G1 X-18.347 Y-82.944 E34.92869
G1 X-18.102 Y-82.262 E34.96485
G1 X-17.981 Y-81.742 E34.99148
G1 X-17.876 Y-81.06 E35.02591
G1 X-17.865 Y-80.948 E35.03152
G1 X-6.368 Y59.935 E42.08357
M204 S3000
G1 F2700 E35.08357
;MESH:SpoolHolder_right.stl
G0 F3000 X-8.896 Y60.141
G0 X-10.156 Y60.244
G0 X-58.574 Y66.166
G0 X-58.644 Y66.236
M204 S1500
;TYPE:WALL-INNER
G1 F2700 E42.08357
G1 F1200 X-58.905 Y66.236 E42.09399
G1 X-58.905 Y60.857 E42.30867
G1 X-47.343 Y-80.846 E47.98314
G1 X-47.242 Y-81.311 E48.00213
G1 X-47.016 Y-81.751 E48.02188
G1 X-46.686 Y-82.117 E48.04155
G1 X-46.27 Y-82.385 E48.0613
G1 X-45.801 Y-82.536 E48.08096
G1 X-45.225 Y-82.564 E48.10398
G1 X-43.355 Y-82.564 E48.17861
G1 X-43.355 Y-73.125 E48.55534
G1 X-43.059 Y-70.873 E48.646
G1 X-42.174 Y-68.736 E48.73832
G1 X-40.767 Y-66.902 E48.83058
G1 X-38.933 Y-65.495 E48.92283
G1 X-36.796 Y-64.61 E49.01515
G1 X-34.505 Y-64.309 E49.10738
G1 X-32.214 Y-64.61 E49.1996
G1 X-30.077 Y-65.495 E49.29192
G1 X-28.243 Y-66.902 E49.38418
G1 X-26.836 Y-68.736 E49.47643
G1 X-25.951 Y-70.873 E49.56875
G1 X-25.655 Y-73.125 E49.65941
G1 X-25.655 Y-82.364 E50.02815
G1 X-25.655 Y-82.564 E50.03614
G1 X-25.455 Y-82.564 E50.04131
G1 X-23.769 Y-82.563 E50.1086
G1 X-23.208 Y-82.535 E50.13102
G1 X-22.743 Y-82.386 E50.1505
G1 X-22.324 Y-82.116 E50.1704
G1 X-21.995 Y-81.751 E50.19001
G1 X-21.767 Y-81.307 E50.20993
G1 X-21.668 Y-80.853 E50.22848
G1 X-10.105 Y60.857 E55.90323
G1 X-10.105 Y66.61 E56.13284
G1 X-47.392 Y86.236 E57.81461
G1 X-58.445 Y86.236 E58.25576
G1 X-58.645 Y86.236 E58.26374
G1 X-58.645 Y86.036 E58.26891
G1 X-58.644 Y66.236 E59.05917
M204 S3000
G0 F3000 X-59.044 Y66.636
M204 S1500
;TYPE:WALL-OUTER
G1 F1200 X-59.305 Y66.636 E59.06959
G1 X-59.305 Y60.836 E59.30108
G1 X-47.74 Y-80.903 E64.97699
G1 X-47.622 Y-81.448 E64.99924
G1 X-47.349 Y-81.98 E65.02311
G1 X-46.947 Y-82.424 E65.04702
G1 X-46.441 Y-82.75 E65.07104
G1 X-45.873 Y-82.933 E65.09486
G1 X-45.245 Y-82.964 E65.11995
G1 X-42.955 Y-82.964 E65.21135
G1 X-42.955 Y-73.151 E65.60301
G1 X-42.669 Y-70.977 E65.69053
G1 X-41.825 Y-68.938 E65.7786
G1 X-40.482 Y-67.187 E65.86668
G1 X-38.731 Y-65.844 E65.95475
G1 X-36.692 Y-65 E66.04283
G1 X-34.505 Y-64.712 E66.13087
G1 X-32.318 Y-65 E66.21891
G1 X-30.279 Y-65.844 E66.30699
G1 X-28.528 Y-67.187 E66.39507
G1 X-27.185 Y-68.938 E66.48314
G1 X-26.341 Y-70.977 E66.57122
G1 X-26.055 Y-73.151 E66.65874
G1 X-26.055 Y-82.764 E67.04241
G1 X-26.055 Y-82.964 E67.05039
G1 X-25.855 Y-82.964 E67.05556
G1 X-23.749 Y-82.963 E67.13962
G1 X-23.137 Y-82.933 E67.16407
G1 X-22.571 Y-82.751 E67.1878
G1 X-22.063 Y-82.423 E67.21194
G1 X-21.662 Y-81.98 E67.23579
G1 X-21.387 Y-81.444 E67.25983
G1 X-21.271 Y-80.91 E67.28164
G1 X-9.705 Y60.836 E72.95783
G1 X-9.705 Y66.851 E73.1979
G1 X-47.293 Y86.636 E74.89326
G1 X-58.845 Y86.636 E75.35432
G1 X-59.045 Y86.636 E75.3623
G1 X-59.045 Y86.436 E75.36747
G1 X-59.044 Y66.636 E76.15773
M204 S3000
G0 F3000 X-59.244 Y66.636
G0 X-58.835 Y66.166
G0 X-58.515 Y65.846
M204 S1500
;TYPE:SKIN
G1 F1200 X-58.515 Y60.857 E76.35685
G1 X-46.957 Y-80.785 E82.02888
G1 X-46.872 Y-81.177 E82.04489
G1 X-46.693 Y-81.527 E82.06058
G1 X-46.43 Y-81.818 E82.07624
G1 X-46.1 Y-82.03 E82.09189
G1 X-45.734 Y-82.148 E82.10724
G1 X-45.206 Y-82.174 E82.12834
G1 X-43.745 Y-82.174 E82.18665
G1 X-43.745 Y-73.1 E82.54881
G1 X-43.439 Y-70.771 E82.64257
G1 X-42.515 Y-68.539 E82.73898
G1 X-41.046 Y-66.623 E82.83535
G1 X-39.13 Y-65.154 E82.93171
G1 X-36.898 Y-64.23 E83.02812
G1 X-34.505 Y-63.915 E83.12446
G1 X-32.112 Y-64.23 E83.22079
G1 X-29.88 Y-65.154 E83.31721
G1 X-27.964 Y-66.623 E83.41357
G1 X-26.495 Y-68.539 E83.50993
G1 X-25.571 Y-70.771 E83.60634
G1 X-25.265 Y-73.1 E83.7001
G1 X-25.265 Y-82.174 E84.06226
G1 X-23.789 Y-82.173 E84.12117
G1 X-23.275 Y-82.147 E84.14171
G1 X-22.913 Y-82.031 E84.15689
G1 X-22.58 Y-81.817 E84.17268
G1 X-22.318 Y-81.527 E84.18828
G1 X-22.137 Y-81.174 E84.20412
G1 X-22.054 Y-80.79 E84.2198
G1 X-10.495 Y60.857 E89.89203
G1 X-10.495 Y66.375 E90.11226
G1 X-47.487 Y85.846 E91.78073
G1 X-58.255 Y85.846 E92.2105
G1 X-58.254 Y65.846 E93.00874
G1 X-58.515 Y65.846 E93.01916
M204 S3000
G0 F3000 X-58.018 Y85.665
M204 S1500
G1 F1200 X-58.075 Y85.608 E93.02238
M204 S3000
G0 F3000 X-58.075 Y85.043
M204 S1500
G1 F1200 X-57.453 Y85.665 E93.05749
M204 S3000
G0 F3000 X-56.887 Y85.665
M204 S1500
G1 F1200 X-58.075 Y84.477 E93.12454
M204 S3000
G0 F3000 X-58.075 Y83.911
M204 S1500
G1 F1200 X-56.321 Y85.665 E93.22355
M204 S3000
G0 F3000 X-55.756 Y85.665
M204 S1500
G1 F1200 X-58.075 Y83.345 E93.35447
M204 S3000
G0 F3000 X-58.075 Y82.78
M204 S1500
G1 F1200 X-55.19 Y85.665 E93.51731
M204 S3000
G0 F3000 X-54.624 Y85.665
M204 S1500
G1 F1200 X-58.075 Y82.214 E93.7121
M204 S3000
G0 F3000 X-58.075 Y81.648
M204 S1500
G1 F1200 X-54.059 Y85.665 E93.93881
M204 S3000
G0 F3000 X-53.493 Y85.665
M204 S1500
G1 F1200 X-58.075 Y81.083 E94.19744
M204 S3000
G0 F3000 X-58.075 Y80.517
M204 S1500
G1 F1200 X-52.927 Y85.665 E94.48801
M204 S3000
G0 F3000 X-52.361 Y85.665
M204 S1500
G1 F1200 X-58.075 Y79.951 E94.81054
M204 S3000
G0 F3000 X-58.075 Y79.386
M204 S1500
G1 F1200 X-51.796 Y85.665 E95.16495
M204 S3000
G0 F3000 X-51.23 Y85.665
M204 S1500
G1 F1200 X-58.075 Y78.82 E95.55131
M204 S3000
G0 F3000 X-58.075 Y78.254
M204 S1500
G1 F1200 X-50.664 Y85.665 E95.96962
M204 S3000
G0 F3000 X-50.099 Y85.665
M204 S1500
G1 F1200 X-58.075 Y77.689 E96.41982
M204 S3000
G0 F3000 X-58.075 Y77.123
M204 S1500
G1 F1200 X-49.533 Y85.665 E96.90197
M204 S3000
G0 F3000 X-48.967 Y85.665
M204 S1500
G1 F1200 X-58.075 Y76.557 E97.41606
M204 S3000
G0 F3000 X-58.075 Y75.992
M204 S1500
G1 F1200 X-48.402 Y85.665 E97.96205
M204 S3000
G0 F3000 X-47.836 Y85.665
M204 S1500
G1 F1200 X-58.074 Y75.427 E98.53992
M204 S3000
G0 F3000 X-58.074 Y74.861
M204 S1500
G1 F1200 X-47.36 Y85.575 E99.14467
M204 S3000
G0 F3000 X-46.99 Y85.38
M204 S1500
G1 F1200 X-58.074 Y74.295 E99.77033
M204 S3000
G0 F3000 X-58.074 Y73.73
M204 S1500
G1 F1200 X-46.619 Y85.185 E100.4169
M204 S3000
G0 F3000 X-46.249 Y84.989
M204 S1500
G1 F1200 X-58.074 Y73.164 E101.08435
M204 S3000
G0 F3000 X-58.074 Y72.598
M204 S1500
G1 F1200 X-45.878 Y84.794 E101.77274
M204 S3000
G0 F3000 X-45.507 Y84.599
M204 S1500
G1 F1200 X-58.074 Y72.032 E102.48208
M204 S3000
G0 F3000 X-58.074 Y71.467
M204 S1500
G1 F1200 X-45.137 Y84.404 E103.2123
M204 S3000
G0 F3000 X-44.766 Y84.209
M204 S1500
G1 F1200 X-58.074 Y70.901 E103.96346
M204 S3000
G0 F3000 X-58.074 Y70.335
M204 S1500
G1 F1200 X-44.395 Y84.014 E104.73556
M204 S3000
G0 F3000 X-44.025 Y83.819
M204 S1500
G1 F1200 X-58.074 Y69.77 E105.52855
M204 S3000
G0 F3000 X-58.074 Y69.204
M204 S1500
G1 F1200 X-43.654 Y83.624 E106.34248
M204 S3000
G0 F3000 X-43.284 Y83.429
M204 S1500
G1 F1200 X-58.074 Y68.638 E107.17732
M204 S3000
G0 F3000 X-58.074 Y68.073
M204 S1500
G1 F1200 X-42.913 Y83.234 E108.03307
M204 S3000
G0 F3000 X-42.543 Y83.039
M204 S1500
G1 F1200 X-58.074 Y67.507 E108.90973
M204 S3000
G0 F3000 X-58.074 Y66.941
M204 S1500
G1 F1200 X-42.172 Y82.843 E109.80731
M204 S3000
G0 F3000 X-41.802 Y82.648
M204 S1500
G1 F1200 X-58.074 Y66.376 E110.72577
M204 S3000
G0 F3000 X-58.074 Y65.81
M204 S1500
G1 F1200 X-41.431 Y82.453 E111.66518
M204 S3000
G0 F3000 X-41.06 Y82.259
M204 S1500
G1 F1200 X-58.334 Y64.984 E112.64022
M204 S3000
G0 F3000 X-58.334 Y64.418
M204 S1500
G1 F1200 X-40.689 Y82.063 E113.63618
M204 S3000
G0 F3000 X-40.319 Y81.868
M204 S1500
G1 F1200 X-58.334 Y63.853 E114.65303
M204 S3000
G0 F3000 X-58.334 Y63.287
M204 S1500
G1 F1200 X-39.948 Y81.673 E115.69081
M204 S3000
G0 F3000 X-39.578 Y81.478
M204 S1500
G1 F1200 X-58.334 Y62.721 E116.74951
M204 S3000
G0 F3000 X-58.334 Y62.156
M204 S1500
G1 F1200 X-39.207 Y81.283 E117.82912
M204 S3000
G0 F3000 X-38.837 Y81.088
M204 S1500
G1 F1200 X-58.334 Y61.59 E118.92965
M204 S3000
G0 F3000 X-58.334 Y61.024
M204 S1500
G1 F1200 X-38.466 Y80.893 E120.05111
M204 S3000
G0 F3000 X-38.096 Y80.697
M204 S1500
G1 F1200 X-58.305 Y60.488 E121.19179
M204 S3000
G0 F3000 X-58.262 Y59.965
M204 S1500
G1 F1200 X-37.724 Y80.503 E122.35105
M204 S3000
G0 F3000 X-37.354 Y80.308
M204 S1500
G1 F1200 X-58.22 Y59.442 E123.52881
M204 S3000
G0 F3000 X-58.177 Y58.919
M204 S1500
G1 F1200 X-36.983 Y80.113 E124.72509
M204 S3000
G0 F3000 X-36.613 Y79.917
M204 S1500
G1 F1200 X-58.134 Y58.396 E125.93983
M204 S3000
G0 F3000 X-58.091 Y57.873
M204 S1500
G1 F1200 X-36.242 Y79.722 E127.17308
M204 S3000
G0 F3000 X-35.872 Y79.527
M204 S1500
G1 F1200 X-58.049 Y57.35 E128.42485
M204 S3000
G0 F3000 X-58.006 Y56.827
M204 S1500
G1 F1200 X-35.501 Y79.332 E129.69513
M204 S3000
G0 F3000 X-35.131 Y79.137
M204 S1500
G1 F1200 X-57.963 Y56.304 E130.98389
M204 S3000
G0 F3000 X-57.921 Y55.781
M204 S1500
G1 F1200 X-34.759 Y78.942 E132.29123
M204 S3000
G0 F3000 X-34.389 Y78.747
M204 S1500
G1 F1200 X-57.878 Y55.258 E133.61705
M204 S3000
G0 F3000 X-57.835 Y54.735
M204 S1500
G1 F1200 X-34.018 Y78.552 E134.96138
M204 S3000
G0 F3000 X-33.648 Y78.357
M204 S1500
G1 F1200 X-57.793 Y54.212 E136.32423
M204 S3000
G0 F3000 X-57.75 Y53.689
M204 S1500
G1 F1200 X-33.277 Y78.162 E137.70559
M204 S3000
G0 F3000 X-32.907 Y77.967
M204 S1500
G1 F1200 X-57.707 Y53.166 E139.10544
M204 S3000
G0 F3000 X-57.665 Y52.643
M204 S1500
G1 F1200 X-32.536 Y77.771 E140.5238
M204 S3000
G0 F3000 X-32.166 Y77.576
M204 S1500
G1 F1200 X-57.622 Y52.12 E141.96065
M204 S3000
G0 F3000 X-57.579 Y51.597
M204 S1500
G1 F1200 X-31.795 Y77.381 E143.41601
M204 S3000
G0 F3000 X-31.424 Y77.187
M204 S1500
G1 F1200 X-57.537 Y51.074 E144.88994
M204 S3000
G0 F3000 X-57.494 Y50.551
M204 S1500
G1 F1200 X-31.054 Y76.991 E146.38233
M204 S3000
G0 F3000 X-30.683 Y76.796
M204 S1500
G1 F1200 X-57.451 Y50.028 E147.89323
M204 S3000
G0 F3000 X-57.409 Y49.505
M204 S1500
G1 F1200 X-30.312 Y76.601 E149.42267
M204 S3000
G0 F3000 X-29.942 Y76.406
M204 S1500
G1 F1200 X-57.366 Y48.982 E150.9706
M204 S3000
G0 F3000 X-57.323 Y48.459
M204 S1500
