;FLAVOR:Marlin
;TIME:14359
;Filament used: 26.3189m
;Layer height: 0.3
;MINX:-20.805
;MINY:-110.245
;MINZ:0.2
;MAXX:22.555
;MAXY:91.235
;MAXZ:118.1
;Generated with Cura_SteamEngine 4.10.0
M104 S225
M105
M109 S225
M82 ;absolute extrusion mode
G21        ;metric values
G90        ;absolute positioning
M107       ;start with the fan off
G28   ;move to endstops

;Z-Offset Reset und dann Z +0,1 für PLA
;MacroZOffset0
;MacroZOffsetPlus0100

G92 E0                  ;zero the extruded length
G1 F200 E3              ;extrude 3mm of feed stock
G92 E0                  ;zero the extruded length again
G1 F150.0
;Put printing message on LCD screen
M117 Printing...
G92 E0
G92 E0
G1 F2400 E-6
;LAYER_COUNT:394
;LAYER:0
M106 S255
M204 S3000
G1 F600 Z1.2
G0 F1500 X-20.085 Y0.344 Z1.2
M204 S1500
;TYPE:SKIRT
G1 F600 Z0.2
G1 F2400 E0
G1 F600 X-20.083 Y-2.36 E0.09713
G1 X-20.157 Y-5.029 E0.19304
G1 X-20.31 Y-7.765 E0.29147
G1 X-20.531 Y-10.39 E0.3861
G1 X-20.7 Y-11.986 E0.44375
G1 X-20.765 Y-12.547 E0.46404
G1 X-20.803 Y-13.26 E0.48968
G1 X-20.805 Y-13.395 E0.49453
G1 X-20.805 Y-14.425 E0.53153
G1 X-20.795 Y-15.122 E0.55657
G1 X-20.76 Y-15.623 E0.57461
G1 X-20.73 Y-15.871 E0.58359
G1 X-20.417 Y-18.623 E0.68308
G1 X-20.191 Y-21.278 E0.77879
G1 X-20.035 Y-24.016 E0.8773
G1 X-19.96 Y-26.683 E0.97314
G1 X-19.96 Y-29.389 E1.07034
G1 X-20.036 Y-32.061 E1.16636
G1 X-20.189 Y-34.789 E1.26451
G1 X-20.416 Y-37.453 E1.36055
G1 X-20.766 Y-40.544 E1.47229
G1 X-20.803 Y-41.252 E1.49776
G1 X-20.805 Y-41.395 E1.5029
G1 X-20.804 Y-42.43 E1.54007
G1 X-20.793 Y-43.146 E1.5658
G1 X-20.756 Y-43.67 E1.58467
G1 X-20.689 Y-44.192 E1.60357
G1 X-20.384 Y-46.878 E1.70067
G1 X-20.158 Y-49.534 E1.79642
G1 X-20.003 Y-52.269 E1.89483
G1 X-19.926 Y-54.939 E1.99078
G1 X-19.926 Y-57.645 E2.08798
G1 X-20 Y-60.311 E2.18378
G1 X-20.156 Y-63.054 E2.28247
G1 X-20.381 Y-65.706 E2.37807
G1 X-20.688 Y-68.408 E2.47576
G1 X-20.767 Y-69.052 E2.49906
G1 X-20.803 Y-69.763 E2.52464
G1 X-20.805 Y-69.895 E2.52938
G1 X-20.804 Y-70.93 E2.56656
G1 X-20.793 Y-71.649 E2.59239
G1 X-20.737 Y-72.305 E2.61604
G1 X-20.662 Y-72.781 E2.63335
G1 X-20.283 Y-75.44 E2.72983
G1 X-19.977 Y-78.133 E2.82718
G1 X-19.751 Y-80.791 E2.92301
G1 X-19.595 Y-83.528 E3.02148
G1 X-19.52 Y-86.194 E3.11728
G1 X-19.52 Y-88.901 E3.21452
G1 X-19.596 Y-91.571 E3.31047
G1 X-19.749 Y-94.3 E3.40865
G1 X-19.976 Y-96.967 E3.5048
G1 X-20.281 Y-99.651 E3.60183
G1 X-20.663 Y-102.331 E3.69907
G1 X-20.749 Y-102.917 E3.72035
G1 X-20.794 Y-103.444 E3.73935
G1 X-20.805 Y-103.895 E3.75555
G1 X-20.805 Y-104.954 E3.79359
G1 X-20.796 Y-105.619 E3.81748
G1 X-20.747 Y-106.229 E3.83946
G1 X-20.62 Y-106.827 E3.86142
G1 X-20.416 Y-107.404 E3.88341
G1 X-20.138 Y-107.949 E3.90538
G1 X-19.792 Y-108.453 E3.92734
G1 X-19.383 Y-108.907 E3.94929
G1 X-18.918 Y-109.305 E3.97128
G1 X-18.405 Y-109.638 E3.99325
G1 X-17.853 Y-109.902 E4.01523
G1 X-17.272 Y-110.091 E4.03718
G1 X-16.671 Y-110.203 E4.05914
G1 X-15.926 Y-110.243 E4.08594
G1 X-15.795 Y-110.245 E4.09064
G1 X17.235 Y-110.245 E5.27711
G1 X17.933 Y-110.235 E5.30219
G1 X18.543 Y-110.186 E5.32417
G1 X19.141 Y-110.058 E5.34614
G1 X19.717 Y-109.853 E5.3681
G1 X20.262 Y-109.575 E5.39007
G1 X20.765 Y-109.229 E5.412
G1 X21.22 Y-108.819 E5.434
G1 X21.617 Y-108.354 E5.45597
G1 X21.95 Y-107.841 E5.47794
G1 X22.213 Y-107.289 E5.4999
G1 X22.402 Y-106.707 E5.52188
G1 X22.513 Y-106.106 E5.54384
G1 X22.553 Y-105.367 E5.57042
G1 X22.555 Y-105.235 E5.57516
G1 X22.555 Y60.757 E11.53775
G1 X22.546 Y61.484 E11.56387
G1 X22.498 Y62.094 E11.58585
G1 X22.372 Y62.692 E11.6078
G1 X22.168 Y63.269 E11.62978
G1 X21.891 Y63.814 E11.65174
G1 X21.545 Y64.318 E11.6737
G1 X21.137 Y64.773 E11.69566
G1 X20.672 Y65.171 E11.71764
G1 X20.16 Y65.505 E11.7396
G1 X19.608 Y65.77 E11.7616
G1 X19.027 Y65.96 E11.78355
G1 X18.426 Y66.072 E11.80551
G1 X17.676 Y66.113 E11.83249
G1 X17.545 Y66.115 E11.8372
G1 X-15.478 Y66.115 E13.02342
G1 X-16.176 Y66.106 E13.04849
G1 X-16.786 Y66.058 E13.07047
G1 X-17.384 Y65.931 E13.09243
G1 X-17.961 Y65.727 E13.11442
G1 X-18.506 Y65.45 E13.13638
G1 X-19.01 Y65.104 E13.15834
G1 X-19.465 Y64.695 E13.18031
G1 X-19.863 Y64.23 E13.2023
G1 X-20.196 Y63.718 E13.22424
G1 X-20.46 Y63.166 E13.24622
G1 X-20.65 Y62.585 E13.26818
G1 X-20.763 Y61.984 E13.29014
G1 X-20.803 Y61.219 E13.31766
G1 X-20.805 Y61.093 E13.32219
G1 X-20.804 Y60.033 E13.36026
G1 X-20.793 Y59.359 E13.38448
G1 X-20.771 Y58.975 E13.39829
G1 X-20.684 Y58.095 E13.43006
G1 X-20.459 Y55.436 E13.52591
G1 X-20.303 Y52.692 E13.62464
G1 X-20.228 Y50.025 E13.72048
G1 X-20.228 Y47.319 E13.81768
G1 X-20.303 Y44.651 E13.91355
G1 X-20.459 Y41.916 E14.01196
G1 X-20.687 Y39.233 E14.10868
G1 X-20.761 Y38.531 E14.13404
G1 X-20.803 Y37.737 E14.1626
G1 X-20.805 Y37.605 E14.16734
G1 X-20.805 Y36.575 E14.20434
G1 X-20.795 Y35.878 E14.22938
G1 X-20.773 Y35.49 E14.24334
G1 X-20.648 Y34.22 E14.28918
G1 X-20.598 Y33.778 E14.30516
G1 X-20.373 Y31.123 E14.40087
G1 X-20.219 Y28.387 E14.4993
G1 X-20.144 Y25.719 E14.59518
G1 X-20.146 Y23.014 E14.69234
G1 X-20.223 Y20.308 E14.78959
G1 X-20.375 Y17.646 E14.88536
G1 X-20.609 Y14.917 E14.98375
G1 X-20.769 Y13.424 E15.03769
G1 X-20.803 Y12.737 E15.0624
G1 X-20.805 Y12.605 E15.06714
G1 X-20.805 Y11.575 E15.10414
G1 X-20.795 Y10.878 E15.12918
G1 X-20.774 Y10.497 E15.14288
G1 X-20.712 Y9.852 E15.16616
G1 X-20.549 Y8.431 E15.21754
G1 X-20.317 Y5.718 E15.31535
G1 X-20.163 Y3.049 E15.41138
G1 X-20.085 Y0.344 E15.50859
M204 S3000
G0 F1500 X-19.605 Y0.359
M204 S1500
G1 F600 X-19.603 Y-2.373 E15.60672
G1 X-19.677 Y-5.07 E15.70364
G1 X-19.828 Y-7.763 E15.80052
G1 X-20.059 Y-10.497 E15.89908
G1 X-20.223 Y-12.037 E15.95471
G1 X-20.288 Y-12.602 E15.97514
G1 X-20.323 Y-13.274 E15.99931
G1 X-20.325 Y-13.395 E16.00366
G1 X-20.325 Y-14.418 E16.04041
G1 X-20.315 Y-15.115 E16.06545
G1 X-20.249 Y-15.851 E16.09199
G1 X-19.94 Y-18.561 E16.18997
G1 X-19.709 Y-21.282 E16.28806
G1 X-19.556 Y-23.973 E16.38488
G1 X-19.48 Y-26.67 E16.4818
G1 X-19.48 Y-29.402 E16.57993
G1 X-19.556 Y-32.102 E16.67696
G1 X-19.708 Y-34.788 E16.7736
G1 X-19.939 Y-37.51 E16.87172
G1 X-20.289 Y-40.598 E16.98336
G1 X-20.323 Y-41.267 E17.00742
G1 X-20.325 Y-41.395 E17.01202
G1 X-20.325 Y-42.423 E17.04895
G1 X-20.314 Y-43.139 E17.07467
G1 X-20.28 Y-43.609 E17.0916
G1 X-20.213 Y-44.131 E17.1105
G1 X-19.907 Y-46.816 E17.20757
G1 X-19.676 Y-49.535 E17.30559
G1 X-19.523 Y-52.228 E17.40248
G1 X-19.446 Y-54.925 E17.4994
G1 X-19.446 Y-57.659 E17.59761
G1 X-19.521 Y-60.35 E17.69431
G1 X-19.674 Y-63.049 E17.79142
G1 X-19.905 Y-65.766 E17.88937
G1 X-20.208 Y-68.441 E17.98607
G1 X-20.29 Y-69.106 E18.01014
G1 X-20.323 Y-69.777 E18.03427
G1 X-20.325 Y-69.895 E18.03851
G1 X-20.325 Y-70.922 E18.0754
G1 X-20.314 Y-71.641 E18.10123
G1 X-20.263 Y-72.231 E18.1225
G1 X-20.188 Y-72.707 E18.13981
G1 X-19.806 Y-75.391 E18.23719
G1 X-19.501 Y-78.072 E18.33412
G1 X-19.269 Y-80.797 E18.43236
G1 X-19.116 Y-83.485 E18.52907
G1 X-19.04 Y-86.181 E18.62595
G1 X-19.04 Y-88.914 E18.72412
G1 X-19.116 Y-91.612 E18.82108
G1 X-19.268 Y-94.299 E18.91775
G1 X-19.5 Y-97.025 E19.01603
G1 X-19.803 Y-99.7 E19.11273
G1 X-20.187 Y-102.389 E19.2103
G1 X-20.274 Y-102.985 E19.23194
G1 X-20.323 Y-103.777 E19.26044
G1 X-20.325 Y-103.895 E19.26468
G1 X-20.325 Y-104.948 E19.3025
G1 X-20.316 Y-105.613 E19.32639
G1 X-20.268 Y-106.19 E19.34719
G1 X-20.141 Y-106.755 E19.36799
G1 X-19.938 Y-107.298 E19.38882
G1 X-19.662 Y-107.807 E19.40962
G1 X-19.318 Y-108.274 E19.43045
G1 X-18.914 Y-108.688 E19.45123
G1 X-18.456 Y-109.044 E19.47207
G1 X-17.954 Y-109.332 E19.49286
G1 X-17.417 Y-109.549 E19.51366
G1 X-16.855 Y-109.69 E19.53447
G1 X-16.234 Y-109.754 E19.5569
G1 X-15.795 Y-109.765 E19.57267
G1 X17.228 Y-109.765 E20.75889
G1 X17.926 Y-109.755 E20.78397
G1 X18.503 Y-109.706 E20.80477
G1 X19.069 Y-109.579 E20.8256
G1 X19.611 Y-109.375 E20.84641
G1 X20.12 Y-109.099 E20.8672
G1 X20.586 Y-108.755 E20.88801
G1 X21.001 Y-108.35 E20.90884
G1 X21.356 Y-107.892 E20.92966
G1 X21.644 Y-107.39 E20.95044
G1 X21.861 Y-106.853 E20.97125
G1 X22.001 Y-106.291 E20.99205
G1 X22.064 Y-105.673 E21.01437
G1 X22.075 Y-105.235 E21.03011
G1 X22.075 Y60.751 E26.99248
G1 X22.066 Y61.478 E27.0186
G1 X22.019 Y62.055 E27.03939
G1 X21.892 Y62.621 E27.06023
G1 X21.69 Y63.163 E27.08101
G1 X21.414 Y63.673 E27.10184
G1 X21.071 Y64.14 E27.12265
G1 X20.667 Y64.555 E27.14345
G1 X20.21 Y64.911 E27.16426
G1 X19.708 Y65.2 E27.18507
G1 X19.171 Y65.418 E27.20589
G1 X18.61 Y65.56 E27.22668
G1 X17.984 Y65.624 E27.24928
G1 X17.545 Y65.635 E27.26505
G1 X-15.472 Y65.635 E28.45106
G1 X-16.17 Y65.626 E28.47613
G1 X-16.748 Y65.578 E28.49696
G1 X-17.313 Y65.452 E28.51776
G1 X-17.855 Y65.249 E28.53855
G1 X-18.365 Y64.973 E28.55938
G1 X-18.832 Y64.63 E28.58019
G1 X-19.247 Y64.226 E28.601
G1 X-19.602 Y63.768 E28.62181
G1 X-19.891 Y63.266 E28.64262
G1 X-20.109 Y62.729 E28.66344
G1 X-20.25 Y62.168 E28.68422
G1 X-20.314 Y61.539 E28.70693
G1 X-20.325 Y61.093 E28.72295
G1 X-20.324 Y60.04 E28.76078
G1 X-20.313 Y59.366 E28.78499
G1 X-20.294 Y59.022 E28.79737
G1 X-20.207 Y58.142 E28.82913
G1 X-19.977 Y55.431 E28.92686
G1 X-19.824 Y52.733 E29.02393
G1 X-19.748 Y50.038 E29.12078
G1 X-19.748 Y47.306 E29.21891
G1 X-19.824 Y44.61 E29.3158
G1 X-19.977 Y41.917 E29.41269
G1 X-20.209 Y39.189 E29.51103
G1 X-20.283 Y38.491 E29.53625
G1 X-20.323 Y37.723 E29.56387
G1 X-20.325 Y37.605 E29.56811
G1 X-20.325 Y36.582 E29.60486
G1 X-20.315 Y35.885 E29.6299
G1 X-20.295 Y35.536 E29.64245
G1 X-20.171 Y34.274 E29.688
G1 X-20.122 Y33.838 E29.70376
G1 X-19.891 Y31.119 E29.80179
G1 X-19.739 Y28.427 E29.89864
G1 X-19.664 Y25.733 E29.99545
G1 X-19.666 Y22.999 E30.09366
G1 X-19.743 Y20.303 E30.19054
G1 X-19.897 Y17.612 E30.28736
G1 X-20.131 Y14.867 E30.38632
G1 X-20.292 Y13.372 E30.44033
G1 X-20.323 Y12.723 E30.46367
G1 X-20.325 Y12.605 E30.46791
G1 X-20.325 Y11.582 E30.50466
G1 X-20.315 Y10.885 E30.5297
G1 X-20.296 Y10.543 E30.542
G1 X-20.226 Y9.82 E30.56809
G1 X-20.069 Y8.455 E30.61745
G1 X-19.838 Y5.752 E30.7149
G1 X-19.683 Y3.054 E30.81197
G1 X-19.605 Y0.359 E30.90882
M204 S3000
G0 F1500 X-19.125 Y0.373
M204 S1500
G1 F600 X-19.123 Y-2.35 E31.00663
G1 X-19.199 Y-5.11 E31.10581
G1 X-19.349 Y-7.793 E31.20234
G1 X-19.582 Y-10.545 E31.30155
G1 X-19.743 Y-12.057 E31.35617
G1 X-19.812 Y-12.657 E31.37786
G1 X-19.843 Y-13.288 E31.40055
G1 X-19.845 Y-13.395 E31.4044
G1 X-19.845 Y-14.411 E31.44089
G1 X-19.835 Y-15.108 E31.46593
G1 X-19.772 Y-15.793 E31.49064
G1 X-19.464 Y-18.5 E31.58851
G1 X-19.23 Y-21.251 E31.68768
G1 X-19.078 Y-23.933 E31.78418
G1 X-19 Y-26.692 E31.88332
G1 X-19 Y-29.38 E31.97988
G1 X-19.078 Y-32.142 E32.07913
G1 X-19.229 Y-34.819 E32.17544
G1 X-19.464 Y-37.575 E32.2748
G1 X-19.812 Y-40.652 E32.38604
G1 X-19.843 Y-41.282 E32.40869
G1 X-19.845 Y-41.395 E32.41275
G1 X-19.845 Y-42.415 E32.44939
G1 X-19.834 Y-43.131 E32.47511
G1 X-19.804 Y-43.548 E32.49013
G1 X-19.737 Y-44.07 E32.50904
G1 X-19.431 Y-46.755 E32.60611
G1 X-19.197 Y-49.504 E32.70521
G1 X-19.043 Y-52.223 E32.80304
G1 X-18.966 Y-54.912 E32.89967
G1 X-18.966 Y-57.636 E32.99752
G1 X-19.043 Y-60.391 E33.09652
G1 X-19.196 Y-63.082 E33.19334
G1 X-19.428 Y-65.824 E33.29219
G1 X-19.734 Y-68.522 E33.38972
G1 X-19.813 Y-69.159 E33.41278
G1 X-19.844 Y-69.79 E33.43547
G1 X-19.845 Y-70.915 E33.47588
G1 X-19.834 Y-71.634 E33.50171
G1 X-19.789 Y-72.156 E33.52053
G1 X-19.714 Y-72.632 E33.53784
G1 X-19.329 Y-75.337 E33.63599
G1 X-19.024 Y-78.014 E33.73277
G1 X-18.79 Y-80.763 E33.83187
G1 X-18.638 Y-83.445 E33.92837
G1 X-18.56 Y-86.203 E34.02748
G1 X-18.56 Y-88.892 E34.12407
G1 X-18.638 Y-91.652 E34.22325
G1 X-18.789 Y-94.33 E34.3196
G1 X-19.024 Y-97.09 E34.4191
G1 X-19.326 Y-99.749 E34.51523
G1 X-19.715 Y-102.479 E34.61428
G1 X-19.799 Y-103.052 E34.63509
G1 X-19.844 Y-103.79 E34.66165
G1 X-19.845 Y-104.941 E34.70299
G1 X-19.836 Y-105.606 E34.72688
G1 X-19.788 Y-106.149 E34.74646
G1 X-19.662 Y-106.68 E34.76606
G1 X-19.46 Y-107.186 E34.78564
G1 X-19.186 Y-107.657 E34.80521
G1 X-18.846 Y-108.083 E34.82479
G1 X-18.447 Y-108.455 E34.84438
G1 X-17.998 Y-108.765 E34.86398
G1 X-17.509 Y-109.005 E34.88355
G1 X-16.99 Y-109.172 E34.90313
G1 X-16.22 Y-109.275 E34.93104
G1 X-15.795 Y-109.285 E34.94631
G1 X17.221 Y-109.285 E36.13228
G1 X17.919 Y-109.275 E36.15735
G1 X18.462 Y-109.227 E36.17693
G1 X18.993 Y-109.1 E36.19654
G1 X19.499 Y-108.898 E36.21611
G1 X19.97 Y-108.623 E36.23571
G1 X20.395 Y-108.283 E36.25526
G1 X20.767 Y-107.884 E36.27485
G1 X21.076 Y-107.435 E36.29443
G1 X21.316 Y-106.945 E36.31403
G1 X21.483 Y-106.426 E36.33361
G1 X21.585 Y-105.66 E36.36137
G1 X21.595 Y-105.235 E36.37664
G1 X21.595 Y60.745 E42.3388
G1 X21.586 Y61.472 E42.36492
G1 X21.539 Y62.015 E42.3845
G1 X21.413 Y62.546 E42.4041
G1 X21.212 Y63.052 E42.42366
G1 X20.938 Y63.524 E42.44326
G1 X20.599 Y63.95 E42.46282
G1 X20.2 Y64.322 E42.48241
G1 X19.752 Y64.633 E42.502
G1 X19.263 Y64.874 E42.52159
G1 X18.744 Y65.041 E42.54117
G1 X17.97 Y65.145 E42.56922
G1 X17.545 Y65.155 E42.58449
G1 X-15.466 Y65.155 E43.77028
G1 X-16.164 Y65.146 E43.79536
G1 X-16.707 Y65.099 E43.81493
G1 X-17.238 Y64.973 E43.83454
G1 X-17.744 Y64.771 E43.85411
G1 X-18.215 Y64.497 E43.87368
G1 X-18.642 Y64.157 E43.89329
G1 X-19.014 Y63.759 E43.91286
G1 X-19.323 Y63.31 E43.93244
G1 X-19.564 Y62.821 E43.95202
G1 X-19.731 Y62.302 E43.9716
G1 X-19.835 Y61.527 E43.99969
G1 X-19.845 Y61.093 E44.01528
G1 X-19.845 Y60.048 E44.05282
G1 X-19.834 Y59.374 E44.07704
G1 X-19.816 Y59.069 E44.08801
G1 X-19.733 Y58.231 E44.11826
G1 X-19.498 Y55.462 E44.21808
G1 X-19.346 Y52.775 E44.31476
G1 X-19.268 Y50.016 E44.4139
G1 X-19.268 Y47.328 E44.51046
G1 X-19.346 Y44.57 E44.60957
G1 X-19.498 Y41.886 E44.70613
G1 X-19.732 Y39.14 E44.80513
G1 X-19.805 Y38.45 E44.83005
G1 X-19.844 Y37.71 E44.85667
G1 X-19.845 Y36.589 E44.89694
G1 X-19.835 Y35.892 E44.92198
G1 X-19.817 Y35.583 E44.9331
G1 X-19.694 Y34.328 E44.97839
G1 X-19.645 Y33.896 E44.99401
G1 X-19.412 Y31.152 E45.09293
G1 X-19.261 Y28.468 E45.1895
G1 X-19.184 Y25.711 E45.28857
G1 X-19.186 Y22.986 E45.38645
G1 X-19.263 Y20.297 E45.48309
G1 X-19.42 Y17.543 E45.58217
G1 X-19.648 Y14.876 E45.67832
G1 X-19.815 Y13.321 E45.7345
G1 X-19.844 Y12.71 E45.75647
G1 X-19.845 Y11.589 E45.79674
G1 X-19.835 Y10.892 E45.82178
G1 X-19.818 Y10.589 E45.83268
G1 X-19.749 Y9.875 E45.85845
G1 X-19.589 Y8.483 E45.90878
G1 X-19.361 Y5.819 E46.00482
G1 X-19.203 Y3.061 E46.10406
G1 X-19.125 Y0.373 E46.20065
M204 S3000
G0 F1500 X-18.645 Y0.352
M204 S1500
G1 F600 X-18.643 Y-2.364 E46.29821
G1 X-18.719 Y-5.115 E46.39707
G1 X-18.871 Y-7.824 E46.49453
G1 X-19.106 Y-10.613 E46.59507
G1 X-19.269 Y-12.139 E46.6502
G1 X-19.335 Y-12.712 E46.67092
G1 X-19.364 Y-13.302 E46.69214
G1 X-19.365 Y-14.404 E46.73172
G1 X-19.355 Y-15.101 E46.75676
G1 X-19.296 Y-15.735 E46.77963
G1 X-18.984 Y-18.477 E46.87876
G1 X-18.753 Y-21.182 E46.97628
G1 X-18.598 Y-23.928 E47.07508
G1 X-18.52 Y-26.679 E47.17394
G1 X-18.52 Y-29.393 E47.27143
G1 X-18.598 Y-32.148 E47.37043
G1 X-18.752 Y-34.887 E47.46897
G1 X-18.983 Y-37.598 E47.56671
G1 X-19.335 Y-40.705 E47.67903
G1 X-19.363 Y-41.296 E47.70028
G1 X-19.365 Y-41.395 E47.70384
G1 X-19.365 Y-42.408 E47.74022
G1 X-19.354 Y-43.124 E47.76595
G1 X-19.328 Y-43.486 E47.77898
G1 X-19.261 Y-44.008 E47.79789
G1 X-18.951 Y-46.732 E47.89637
G1 X-18.72 Y-49.437 E47.99389
G1 X-18.565 Y-52.18 E48.09258
G1 X-18.486 Y-54.933 E48.19151
G1 X-18.486 Y-57.65 E48.2891
G1 X-18.563 Y-60.398 E48.38785
G1 X-18.719 Y-63.147 E48.48676
G1 X-18.948 Y-65.85 E48.5842
G1 X-19.253 Y-68.541 E48.68148
G1 X-19.336 Y-69.213 E48.70581
G1 X-19.364 Y-69.804 E48.72706
G1 X-19.365 Y-70.908 E48.76672
G1 X-19.354 Y-71.627 E48.79255
G1 X-19.24 Y-72.557 E48.8262
G1 X-18.851 Y-75.288 E48.92529
G1 X-18.544 Y-77.987 E49.02287
G1 X-18.313 Y-80.694 E49.12046
G1 X-18.158 Y-83.44 E49.21926
G1 X-18.08 Y-86.19 E49.31808
G1 X-18.08 Y-88.905 E49.4156
G1 X-18.158 Y-91.658 E49.51453
G1 X-18.312 Y-94.398 E49.61311
G1 X-18.543 Y-97.112 E49.71095
G1 X-18.849 Y-99.803 E49.80824
G1 X-19.245 Y-102.584 E49.90914
G1 X-19.324 Y-103.12 E49.92861
G1 X-19.364 Y-103.804 E49.95322
G1 X-19.365 Y-104.935 E49.99385
G1 X-19.356 Y-105.6 E50.01773
G1 X-19.309 Y-106.106 E50.03599
