;FLAVOR:Marlin
;TIME:20750
;Filament used: 31.0119m
;Layer height: 0.3
;MINX:169.64
;MINY:51.081
;MINZ:0.2
;MAXX:284.538
;MAXY:245.441
;MAXZ:29.9
;Generated with Cura_SteamEngine 4.10.0
M104 S225
M105
M109 S225
M82 ;absolute extrusion mode
G28 ; home all axes
 M117 Purge extruder
 G92 E0 ; reset extruder
 G1 Z1.0 F3000 ; move z up little to prevent scratching of surface
 G1 X2 Y20 Z0.3 F5000.0 ; move to start-line position
 G1 X2 Y200.0 Z0.3 F1500.0 E15 ; draw 1st line
 G1 X2 Y200.0 Z0.4 F5000.0 ; move to side a little
 G1 X2 Y20 Z0.4 F1500.0 E30 ; draw 2nd line
 G92 E0 ; reset extruder
 G1 Z1.0 F3000 ; move z up little to prevent scratching of surface
G92 E0
G92 E0
G1 F2400 E-1.7
;LAYER_COUNT:100
;LAYER:0
M107
G0 F6000 X172.839 Y60.808 Z0.2
;TYPE:SKIRT
G1 F2400 E0
G1 F1200 X173.204 Y59.913 E0.03665
G1 X173.642 Y59.051 E0.07331
G1 X174.149 Y58.229 E0.10993
G1 X174.723 Y57.451 E0.14659
G1 X175.359 Y56.724 E0.18321
G1 X176.054 Y56.052 E0.21987
G1 X176.801 Y55.439 E0.25651
G1 X177.596 Y54.89 E0.29314
G1 X178.435 Y54.409 E0.32981
G1 X179.31 Y53.999 E0.36645
G1 X180.216 Y53.662 E0.4031
G1 X181.146 Y53.402 E0.43972
G1 X182.095 Y53.219 E0.47636
G1 X183.497 Y53.095 E0.52973
G1 X183.816 Y53.086 E0.54183
G1 X184.145 Y53.081 E0.5543
G1 X187.498 Y53.081 E0.68144
G1 X190.112 Y53.044 E0.78056
G1 X192.56 Y52.94 E0.87347
G1 X195.088 Y52.761 E0.96956
G1 X197.548 Y52.517 E1.06329
G1 X200.062 Y52.195 E1.15939
G1 X202.496 Y51.813 E1.25281
G1 X205.31 Y51.288 E1.36135
G1 X206.267 Y51.15 E1.39801
G1 X207.122 Y51.095 E1.4305
G1 X207.441 Y51.086 E1.4426
G1 X207.77 Y51.081 E1.45507
G1 X244.733 Y51.081 E2.85658
G1 X245.601 Y51.092 E2.8895
G1 X246.566 Y51.146 E2.92614
G1 X247.57 Y51.288 E2.96459
G1 X248.966 Y51.549 E3.01844
G1 X249.187 Y51.593 E3.02698
G1 X251.701 Y52.023 E3.12369
G1 X254.131 Y52.368 E3.21675
G1 X256.641 Y52.652 E3.31253
G1 X259.096 Y52.86 E3.40595
G1 X261.6 Y53.001 E3.50104
G1 X265.426 Y53.081 E3.64614
G1 X268.523 Y53.082 E3.76357
G1 X269.221 Y53.092 E3.79004
G1 X270.186 Y53.146 E3.82668
G1 X271.143 Y53.279 E3.86332
G1 X272.086 Y53.491 E3.89997
G1 X273.008 Y53.781 E3.93661
G1 X273.903 Y54.145 E3.97325
G1 X274.765 Y54.583 E4.00991
G1 X275.588 Y55.09 E4.04656
G1 X276.366 Y55.663 E4.0832
G1 X277.094 Y56.299 E4.11985
G1 X277.767 Y56.992 E4.15648
G1 X278.38 Y57.739 E4.19312
G1 X278.93 Y58.534 E4.22977
G1 X279.411 Y59.372 E4.26641
G1 X279.822 Y60.247 E4.30306
G1 X280.159 Y61.153 E4.33971
G1 X280.421 Y62.083 E4.37635
G1 X280.604 Y63.032 E4.413
G1 X280.729 Y64.443 E4.4667
G1 X280.738 Y64.763 E4.47884
G1 X280.743 Y65.091 E4.49128
G1 X280.743 Y231.368 E10.79593
G1 X280.734 Y232.096 E10.82354
G1 X280.682 Y233.061 E10.86018
G1 X280.551 Y234.019 E10.89684
G1 X280.34 Y234.962 E10.93348
G1 X280.053 Y235.885 E10.97013
G1 X279.69 Y236.781 E11.00679
G1 X279.255 Y237.643 E11.0434
G1 X278.749 Y238.467 E11.08006
G1 X278.177 Y239.246 E11.1167
G1 X277.543 Y239.975 E11.15334
G1 X276.851 Y240.65 E11.18999
G1 X276.105 Y241.264 E11.22662
G1 X275.311 Y241.815 E11.26327
G1 X274.474 Y242.299 E11.29993
G1 X273.6 Y242.711 E11.33657
G1 X272.695 Y243.05 E11.37321
G1 X271.765 Y243.313 E11.40985
G1 X270.817 Y243.498 E11.44648
G1 X269.383 Y243.627 E11.50107
G1 X269.063 Y243.636 E11.51321
G1 X268.735 Y243.641 E11.52565
G1 X264.39 Y243.641 E11.69039
G1 X261.776 Y243.678 E11.78952
G1 X259.328 Y243.782 E11.88242
G1 X256.8 Y243.961 E11.97851
G1 X254.34 Y244.205 E12.07225
G1 X251.826 Y244.527 E12.16835
G1 X249.399 Y244.908 E12.2615
G1 X248.408 Y245.091 E12.29971
G1 X247.407 Y245.263 E12.33822
G1 X246.449 Y245.387 E12.37485
G1 X245.758 Y245.427 E12.40109
G1 X245.439 Y245.436 E12.41319
G1 X245.11 Y245.441 E12.42567
G1 X207.98 Y245.44 E13.83351
G1 X207.281 Y245.43 E13.86001
G1 X206.316 Y245.376 E13.89666
G1 X205.315 Y245.235 E13.93499
G1 X204.066 Y245.003 E13.98316
G1 X203.693 Y244.929 E13.99758
G1 X201.179 Y244.499 E14.09428
G1 X198.749 Y244.154 E14.18734
G1 X196.239 Y243.87 E14.28312
G1 X193.784 Y243.662 E14.37654
G1 X191.28 Y243.521 E14.47163
G1 X187.454 Y243.441 E14.61673
G1 X184.357 Y243.44 E14.73416
G1 X183.659 Y243.43 E14.76063
G1 X182.694 Y243.376 E14.79728
G1 X181.737 Y243.243 E14.83391
G1 X180.794 Y243.031 E14.87056
G1 X179.872 Y242.741 E14.90721
G1 X178.977 Y242.377 E14.94384
G1 X178.115 Y241.939 E14.9805
G1 X177.292 Y241.432 E15.01715
G1 X176.514 Y240.859 E15.05379
G1 X175.786 Y240.223 E15.09044
G1 X175.113 Y239.53 E15.12707
G1 X174.5 Y238.783 E15.16371
G1 X173.95 Y237.988 E15.20037
G1 X173.469 Y237.15 E15.237
G1 X173.058 Y236.275 E15.27366
G1 X172.721 Y235.369 E15.31031
G1 X172.459 Y234.439 E15.34694
G1 X172.276 Y233.49 E15.38359
G1 X172.15 Y232.05 E15.4384
G1 X172.141 Y231.699 E15.45171
G1 X172.137 Y231.4 E15.46305
G1 X172.137 Y65.259 E21.76254
G1 X172.147 Y64.594 E21.78776
G1 X172.202 Y63.629 E21.82441
G1 X172.336 Y62.672 E21.86105
G1 X172.549 Y61.73 E21.89767
G1 X172.839 Y60.808 E21.93432
G0 F6000 X173.317 Y60.897
G1 F1200 X173.682 Y60.023 E21.97023
G1 X174.119 Y59.184 E22.0061
G1 X174.625 Y58.384 E22.04199
G1 X175.197 Y57.63 E22.07787
G1 X175.83 Y56.927 E22.11374
G1 X176.521 Y56.28 E22.14963
G1 X177.264 Y55.694 E22.18551
G1 X178.053 Y55.172 E22.22139
G1 X178.884 Y54.719 E22.25727
G1 X179.75 Y54.338 E22.29314
G1 X180.646 Y54.031 E22.32906
G1 X181.563 Y53.801 E22.3649
G1 X182.498 Y53.649 E22.40082
G1 X183.51 Y53.574 E22.4393
G1 X183.829 Y53.565 E22.4514
G1 X184.145 Y53.561 E22.46338
G1 X187.505 Y53.561 E22.59078
G1 X190.104 Y53.524 E22.68933
G1 X192.614 Y53.418 E22.78459
G1 X195.132 Y53.239 E22.8803
G1 X197.622 Y52.992 E22.97518
G1 X200.096 Y52.676 E23.06975
G1 X202.586 Y52.284 E23.16532
G1 X205.398 Y51.76 E23.27378
G1 X206.335 Y51.626 E23.30967
G1 X207.135 Y51.574 E23.34007
G1 X207.454 Y51.565 E23.35217
G1 X207.77 Y51.561 E23.36415
G1 X244.733 Y51.561 E24.76566
G1 X245.594 Y51.572 E24.79831
G1 X246.539 Y51.626 E24.8342
G1 X247.483 Y51.76 E24.87035
G1 X248.872 Y52.019 E24.92392
G1 X249.121 Y52.069 E24.93355
G1 X251.62 Y52.496 E25.02968
G1 X254.083 Y52.845 E25.124
G1 X256.583 Y53.128 E25.2194
G1 X259.097 Y53.341 E25.31506
G1 X261.534 Y53.479 E25.40761
G1 X265.464 Y53.561 E25.55666
G1 X268.516 Y53.562 E25.67238
G1 X269.214 Y53.572 E25.69885
G1 X270.159 Y53.626 E25.73474
G1 X271.096 Y53.759 E25.77062
G1 X272.019 Y53.97 E25.80652
G1 X272.92 Y54.259 E25.8424
G1 X273.793 Y54.623 E25.87826
G1 X274.633 Y55.06 E25.91416
G1 X275.433 Y55.565 E25.95003
G1 X276.188 Y56.137 E25.98595
G1 X276.891 Y56.77 E26.02182
G1 X277.538 Y57.46 E26.05768
G1 X278.125 Y58.202 E26.09356
G1 X278.648 Y58.991 E26.12945
G1 X279.101 Y59.822 E26.16533
G1 X279.483 Y60.688 E26.20122
G1 X279.791 Y61.583 E26.23711
G1 X280.021 Y62.501 E26.27299
G1 X280.174 Y63.435 E26.30888
G1 X280.25 Y64.456 E26.3477
G1 X280.259 Y64.776 E26.35984
G1 X280.263 Y65.091 E26.37178
G1 X280.263 Y231.362 E32.67621
G1 X280.254 Y232.09 E32.70381
G1 X280.202 Y233.035 E32.7397
G1 X280.071 Y233.973 E32.77561
G1 X279.861 Y234.895 E32.81146
G1 X279.574 Y235.797 E32.84735
G1 X279.212 Y236.671 E32.88322
G1 X278.777 Y237.512 E32.91912
G1 X278.273 Y238.313 E32.95501
G1 X277.703 Y239.069 E32.9909
G1 X277.072 Y239.773 E33.02675
G1 X276.383 Y240.422 E33.06264
G1 X275.642 Y241.011 E33.09853
G1 X274.853 Y241.534 E33.13442
G1 X274.024 Y241.99 E33.1703
G1 X273.159 Y242.373 E33.20617
G1 X272.264 Y242.682 E33.24207
G1 X271.347 Y242.915 E33.27794
G1 X270.413 Y243.069 E33.31383
G1 X269.37 Y243.148 E33.35349
G1 X269.05 Y243.157 E33.36563
G1 X268.735 Y243.161 E33.37758
G1 X264.383 Y243.161 E33.54259
G1 X261.784 Y243.198 E33.64114
G1 X259.274 Y243.304 E33.7364
G1 X256.756 Y243.483 E33.83211
G1 X254.266 Y243.73 E33.92699
G1 X251.792 Y244.046 E34.02156
G1 X249.309 Y244.437 E34.11686
G1 X248.327 Y244.618 E34.15473
G1 X247.326 Y244.79 E34.19324
G1 X246.387 Y244.911 E34.22913
G1 X245.745 Y244.948 E34.25352
G1 X245.426 Y244.957 E34.26562
G1 X245.11 Y244.961 E34.2776
G1 X207.987 Y244.96 E35.68518
G1 X207.288 Y244.95 E35.71168
G1 X206.343 Y244.896 E35.74757
G1 X205.403 Y244.763 E35.78357
G1 X204.008 Y244.503 E35.83737
G1 X203.759 Y244.453 E35.847
G1 X201.26 Y244.026 E35.94313
G1 X198.797 Y243.677 E36.03745
G1 X196.297 Y243.394 E36.13285
G1 X193.783 Y243.181 E36.22851
G1 X191.346 Y243.043 E36.32106
G1 X187.416 Y242.961 E36.47011
G1 X184.364 Y242.96 E36.58583
G1 X183.666 Y242.95 E36.6123
G1 X182.721 Y242.896 E36.64819
G1 X181.784 Y242.763 E36.68407
G1 X180.861 Y242.552 E36.71997
G1 X179.96 Y242.263 E36.75585
G1 X179.087 Y241.899 E36.79171
G1 X178.247 Y241.462 E36.82761
G1 X177.447 Y240.957 E36.86348
G1 X176.692 Y240.385 E36.8994
G1 X175.989 Y239.752 E36.93527
G1 X175.342 Y239.062 E36.97113
G1 X174.755 Y238.32 E37.00701
G1 X174.232 Y237.531 E37.0429
G1 X173.779 Y236.7 E37.07878
G1 X173.397 Y235.834 E37.11467
G1 X173.089 Y234.939 E37.15056
G1 X172.859 Y234.021 E37.18644
G1 X172.706 Y233.087 E37.22233
G1 X172.63 Y232.038 E37.26221
G1 X172.621 Y231.687 E37.27552
G1 X172.617 Y231.4 E37.28641
G1 X172.617 Y65.267 E43.5856
G1 X172.627 Y64.602 E43.61081
G1 X172.681 Y63.657 E43.6467
G1 X172.815 Y62.72 E43.68259
G1 X173.028 Y61.798 E43.71847
G1 X173.317 Y60.897 E43.75435
G0 F6000 X173.795 Y60.987
G1 F1200 X174.159 Y60.136 E43.78944
G1 X174.595 Y59.319 E43.82456
G1 X175.1 Y58.543 E43.85966
G1 X175.67 Y57.813 E43.89478
G1 X176.3 Y57.136 E43.92984
G1 X176.987 Y56.515 E43.96496
G1 X177.725 Y55.955 E44.00008
G1 X178.508 Y55.462 E44.03517
G1 X179.331 Y55.038 E44.07027
G1 X180.188 Y54.686 E44.1054
G1 X181.072 Y54.41 E44.14051
G1 X181.976 Y54.211 E44.17561
G1 X182.894 Y54.091 E44.21071
G1 X183.524 Y54.054 E44.23464
G1 X183.843 Y54.045 E44.24674
G1 X184.145 Y54.041 E44.25819
G1 X187.511 Y54.041 E44.38582
G1 X190.131 Y54.004 E44.48517
G1 X192.633 Y53.898 E44.58013
G1 X195.141 Y53.72 E44.67546
G1 X197.697 Y53.467 E44.77285
G1 X200.158 Y53.152 E44.86692
G1 X202.68 Y52.755 E44.96372
G1 X205.486 Y52.232 E45.07195
G1 X206.403 Y52.101 E45.10707
G1 X207.149 Y52.054 E45.13541
G1 X207.468 Y52.045 E45.14751
G1 X207.77 Y52.041 E45.15897
G1 X244.733 Y52.041 E46.56048
G1 X245.587 Y52.052 E46.59286
G1 X246.511 Y52.105 E46.62795
G1 X247.395 Y52.232 E46.66181
G1 X248.778 Y52.49 E46.71516
G1 X249.054 Y52.545 E46.72583
G1 X251.511 Y52.965 E46.82034
G1 X254.029 Y53.322 E46.91677
G1 X256.522 Y53.604 E47.0119
G1 X259.067 Y53.82 E47.10874
G1 X261.526 Y53.959 E47.20213
G1 X265.454 Y54.041 E47.3511
G1 X268.51 Y54.042 E47.46697
G1 X269.208 Y54.052 E47.49344
G1 X270.132 Y54.105 E47.52853
G1 X271.048 Y54.238 E47.56363
G1 X271.95 Y54.449 E47.59875
G1 X272.829 Y54.738 E47.63383
G1 X273.681 Y55.101 E47.66895
G1 X274.498 Y55.536 E47.70404
G1 X275.275 Y56.04 E47.73916
G1 X276.005 Y56.61 E47.77428
G1 X276.683 Y57.24 E47.80937
G1 X277.304 Y57.926 E47.84446
G1 X277.864 Y58.664 E47.87958
G1 X278.358 Y59.447 E47.91469
G1 X278.783 Y60.269 E47.94977
G1 X279.135 Y61.126 E47.9849
G1 X279.412 Y62.009 E48.01999
G1 X279.612 Y62.913 E48.0551
G1 X279.733 Y63.831 E48.0902
G1 X279.77 Y64.47 E48.11447
G1 X279.779 Y64.79 E48.12661
G1 X279.783 Y65.091 E48.13803
G1 X279.783 Y231.357 E54.44226
G1 X279.774 Y232.085 E54.46986
G1 X279.723 Y233.009 E54.50495
G1 X279.592 Y233.925 E54.54004
G1 X279.382 Y234.827 E54.57515
G1 X279.096 Y235.708 E54.61027
G1 X278.734 Y236.56 E54.64537
G1 X278.3 Y237.378 E54.68048
G1 X277.798 Y238.156 E54.71559
G1 X277.23 Y238.887 E54.75069
G1 X276.601 Y239.566 E54.78579
G1 X275.916 Y240.189 E54.82089
G1 X275.179 Y240.75 E54.85601
G1 X274.397 Y241.246 E54.89113
G1 X273.576 Y241.672 E54.9262
G1 X272.72 Y242.026 E54.96132
G1 X271.837 Y242.305 E54.99643
G1 X270.933 Y242.506 E55.03154
G1 X270.016 Y242.629 E55.06663
G1 X269.356 Y242.668 E55.09169
G1 X269.036 Y242.677 E55.10383
G1 X268.735 Y242.681 E55.11525
G1 X264.377 Y242.681 E55.28049
G1 X261.757 Y242.718 E55.37984
G1 X259.255 Y242.824 E55.47479
G1 X256.747 Y243.002 E55.57012
G1 X254.191 Y243.255 E55.66751
G1 X251.73 Y243.57 E55.76159
G1 X249.214 Y243.966 E55.85816
G1 X248.245 Y244.145 E55.89552
G1 X247.244 Y244.317 E55.93403
G1 X246.326 Y244.434 E55.96912
G1 X245.731 Y244.468 E55.99172
G1 X245.412 Y244.477 E56.00382
G1 X245.11 Y244.481 E56.01527
G1 X207.994 Y244.48 E57.42258
G1 X207.295 Y244.47 E57.44909
G1 X206.37 Y244.417 E57.48422
G1 X205.49 Y244.291 E57.51792
G1 X204.102 Y244.032 E57.57146
G1 X203.826 Y243.977 E57.58213
G1 X201.369 Y243.557 E57.67664
G1 X198.851 Y243.2 E57.77307
G1 X196.358 Y242.918 E57.8682
G1 X193.813 Y242.702 E57.96505
G1 X191.354 Y242.563 E58.05843
G1 X187.426 Y242.481 E58.2074
G1 X184.37 Y242.48 E58.32327
G1 X183.672 Y242.47 E58.34974
G1 X182.748 Y242.417 E58.38483
G1 X181.832 Y242.284 E58.41993
G1 X180.93 Y242.073 E58.45505
G1 X180.051 Y241.784 E58.49014
G1 X179.199 Y241.421 E58.52525
G1 X178.382 Y240.986 E58.56035
G1 X177.605 Y240.482 E58.59546
G1 X176.875 Y239.912 E58.63058
G1 X176.197 Y239.282 E58.66567
G1 X175.576 Y238.596 E58.70076
G1 X175.016 Y237.858 E58.73589
G1 X174.522 Y237.075 E58.77099
G1 X174.097 Y236.253 E58.80608
G1 X173.745 Y235.396 E58.8412
G1 X173.468 Y234.513 E58.87629
G1 X173.268 Y233.609 E58.9114
G1 X173.147 Y232.691 E58.94651
G1 X173.11 Y232.026 E58.97176
G1 X173.101 Y231.675 E58.98507
G1 X173.097 Y231.4 E58.9955
G1 X173.097 Y65.274 E65.29443
G1 X173.107 Y64.609 E65.31965
G1 X173.161 Y63.685 E65.35474
G1 X173.295 Y62.768 E65.38988
G1 X173.507 Y61.867 E65.42497
G1 X173.795 Y60.987 E65.46008
G0 F6000 X174.274 Y61.08
G1 F1200 X174.637 Y60.251 E65.4944
G1 X175.072 Y59.458 E65.52869
G1 X175.575 Y58.706 E65.563
G1 X176.142 Y58.001 E65.5973
G1 X176.77 Y57.349 E65.63162
G1 X177.453 Y56.755 E65.66594
G1 X178.185 Y56.224 E65.70023
G1 X178.962 Y55.759 E65.73457
G1 X179.776 Y55.365 E65.76886
G1 X180.622 Y55.044 E65.80316
G1 X181.493 Y54.799 E65.83747
G1 X182.383 Y54.632 E65.87181
G1 X183.537 Y54.534 E65.91572
G1 X183.856 Y54.525 E65.92782
G1 X184.145 Y54.521 E65.93878
G1 X187.518 Y54.521 E66.06667
G1 X190.124 Y54.484 E66.16549
G1 X192.687 Y54.375 E66.26276
G1 X195.189 Y54.198 E66.35786
G1 X197.729 Y53.946 E66.45464
G1 X200.23 Y53.626 E66.55025
G1 X202.77 Y53.227 E66.64774
G1 X205.574 Y52.704 E66.75589
G1 X206.47 Y52.577 E66.7902
G1 X207.162 Y52.534 E66.81649
G1 X207.481 Y52.525 E66.82859
G1 X207.77 Y52.521 E66.83955
G1 X244.733 Y52.521 E68.24106
G1 X245.58 Y52.532 E68.27318
G1 X246.483 Y52.585 E68.30747
G1 X247.307 Y52.704 E68.33904
G1 X248.684 Y52.961 E68.39215
G1 X248.952 Y53.014 E68.40251
G1 X251.43 Y53.438 E68.49783
G1 X253.981 Y53.8 E68.59553
G1 X256.5 Y54.085 E68.69165
G1 X258.998 Y54.297 E68.78671
G1 X261.518 Y54.439 E68.88241
G1 X265.443 Y54.521 E69.03126
G1 X268.503 Y54.522 E69.14729
G1 X269.201 Y54.532 E69.17376
G1 X270.104 Y54.585 E69.20805
G1 X270.999 Y54.717 E69.24236
G1 X271.879 Y54.928 E69.27667
G1 X272.737 Y55.216 E69.31098
G1 X273.566 Y55.579 E69.3453
G1 X274.36 Y56.013 E69.37961
G1 X275.112 Y56.516 E69.41391
G1 X275.818 Y57.083 E69.44824
G1 X276.47 Y57.71 E69.48254
G1 X277.064 Y58.392 E69.51684
G1 X277.596 Y59.124 E69.55115
G1 X278.061 Y59.9 E69.58545
G1 X278.456 Y60.714 E69.61975
G1 X278.778 Y61.56 E69.65408
G1 X279.023 Y62.431 E69.68838
G1 X279.191 Y63.32 E69.72269
G1 X279.29 Y64.483 E69.76694
G1 X279.299 Y64.803 E69.77908
G1 X279.303 Y65.091 E69.79
G1 X279.303 Y231.351 E76.09401
G1 X279.294 Y232.079 E76.12161
G1 X279.243 Y232.982 E76.15591
G1 X279.112 Y233.877 E76.1902
G1 X278.903 Y234.758 E76.22454
G1 X278.617 Y235.616 E76.25883
G1 X278.256 Y236.446 E76.29315
G1 X277.824 Y237.241 E76.32745
G1 X277.322 Y237.994 E76.36177
G1 X276.757 Y238.7 E76.39605
G1 X276.131 Y239.354 E76.43038
G1 X275.45 Y239.95 E76.46469
G1 X274.719 Y240.483 E76.499
G1 X273.944 Y240.95 E76.5333
G1 X273.13 Y241.346 E76.56763
G1 X272.285 Y241.669 E76.60193
G1 X271.414 Y241.916 E76.63625
G1 X270.526 Y242.086 E76.67054
G1 X269.343 Y242.188 E76.71556
G1 X269.023 Y242.197 E76.7277
G1 X268.735 Y242.201 E76.73862
G1 X264.37 Y242.201 E76.90412
G1 X261.764 Y242.238 E77.00294
G1 X259.201 Y242.347 E77.10021
G1 X256.699 Y242.524 E77.19531
G1 X254.159 Y242.776 E77.2921
G1 X251.658 Y243.096 E77.3877
G1 X249.125 Y243.494 E77.48492
G1 X248.164 Y243.672 E77.52198
G1 X247.163 Y243.844 E77.56049
G1 X246.265 Y243.958 E77.59481
G1 X245.718 Y243.988 E77.61558
G1 X245.399 Y243.997 E77.62768
G1 X245.11 Y244.001 E77.63864
