;FLAVOR:Marlin
;TIME:19085
;Filament used: 26.5915m
;Layer height: 0.3
;MINX:228.294
;MINY:24.219
;MINZ:0.2
;MAXX:285.654
;MAXY:233.564
;MAXZ:118.1
;Generated with Cura_SteamEngine 4.10.0
M104 S225
M105
M109 S225
M82 ;absolute extrusion mode
G28 ; home all axes
 M117 Purge extruder
 G92 E0 ; reset extruder
 G1 Z1.0 F3000 ; move z up little to prevent scratching of surface
 G1 X2 Y20 Z0.3 F5000.0 ; move to start-line position
 G1 X2 Y200.0 Z0.3 F1500.0 E15 ; draw 1st line
 G1 X2 Y200.0 Z0.4 F5000.0 ; move to side a little
 G1 X2 Y20 Z0.4 F1500.0 E30 ; draw 2nd line
 G92 E0 ; reset extruder
 G1 Z1.0 F3000 ; move z up little to prevent scratching of surface
G92 E0
G92 E0
G1 F2400 E-1.7
;LAYER_COUNT:394
;LAYER:0
M107
G0 F6000 X228.49 Y33.828 Z0.2
;TYPE:SKIRT
G1 F2400 E0
G1 F1200 X228.701 Y32.885 E0.03664
G1 X228.99 Y31.962 E0.07331
G1 X229.353 Y31.067 E0.10993
G1 X229.79 Y30.205 E0.14658
G1 X230.296 Y29.382 E0.18321
G1 X230.869 Y28.603 E0.21987
G1 X231.504 Y27.875 E0.2565
G1 X232.197 Y27.201 E0.29316
G1 X232.944 Y26.587 E0.32982
G1 X233.739 Y26.037 E0.36648
G1 X234.576 Y25.555 E0.4031
G1 X235.45 Y25.143 E0.43973
G1 X236.356 Y24.805 E0.4764
G1 X237.286 Y24.544 E0.51302
G1 X238.235 Y24.36 E0.54968
G1 X239.656 Y24.233 E0.60377
G1 X239.977 Y24.224 E0.61595
G1 X240.304 Y24.219 E0.62835
G1 X273.267 Y24.219 E1.87819
G1 X274.132 Y24.23 E1.91099
G1 X275.097 Y24.284 E1.94764
G1 X276.054 Y24.417 E1.98427
G1 X276.997 Y24.629 E2.02092
G1 X277.919 Y24.919 E2.05757
G1 X278.814 Y25.283 E2.0942
G1 X279.676 Y25.721 E2.13086
G1 X280.499 Y26.228 E2.16752
G1 X281.277 Y26.801 E2.20415
G1 X282.005 Y27.437 E2.2408
G1 X282.678 Y28.13 E2.27743
G1 X283.291 Y28.877 E2.31407
G1 X283.841 Y29.672 E2.35073
G1 X284.322 Y30.51 E2.38736
G1 X284.733 Y31.385 E2.42402
G1 X285.07 Y32.291 E2.46067
G1 X285.332 Y33.221 E2.4973
G1 X285.515 Y34.17 E2.53395
G1 X285.64 Y35.581 E2.58766
G1 X285.649 Y35.901 E2.5998
G1 X285.654 Y36.229 E2.61224
G1 X285.653 Y202.308 E8.90938
G1 X285.644 Y203.035 E8.93695
G1 X285.592 Y204 E8.97359
G1 X285.461 Y204.957 E9.01021
G1 X285.25 Y205.9 E9.04685
G1 X284.963 Y206.823 E9.0835
G1 X284.6 Y207.719 E9.12016
G1 X284.164 Y208.581 E9.15679
G1 X283.659 Y209.405 E9.19343
G1 X283.087 Y210.184 E9.23007
G1 X282.453 Y210.914 E9.26673
G1 X281.761 Y211.588 E9.30336
G1 X281.015 Y212.202 E9.34
G1 X280.221 Y212.753 E9.37664
G1 X279.384 Y213.237 E9.4133
G1 X278.51 Y213.649 E9.44994
G1 X277.605 Y213.988 E9.48658
G1 X276.675 Y214.251 E9.52323
G1 X275.726 Y214.436 E9.55989
G1 X274.292 Y214.565 E9.61448
G1 X273.971 Y214.574 E9.62665
G1 X273.644 Y214.579 E9.63905
G1 X240.53 Y214.578 E10.89462
G1 X239.832 Y214.569 E10.92109
G1 X238.867 Y214.517 E10.95773
G1 X237.91 Y214.385 E10.99436
G1 X236.967 Y214.174 E11.031
G1 X236.044 Y213.886 E11.06766
G1 X235.149 Y213.523 E11.10428
G1 X234.286 Y213.087 E11.14094
G1 X233.463 Y212.581 E11.17758
G1 X232.684 Y212.008 E11.21424
G1 X231.955 Y211.374 E11.25088
G1 X231.281 Y210.681 E11.28753
G1 X230.667 Y209.935 E11.32416
G1 X230.116 Y209.141 E11.36081
G1 X229.633 Y208.304 E11.39745
G1 X229.221 Y207.429 E11.43412
G1 X228.883 Y206.524 E11.47075
G1 X228.62 Y205.594 E11.5074
G1 X228.436 Y204.646 E11.54401
G1 X228.307 Y203.206 E11.59883
G1 X228.298 Y202.873 E11.61146
G1 X228.294 Y202.557 E11.62344
G1 X228.294 Y201.573 E11.66075
G1 X228.307 Y200.708 E11.69355
G1 X228.362 Y199.75 E11.72994
G1 X228.44 Y198.96 E11.76004
G1 X228.659 Y196.375 E11.8584
G1 X228.801 Y193.879 E11.9532
G1 X228.871 Y191.397 E12.04734
G1 X228.871 Y188.875 E12.14297
G1 X228.801 Y186.392 E12.23715
G1 X228.66 Y183.911 E12.33137
G1 X228.443 Y181.365 E12.42826
G1 X228.388 Y180.85 E12.4479
G1 X228.362 Y180.585 E12.45799
G1 X228.344 Y180.372 E12.4661
G1 X228.308 Y179.717 E12.49097
G1 X228.299 Y179.398 E12.50307
G1 X228.294 Y179.069 E12.51555
G1 X228.295 Y177.938 E12.55843
G1 X228.305 Y177.241 E12.58486
G1 X228.359 Y176.273 E12.62162
G1 X228.476 Y175.076 E12.66723
G1 X228.534 Y174.563 E12.6868
G1 X228.743 Y172.095 E12.78071
G1 X228.887 Y169.543 E12.87763
G1 X228.955 Y167.098 E12.97037
G1 X228.953 Y164.575 E13.06604
G1 X228.882 Y162.09 E13.1603
G1 X228.74 Y159.609 E13.25452
G1 X228.52 Y157.032 E13.35259
G1 X228.37 Y155.635 E13.40586
G1 X228.308 Y154.717 E13.44075
G1 X228.299 Y154.398 E13.45285
G1 X228.294 Y154.069 E13.46533
G1 X228.295 Y152.938 E13.50821
G1 X228.305 Y152.241 E13.53464
G1 X228.358 Y151.291 E13.57072
G1 X228.442 Y150.43 E13.60352
G1 X228.585 Y149.182 E13.65115
G1 X228.799 Y146.686 E13.74613
G1 X228.942 Y144.191 E13.84089
G1 X229.014 Y141.706 E13.93515
G1 X229.016 Y139.221 E14.02938
G1 X228.946 Y136.701 E14.12496
G1 X228.808 Y134.221 E14.21914
G1 X228.591 Y131.654 E14.31682
G1 X228.448 Y130.316 E14.36784
G1 X228.379 Y129.716 E14.39074
G1 X228.308 Y128.718 E14.42868
G1 X228.299 Y128.405 E14.44055
G1 X228.294 Y128.069 E14.45329
G1 X228.295 Y126.938 E14.49617
G1 X228.305 Y126.241 E14.52261
G1 X228.39 Y124.99 E14.57015
G1 X228.425 Y124.704 E14.58107
G1 X228.715 Y122.159 E14.6782
G1 X228.928 Y119.652 E14.77359
G1 X229.069 Y117.173 E14.86774
G1 X229.139 Y114.689 E14.96196
G1 X229.139 Y112.167 E15.05759
G1 X229.069 Y109.709 E15.15083
G1 X228.927 Y107.174 E15.2471
G1 X228.715 Y104.689 E15.34166
G1 X228.377 Y101.701 E15.45568
G1 X228.309 Y100.753 E15.49171
G1 X228.299 Y100.425 E15.50416
G1 X228.294 Y100.069 E15.51766
G1 X228.295 Y98.927 E15.56096
G1 X228.306 Y98.211 E15.58811
G1 X228.4 Y96.903 E15.63783
G1 X228.456 Y96.465 E15.65457
G1 X228.748 Y93.904 E15.75231
G1 X228.961 Y91.399 E15.84763
G1 X229.102 Y88.921 E15.94174
G1 X229.173 Y86.429 E16.03627
G1 X229.173 Y83.907 E16.13189
G1 X229.104 Y81.432 E16.22577
G1 X228.962 Y78.935 E16.3206
G1 X228.751 Y76.436 E16.41569
G1 X228.469 Y73.959 E16.51022
G1 X228.415 Y73.542 E16.52616
G1 X228.376 Y73.196 E16.53937
G1 X228.308 Y72.217 E16.57657
G1 X228.299 Y71.898 E16.58868
G1 X228.294 Y71.569 E16.60115
G1 X228.295 Y70.427 E16.64445
G1 X228.306 Y69.708 E16.67172
G1 X228.361 Y68.743 E16.70837
G1 X228.447 Y68.069 E16.73413
G1 X228.514 Y67.644 E16.75044
G1 X228.872 Y65.13 E16.84673
G1 X229.154 Y62.652 E16.94129
G1 X229.368 Y60.137 E17.03699
G1 X229.509 Y57.662 E17.13099
G1 X229.579 Y55.177 E17.22525
G1 X229.579 Y52.656 E17.32084
G1 X229.509 Y50.198 E17.41407
G1 X229.367 Y47.663 E17.51034
G1 X229.157 Y45.201 E17.60403
G1 X228.871 Y42.684 E17.70008
G1 X228.514 Y40.181 E17.79595
G1 X228.476 Y39.933 E17.80546
G1 X228.419 Y39.532 E17.82082
G1 X228.308 Y38.217 E17.87086
G1 X228.299 Y37.898 E17.88296
G1 X228.294 Y37.569 E17.89543
G1 X228.295 Y36.415 E17.93919
G1 X228.304 Y35.75 E17.96441
G1 X228.357 Y34.785 E18.00105
G1 X228.49 Y33.828 E18.03769
G0 F6000 X228.969 Y33.874
G1 F1200 X229.18 Y32.952 E18.07355
G1 X229.468 Y32.051 E18.10941
G1 X229.831 Y31.177 E18.1453
G1 X230.267 Y30.336 E18.18122
G1 X230.772 Y29.536 E18.21709
G1 X231.343 Y28.781 E18.25298
G1 X231.975 Y28.077 E18.28885
G1 X232.665 Y27.429 E18.32474
G1 X233.407 Y26.842 E18.36061
G1 X234.196 Y26.319 E18.39651
G1 X235.026 Y25.865 E18.43238
G1 X235.892 Y25.482 E18.46828
G1 X236.786 Y25.174 E18.50413
G1 X237.704 Y24.942 E18.54004
G1 X238.638 Y24.789 E18.57592
G1 X239.669 Y24.712 E18.61512
G1 X239.99 Y24.703 E18.6273
G1 X240.304 Y24.699 E18.63921
G1 X273.267 Y24.699 E19.88905
G1 X274.125 Y24.71 E19.92158
G1 X275.07 Y24.764 E19.95747
G1 X276.007 Y24.897 E19.99336
G1 X276.93 Y25.108 E20.02926
G1 X277.831 Y25.397 E20.06513
G1 X278.704 Y25.761 E20.101
G1 X279.544 Y26.198 E20.1369
G1 X280.344 Y26.703 E20.17277
G1 X281.099 Y27.275 E20.20869
G1 X281.802 Y27.908 E20.24455
G1 X282.449 Y28.598 E20.28042
G1 X283.036 Y29.34 E20.31629
G1 X283.559 Y30.129 E20.35218
G1 X284.012 Y30.96 E20.38807
G1 X284.394 Y31.826 E20.42396
G1 X284.702 Y32.721 E20.45985
G1 X284.932 Y33.639 E20.49573
G1 X285.085 Y34.573 E20.53162
G1 X285.161 Y35.594 E20.57044
G1 X285.17 Y35.914 E20.58258
G1 X285.174 Y36.229 E20.59452
G1 X285.173 Y202.302 E26.89144
G1 X285.164 Y203.029 E26.919
G1 X285.112 Y203.974 E26.95489
G1 X284.981 Y204.911 E26.99076
G1 X284.771 Y205.834 E27.02665
G1 X284.484 Y206.735 E27.06251
G1 X284.122 Y207.61 E27.09841
G1 X283.687 Y208.45 E27.13428
G1 X283.183 Y209.251 E27.17016
G1 X282.613 Y210.007 E27.20606
G1 X281.982 Y210.711 E27.24191
G1 X281.293 Y211.36 E27.2778
G1 X280.551 Y211.949 E27.31372
G1 X279.763 Y212.472 E27.34958
G1 X278.934 Y212.928 E27.38545
G1 X278.068 Y213.311 E27.42136
G1 X277.174 Y213.62 E27.45722
G1 X276.257 Y213.853 E27.49309
G1 X275.323 Y214.007 E27.52899
G1 X274.279 Y214.086 E27.56869
G1 X273.958 Y214.095 E27.58086
G1 X273.644 Y214.099 E27.59277
G1 X240.537 Y214.098 E28.84807
G1 X239.839 Y214.089 E28.87454
G1 X238.894 Y214.037 E28.91042
G1 X237.957 Y213.905 E28.9463
G1 X237.034 Y213.695 E28.98219
G1 X236.132 Y213.407 E29.0181
G1 X235.258 Y213.045 E29.05397
G1 X234.418 Y212.609 E29.08985
G1 X233.617 Y212.105 E29.12573
G1 X232.862 Y211.535 E29.1616
G1 X232.157 Y210.903 E29.1975
G1 X231.509 Y210.213 E29.23339
G1 X230.921 Y209.472 E29.26926
G1 X230.398 Y208.683 E29.30515
G1 X229.943 Y207.853 E29.34104
G1 X229.56 Y206.988 E29.37691
G1 X229.251 Y206.093 E29.41281
G1 X229.019 Y205.176 E29.44868
G1 X228.865 Y204.242 E29.48457
G1 X228.787 Y203.193 E29.52445
G1 X228.778 Y202.86 E29.53708
G1 X228.774 Y202.557 E29.54857
G1 X228.775 Y201.39 E29.59282
G1 X228.786 Y200.716 E29.61838
G1 X228.839 Y199.797 E29.65328
G1 X228.921 Y198.972 E29.68472
G1 X229.138 Y196.409 E29.78225
G1 X229.279 Y193.92 E29.87677
G1 X229.351 Y191.374 E29.97335
G1 X229.351 Y188.898 E30.06723
G1 X229.279 Y186.351 E30.16384
G1 X229.139 Y183.877 E30.2578
G1 X228.921 Y181.316 E30.35525
G1 X228.865 Y180.798 E30.37501
G1 X228.823 Y180.331 E30.39279
G1 X228.787 Y179.704 E30.4166
G1 X228.778 Y179.385 E30.4287
G1 X228.774 Y179.069 E30.44068
G1 X228.775 Y177.945 E30.4833
G1 X228.785 Y177.248 E30.50973
G1 X228.837 Y176.319 E30.54501
G1 X228.954 Y175.122 E30.59061
G1 X229.01 Y174.621 E30.60973
G1 X229.224 Y172.094 E30.70588
G1 X229.364 Y169.619 E30.79988
G1 X229.435 Y167.076 E30.89634
G1 X229.433 Y164.562 E30.99166
G1 X229.362 Y162.084 E31.08566
G1 X229.217 Y159.54 E31.18227
G1 X229.003 Y157.034 E31.27764
G1 X228.847 Y155.584 E31.33293
G1 X228.787 Y154.704 E31.36638
G1 X228.778 Y154.385 E31.37848
G1 X228.774 Y154.069 E31.39046
G1 X228.775 Y152.945 E31.43308
G1 X228.785 Y152.248 E31.45951
G1 X228.835 Y151.337 E31.4941
G1 X228.897 Y150.692 E31.51867
G1 X228.919 Y150.485 E31.52656
G1 X229.066 Y149.21 E31.57523
G1 X229.276 Y146.753 E31.66873
G1 X229.422 Y144.198 E31.76576
G1 X229.494 Y141.721 E31.85972
G1 X229.496 Y139.209 E31.95497
G1 X229.426 Y136.661 E32.05162
G1 X229.287 Y134.187 E32.14557
G1 X229.073 Y131.655 E32.24192
G1 X228.925 Y130.262 E32.29503
G1 X228.856 Y129.662 E32.31793
G1 X228.788 Y128.704 E32.35435
G1 X228.779 Y128.391 E32.36622
G1 X228.774 Y128.069 E32.37843
G1 X228.775 Y126.945 E32.42105
G1 X228.785 Y126.248 E32.44748
G1 X228.867 Y125.049 E32.49305
G1 X228.902 Y124.763 E32.50397
G1 X229.191 Y122.22 E32.60102
G1 X229.407 Y119.686 E32.69744
G1 X229.547 Y117.214 E32.79132
G1 X229.619 Y114.666 E32.88797
G1 X229.619 Y112.19 E32.98186
G1 X229.547 Y109.632 E33.07888
G1 X229.408 Y107.175 E33.17219
G1 X229.192 Y104.632 E33.26896
G1 X228.854 Y101.648 E33.38283
G1 X228.789 Y100.738 E33.41742
G1 X228.779 Y100.41 E33.42986
G1 X228.774 Y100.069 E33.4428
G1 X228.775 Y98.934 E33.48583
G1 X228.786 Y98.218 E33.51298
G1 X228.876 Y96.964 E33.56065
G1 X228.935 Y96.504 E33.57824
G1 X229.224 Y93.965 E33.67513
G1 X229.44 Y91.433 E33.77148
G1 X229.582 Y88.926 E33.86669
G1 X229.653 Y86.443 E33.96088
G1 X229.653 Y83.93 E34.05616
G1 X229.582 Y81.391 E34.15247
G1 X229.441 Y78.901 E34.24703
G1 X229.227 Y76.379 E34.343
G1 X228.943 Y73.878 E34.43844
G1 X228.892 Y73.488 E34.45335
G1 X228.853 Y73.142 E34.46655
G1 X228.787 Y72.204 E34.50221
G1 X228.778 Y71.885 E34.51431
G1 X228.774 Y71.569 E34.52629
G1 X228.775 Y70.435 E34.56929
G1 X228.786 Y69.716 E34.59655
G1 X228.841 Y68.771 E34.63245
G1 X228.921 Y68.144 E34.65641
G1 X228.988 Y67.719 E34.67273
G1 X229.35 Y65.18 E34.76997
G1 X229.63 Y62.714 E34.86407
G1 X229.847 Y60.171 E34.96084
G1 X229.987 Y57.702 E35.05461
G1 X230.059 Y55.155 E35.15122
G1 X230.059 Y52.678 E35.24514
G1 X229.987 Y50.122 E35.3421
G1 X229.848 Y47.664 E35.43544
G1 X229.634 Y45.144 E35.53134
G1 X229.348 Y42.63 E35.62727
G1 X228.988 Y40.104 E35.72402
G1 X228.951 Y39.865 E35.73319
G1 X228.894 Y39.464 E35.74855
G1 X228.787 Y38.204 E35.79649
G1 X228.778 Y37.885 E35.80859
G1 X228.774 Y37.569 E35.82058
G1 X228.775 Y36.421 E35.8641
G1 X228.784 Y35.756 E35.88932
G1 X228.837 Y34.812 E35.92517
G1 X228.969 Y33.874 E35.96109
G0 F6000 X229.449 Y33.922
G1 F1200 X229.659 Y33.021 E35.99616
G1 X229.947 Y32.141 E36.03127
G1 X230.309 Y31.289 E36.06637
G1 X230.744 Y30.471 E36.1015
G1 X231.248 Y29.694 E36.13662
G1 X231.816 Y28.964 E36.17169
G1 X232.446 Y28.285 E36.20681
G1 X233.132 Y27.663 E36.24192
G1 X233.869 Y27.103 E36.27702
G1 X234.651 Y26.608 E36.31211
G1 X235.474 Y26.183 E36.34723
G1 X236.33 Y25.83 E36.38234
G1 X237.213 Y25.552 E36.41744
G1 X238.117 Y25.352 E36.45254
G1 X239.035 Y25.23 E36.48766
G1 X239.683 Y25.192 E36.51227
G1 X240.004 Y25.183 E36.52444
G1 X240.304 Y25.179 E36.53582
G1 X273.267 Y25.179 E37.78566
G1 X274.119 Y25.19 E37.81797
G1 X275.043 Y25.243 E37.85306
G1 X275.959 Y25.376 E37.88816
G1 X276.861 Y25.587 E37.92328
G1 X277.74 Y25.876 E37.95837
G1 X278.592 Y26.239 E37.99348
G1 X279.409 Y26.674 E38.02858
G1 X280.186 Y27.178 E38.06369
G1 X280.916 Y27.748 E38.09881
G1 X281.594 Y28.378 E38.1339
G1 X282.215 Y29.064 E38.16899
G1 X282.775 Y29.802 E38.20411
G1 X283.269 Y30.585 E38.23922
G1 X283.694 Y31.407 E38.2743
G1 X284.046 Y32.264 E38.30943
G1 X284.323 Y33.147 E38.34452
G1 X284.523 Y34.051 E38.37963
G1 X284.644 Y34.969 E38.41474
G1 X284.681 Y35.608 E38.43901
G1 X284.69 Y35.928 E38.45114
G1 X284.694 Y36.229 E38.46256
G1 X284.693 Y202.296 E44.75925
G1 X284.684 Y203.023 E44.78681
G1 X284.633 Y203.947 E44.8219
G1 X284.502 Y204.864 E44.85702
G1 X284.292 Y205.765 E44.8921
G1 X284.006 Y206.646 E44.92722
G1 X283.644 Y207.498 E44.96232
G1 X283.21 Y208.316 E44.99743
G1 X282.708 Y209.094 E45.03254
G1 X282.14 Y209.825 E45.06764
G1 X281.511 Y210.504 E45.10274
G1 X280.826 Y211.127 E45.13784
G1 X280.089 Y211.688 E45.17296
G1 X279.307 Y212.184 E45.20808
G1 X278.485 Y212.61 E45.24318
G1 X277.63 Y212.964 E45.27827
G1 X276.747 Y213.243 E45.31338
G1 X275.843 Y213.444 E45.34849
G1 X274.926 Y213.567 E45.38357
G1 X274.265 Y213.606 E45.40868
G1 X273.944 Y213.615 E45.42086
G1 X273.644 Y213.619 E45.43223
G1 X240.543 Y213.618 E46.68731
G1 X239.845 Y213.609 E46.71378
G1 X238.92 Y213.557 E46.7489
G1 X238.004 Y213.426 E46.78399
G1 X237.102 Y213.216 E46.8191
G1 X236.222 Y212.929 E46.8542
G1 X235.37 Y212.567 E46.8893
G1 X234.552 Y212.132 E46.92443
G1 X233.775 Y211.629 E46.95952
G1 X233.044 Y211.061 E46.99463
G1 X232.365 Y210.432 E47.02972
G1 X231.742 Y209.746 E47.06486
G1 X231.182 Y209.01 E47.09992
G1 X230.686 Y208.228 E47.13503
G1 X230.26 Y207.405 E47.17017
G1 X229.907 Y206.55 E47.20524
G1 X229.629 Y205.667 E47.24035
G1 X229.428 Y204.763 E47.27546
G1 X229.306 Y203.845 E47.31057
G1 X229.267 Y203.18 E47.33583
G1 X229.258 Y202.847 E47.34846
G1 X229.254 Y202.557 E47.35946
G1 X229.255 Y201.398 E47.4034
G1 X229.266 Y200.724 E47.42896
G1 X229.317 Y199.844 E47.46238
G1 X229.394 Y199.061 E47.49222
G1 X229.617 Y196.437 E47.59207
G1 X229.759 Y193.927 E47.68739
G1 X229.831 Y191.388 E47.7837
G1 X229.831 Y188.884 E47.87864
G1 X229.759 Y186.346 E47.97491
G1 X229.615 Y183.808 E48.0713
G1 X229.403 Y181.317 E48.16609
G1 X229.342 Y180.747 E48.18783
G1 X229.301 Y180.291 E48.20519
G1 X229.267 Y179.69 E48.22801
G1 X229.258 Y179.371 E48.24011
G1 X229.254 Y179.069 E48.25156
G1 X229.255 Y177.952 E48.29392
G1 X229.265 Y177.255 E48.32035
G1 X229.315 Y176.366 E48.35411
G1 X229.449 Y175.003 E48.40604
G1 X229.489 Y174.651 E48.41947
G1 X229.703 Y172.124 E48.51563
G1 X229.844 Y169.624 E48.61057
G1 X229.915 Y167.089 E48.70673
G1 X229.913 Y164.583 E48.80175
G1 X229.84 Y162.042 E48.89813
G1 X229.696 Y159.508 E48.99437
G1 X229.48 Y156.989 E49.09023
G1 X229.324 Y155.533 E49.14575
G1 X229.267 Y154.69 E49.17779
G1 X229.258 Y154.371 E49.18989
G1 X229.254 Y154.069 E49.20134
