; generated by PrusaSlicer 2.6.1+win64 on 2024-02-02 at 12:51:10 UTC


;
;
; 

; external perimeters extrusion width = 0.42mm
; perimeters extrusion width = 0.45mm
; infill extrusion width = 0.45mm
; solid infill extrusion width = 0.45mm
; top infill extrusion width = 0.42mm
; first layer extrusion width = 0.50mm

;TYPE:Custom
G90 ; use absolute coordinates
M83 ; extruder relative mode
M140 S60 ; set bed temp
M190 S60 ; wait for bed temp
M104 S200 ; set extruder temp
M109 S200 ; wait for extruder temp
G28                                        ; move X/Y/Z to min endstops
G1 Z0.28                                   ; lift nozzle a bit 
G92 E0 
G1 Y3 F2400                                    ; zero the extruded length 
G1 X180  E40 F500                       ; Extrude 25mm of filament in a 5cm line. 
G92 E0                                     ; zero the extruded length again 
G1 E-0.2 F3000                                ; Retract a little 
G1 X181 F4000                              ; Quickly wipe away from the filament line
M117
G21 ; set units to millimeters
G90 ; use absolute coordinates
M82 ; use absolute distances for extrusion
G92 E0
; Filament gcode
M107
;LAYER_CHANGE
;Z:0.3
;HEIGHT:0.3
; BEFORE_LAYER_CHANGE 0 @ 0.3mm
G1 E-2.5 F4800
G92 E0
G1 Z-1.38 F18000
; AFTER_LAYER_CHANGE 0 @ 0.3mm
M204 S20000
G1 X109.208 Y115.475
G1 E2.5 F4800
M204 S5000
;TYPE:External perimeter
;WIDTH:0.5
G1 F1440
G1 X80.713 Y115.475 E3.89339
G1 X80.713 Y78.767 E5.68839
G1 X151.283 Y78.767 E9.13923
G1 X151.283 Y115.475 E10.93423
G1 X109.268 Y115.475 E12.98874
M204 S20000
G1 X108.932 Y115.185 F18000
G1 X109.208 Y115.039
M204 S5000
;TYPE:Perimeter
G1 F3600
G1 X81.148 Y115.039 E14.36086
G1 X81.148 Y79.202 E16.11327
G1 X150.847 Y79.203 E19.52152
G1 X150.847 Y115.039 E21.27388
G1 X109.268 Y115.039 E23.30707
M204 S20000
G1 X109.208 Y114.603 F18000
M204 S5000
G1 F3600
G1 X81.584 Y114.603 E24.65787
G1 X81.584 Y79.638 E26.36764
G1 X150.411 Y79.638 E29.73325
G1 X150.411 Y114.603 E31.44302
G1 X109.268 Y114.603 E33.45489
M204 S20000
;WIPE_START
G1 F14400
G1 X101.373 Y114.603 E30.95489
;WIPE_END
G92 E0
G1 X150.237 Y80.696 F18000
G1 E2.5 F4800
M204 S5000
;TYPE:Solid infill
;WIDTH:0.501274
G1 F2880
G1 X149.55 Y80.009 E2.54765
G1 X148.932 Y80.009 E2.57796
G1 X150.041 Y81.118 E2.65488
G1 X150.041 Y81.736 E2.68519
G1 X148.314 Y80.009 E2.80497
G1 X147.696 Y80.009 E2.83528
G1 X150.041 Y82.353 E2.99789
G1 X150.041 Y82.971 E3.0282
G1 X147.078 Y80.009 E3.23367
G1 X146.461 Y80.009 E3.26393
G1 X150.041 Y83.589 E3.51223
G1 X150.041 Y84.207 E3.54254
G1 X145.843 Y80.009 E3.8337
G1 X145.225 Y80.009 E3.86401
G1 X150.041 Y84.825 E4.19803
G1 X150.041 Y85.443 E4.22834
G1 X144.607 Y80.009 E4.60522
G1 X143.989 Y80.009 E4.63553
G1 X150.041 Y86.061 E5.05528
G1 X150.041 Y86.678 E5.08554
G1 X143.371 Y80.009 E5.54811
G1 X142.753 Y80.009 E5.57842
G1 X150.041 Y87.296 E6.08386
G1 X150.041 Y87.914 E6.11417
G1 X142.136 Y80.009 E6.66243
G1 X141.518 Y80.009 E6.69274
G1 X150.041 Y88.532 E7.28387
G1 X150.041 Y89.15 E7.31418
G1 X140.9 Y80.009 E7.94817
G1 X140.282 Y80.009 E7.97848
G1 X150.041 Y89.768 E8.65533
G1 X150.041 Y90.386 E8.68564
G1 X139.664 Y80.009 E9.40535
G1 X139.046 Y80.009 E9.43566
G1 X150.041 Y91.003 E10.1982
G1 X150.041 Y91.621 E10.22851
G1 X138.428 Y80.009 E11.03391
G1 X137.811 Y80.009 E11.06417
G1 X150.041 Y92.239 E11.9124
G1 X150.041 Y92.857 E11.94271
G1 X137.193 Y80.009 E12.8338
G1 X136.575 Y80.009 E12.86411
G1 X150.041 Y93.475 E13.79807
G1 X150.041 Y94.093 E13.82838
G1 X135.957 Y80.009 E14.8052
G1 X135.339 Y80.009 E14.83551
G1 X150.041 Y94.711 E15.85519
G1 X150.041 Y95.329 E15.8855
G1 X134.721 Y80.009 E16.94804
G1 X134.103 Y80.009 E16.97835
G1 X150.041 Y95.946 E18.08372
G1 X150.041 Y96.564 E18.11403
G1 X133.486 Y80.009 E19.26223
G1 X132.868 Y80.009 E19.29254
G1 X150.041 Y97.182 E20.4836
G1 X150.041 Y97.8 E20.51391
G1 X132.25 Y80.009 E21.74783
G1 X131.632 Y80.009 E21.77814
G1 X150.041 Y98.418 E23.05493
G1 X150.041 Y99.036 E23.08524
G1 X131.014 Y80.009 E24.40489
G1 X130.396 Y80.009 E24.4352
G1 X150.041 Y99.654 E25.79771
G1 X150.041 Y100.271 E25.82797
G1 X129.778 Y80.009 E27.23331
G1 X129.16 Y80.009 E27.26362
G1 X150.041 Y100.889 E28.71182
G1 X150.041 Y101.507 E28.74213
G1 X128.543 Y80.009 E30.23316
G1 X127.925 Y80.009 E30.26347
G1 X150.041 Y102.125 E31.79736
G1 X150.041 Y102.743 E31.82767
G1 X127.307 Y80.009 E33.40442
G1 X126.689 Y80.009 E33.43473
G1 X150.041 Y103.361 E35.05435
G1 X150.041 Y103.979 E35.08466
G1 X126.071 Y80.009 E36.74714
G1 X125.453 Y80.009 E36.77745
G1 X150.041 Y104.596 E38.48276
G1 X150.041 Y105.214 E38.51307
G1 X124.835 Y80.009 E40.26124
G1 X124.218 Y80.009 E40.2915
G1 X150.041 Y105.832 E42.0825
G1 X150.041 Y106.45 E42.11281
G1 X123.6 Y80.009 E43.94667
G1 X122.982 Y80.009 E43.97698
G1 X150.041 Y107.068 E45.8537
G1 X150.041 Y107.686 E45.88401
G1 X122.364 Y80.009 E47.80359
G1 X121.746 Y80.009 E47.8339
G1 X150.041 Y108.304 E49.79635
G1 X150.041 Y108.921 E49.82661
G1 X121.128 Y80.009 E51.83188
G1 X120.51 Y80.009 E51.86219
G1 X150.041 Y109.539 E53.91033
G1 X150.041 Y110.157 E53.94064
G1 X119.893 Y80.009 E56.0316
G1 X119.275 Y80.009 E56.06191
G1 X150.041 Y110.775 E58.19574
G1 X150.041 Y111.393 E58.22605
G1 X118.657 Y80.009 E60.40274
G1 X118.039 Y80.009 E60.43305
G1 X150.041 Y112.011 E62.6526
G1 X150.041 Y112.629 E62.68291
G1 X117.421 Y80.009 E64.94532
G1 X116.803 Y80.009 E64.97563
G1 X150.041 Y113.246 E67.28087
G1 X150.041 Y113.864 E67.31118
G1 X116.185 Y80.009 E69.65928
G1 X115.568 Y80.009 E69.68954
G1 X149.792 Y114.233 E72.0632
G1 X149.174 Y114.233 E72.09351
G1 X114.95 Y80.009 E74.46717
G1 X114.332 Y80.009 E74.49748
G1 X148.556 Y114.233 E76.87114
G1 X147.938 Y114.233 E76.90145
G1 X113.714 Y80.009 E79.27511
G1 X113.096 Y80.008 E79.30542
G1 X147.321 Y114.233 E81.67915
G1 X146.703 Y114.233 E81.70946
G1 X112.478 Y80.008 E84.08319
G1 X111.86 Y80.008 E84.1135
G1 X146.085 Y114.233 E86.48723
G1 X145.467 Y114.233 E86.51754
G1 X111.242 Y80.008 E88.89127
G1 X110.625 Y80.008 E88.92153
G1 X144.849 Y114.233 E91.29523
G1 X144.231 Y114.233 E91.32554
G1 X110.007 Y80.008 E93.69924
G1 X109.389 Y80.008 E93.72955
G1 X143.613 Y114.233 E96.10325
G1 X142.996 Y114.233 E96.13351
G1 X108.771 Y80.008 E98.50724
G1 X108.153 Y80.008 E98.53755
G1 X142.378 Y114.233 E100.91128
G1 X141.76 Y114.233 E100.94159
G1 X107.535 Y80.008 E103.31532
G1 X106.917 Y80.008 E103.34563
G1 X141.142 Y114.233 E105.71936
G1 X140.524 Y114.233 E105.74967
G1 X106.3 Y80.008 E108.12337
G1 X105.682 Y80.008 E108.15368
G1 X139.906 Y114.233 E110.52738
G1 X139.288 Y114.233 E110.55769
G1 X105.064 Y80.008 E112.93139
G1 X104.446 Y80.008 E112.9617
G1 X138.671 Y114.233 E115.33543
G1 X138.053 Y114.233 E115.36574
G1 X103.828 Y80.008 E117.73947
G1 X103.21 Y80.008 E117.76978
G1 X137.435 Y114.233 E120.14351
G1 X136.817 Y114.233 E120.17382
G1 X102.592 Y80.008 E122.54755
G1 X101.975 Y80.008 E122.57781
G1 X136.199 Y114.233 E124.95151
G1 X135.581 Y114.233 E124.98182
G1 X101.357 Y80.008 E127.35552
G1 X100.739 Y80.008 E127.38583
G1 X134.963 Y114.233 E129.75953
G1 X134.346 Y114.233 E129.78979
G1 X100.121 Y80.008 E132.16352
G1 X99.503 Y80.008 E132.19383
G1 X133.728 Y114.233 E134.56756
G1 X133.11 Y114.233 E134.59787
G1 X98.885 Y80.008 E136.9716
G1 X98.267 Y80.008 E137.00191
G1 X132.492 Y114.233 E139.37564
G1 X131.874 Y114.233 E139.40595
G1 X97.649 Y80.008 E141.77968
G1 X97.032 Y80.008 E141.80994
G1 X131.256 Y114.233 E144.18364
G1 X130.638 Y114.233 E144.21395
G1 X96.414 Y80.008 E146.58765
G1 X95.796 Y80.008 E146.61796
G1 X130.021 Y114.233 E148.99169
G1 X129.403 Y114.233 E149.022
G1 X95.178 Y80.008 E151.39573
G1 X94.56 Y80.008 E151.42604
G1 X128.785 Y114.233 E153.79977
G1 X128.167 Y114.233 E153.83008
G1 X93.942 Y80.008 E156.20381
G1 X93.324 Y80.008 E156.23412
G1 X127.549 Y114.233 E158.60785
G1 X126.931 Y114.233 E158.63816
G1 X92.707 Y80.008 E161.01186
G1 X92.089 Y80.008 E161.04217
G1 X126.313 Y114.233 E163.41587
G1 X125.696 Y114.233 E163.44613
G1 X91.471 Y80.008 E165.81986
G1 X90.853 Y80.008 E165.85017
G1 X125.078 Y114.233 E168.2239
G1 X124.46 Y114.233 E168.25421
G1 X90.235 Y80.008 E170.62794
G1 X89.617 Y80.008 E170.65825
G1 X123.842 Y114.233 E173.03198
G1 X123.224 Y114.233 E173.06229
G1 X88.999 Y80.008 E175.43602
G1 X88.382 Y80.008 E175.46628
G1 X122.606 Y114.233 E177.83998
G1 X121.988 Y114.233 E177.87029
G1 X87.764 Y80.008 E180.24399
G1 X87.146 Y80.008 E180.2743
G1 X121.371 Y114.233 E182.64803
G1 X120.753 Y114.233 E182.67834
G1 X86.528 Y80.008 E185.05207
G1 X85.91 Y80.008 E185.08238
G1 X120.135 Y114.233 E187.45611
G1 X119.517 Y114.233 E187.48642
G1 X85.292 Y80.008 E189.86015
G1 X84.674 Y80.008 E189.89046
G1 X118.899 Y114.233 E192.26419
G1 X118.281 Y114.233 E192.2945
G1 X84.057 Y80.008 E194.6682
G1 X83.439 Y80.008 E194.69851
G1 X117.663 Y114.233 E197.07221
G1 X117.045 Y114.233 E197.10252
G1 X82.821 Y80.008 E199.47622
G1 X82.203 Y80.008 E199.50653
G1 X116.428 Y114.233 E201.88026
G1 X115.81 Y114.233 E201.91057
G1 X81.954 Y80.377 E204.25871
G1 X81.954 Y80.995 E204.28902
G1 X115.192 Y114.233 E206.59429
G1 X114.574 Y114.233 E206.6246
G1 X81.954 Y81.613 E208.88701
G1 X81.954 Y82.231 E208.91732
G1 X113.956 Y114.233 E211.13687
G1 X113.338 Y114.233 E211.16718
G1 X81.954 Y82.849 E213.34387
G1 X81.954 Y83.467 E213.37418
G1 X112.72 Y114.233 E215.50801
G1 X112.103 Y114.233 E215.53827
G1 X81.954 Y84.084 E217.6293
G1 X81.954 Y84.702 E217.65961
G1 X111.485 Y114.233 E219.70778
G1 X110.867 Y114.233 E219.73809
G1 X81.954 Y85.32 E221.7434
G1 X81.954 Y85.938 E221.77371
G1 X110.249 Y114.233 E223.73616
G1 X109.631 Y114.233 E223.76647
G1 X81.954 Y86.556 E225.68605
G1 X81.954 Y87.174 E225.71636
G1 X109.013 Y114.233 E227.59308
G1 X108.395 Y114.233 E227.62339
G1 X81.954 Y87.792 E229.45725
G1 X81.954 Y88.41 E229.48756
G1 X107.778 Y114.233 E231.27859
G1 X107.16 Y114.233 E231.3089
G1 X81.954 Y89.027 E233.0571
G1 X81.954 Y89.645 E233.08741
G1 X106.542 Y114.233 E234.79275
G1 X105.924 Y114.233 E234.82306
G1 X81.954 Y90.263 E236.48554
G1 X81.954 Y90.881 E236.51585
G1 X105.306 Y114.233 E238.13547
G1 X104.688 Y114.233 E238.16578
G1 X81.954 Y91.499 E239.74253
G1 X81.954 Y92.117 E239.77284
G1 X104.07 Y114.233 E241.30673
G1 X103.453 Y114.233 E241.33699
G1 X81.954 Y92.735 E242.82805
G1 X81.954 Y93.352 E242.85831
G1 X102.835 Y114.233 E244.30655
G1 X102.217 Y114.233 E244.33686
G1 X81.954 Y93.97 E245.74223
G1 X81.954 Y94.588 E245.77254
G1 X101.599 Y114.233 E247.13505
G1 X100.981 Y114.233 E247.16536
G1 X81.954 Y95.206 E248.48501
G1 X81.954 Y95.824 E248.51532
G1 X100.363 Y114.233 E249.79211
G1 X99.745 Y114.233 E249.82242
G1 X81.954 Y96.442 E251.05634
G1 X81.954 Y97.06 E251.08665
G1 X99.128 Y114.233 E252.27775
G1 X98.51 Y114.233 E252.30806
G1 X81.954 Y97.677 E253.45633
G1 X81.954 Y98.295 E253.48664
G1 X97.892 Y114.233 E254.59205
G1 X97.274 Y114.233 E254.62236
G1 X81.954 Y98.913 E255.6849
G1 X81.954 Y99.531 E255.71521
G1 X96.656 Y114.233 E256.73489
G1 X96.038 Y114.233 E256.7652
G1 X81.954 Y100.149 E257.74202
G1 X81.954 Y100.767 E257.77233
G1 X95.42 Y114.233 E258.70629
G1 X94.803 Y114.233 E258.73655
G1 X81.954 Y101.385 E259.62768
G1 X81.954 Y102.002 E259.65794
G1 X94.185 Y114.233 E260.50624
G1 X93.567 Y114.233 E260.53655
G1 X81.954 Y102.62 E261.34199
G1 X81.954 Y103.238 E261.3723
G1 X92.949 Y114.233 E262.13488
G1 X92.331 Y114.233 E262.16519
G1 X81.954 Y103.856 E262.8849
G1 X81.954 Y104.474 E262.91521
G1 X91.713 Y114.233 E263.59206
G1 X91.095 Y114.233 E263.62237
G1 X81.954 Y105.092 E264.25636
G1 X81.954 Y105.71 E264.28667
G1 X90.478 Y114.233 E264.87783
G1 X89.86 Y114.233 E264.90814
G1 X81.954 Y106.327 E265.45647
G1 X81.954 Y106.945 E265.48678
G1 X89.242 Y114.233 E265.99225
G1 X88.624 Y114.233 E266.02256
G1 X81.954 Y107.563 E266.48517
G1 X81.954 Y108.181 E266.51548
G1 X88.006 Y114.233 E266.93523
G1 X87.388 Y114.233 E266.96554
G1 X81.954 Y108.799 E267.34242
G1 X81.954 Y109.417 E267.37273
G1 X86.77 Y114.233 E267.70675
G1 X86.153 Y114.233 E267.73701
G1 X81.954 Y110.035 E268.0282
G1 X81.954 Y110.652 E268.05846
G1 X85.535 Y114.233 E268.30683
G1 X84.917 Y114.233 E268.33714
G1 X81.954 Y111.27 E268.54264
G1 X81.954 Y111.888 E268.57295
G1 X84.299 Y114.233 E268.73559
G1 X83.681 Y114.233 E268.7659
G1 X81.954 Y112.506 E268.88568
G1 X81.954 Y113.124 E268.91599
G1 X83.063 Y114.233 E268.99291
G1 X82.445 Y114.233 E269.02322
G1 X81.758 Y113.546 E269.07087
M204 S20000
M106 S127.5
;LAYER_CHANGE
;Z:0.6
;HEIGHT:0.3
; BEFORE_LAYER_CHANGE 1 @ 0.6mm
;WIPE_START
G1 F14400
G1 X82.445 Y114.233 E268.76321
G1 X83.063 Y114.233 E268.56751
G1 X81.954 Y113.124 E268.07086
G1 X81.954 Y112.506 E267.87516
G1 X83.681 Y114.233 E267.10175
G1 X84.299 Y114.233 E266.90605
G1 X83.551 Y113.485 E266.57087
;WIPE_END
G92 E0
G1 Z-1.08 F18000
; AFTER_LAYER_CHANGE 1 @ 0.6mm
G1 X152.713 Y82.135
G1 E2.5 F4800
M204 S5000
;TYPE:Overhang perimeter
;WIDTH:0.426438
;HEIGHT:0.33
G1 F6000
G1 X152.712 Y115.584 E3.96879
G1 X152.639 Y116.11 E3.99211
G1 X152.551 Y116.271 E4.00017
G1 X152.287 Y116.609 E4.019
G1 X151.911 Y116.826 E4.03806
G1 X151.487 Y116.904 E4.05699
G1 X80.618 Y116.904 E7.16893
G1 X80.362 Y116.89 E7.18019
G1 X79.949 Y116.777 E7.19899
G1 X79.616 Y116.506 E7.21784
G1 X79.37 Y116.144 E7.23706
G1 X79.283 Y115.699 E7.25697
G1 X79.282 Y78.664 E8.88322
G1 X79.341 Y78.184 E8.90446
G1 X79.514 Y77.851 E8.92094
G1 X79.908 Y77.493 E8.94432
G1 X80.078 Y77.43 E8.95228
G1 X80.511 Y77.343 E8.97167
G1 X151.371 Y77.343 E12.08322
G1 X151.663 Y77.366 E12.09608
G1 X152.087 Y77.493 E12.11552
G1 X152.375 Y77.724 E12.13173
G1 X152.637 Y78.143 E12.15343
G1 X152.713 Y78.685 E12.17746
G1 X152.713 Y82.075 E12.32632
M204 S20000
G1 X152.368 Y82.338 F18000
G1 X152.342 Y82.135
M204 S10000
;TYPE:Perimeter
;WIDTH:0.45
;HEIGHT:0.3
G1 F12000
G1 X152.341 Y115.584 E13.77422
G1 X152.285 Y115.985 E13.79175
G1 X152.04 Y116.33 E13.81007
G1 X151.783 Y116.478 E13.82291
G1 X151.469 Y116.533 E13.83671
G1 X80.618 Y116.533 E16.90363
G1 X80.302 Y116.511 E16.91734
G1 X79.956 Y116.33 E16.93424
G1 X79.722 Y116.014 E16.95126
G1 X79.654 Y115.663 E16.96674
G1 X79.653 Y78.664 E18.56831
G1 X79.698 Y78.301 E18.58414
G1 X79.807 Y78.09 E18.59442
G1 X79.981 Y77.91 E18.60526
G1 X80.208 Y77.776 E18.61667
G1 X80.535 Y77.714 E18.63108
G1 X151.52 Y77.721 E21.7038
G1 X151.901 Y77.819 E21.72083
G1 X152.094 Y77.974 E21.73155
G1 X152.285 Y78.279 E21.74713
G1 X152.342 Y78.685 E21.76488
G1 X152.342 Y82.075 E21.91162
M204 S20000
G1 X151.956 Y82.135 F18000
M204 S10000
G1 F12000
G1 X151.956 Y115.584 E23.35952
G1 X151.888 Y115.907 E23.37381
G1 X151.695 Y116.1 E23.38562
G1 X151.45 Y116.148 E23.39643
G1 X80.618 Y116.148 E26.46253
G1 X80.301 Y116.1 E26.47641
G1 X80.122 Y115.938 E26.48686
G1 X80.04 Y115.626 E26.50082
G1 X80.039 Y78.664 E28.10079
G1 X80.058 Y78.498 E28.10802
G1 X80.148 Y78.271 E28.11859
G1 X80.288 Y78.159 E28.12635
G1 X80.56 Y78.099 E28.13841
G1 X151.371 Y78.099 E31.2036
G1 X151.566 Y78.116 E31.21207
G1 X151.754 Y78.195 E31.2209
G1 X151.919 Y78.42 E31.23298
G1 X151.957 Y78.685 E31.24457
G1 X151.956 Y82.075 E31.39131
M204 S20000
;WIPE_START
G1 F14400
G1 X151.956 Y89.97 E28.89131
;WIPE_END
G92 E0
G1 X80.731 Y78.427 F18000
G1 E2.5 F4800
M204 S10000
;TYPE:Solid infill
G1 F9600
G1 X80.366 Y78.792 E2.52234
G1 X80.33 Y78.42 E2.53852
;WIDTH:0.404381
G1 X80.396 Y78.361 E2.5419
M204 S20000
G1 X81.277 Y78.427 F18000
M204 S10000
;WIDTH:0.45
G1 F9600
G1 X80.366 Y79.337 E2.59764
G1 X80.366 Y79.882 E2.62123
G1 X81.822 Y78.427 E2.71033
G1 X82.367 Y78.427 E2.73392
G1 X80.367 Y80.428 E2.85638
G1 X80.367 Y80.973 E2.87997
G1 X82.913 Y78.427 E3.03583
G1 X83.458 Y78.427 E3.05942
G1 X80.367 Y81.518 E3.24864
G1 X80.367 Y82.064 E3.27227
G1 X84.003 Y78.427 E3.49489
G1 X84.549 Y78.427 E3.51852
G1 X80.367 Y82.609 E3.77453
G1 X80.367 Y83.154 E3.79812
G1 X85.094 Y78.427 E4.08749
G1 X85.639 Y78.427 E4.11108
G1 X80.367 Y83.7 E4.43385
G1 X80.367 Y84.245 E4.45744
G1 X86.185 Y78.427 E4.8136
G1 X86.73 Y78.427 E4.83719
G1 X80.367 Y84.79 E5.22671
G1 X80.367 Y85.336 E5.25034
G1 X87.275 Y78.427 E5.67326
G1 X87.821 Y78.427 E5.69689
G1 X80.367 Y85.881 E6.1532
G1 X80.367 Y86.426 E6.17679
G1 X88.366 Y78.427 E6.66646
G1 X88.911 Y78.427 E6.69005
G1 X80.367 Y86.972 E7.21312
G1 X80.367 Y87.517 E7.23671
