;FLAVOR:Marlin
;TIME:5957
;Filament used: 17.1106m
;Layer height: 0.5
;MINX:109.346
;MINY:178.655
;MINZ:0.5
;MAXX:190.503
;MAXY:236.498
;MAXZ:116
;Generated with Cura_SteamEngine 5.4.0
M140 S80
M105
M190 S80
M104 S235
M105
M109 S235
M82 ;absolute extrusion mode
G28 ; home all axes
 M117 Purge extruder
 G92 E0 ; reset extruder
 G1 Z1.0 F3000 ; move z up little to prevent scratching of surface
 G1 X2 Y20 Z0.3 F5000.0 ; move to start-line position
 G1 X2 Y200.0 Z0.3 F1500.0 E15 ; draw 1st line
 G1 X2 Y200.0 Z0.4 F5000.0 ; move to side a little
 G1 X2 Y20 Z0.4 F1500.0 E30 ; draw 2nd line
 G92 E0 ; reset extruder
 G1 Z1.0 F3000 ; move z up little to prevent scratching of surface
G92 E0
G92 E0
G1 F3000 E-1.5
;LAYER_COUNT:232
;LAYER:0
M106 S191.2
G0 F6000 X113.948 Y181.385 Z0.5
;TYPE:SKIRT
G1 F3000 E0
G1 F600 X114.726 Y180.91 E0.14401
G1 X115.543 Y180.504 E0.28814
G1 X116.392 Y180.172 E0.43216
G1 X117.267 Y179.915 E0.57624
G1 X118.161 Y179.736 E0.72028
G1 X119.464 Y179.617 E0.927
G1 X120.076 Y179.604 E1.0237
G1 X179.396 Y179.604 E10.39541
G1 X180.243 Y179.615 E10.52924
G1 X181.153 Y179.668 E10.67325
G1 X182.056 Y179.801 E10.81745
G1 X182.943 Y180.012 E10.96149
G1 X183.808 Y180.3 E11.10553
G1 X184.645 Y180.662 E11.2496
G1 X185.446 Y181.097 E11.3936
G1 X186.207 Y181.6 E11.53772
G1 X186.92 Y182.168 E11.68173
G1 X187.582 Y182.796 E11.82589
G1 X188.185 Y183.48 E11.96995
G1 X188.726 Y184.214 E12.11401
G1 X189.201 Y184.992 E12.25802
G1 X189.606 Y185.809 E12.40208
G1 X189.938 Y186.659 E12.54625
G1 X190.194 Y187.534 E12.69028
G1 X190.372 Y188.428 E12.83429
G1 X190.49 Y189.722 E13.03958
G1 X190.503 Y190.334 E13.13628
G1 X190.502 Y223.271 E18.33986
G1 X190.493 Y223.998 E18.45472
G1 X190.442 Y224.908 E18.59871
G1 X190.311 Y225.811 E18.74287
G1 X190.102 Y226.698 E18.88684
G1 X189.815 Y227.564 E19.03097
G1 X189.454 Y228.401 E19.17498
G1 X189.021 Y229.204 E19.31911
G1 X188.52 Y229.966 E19.46319
G1 X187.953 Y230.68 E19.60723
G1 X187.326 Y231.342 E19.75128
G1 X186.644 Y231.947 E19.89531
G1 X185.911 Y232.49 E20.03943
G1 X185.133 Y232.966 E20.18352
G1 X184.317 Y233.373 E20.32758
G1 X183.468 Y233.706 E20.47166
G1 X182.594 Y233.964 E20.61563
G1 X181.7 Y234.144 E20.75971
G1 X180.385 Y234.265 E20.96834
G1 X179.773 Y234.278 E21.06504
G1 X120.319 Y234.277 E30.45792
G1 X119.621 Y234.268 E30.56821
G1 X118.71 Y234.216 E30.71237
G1 X117.808 Y234.085 E30.85636
G1 X116.921 Y233.875 E31.00037
G1 X116.055 Y233.589 E31.14445
G1 X115.218 Y233.227 E31.28853
G1 X114.415 Y232.794 E31.43266
G1 X113.654 Y232.292 E31.57669
G1 X112.94 Y231.725 E31.72073
G1 X112.278 Y231.098 E31.86478
G1 X111.673 Y230.415 E32.00893
G1 X111.131 Y229.682 E32.15295
G1 X110.655 Y228.904 E32.29705
G1 X110.249 Y228.087 E32.44118
G1 X109.916 Y227.238 E32.58526
G1 X109.659 Y226.363 E32.72933
G1 X109.479 Y225.469 E32.87341
G1 X109.359 Y224.15 E33.08265
G1 X109.346 Y223.536 E33.17968
G1 X109.347 Y190.537 E38.39304
G1 X109.356 Y189.872 E38.49811
G1 X109.408 Y188.962 E38.64212
G1 X109.54 Y188.06 E38.78614
G1 X109.751 Y187.172 E38.93033
G1 X110.038 Y186.307 E39.07432
G1 X110.4 Y185.47 E39.21839
G1 X110.834 Y184.668 E39.36246
G1 X111.336 Y183.907 E39.50648
G1 X111.904 Y183.193 E39.65063
G1 X112.531 Y182.531 E39.79468
G1 X113.214 Y181.927 E39.93872
G1 X113.948 Y181.385 E40.08287
G1 F3000 E38.58287
;MESH:AHK_Kappe__neu.stl
G0 F6000 X119.081 Y222.678
G0 X120.946 Y222.678
;TYPE:WALL-INNER
G1 F3000 E40.08287
G1 F600 X178.903 Y222.678 E48.75733
G1 X178.903 Y191.204 E53.46806
G1 X120.946 Y191.204 E62.14252
G1 X120.946 Y222.678 E66.85326
G1 F3000 E65.35326
G0 F6000 X120.946 Y224.543
G0 X180.756 Y224.531
G0 X180.756 Y189.351
G0 X179.703 Y189.339
G0 X179.703 Y190.404
;TYPE:WALL-OUTER
G1 F3000 E66.85326
G1 F600 X120.146 Y190.404 E75.76719
G1 X120.146 Y223.478 E80.71739
G1 X179.703 Y223.478 E89.63133
G1 X179.703 Y190.404 E94.58153
G1 F3000 E93.08153
G0 F6000 X179.703 Y189.339
G0 X180.756 Y189.351
G0 X180.768 Y206.472
G0 X163.635 Y206.472
;TYPE:SKIN
G1 F3000 E94.58153
G1 F512.3 X136.214 Y206.472 E99.65553
G1 X136.214 Y207.41 E99.8291
G1 X163.635 Y207.41 E104.9031
G1 X163.635 Y206.472 E105.07667
G1 F3000 E103.57667
G0 F6000 X135.346 Y208.278
G1 F3000 E105.07667
G1 F600 X164.503 Y208.278 E109.68306
G1 X164.503 Y205.604 E110.10551
G1 X135.346 Y205.604 E114.7119
G1 X135.346 Y208.278 E115.13435
G1 F3000 E113.63435
G0 F6000 X165.303 Y204.804
G1 F3000 E115.13435
G1 F600 X134.546 Y204.804 E119.99352
G1 X134.546 Y209.078 E120.66875
G1 X165.303 Y209.078 E125.52791
G1 X165.303 Y204.804 E126.20314
G1 F3000 E124.70314
G0 F6000 X166.103 Y209.878
G1 F3000 E126.20314
G1 F600 X166.103 Y204.004 E127.13115
G1 X133.746 Y204.004 E132.24309
G1 X133.746 Y209.878 E133.1711
G1 X166.103 Y209.878 E138.28304
G1 F3000 E136.78304
G0 F6000 X166.903 Y203.204
G1 F3000 E138.28304
G1 F600 X132.946 Y203.204 E143.64776
G1 X132.946 Y210.678 E144.82854
G1 X166.903 Y210.678 E150.19326
G1 X166.903 Y203.204 E151.37405
G1 F3000 E149.87405
G0 F6000 X180.768 Y203.204
G0 X180.756 Y224.531
G0 X132.146 Y224.543
G0 X132.146 Y211.478
G1 F3000 E151.37405
G1 F600 X167.703 Y211.478 E156.99154
G1 X167.703 Y202.404 E158.4251
G1 X132.146 Y202.404 E164.0426
G1 X132.146 Y211.478 E165.47616
G1 F3000 E163.97616
G0 F6000 X132.146 Y224.543
G0 X180.756 Y224.531
G0 X180.768 Y212.278
G0 X168.503 Y212.278
G1 F3000 E165.47616
G1 F600 X168.503 Y201.604 E167.1625
G1 X131.346 Y201.604 E173.03277
G1 X131.346 Y212.278 E174.71911
G1 X168.503 Y212.278 E180.58938
G1 F3000 E179.08938
G0 F6000 X169.303 Y200.804
G1 F3000 E180.58938
G1 F600 X130.546 Y200.804 E186.71243
G1 X130.546 Y213.078 E188.65155
G1 X169.303 Y213.078 E194.7746
G1 X169.303 Y200.804 E196.71371
G1 F3000 E195.21371
G0 F6000 X180.768 Y200.804
G0 X180.756 Y189.351
G0 X119.093 Y189.351
G0 X119.081 Y200.004
G0 X129.746 Y200.004
G1 F3000 E196.71371
G1 F600 X129.746 Y213.878 E198.90561
G1 X170.103 Y213.878 E205.28143
G1 X170.103 Y200.004 E207.47333
G1 X129.746 Y200.004 E213.84915
G0 F6000 X128.946 Y199.204
G1 F600 X128.946 Y214.678 E216.29382
G1 X170.903 Y214.678 E222.92243
G1 X170.903 Y199.204 E225.36709
G1 X128.946 Y199.204 E231.9957
G1 F3000 E230.4957
G0 F6000 X128.146 Y215.478
G1 F3000 E231.9957
G1 F600 X171.703 Y215.478 E238.87708
G1 X171.703 Y198.404 E241.57453
G1 X128.146 Y198.404 E248.45591
G1 X128.146 Y215.478 E251.15335
G1 F3000 E249.65335
G0 F6000 X128.146 Y224.543
G0 X119.093 Y224.531
G0 X119.081 Y197.604
G0 X127.346 Y197.604
G1 F3000 E251.15335
G1 F600 X127.346 Y216.278 E254.10358
G1 X172.503 Y216.278 E261.23773
G1 X172.503 Y197.604 E264.18796
G1 X127.346 Y197.604 E271.32212
G0 F6000 X126.546 Y196.804
G1 F600 X126.546 Y217.078 E274.52512
G1 X173.303 Y217.078 E281.91205
G1 X173.303 Y196.804 E285.11505
G1 X126.546 Y196.804 E292.50199
G1 F3000 E291.00199
G0 F6000 X119.081 Y196.804
G0 X119.093 Y189.351
G0 X180.756 Y189.351
G0 X180.768 Y196.004
G0 X174.103 Y196.004
G1 F3000 E292.50199
G1 F600 X125.746 Y196.004 E300.1417
G1 X125.746 Y217.878 E303.59748
G1 X174.103 Y217.878 E311.23719
G1 X174.103 Y196.004 E314.69297
G1 F3000 E313.19297
G0 F6000 X180.768 Y196.004
G0 X180.756 Y189.351
G0 X119.093 Y189.351
G0 X119.081 Y195.204
G0 X124.946 Y195.204
G1 F3000 E314.69297
G1 F600 X124.946 Y218.678 E318.40152
G1 X174.903 Y218.678 E326.29401
G1 X174.903 Y195.204 E330.00257
G1 X124.946 Y195.204 E337.89505
G0 F6000 X124.146 Y194.404
G1 F600 X124.146 Y219.478 E341.85639
G1 X175.703 Y219.478 E350.00165
G1 X175.703 Y194.404 E353.96298
G1 X124.146 Y194.404 E362.10825
G0 F6000 X123.346 Y193.604
G1 F600 X123.346 Y220.278 E366.32236
G1 X176.503 Y220.278 E374.7204
G1 X176.503 Y193.604 E378.93451
G1 X123.346 Y193.604 E387.33255
G0 F6000 X122.546 Y192.804
G1 F600 X122.546 Y221.078 E391.79944
G1 X177.303 Y221.078 E400.45026
G1 X177.303 Y192.804 E404.91714
G1 X122.546 Y192.804 E413.56796
G1 F3000 E412.06796
G0 F6000 X122.546 Y189.339
G0 X178.103 Y189.339
G0 X178.103 Y192.004
G1 F3000 E413.56796
G1 F600 X121.746 Y192.004 E422.47156
G1 X121.746 Y221.878 E427.19122
G1 X178.103 Y221.878 E436.09482
G1 X178.103 Y192.004 E440.81448
G1 F3000 E439.31448
;MESH:NONMESH
G0 F300 X178.103 Y192.004 Z1
G0 F6000 X178.103 Y189.339
G0 X113.948 Y181.385
;TIME_ELAPSED:305.614398
;LAYER:1
;TYPE:SKIRT
G1 F3000 E440.81448
G1 F600 X114.726 Y180.91 E440.95849
G1 X115.543 Y180.504 E441.10263
G1 X116.392 Y180.172 E441.24665
G1 X117.267 Y179.915 E441.39073
G1 X118.161 Y179.736 E441.53477
G1 X119.464 Y179.617 E441.74148
G1 X120.076 Y179.604 E441.83819
G1 X179.396 Y179.604 E451.2099
G1 X180.243 Y179.615 E451.34372
G1 X181.153 Y179.668 E451.48773
G1 X182.056 Y179.801 E451.63193
G1 X182.943 Y180.012 E451.77598
G1 X183.808 Y180.3 E451.92001
G1 X184.645 Y180.662 E452.06408
G1 X185.446 Y181.097 E452.20808
G1 X186.207 Y181.6 E452.3522
G1 X186.92 Y182.168 E452.49622
G1 X187.582 Y182.796 E452.64038
G1 X188.185 Y183.48 E452.78444
G1 X188.726 Y184.214 E452.92849
G1 X189.201 Y184.992 E453.0725
G1 X189.606 Y185.809 E453.21657
G1 X189.938 Y186.659 E453.36073
G1 X190.194 Y187.534 E453.50477
G1 X190.372 Y188.428 E453.64878
G1 X190.49 Y189.722 E453.85406
G1 X190.503 Y190.334 E453.95077
G1 X190.502 Y223.271 E459.15434
G1 X190.493 Y223.998 E459.26921
G1 X190.442 Y224.908 E459.4132
G1 X190.311 Y225.811 E459.55735
G1 X190.102 Y226.698 E459.70132
G1 X189.815 Y227.564 E459.84546
G1 X189.454 Y228.401 E459.98947
G1 X189.021 Y229.204 E460.1336
G1 X188.52 Y229.966 E460.27767
G1 X187.953 Y230.68 E460.42171
G1 X187.326 Y231.342 E460.56577
G1 X186.644 Y231.947 E460.7098
G1 X185.911 Y232.49 E460.85391
G1 X185.133 Y232.966 E460.99801
G1 X184.317 Y233.373 E461.14207
G1 X183.468 Y233.706 E461.28615
G1 X182.594 Y233.964 E461.43012
G1 X181.7 Y234.144 E461.57419
G1 X180.385 Y234.265 E461.78282
G1 X179.773 Y234.278 E461.87953
G1 X120.319 Y234.277 E471.27241
G1 X119.621 Y234.268 E471.38269
G1 X118.71 Y234.216 E471.52685
G1 X117.808 Y234.085 E471.67085
G1 X116.921 Y233.875 E471.81485
G1 X116.055 Y233.589 E471.95894
G1 X115.218 Y233.227 E472.10301
G1 X114.415 Y232.794 E472.24714
G1 X113.654 Y232.292 E472.39117
G1 X112.94 Y231.725 E472.53521
G1 X112.278 Y231.098 E472.67926
G1 X111.673 Y230.415 E472.82341
G1 X111.131 Y229.682 E472.96744
G1 X110.655 Y228.904 E473.11153
G1 X110.249 Y228.087 E473.25566
G1 X109.916 Y227.238 E473.39974
G1 X109.659 Y226.363 E473.54382
G1 X109.479 Y225.469 E473.68789
G1 X109.359 Y224.15 E473.89713
G1 X109.346 Y223.536 E473.99416
G1 X109.347 Y190.537 E479.20753
G1 X109.356 Y189.872 E479.3126
G1 X109.408 Y188.962 E479.4566
G1 X109.54 Y188.06 E479.60062
G1 X109.751 Y187.172 E479.74482
G1 X110.038 Y186.307 E479.8888
G1 X110.4 Y185.47 E480.03287
G1 X110.834 Y184.668 E480.17694
G1 X111.336 Y183.907 E480.32097
G1 X111.904 Y183.193 E480.46511
G1 X112.531 Y182.531 E480.60916
G1 X113.214 Y181.927 E480.75321
G1 X113.948 Y181.385 E480.89736
G1 F3000 E479.39736
;MESH:AHK_Kappe__neu.stl
G0 F6600 X119.081 Y223.597
G0 X120.946 Y223.597
;TYPE:WALL-INNER
G1 F3000 E480.89736
G1 F1200 X178.903 Y223.597 E489.57181
G1 X178.903 Y190.365 E494.54567
G1 X120.946 Y190.365 E503.22013
G1 X120.946 Y223.597 E508.19398
G1 F3000 E506.69398
G0 F6600 X120.946 Y225.462
G0 X180.756 Y225.45
G0 X180.756 Y188.512
G0 X179.703 Y188.5
G0 X179.703 Y189.565
;TYPE:WALL-OUTER
G1 F3000 E508.19398
G1 F1800 X120.146 Y189.565 E517.10791
G1 X120.146 Y224.397 E522.32124
G1 X179.703 Y224.397 E531.23517
G1 X179.703 Y189.565 E536.4485
G1 F3000 E534.9485
G0 F6600 X179.703 Y188.5
G0 X180.756 Y188.512
G0 X180.768 Y206.473
G0 X162.795 Y206.473
;TYPE:SKIN
G1 F3000 E536.4485
G1 F708.7 X137.054 Y206.473 E541.61322
G1 X137.054 Y207.489 E541.81707
G1 X162.795 Y207.489 E546.98179
G1 X162.795 Y206.473 E547.18564
G0 F6600 X163.703 Y205.565
G1 F900 X136.146 Y205.565 E551.53925
G1 X136.146 Y208.397 E551.98667
G1 X163.703 Y208.397 E556.34028
G1 X163.703 Y205.565 E556.78769
G0 F6600 X164.503 Y204.765
G1 F900 X135.346 Y204.765 E561.39408
G1 X135.346 Y209.197 E562.09427
G1 X164.503 Y209.197 E566.70066
G1 X164.503 Y204.765 E567.40085
G1 F3000 E565.90085
G0 F6600 X165.303 Y209.997
G1 F3000 E567.40085
G1 F900 X165.303 Y203.965 E568.35382
G1 X134.546 Y203.965 E573.21299
G1 X134.546 Y209.997 E574.16596
G1 X165.303 Y209.997 E579.02512
G0 F6600 X166.103 Y210.797
G1 F900 X166.103 Y203.165 E580.23087
G1 X133.746 Y203.165 E585.34281
G1 X133.746 Y210.797 E586.54856
G1 X166.103 Y210.797 E591.6605
G1 F3000 E590.1605
G0 F6600 X180.768 Y210.797
G0 X180.756 Y225.45
G0 X132.946 Y225.462
G0 X132.946 Y211.597
G1 F3000 E591.6605
G1 F900 X166.903 Y211.597 E597.02522
G1 X166.903 Y202.365 E598.48374
G1 X132.946 Y202.365 E603.84846
G1 X132.946 Y211.597 E605.30698
G1 F3000 E603.80698
G0 F6600 X132.946 Y225.462
G0 X180.756 Y225.45
G0 X180.768 Y201.565
G0 X167.703 Y201.565
G1 F3000 E605.30698
G1 F900 X132.146 Y201.565 E610.92448
G1 X132.146 Y212.397 E612.63578
G1 X167.703 Y212.397 E618.25327
G1 X167.703 Y201.565 E619.96457
G0 F6600 X168.503 Y200.765
G1 F900 X131.346 Y200.765 E625.83485
G1 X131.346 Y213.197 E627.79892
G1 X168.503 Y213.197 E633.66919
G1 X168.503 Y200.765 E635.63327
G1 F3000 E634.13327
G0 F6600 X180.768 Y200.765
G0 X180.756 Y188.512
G0 X119.093 Y188.512
G0 X119.081 Y199.965
G0 X130.546 Y199.965
G1 F3000 E635.63327
G1 F900 X130.546 Y213.997 E637.85013
G1 X169.303 Y213.997 E643.97318
G1 X169.303 Y199.965 E646.19003
G1 X130.546 Y199.965 E652.31308
G0 F6600 X129.746 Y199.165
G1 F900 X129.746 Y214.797 E654.78271
G1 X170.103 Y214.797 E661.15854
G1 X170.103 Y199.165 E663.62817
G1 X129.746 Y199.165 E670.004
G1 F3000 E668.504
G0 F6600 X128.946 Y215.597
G1 F3000 E670.004
G1 F900 X170.903 Y215.597 E676.6326
G1 X170.903 Y198.365 E679.35501
G1 X128.946 Y198.365 E685.98361
G1 X128.946 Y215.597 E688.70602
G1 F3000 E687.20602
G0 F6600 X128.146 Y197.565
G1 F3000 E688.70602
G1 F900 X128.146 Y216.397 E691.68121
G1 X171.703 Y216.397 E698.56259
G1 X171.703 Y197.565 E701.53777
G1 X128.146 Y197.565 E708.41915
G1 F3000 E706.91915
G0 F6600 X119.081 Y197.565
G0 X119.093 Y188.512
G0 X180.756 Y188.512
G0 X180.768 Y196.765
G0 X172.503 Y196.765
G1 F3000 E708.41915
G1 F900 X127.346 Y196.765 E715.55331
G1 X127.346 Y217.197 E718.78127
G1 X172.503 Y217.197 E725.91543
G1 X172.503 Y196.765 E729.14339
G0 F6600 X173.303 Y195.965
G1 F900 X126.546 Y195.965 E736.53033
G1 X126.546 Y217.997 E740.01107
G1 X173.303 Y217.997 E747.398
G1 X173.303 Y195.965 E750.87874
G1 F3000 E749.37874
G0 F6600 X180.768 Y195.965
G0 X180.756 Y225.45
G0 X125.746 Y225.462
G0 X125.746 Y218.797
G1 F3000 E750.87874
G1 F900 X174.103 Y218.797 E758.51845
G1 X174.103 Y195.165 E762.25197
G1 X125.746 Y195.165 E769.89168
G1 X125.746 Y218.797 E773.6252
G0 F6600 X124.946 Y219.597
G1 F900 X174.903 Y219.597 E781.51769
G1 X174.903 Y194.365 E785.50398
G1 X124.946 Y194.365 E793.39647
G1 X124.946 Y219.597 E797.38276
G1 F3000 E795.88276
G0 F6600 X124.946 Y225.462
G0 X119.093 Y225.45
G0 X119.081 Y193.565
G0 X124.146 Y193.565
G1 F3000 E797.38276
G1 F900 X124.146 Y220.397 E801.62183
G1 X175.703 Y220.397 E809.7671
G1 X175.703 Y193.565 E814.00617
G1 X124.146 Y193.565 E822.15144
G0 F6600 X123.346 Y192.765
G1 F900 X123.346 Y221.197 E826.64328
G1 X176.503 Y221.197 E835.04133
G1 X176.503 Y192.765 E839.53318
G1 X123.346 Y192.765 E847.93122
G1 F3000 E846.43122
G0 F6600 X123.346 Y188.5
G0 X177.303 Y188.5
G0 X177.303 Y191.965
G1 F3000 E847.93122
G1 F900 X122.546 Y191.965 E856.58204
G1 X122.546 Y221.997 E861.32666
G1 X177.303 Y221.997 E869.97748
G1 X177.303 Y191.965 E874.72211
G1 F3000 E873.22211
G0 F6600 X177.303 Y188.5
G0 X119.093 Y188.512
G0 X119.093 Y225.45
G0 X121.746 Y225.462
G0 X121.746 Y222.797
G1 F3000 E874.72211
G1 F900 X178.103 Y222.797 E883.6257
G1 X178.103 Y191.165 E888.62311
G1 X121.746 Y191.165 E897.5267
G1 X121.746 Y222.797 E902.5241
G1 F3000 E901.0241
;MESH:NONMESH
G0 F300 X121.746 Y222.797 Z1.5
G0 F6600 X119.081 Y222.797
G0 X113.948 Y181.385
;TIME_ELAPSED:522.010336
;LAYER:2
;TYPE:SKIRT
G1 F3000 E902.5241
G1 F600 X114.726 Y180.91 E902.66811
G1 X115.543 Y180.504 E902.81225
G1 X116.392 Y180.172 E902.95627
G1 X117.267 Y179.915 E903.10035
G1 X118.161 Y179.736 E903.24439
G1 X119.464 Y179.617 E903.4511
G1 X120.076 Y179.604 E903.54781
G1 X179.396 Y179.604 E912.91952
G1 X180.243 Y179.615 E913.05334
G1 X181.153 Y179.668 E913.19735
