; generated by PrusaSlicer 2.8.1+win64 on 2024-10-30 at 17:36:20 UTC

; 

; external perimeters extrusion width = 0.80mm
; perimeters extrusion width = 0.80mm
; infill extrusion width = 0.80mm
; solid infill extrusion width = 0.80mm
; top infill extrusion width = 0.80mm
; first layer extrusion width = 0.80mm

M201 X1000 Y1000 Z1000 E5000 ; sets maximum accelerations, mm/sec^2
M203 X200 Y200 Z12 E120 ; sets maximum feedrates, mm / sec
M204 S1250 T1250 ; sets acceleration (S) and retract acceleration (R), mm/sec^2
M205 X8.00 Y8.00 Z0.40 E1.50 ; sets the jerk limits, mm/sec
M205 S0 T0 ; sets the minimum extruding and travel feed rate, mm/sec
;TYPE:Custom
; Initial setups
G90 ; use absolute coordinates
M83 ; extruder relative mode
M220 S100 ; reset speed factor to 100%
M221 S100 ; reset extrusion rate to 100%

; Set the heating
M190 S0 ; wait for bed to heat up
M104 S210 ; start nozzle heating but don't wait

; Home
G1 Z3 F3000 ; move z up little to prevent scratching of surface
G28 ; home all axes
G1 X3 Y3 F5000 ; move to corner of the bed to avoid ooze over centre

; Wait for final heating
M109 S210 ; wait for the nozzle to heat up
M190 S0 ; wait for the bed to heat up

; Return to prime position, Prime line routine
G92 E0 ; Reset Extruder
G1 Z3 F3000 ; move z up little to prevent scratching of surface
G1 X10 Y.5 Z0.25 F5000.0 ; Move to start position
G1 X100 Y.5 Z0.25 F1500.0 E15 ; Draw the first line
G1 X100 Y.2 Z0.25 F5000.0 ; Move to side a little
G1 X10 Y.2 Z0.25 F1500.0 E30 ; Draw the second line
G92 E0 ; Reset Extruder
M221 S95
G21 ; set units to millimeters
G90 ; use absolute coordinates
M83 ; use relative distances for extrusion
; Filament gcode
M107
;LAYER_CHANGE
;Z:0.4
;HEIGHT:0.4
G1 E-2.5 F1800
G1 Z1 F3600
G1 X143.01 Y69.893
G1 Z.4
G1 E2.5 F1800
M204 S1250
;TYPE:External perimeter
;WIDTH:0.8
G1 F1200
G1 X142.343 Y69.808 E.07986
G1 X141.144 Y69.687 E.14312
G1 X139.3 Y69.569 E.21945
G1 X138.4 Y69.541 E.10694
G1 X137.254 Y69.535 E.13611
G1 X135.441 Y69.587 E.21541
G1 X133.594 Y69.721 E.21994
G1 X131.718 Y69.94 E.22432
G1 X129.834 Y70.245 E.22667
G1 X127.976 Y70.631 E.22538
G1 X126.121 Y71.107 E.22745
G1 X124.328 Y71.654 E.22263
G1 X123.454 Y71.952 E.10967
G1 X122.349 Y72.36 E.1399
G1 X120.7 Y73.035 E.21162
G1 X119.057 Y73.792 E.21485
G1 X117.4 Y74.646 E.22139
G1 X115.769 Y75.581 E.22328
G1 X114.144 Y76.611 E.2285
G1 X113.352 Y77.15 E.11378
G1 X112.346 Y77.874 E.1472
G1 X110.849 Y79.036 E.22507
G1 X109.411 Y80.262 E.22443
G1 X108.811 Y80.666 E.08591
G1 X108.176 Y80.904 E.08054
G1 X107.447 Y80.993 E.08722
G1 X97.538 Y80.992 E1.17684
G1 X96.982 Y80.954 E.06619
G1 X96.353 Y80.775 E.07767
G1 X95.785 Y80.476 E.07623
G1 X95.299 Y80.056 E.07629
G1 X95.1 Y79.785 E.03993
G1 X94.81 Y79.329 E.06418
G1 X94.626 Y78.862 E.05961
G1 X94.52 Y78.206 E.07892
G1 X94.563 Y77.113 E.12991
G1 X94.739 Y74.943 E.25857
G1 X94.932 Y73.258 E.20143
G1 X95.122 Y71.901 E.16274
G1 X95.344 Y70.544 E.16331
G1 X95.681 Y68.781 E.21317
G1 X95.992 Y67.365 E.17218
G1 X96.238 Y66.362 E.12265
G1 X96.717 Y64.573 E.21995
G1 X97.249 Y62.823 E.21723
G1 X97.859 Y61.021 E.22594
G1 X98.656 Y58.917 E.26721
G1 X99.326 Y57.318 E.2059
G1 X100.093 Y55.631 E.22009
G1 X100.89 Y54.021 E.21336
G1 X101.801 Y52.317 E.22948
G1 X102.514 Y51.07 E.1706
G1 X103.483 Y49.482 E.22094
G1 X104.272 Y48.263 E.17245
G1 X104.855 Y47.406 E.1231
G1 X105.937 Y45.887 E.22149
G1 X106.808 Y44.74 E.17105
G1 X107.961 Y43.308 E.21835
G1 X108.876 Y42.233 E.16766
G1 X109.805 Y41.193 E.16562
G1 X110.743 Y40.192 E.16292
G1 X111.687 Y39.23 E.16007
G1 X113.294 Y37.69 E.26434
G1 X115.001 Y36.176 E.27098
G1 X115.43 Y35.857 E.06349
G1 X115.955 Y35.601 E.06937
G1 X116.536 Y35.451 E.07127
G1 X117.185 Y35.438 E.07709
G1 X117.721 Y35.52 E.0644
G1 X118.246 Y35.705 E.06611
G1 X118.731 Y36.006 E.06779
G1 X119.1 Y36.346 E.05959
G1 X119.429 Y36.749 E.06179
G1 X119.689 Y37.227 E.06462
G1 X119.858 Y37.796 E.0705
G1 X119.907 Y38.194 E.04763
G1 X120.327 Y46.185 E.95036
G1 X120.499 Y47.239 E.12683
G1 X120.734 Y47.839 E.07653
G1 X121.22 Y48.613 E.10854
G1 X121.595 Y49.026 E.06625
G1 X122.398 Y49.618 E.11848
G1 X122.966 Y49.886 E.07459
G1 X123.86 Y50.113 E.10955
G1 X124.432 Y50.153 E.0681
G1 X172.495 Y50.153 E5.70821
G1 X172.863 Y50.166 E.04373
G1 X173.53 Y50.282 E.08041
G1 X174.163 Y50.568 E.0825
G1 X174.686 Y50.948 E.07678
G1 X175.126 Y51.466 E.08072
G1 X175.341 Y51.85 E.05227
G1 X175.558 Y52.506 E.08206
G1 X180.544 Y77.331 E3.00722
G1 X180.589 Y77.627 E.03556
G1 X180.633 Y78.065 E.05228
G1 X180.566 Y78.672 E.07253
G1 X180.425 Y79.151 E.0593
G1 X180.141 Y79.688 E.07215
G1 X179.754 Y80.154 E.07194
G1 X179.272 Y80.533 E.07282
G1 X178.63 Y80.838 E.08441
G1 X178.246 Y80.922 E.04668
G1 X177.681 Y80.993 E.06763
G1 X167.677 Y80.993 E1.18813
G1 X167.039 Y80.926 E.07619
G1 X166.572 Y80.785 E.05794
G1 X166.057 Y80.522 E.06868
G1 X164.131 Y78.926 E.29707
G1 X162.571 Y77.726 E.23375
G1 X160.884 Y76.55 E.24423
G1 X159.254 Y75.523 E.22881
G1 X157.607 Y74.589 E.22487
G1 X155.964 Y73.75 E.2191
G1 X154.318 Y72.997 E.21497
G1 X152.652 Y72.319 E.21362
G1 X151.563 Y71.921 E.1377
G1 X150.679 Y71.622 E.11083
G1 X148.897 Y71.086 E.22101
G1 X147.037 Y70.616 E.22785
G1 X145.164 Y70.23 E.22712
G1 X143.284 Y69.928 E.22614
G1 X143.129 Y69.908 E.01856
M204 S20000
G1 X143.129 Y69.908 F3600
G1 X143.105 Y69.185
M204 S1250
;TYPE:Perimeter
G1 F1200
G1 X142.415 Y69.098 E.0826
G1 X141.215 Y68.977 E.14324
G1 X139.322 Y68.855 E.22529
G1 X138.403 Y68.827 E.1092
G1 X137.258 Y68.821 E.13599
G1 X135.39 Y68.875 E.22195
G1 X133.512 Y69.011 E.22362
G1 X131.604 Y69.235 E.22816
G1 X129.688 Y69.545 E.23051
G1 X127.783 Y69.943 E.23113
G1 X125.91 Y70.425 E.22969
G1 X124.098 Y70.978 E.225
G1 X123.207 Y71.282 E.11181
G1 X122.079 Y71.699 E.14283
G1 X120.401 Y72.386 E.21534
G1 X118.73 Y73.157 E.21856
G1 X117.045 Y74.026 E.22517
G1 X115.373 Y74.986 E.22898
G1 X113.742 Y76.02 E.22935
G1 X112.935 Y76.57 E.11599
G1 X111.909 Y77.308 E.1501
G1 X110.385 Y78.492 E.2292
G1 X108.978 Y79.692 E.21962
G1 X108.482 Y80.027 E.07108
G1 X108.006 Y80.205 E.06036
G1 X107.403 Y80.279 E.07215
G1 X98.216 Y80.278 E1.0911
G1 X97.262 Y80.262 E.11332
G1 X96.735 Y80.159 E.06377
G1 X96.201 Y79.891 E.07096
G1 X95.827 Y79.568 E.05869
G1 X95.516 Y79.144 E.06245
G1 X95.321 Y78.685 E.05923
G1 X95.236 Y78.163 E.06281
G1 X95.276 Y77.156 E.11969
G1 X95.45 Y75.012 E.25547
G1 X95.641 Y73.348 E.19892
G1 X95.828 Y72.009 E.16057
G1 X96.048 Y70.669 E.16128
G1 X96.381 Y68.925 E.21087
G1 X96.687 Y67.526 E.17008
G1 X96.93 Y66.54 E.12061
G1 X97.404 Y64.77 E.21762
G1 X97.929 Y63.042 E.21449
G1 X98.532 Y61.262 E.2232
G1 X99.319 Y59.181 E.26423
G1 X99.98 Y57.604 E.20308
G1 X100.738 Y55.937 E.21749
G1 X101.525 Y54.348 E.2106
G1 X102.426 Y52.662 E.22704
G1 X103.129 Y51.434 E.16805
G1 X104.088 Y49.862 E.2187
G1 X104.867 Y48.658 E.17031
G1 X105.442 Y47.814 E.12129
G1 X106.513 Y46.31 E.21928
G1 X107.371 Y45.18 E.16851
G1 X108.511 Y43.764 E.2159
G1 X109.414 Y42.702 E.16556
G1 X110.332 Y41.675 E.1636
G1 X111.258 Y40.687 E.16082
G1 X112.189 Y39.738 E.15789
G1 X113.778 Y38.215 E.2614
G1 X115.377 Y36.797 E.25382
G1 X115.803 Y36.47 E.06378
G1 X116.203 Y36.275 E.05285
G1 X116.652 Y36.159 E.05508
G1 X117.176 Y36.154 E.06224
G1 X117.672 Y36.245 E.05989
G1 X118.197 Y36.498 E.06921
G1 X118.581 Y36.836 E.06076
G1 X118.902 Y37.246 E.06184
G1 X119.103 Y37.761 E.06566
G1 X119.195 Y38.256 E.0598
G1 X119.613 Y46.222 E.94738
G1 X119.683 Y46.741 E.0622
G1 X119.83 Y47.488 E.09042
G1 X120.127 Y48.215 E.09327
G1 X120.691 Y49.093 E.12394
G1 X121.066 Y49.506 E.06625
G1 X121.456 Y49.819 E.05939
G1 X122.086 Y50.26 E.09133
G1 X122.785 Y50.577 E.09115
G1 X123.81 Y50.826 E.12527
G1 X124.432 Y50.867 E.07403
G1 X172.573 Y50.867 E5.71747
G1 X173.132 Y50.925 E.06675
G1 X173.632 Y51.087 E.06242
G1 X174.047 Y51.35 E.05835
G1 X174.439 Y51.76 E.06737
G1 X174.685 Y52.139 E.05366
G1 X174.866 Y52.689 E.06877
G1 X179.878 Y77.699 E3.02937
G1 X179.915 Y78.062 E.04334
G1 X179.882 Y78.36 E.03561
G1 X179.76 Y78.88 E.06343
G1 X179.545 Y79.289 E.05488
G1 X179.253 Y79.639 E.05413
G1 X178.893 Y79.923 E.05446
G1 X178.397 Y80.158 E.06518
G1 X178.15 Y80.212 E.03003
G1 X177.661 Y80.278 E.0586
G1 X167.853 Y80.279 E1.16485
G1 X167.575 Y80.264 E.03306
G1 X167.004 Y80.17 E.06873
G1 X166.451 Y79.922 E.07198
G1 X164.586 Y78.376 E.2877
G1 X162.966 Y77.131 E.24265
G1 X161.293 Y75.964 E.24226
G1 X159.649 Y74.927 E.23085
G1 X157.932 Y73.953 E.23445
G1 X156.289 Y73.114 E.2191
G1 X154.615 Y72.347 E.21869
G1 X152.897 Y71.648 E.22028
G1 X151.809 Y71.25 E.13759
G1 X150.884 Y70.938 E.11594
G1 X149.103 Y70.402 E.22089
G1 X147.181 Y69.917 E.23542
G1 X145.277 Y69.525 E.23087
G1 X143.374 Y69.219 E.22891
G1 X143.224 Y69.2 E.01796
M204 S20000
G1 X143.224 Y69.2 F3600
G1 X143.199 Y68.477
M204 S1250
G1 F1200
G1 X142.487 Y68.387 E.08523
G1 X141.287 Y68.266 E.14324
G1 X139.345 Y68.142 E.23111
G1 X138.407 Y68.112 E.11146
G1 X137.262 Y68.106 E.13599
G1 X135.339 Y68.163 E.22849
G1 X133.429 Y68.302 E.22744
G1 X131.49 Y68.53 E.23187
G1 X129.542 Y68.846 E.23438
G1 X127.605 Y69.252 E.23505
G1 X125.701 Y69.742 E.2335
G1 X123.867 Y70.302 E.22774
G1 X122.96 Y70.612 E.11384
G1 X121.867 Y71.015 E.13835
G1 X120.102 Y71.737 E.22648
G1 X118.403 Y72.522 E.22228
G1 X116.689 Y73.407 E.2291
G1 X114.991 Y74.383 E.2326
G1 X113.39 Y75.398 E.22514
G1 X112.518 Y75.99 E.12517
G1 X111.473 Y76.743 E.15297
G1 X109.922 Y77.949 E.23334
G1 X108.639 Y79.043 E.20025
G1 X108.152 Y79.388 E.07088
G1 X107.835 Y79.506 E.04017
G1 X107.36 Y79.564 E.05683
G1 X97.538 Y79.564 E1.16651
G1 X97.11 Y79.515 E.05116
G1 X96.755 Y79.386 E.04486
G1 X96.355 Y79.081 E.05974
G1 X96.061 Y78.637 E.06324
G1 X95.953 Y78.119 E.06284
G1 X95.989 Y77.199 E.10935
G1 X96.161 Y75.082 E.25225
G1 X96.349 Y73.438 E.19652
G1 X96.534 Y72.116 E.15854
G1 X96.751 Y70.793 E.15923
G1 X97.08 Y69.068 E.20856
G1 X97.383 Y67.688 E.1678
G1 X97.622 Y66.717 E.11876
G1 X98.091 Y64.966 E.21529
G1 X98.61 Y63.26 E.21178
G1 X99.204 Y61.503 E.22027
G1 X99.983 Y59.446 E.26123
G1 X100.635 Y57.89 E.20037
G1 X101.384 Y56.243 E.21488
G1 X102.16 Y54.674 E.20789
G1 X103.051 Y53.008 E.22438
G1 X103.744 Y51.797 E.16571
G1 X104.693 Y50.242 E.21636
G1 X105.462 Y49.053 E.16817
G1 X106.028 Y48.222 E.11941
G1 X107.088 Y46.734 E.21698
G1 X107.933 Y45.62 E.16606
G1 X109.061 Y44.219 E.21362
G1 X109.953 Y43.171 E.16345
G1 X110.859 Y42.157 E.1615
G1 X111.774 Y41.181 E.15889
G1 X112.691 Y40.246 E.15554
G1 X114.262 Y38.741 E.25838
G1 X116.009 Y37.207 E.27612
G1 X116.451 Y36.948 E.06084
G1 X116.966 Y36.852 E.06222
G1 X117.369 Y36.905 E.04827
G1 X117.805 Y37.096 E.05653
G1 X118.182 Y37.454 E.06175
G1 X118.354 Y37.749 E.04056
G1 X118.483 Y38.318 E.06929
G1 X118.906 Y46.364 E.9569
G1 X118.979 Y46.862 E.05978
G1 X119.161 Y47.737 E.10614
G1 X119.355 Y48.259 E.06614
G1 X119.52 Y48.59 E.04392
G1 X120.163 Y49.574 E.1396
G1 X120.549 Y49.999 E.06819
G1 X121.033 Y50.394 E.0742
G1 X121.773 Y50.902 E.1066
G1 X122.275 Y51.146 E.06629
G1 X122.605 Y51.268 E.04179
G1 X123.174 Y51.416 E.06983
G1 X123.759 Y51.538 E.07097
G1 X124.432 Y51.581 E.08009
G1 X172.495 Y51.582 E5.70821
G1 X172.868 Y51.599 E.04435
G1 X173.324 Y51.733 E.05645
G1 X173.686 Y51.976 E.05178
G1 X173.988 Y52.357 E.05774
G1 X174.174 Y52.872 E.06503
G1 X179.168 Y77.77 E3.01591
G1 X179.197 Y78.059 E.0345
G1 X179.13 Y78.494 E.05227
G1 X178.948 Y78.889 E.05165
G1 X178.637 Y79.215 E.05351
G1 X178.164 Y79.478 E.06428
G1 X177.641 Y79.564 E.06295
G1 X167.853 Y79.564 E1.16247
G1 X167.322 Y79.52 E.06328
G1 X166.846 Y79.322 E.06123
G1 X165.042 Y77.826 E.27834
G1 X163.374 Y76.545 E.24978
G1 X161.701 Y75.379 E.24219
G1 X160.029 Y74.323 E.23486
G1 X158.257 Y73.317 E.242
G1 X156.614 Y72.478 E.2191
G1 X154.912 Y71.698 E.22235
G1 X153.143 Y70.978 E.22683
G1 X152.054 Y70.579 E.13774
G1 X151.09 Y70.254 E.12082
G1 X149.308 Y69.718 E.22101
G1 X147.326 Y69.217 E.2428
G1 X145.391 Y68.82 E.2346
G1 X143.464 Y68.511 E.23178
G1 X143.318 Y68.492 E.01749
;WIPE_START
G1 F2880
G1 X143.199 Y68.477 E-.07122
G1 X142.487 Y68.387 E-.42611
G1 X141.287 Y68.266 E-.71611
G1 X139.345 Y68.142 E-1.15541
G1 X139.124 Y68.135 E-.13115
;WIPE_END
M204 S20000
G1 Z1 F3600
G1 X172.721 Y51.874
G1 Z.4
G1 E2.5 F1800
M204 S1250
;TYPE:Solid infill
;WIDTH:0.804904
G1 F1200
G1 X173.268 Y52.421 E.0925
G1 X173.47 Y52.674 E.03871
G1 X173.586 Y53.027 E.04443
G1 X173.77 Y53.941 E.11149
G1 X172.018 Y52.189 E.29629
G1 X171.001 Y52.189 E.12161
G1 X174.025 Y55.213 E.5114
G1 X174.281 Y56.486 E.15527
G1 X169.984 Y52.189 E.72668
G1 X168.967 Y52.189 E.12161
G1 X174.537 Y57.758 E.94187
G1 X174.792 Y59.031 E.15525
G1 X167.95 Y52.189 E1.15707
G1 X166.933 Y52.189 E.12161
G1 X175.048 Y60.303 E1.37226
G1 X175.304 Y61.576 E.15527
G1 X165.916 Y52.189 E1.58754
G1 X164.899 Y52.189 E.12161
G1 X175.559 Y62.848 E1.80266
G1 X175.815 Y64.121 E.15527
G1 X163.882 Y52.188 E2.01802
G1 X162.866 Y52.188 E.12149
G1 X176.07 Y65.393 E2.23305
G1 X176.326 Y66.666 E.15527
G1 X161.849 Y52.188 E2.44833
G1 X160.832 Y52.188 E.12161
G1 X176.582 Y67.938 E2.66352
G1 X176.837 Y69.211 E.15525
G1 X159.815 Y52.188 E2.87872
G1 X158.798 Y52.188 E.12161
G1 X177.093 Y70.483 E3.09391
G1 X177.348 Y71.756 E.15525
G1 X157.781 Y52.188 E3.30911
G1 X156.764 Y52.188 E.12161
G1 X177.604 Y73.028 E3.52431
G1 X177.86 Y74.301 E.15527
G1 X155.747 Y52.188 E3.73959
G1 X154.73 Y52.188 E.12161
G1 X178.115 Y75.573 E3.9547
G1 X178.371 Y76.846 E.15527
G1 X153.713 Y52.188 E4.16998
G1 X152.696 Y52.188 E.12161
G1 X178.584 Y78.076 E4.37799
G1 X178.563 Y78.27 E.02333
G1 X178.53 Y78.38 E.01373
G1 X178.441 Y78.55 E.02295
G1 X178.326 Y78.687 E.02139
G1 X178.243 Y78.752 E.01261
G1 X151.679 Y52.188 E4.49231
G1 X150.662 Y52.188 E.12161
G1 X177.431 Y78.957 E4.52697
G1 X176.414 Y78.957 E.12161
G1 X149.646 Y52.188 E4.52689
G1 X148.629 Y52.188 E.12161
G1 X175.398 Y78.957 E4.52697
G1 X174.381 Y78.957 E.12161
G1 X147.612 Y52.188 E4.52697
G1 X146.595 Y52.188 E.12161
G1 X173.364 Y78.957 E4.52697
G1 X172.347 Y78.957 E.12161
G1 X145.578 Y52.188 E4.52697
G1 X144.561 Y52.188 E.12161
G1 X171.33 Y78.957 E4.52697
G1 X170.313 Y78.957 E.12161
G1 X143.544 Y52.188 E4.52697
G1 X142.527 Y52.188 E.12161
G1 X169.296 Y78.957 E4.52697
G1 X168.279 Y78.957 E.12161
G1 X141.51 Y52.188 E4.52697
G1 X140.493 Y52.188 E.12161
G1 X166.8 Y78.495 E4.44884
G1 X165.408 Y77.341 E.21622
G1 X163.726 Y76.05 E.25355
G1 X162.446 Y75.157 E.18663
G1 X139.476 Y52.188 E3.88443
G1 X138.459 Y52.188 E.12161
G1 X159.72 Y73.449 E3.5955
G1 X158.621 Y72.824 E.15118
G1 X157.508 Y72.254 E.14953
G1 X137.443 Y52.188 E3.39333
G1 X136.426 Y52.188 E.12161
G1 X155.568 Y71.331 E3.23724
G1 X155.159 Y71.143 E.05383
G1 X153.818 Y70.597 E.17314
G1 X135.409 Y52.188 E3.11319
G1 X134.392 Y52.188 E.12161
G1 X152.187 Y69.984 E3.00944
G1 X151.338 Y69.696 E.10721
G1 X150.686 Y69.499 E.08145
G1 X133.375 Y52.188 E2.92751
G1 X132.358 Y52.188 E.12161
G1 X149.247 Y69.077 E2.85614
G1 X147.886 Y68.733 E.16787
G1 X131.341 Y52.188 E2.79797
G1 X130.324 Y52.188 E.12161
G1 X146.581 Y68.445 E2.74926
G1 X145.311 Y68.192 E.15485
G1 X129.307 Y52.188 E2.70648
G1 X128.29 Y52.188 E.12161
G1 X144.1 Y67.998 E2.67367
G1 X142.915 Y67.829 E.14314
G1 X127.273 Y52.188 E2.64517
G1 X126.256 Y52.188 E.12161
G1 X141.773 Y67.705 E2.62412
G1 X140.67 Y67.618 E.13231
G1 X125.24 Y52.188 E2.60941
G1 X124.423 Y52.188 E.0977
G1 X124.206 Y52.172 E.02602
G1 X139.583 Y67.549 E2.60044
G1 X138.527 Y67.509 E.12637
G1 X122.572 Y51.554 E2.69819
;WIPE_START
G1 F2880
G1 X125.549 Y54.531 E-2.5
;WIPE_END
M204 S20000
G1 Z1 F3600
G1 X118.237 Y39.084
G1 Z.4
G1 E2.5 F1800
M204 S1250
G1 F1200
G1 X116.671 Y37.519 E.26475
G1 X116.492 Y37.604 E.0237
G1 X116.078 Y37.942 E.06391
G1 X117.954 Y39.818 E.31726
G1 X118.01 Y40.891 E.12848
G1 X115.539 Y38.42 E.41788
G1 X115 Y38.898 E.08615
G1 X118.067 Y41.964 E.51858
G1 X118.123 Y43.038 E.1286
G1 X114.469 Y39.384 E.61794
G1 X113.949 Y39.881 E.08602
G1 X118.179 Y44.111 E.71535
G1 X118.236 Y45.184 E.12849
G1 X113.43 Y40.379 E.81267
G1 X112.917 Y40.883 E.086
G1 X118.292 Y46.258 E.90898
G1 X118.3 Y46.409 E.01808
G1 X118.465 Y47.447 E.12568
G1 X112.413 Y41.396 E1.02338
G1 X111.917 Y41.916 E.08593
G1 X137.501 Y67.501 E4.32666
G1 X136.505 Y67.521 E.11913
