; generated by PrusaSlicer 2.8.1+win64 on 2024-10-30 at 17:19:02 UTC

; 

; external perimeters extrusion width = 0.42mm
; perimeters extrusion width = 0.45mm
; infill extrusion width = 0.45mm
; solid infill extrusion width = 0.45mm
; top infill extrusion width = 0.42mm
; first layer extrusion width = 0.50mm

M201 X1000 Y1000 Z1000 E5000 ; sets maximum accelerations, mm/sec^2
M203 X200 Y200 Z12 E120 ; sets maximum feedrates, mm / sec
M204 S1250 T1250 ; sets acceleration (S) and retract acceleration (R), mm/sec^2
M205 X8.00 Y8.00 Z0.40 E1.50 ; sets the jerk limits, mm/sec
M205 S0 T0 ; sets the minimum extruding and travel feed rate, mm/sec
;TYPE:Custom
; Initial setups
G90 ; use absolute coordinates
M83 ; extruder relative mode
M220 S100 ; reset speed factor to 100%
M221 S100 ; reset extrusion rate to 100%

; Set the heating
M190 S0 ; wait for bed to heat up
M104 S210 ; start nozzle heating but don't wait

; Home
G1 Z3 F3000 ; move z up little to prevent scratching of surface
G28 ; home all axes
G1 X3 Y3 F5000 ; move to corner of the bed to avoid ooze over centre

; Wait for final heating
M109 S210 ; wait for the nozzle to heat up
M190 S0 ; wait for the bed to heat up

; Return to prime position, Prime line routine
G92 E0 ; Reset Extruder
G1 Z3 F3000 ; move z up little to prevent scratching of surface
G1 X10 Y.5 Z0.25 F5000.0 ; Move to start position
G1 X100 Y.5 Z0.25 F1500.0 E15 ; Draw the first line
G1 X100 Y.2 Z0.25 F5000.0 ; Move to side a little
G1 X10 Y.2 Z0.25 F1500.0 E30 ; Draw the second line
G92 E0 ; Reset Extruder
M221 S95
G21 ; set units to millimeters
G90 ; use absolute coordinates
M83 ; use relative distances for extrusion
; Filament gcode
M107
;LAYER_CHANGE
;Z:0.4
;HEIGHT:0.4
G1 E-2.5 F1800
G1 Z1 F3600
G1 X142.991 Y70.042
G1 Z.4
G1 E2.5 F1800
M204 S1250
;TYPE:External perimeter
;WIDTH:0.5
G1 F1200
G1 X142.328 Y69.958 E.04603
G1 X141.128 Y69.836 E.08308
G1 X139.295 Y69.719 E.1265
G1 X138.399 Y69.691 E.06174
G1 X137.253 Y69.685 E.07893
G1 X135.452 Y69.737 E.1241
G1 X133.612 Y69.87 E.12706
G1 X131.742 Y70.088 E.12967
G1 X129.864 Y70.391 E.13102
G1 X127.997 Y70.78 E.13135
G1 X126.164 Y71.251 E.13035
G1 X124.377 Y71.796 E.12868
G1 X123.506 Y72.093 E.06338
G1 X122.41 Y72.497 E.08045
G1 X120.762 Y73.171 E.12263
G1 X119.126 Y73.925 E.12407
G1 X117.475 Y74.776 E.12793
G1 X115.839 Y75.714 E.12989
G1 X114.229 Y76.735 E.13131
G1 X113.44 Y77.272 E.06573
G1 X112.437 Y77.992 E.08504
G1 X110.946 Y79.15 E.13003
G1 X109.502 Y80.382 E.13073
G1 X108.88 Y80.801 E.05165
G1 X108.212 Y81.05 E.0491
G1 X107.456 Y81.143 E.05246
G1 X97.538 Y81.142 E.6831
G1 X96.957 Y81.102 E.04011
G1 X96.297 Y80.914 E.04727
G1 X95.698 Y80.599 E.04661
G1 X95.188 Y80.158 E.04644
G1 X94.98 Y79.874 E.02425
G1 X94.676 Y79.396 E.03902
G1 X94.48 Y78.899 E.0368
G1 X94.369 Y78.215 E.04773
G1 X94.414 Y77.103 E.07665
G1 X94.59 Y74.928 E.15029
G1 X94.784 Y73.239 E.11709
G1 X94.974 Y71.879 E.09458
G1 X95.197 Y70.518 E.09499
G1 X95.534 Y68.751 E.1239
G1 X95.846 Y67.331 E.10014
G1 X96.093 Y66.325 E.07135
G1 X96.573 Y64.532 E.12784
G1 X97.107 Y62.778 E.12628
G1 X97.718 Y60.97 E.13144
G1 X98.516 Y58.861 E.15531
G1 X99.188 Y57.258 E.11972
G1 X99.958 Y55.566 E.12804
G1 X100.757 Y53.952 E.12404
G1 X101.669 Y52.244 E.13336
G1 X102.385 Y50.994 E.09922
G1 X103.356 Y49.402 E.12843
G1 X104.147 Y48.18 E.10026
G1 X104.732 Y47.32 E.07164
G1 X105.816 Y45.798 E.1287
G1 X106.69 Y44.648 E.09948
G1 X107.845 Y43.213 E.12687
G1 X108.763 Y42.134 E.09757
G1 X109.694 Y41.092 E.09624
G1 X110.634 Y40.088 E.09473
G1 X111.582 Y39.123 E.09317
G1 X113.192 Y37.58 E.15359
G1 X114.906 Y36.06 E.15779
G1 X115.352 Y35.728 E.03829
G1 X115.903 Y35.46 E.0422
G1 X116.218 Y35.379 E.0224
G1 X116.76 Y35.285 E.03789
G1 X117.252 Y35.293 E.03389
G1 X117.758 Y35.375 E.03531
G1 X118.311 Y35.57 E.04039
G1 X118.822 Y35.887 E.04142
G1 X119.209 Y36.243 E.03622
G1 X119.554 Y36.665 E.03754
G1 X119.829 Y37.172 E.03973
G1 X120.005 Y37.765 E.0426
G1 X120.056 Y38.181 E.02887
G1 X120.476 Y46.177 E.55148
G1 X120.64 Y47.186 E.07041
G1 X120.862 Y47.76 E.04239
G1 X121.331 Y48.512 E.06104
G1 X121.706 Y48.925 E.03842
G1 X122.464 Y49.483 E.06483
G1 X123.004 Y49.741 E.04122
G1 X123.871 Y49.964 E.06166
G1 X124.432 Y50.003 E.03873
G1 X172.573 Y50.003 E3.31571
G1 X173.095 Y50.033 E.03601
G1 X173.787 Y50.22 E.04937
G1 X174.238 Y50.438 E.0345
G1 X174.791 Y50.84 E.04709
G1 X175.25 Y51.38 E.04881
G1 X175.479 Y51.79 E.03234
G1 X175.703 Y52.467 E.04911
G1 X180.691 Y77.301 E1.7446
G1 X180.738 Y77.612 E.02166
G1 X180.784 Y78.066 E.03143
G1 X180.714 Y78.702 E.04407
G1 X180.564 Y79.207 E.03628
G1 X180.267 Y79.772 E.04396
G1 X179.859 Y80.262 E.04392
G1 X179.351 Y80.662 E.04453
G1 X178.679 Y80.98 E.0512
G1 X178.279 Y81.068 E.02821
G1 X177.685 Y81.143 E.04124
G1 X167.669 Y81.143 E.68985
G1 X167.009 Y81.074 E.04571
G1 X166.516 Y80.925 E.03547
G1 X165.974 Y80.649 E.04189
G1 X164.035 Y79.041 E.1735
G1 X162.48 Y77.845 E.13511
G1 X160.799 Y76.673 E.14114
G1 X159.18 Y75.653 E.13179
G1 X157.539 Y74.722 E.12995
G1 X155.896 Y73.884 E.12703
G1 X154.255 Y73.133 E.1243
G1 X152.6 Y72.46 E.12305
G1 X151.512 Y72.062 E.07979
G1 X150.635 Y71.765 E.06377
G1 X148.854 Y71.23 E.12808
G1 X147.016 Y70.765 E.13058
G1 X145.14 Y70.378 E.13193
G1 X143.265 Y70.076 E.1308
G1 X143.11 Y70.057 E.01076
M204 S20000
G1 X143.11 Y70.057 F3600
G1 X143.045 Y69.631
M204 S1250
;TYPE:Perimeter
G1 F1200
G1 X142.37 Y69.546 E.04686
G1 X141.17 Y69.424 E.08308
G1 X139.308 Y69.305 E.12851
G1 X138.401 Y69.277 E.0625
G1 X137.256 Y69.271 E.07886
G1 X135.422 Y69.324 E.12637
G1 X133.564 Y69.458 E.1283
G1 X131.676 Y69.679 E.13092
G1 X129.78 Y69.986 E.13229
G1 X127.894 Y70.379 E.13269
G1 X126.041 Y70.856 E.13179
G1 X124.243 Y71.404 E.12946
G1 X123.363 Y71.704 E.06404
G1 X122.249 Y72.115 E.08178
G1 X120.589 Y72.795 E.12355
G1 X118.936 Y73.557 E.12536
G1 X117.269 Y74.417 E.12919
G1 X115.614 Y75.366 E.1314
G1 X113.995 Y76.392 E.13201
G1 X113.198 Y76.936 E.06646
G1 X112.184 Y77.665 E.08601
G1 X110.677 Y78.835 E.1314
G1 X109.251 Y80.051 E.12908
G1 X108.689 Y80.43 E.04669
G1 X108.113 Y80.645 E.04235
G1 X107.431 Y80.729 E.04733
G1 X97.538 Y80.728 E.68138
G1 X97.026 Y80.692 E.03535
G1 X96.451 Y80.53 E.04114
G1 X95.939 Y80.26 E.03987
G1 X95.494 Y79.875 E.04053
G1 X95.131 Y79.38 E.04228
G1 X94.883 Y78.797 E.04364
G1 X94.785 Y78.19 E.04235
G1 X94.827 Y77.128 E.0732
G1 X95.002 Y74.969 E.14919
G1 X95.194 Y73.291 E.11633
G1 X95.383 Y71.941 E.09389
G1 X95.604 Y70.59 E.09429
G1 X95.94 Y68.834 E.12314
G1 X96.249 Y67.424 E.09942
G1 X96.494 Y66.428 E.07064
G1 X96.971 Y64.646 E.12706
G1 X97.501 Y62.904 E.12541
G1 X98.108 Y61.11 E.13044
G1 X98.901 Y59.015 E.15428
G1 X99.568 Y57.424 E.11882
G1 X100.332 Y55.744 E.12711
G1 X101.125 Y54.142 E.12312
G1 X102.032 Y52.444 E.13259
G1 X102.742 Y51.205 E.09835
G1 X103.707 Y49.622 E.12769
G1 X104.492 Y48.409 E.09951
G1 X105.072 Y47.557 E.07099
G1 X106.15 Y46.044 E.12795
G1 X107.016 Y44.903 E.09866
G1 X108.164 Y43.477 E.12609
G1 X109.075 Y42.406 E.09684
G1 X110 Y41.371 E.09561
G1 X110.933 Y40.375 E.094
G1 X111.873 Y39.418 E.09239
G1 X113.473 Y37.885 E.15262
G1 X115.079 Y36.46 E.14788
G1 X115.568 Y36.084 E.04249
G1 X116.047 Y35.851 E.03669
G1 X116.306 Y35.784 E.01843
G1 X116.79 Y35.698 E.03386
G1 X117.269 Y35.711 E.033
G1 X117.812 Y35.816 E.03809
G1 X118.306 Y36.043 E.03744
G1 X118.726 Y36.334 E.03519
G1 X119.096 Y36.726 E.03713
G1 X119.359 Y37.155 E.03466
G1 X119.534 Y37.633 E.03506
G1 X119.643 Y38.217 E.04092
G1 X120.063 Y46.198 E.55045
G1 X120.126 Y46.664 E.03239
G1 X120.252 Y47.331 E.04675
G1 X120.51 Y47.978 E.04797
G1 X121.024 Y48.791 E.06625
G1 X121.399 Y49.203 E.03837
G1 X122.282 Y49.855 E.0756
G1 X122.899 Y50.141 E.04684
G1 X123.842 Y50.377 E.06695
G1 X124.432 Y50.417 E.04073
G1 X172.495 Y50.417 E3.31034
G1 X172.844 Y50.43 E.02405
G1 X173.454 Y50.535 E.04263
G1 X174.032 Y50.797 E.04371
G1 X174.501 Y51.138 E.03994
G1 X174.908 Y51.617 E.04329
G1 X175.098 Y51.957 E.02683
G1 X175.302 Y52.574 E.04476
G1 X180.285 Y77.383 E1.74284
G1 X180.326 Y77.654 E.01888
G1 X180.367 Y78.064 E.02838
G1 X180.306 Y78.62 E.03852
G1 X180.179 Y79.051 E.03095
G1 X179.921 Y79.54 E.03808
G1 X179.568 Y79.963 E.03795
G1 X179.132 Y80.307 E.03825
G1 X178.544 Y80.586 E.04483
G1 X178.19 Y80.664 E.02497
G1 X177.674 Y80.728 E.03581
G1 X167.691 Y80.729 E.68758
G1 X167.091 Y80.666 E.04155
G1 X166.671 Y80.539 E.03022
G1 X166.203 Y80.3 E.03619
G1 X164.299 Y78.722 E.17032
G1 X162.732 Y77.517 E.13615
G1 X161.036 Y76.334 E.14242
G1 X159.409 Y75.308 E.13248
G1 X157.727 Y74.353 E.13322
G1 X156.085 Y73.515 E.12697
G1 X154.428 Y72.756 E.12553
G1 X152.743 Y72.071 E.12528
G1 X151.654 Y71.673 E.07986
G1 X150.755 Y71.369 E.06536
G1 X148.973 Y70.833 E.12817
G1 X147.09 Y70.358 E.13375
G1 X145.206 Y69.969 E.1325
G1 X143.318 Y69.666 E.1317
G1 X143.164 Y69.646 E.0107
;WIPE_START
G1 F2880
G1 X143.045 Y69.631 E-.07122
G1 X142.37 Y69.546 E-.40395
G1 X141.17 Y69.424 E-.71617
G1 X139.308 Y69.305 E-1.10782
G1 X138.97 Y69.294 E-.20084
;WIPE_END
M204 S20000
G1 Z1 F3600
G1 X172.876 Y50.598
G1 Z.4
G1 E2.5 F1800
M204 S1250
;TYPE:Solid infill
;WIDTH:0.500571
G1 F1200
G1 X174.966 Y52.688 E.20385
G1 X175.113 Y53.422 E.05163
G1 X172.461 Y50.769 E.25872
G1 X171.874 Y50.769 E.04049
G1 X175.261 Y54.156 E.33036
G1 X175.408 Y54.89 E.05163
G1 X171.288 Y50.769 E.40191
G1 X170.701 Y50.769 E.04049
G1 X175.555 Y55.624 E.4735
G1 X175.703 Y56.358 E.05164
G1 X170.115 Y50.769 E.54509
G1 X169.528 Y50.769 E.04049
G1 X175.85 Y57.092 E.61668
G1 X175.998 Y57.826 E.05164
G1 X168.941 Y50.769 E.68833
G1 X168.355 Y50.769 E.04042
G1 X176.145 Y58.56 E.75987
G1 X176.293 Y59.294 E.05164
G1 X167.768 Y50.769 E.83151
G1 X167.182 Y50.769 E.04042
G1 X176.44 Y60.027 E.90301
G1 X176.587 Y60.761 E.05163
G1 X166.595 Y50.769 E.9746
G1 X166.009 Y50.769 E.04042
G1 X176.735 Y61.495 E1.04619
G1 X176.882 Y62.229 E.05163
G1 X165.422 Y50.769 E1.11779
G1 X164.836 Y50.769 E.04042
G1 X177.03 Y62.963 E1.18938
G1 X177.177 Y63.697 E.05163
G1 X164.249 Y50.769 E1.26097
G1 X163.663 Y50.769 E.04042
G1 X177.325 Y64.431 E1.33257
G1 X177.472 Y65.165 E.05163
G1 X163.076 Y50.769 E1.40416
G1 X162.49 Y50.769 E.04042
G1 X177.619 Y65.899 E1.4757
G1 X177.767 Y66.633 E.05164
G1 X161.903 Y50.769 E1.54735
G1 X161.317 Y50.769 E.04042
G1 X177.914 Y67.367 E1.61889
G1 X178.062 Y68.101 E.05164
G1 X160.73 Y50.769 E1.69053
G1 X160.144 Y50.769 E.04042
G1 X178.209 Y68.835 E1.76208
G1 X178.357 Y69.569 E.05164
G1 X159.557 Y50.769 E1.83372
G1 X158.971 Y50.769 E.04042
G1 X178.504 Y70.303 E1.90526
G1 X178.651 Y71.037 E.05163
G1 X158.384 Y50.769 E1.97685
G1 X157.798 Y50.769 E.04042
G1 X178.799 Y71.771 E2.04845
G1 X178.946 Y72.505 E.05163
G1 X157.211 Y50.769 E2.12004
G1 X156.625 Y50.769 E.04042
G1 X179.094 Y73.238 E2.19158
G1 X179.241 Y73.972 E.05163
G1 X156.038 Y50.769 E2.26318
G1 X155.451 Y50.769 E.04049
G1 X179.389 Y74.706 E2.33482
G1 X179.536 Y75.44 E.05163
G1 X154.865 Y50.769 E2.40636
G1 X154.278 Y50.769 E.04049
G1 X179.683 Y76.174 E2.47796
G1 X179.831 Y76.908 E.05164
G1 X153.692 Y50.769 E2.54955
G1 X153.105 Y50.769 E.04049
G1 X179.97 Y77.634 E2.62036
G1 X180.013 Y78.062 E.02967
G1 X179.993 Y78.244 E.01263
G1 X152.519 Y50.769 E2.67981
G1 X151.932 Y50.769 E.04049
G1 X179.904 Y78.74 E2.72829
G1 X179.851 Y78.917 E.01274
G1 X179.728 Y79.151 E.01823
G1 X151.346 Y50.769 E2.76833
G1 X150.759 Y50.769 E.04049
G1 X179.493 Y79.503 E2.80266
G1 X179.321 Y79.71 E.01856
G1 X179.205 Y79.801 E.01017
G1 X150.173 Y50.769 E2.83173
G1 X149.586 Y50.769 E.04049
G1 X178.862 Y80.045 E2.85553
G1 X178.465 Y80.234 E.03033
G1 X149 Y50.769 E2.87396
G1 X148.413 Y50.769 E.04049
G1 X177.991 Y80.347 E2.88498
G1 X177.926 Y80.362 E.0046
G1 X177.434 Y80.376 E.03395
G1 X147.827 Y50.769 E2.88781
G1 X147.24 Y50.769 E.04049
G1 X176.847 Y80.376 E2.88781
G1 X176.261 Y80.376 E.04042
G1 X146.654 Y50.769 E2.88781
G1 X146.067 Y50.769 E.04049
G1 X175.674 Y80.376 E2.88781
G1 X175.088 Y80.376 E.04042
G1 X145.481 Y50.769 E2.88781
G1 X144.894 Y50.769 E.04049
G1 X174.501 Y80.376 E2.88781
G1 X173.915 Y80.376 E.04042
G1 X144.308 Y50.769 E2.88781
G1 X143.721 Y50.769 E.04049
G1 X173.328 Y80.376 E2.88781
G1 X172.742 Y80.376 E.04042
G1 X143.134 Y50.769 E2.88786
G1 X142.548 Y50.769 E.04042
G1 X172.155 Y80.376 E2.88781
G1 X171.569 Y80.376 E.04042
G1 X141.961 Y50.769 E2.88786
G1 X141.375 Y50.769 E.04042
G1 X170.982 Y80.376 E2.88781
G1 X170.396 Y80.376 E.04042
G1 X140.788 Y50.769 E2.88786
G1 X140.202 Y50.769 E.04042
G1 X169.809 Y80.376 E2.88781
G1 X169.223 Y80.376 E.04042
G1 X139.615 Y50.769 E2.88786
G1 X139.029 Y50.769 E.04042
G1 X168.636 Y80.376 E2.88781
G1 X168.05 Y80.376 E.04042
G1 X138.442 Y50.769 E2.88786
G1 X137.856 Y50.769 E.04042
G1 X167.435 Y80.348 E2.88508
G1 X167.161 Y80.32 E.019
G1 X166.803 Y80.211 E.02581
G1 X166.616 Y80.116 E.01447
G1 X137.269 Y50.769 E2.86245
G1 X136.683 Y50.769 E.04042
G1 X163.834 Y77.92 E2.64826
G1 X162.944 Y77.236 E.07742
G1 X161.684 Y76.357 E.10596
G1 X136.096 Y50.769 E2.49581
G1 X135.51 Y50.769 E.04042
G1 X160.014 Y75.274 E2.39012
G1 X159.594 Y75.008 E.03429
G1 X158.595 Y74.441 E.07923
G1 X134.923 Y50.769 E2.30892
G1 X134.337 Y50.769 E.04042
G1 X157.317 Y73.749 E2.24143
G1 X156.13 Y73.148 E.09176
G1 X133.75 Y50.769 E2.18286
G1 X133.164 Y50.769 E.04042
G1 X155.048 Y72.653 E2.13452
G1 X154.018 Y72.21 E.07733
G1 X132.577 Y50.769 E2.09132
G1 X131.991 Y50.769 E.04042
G1 X153.029 Y71.808 E2.05206
G1 X152.094 Y71.459 E.06883
G1 X131.404 Y50.769 E2.01806
G1 X130.818 Y50.769 E.04042
G1 X151.194 Y71.145 E1.98744
G1 X150.338 Y70.876 E.06188
G1 X130.231 Y50.769 E1.9612
G1 X129.644 Y50.769 E.04049
G1 X149.499 Y70.624 E1.93662
G1 X148.687 Y70.398 E.05813
G1 X129.058 Y50.769 E1.91458
G1 X128.471 Y50.769 E.04049
G1 X147.902 Y70.2 E1.89526
G1 X147.12 Y70.004 E.0556
G1 X127.885 Y50.769 E1.87615
G1 X127.298 Y50.769 E.04049
G1 X146.382 Y69.852 E1.86137
G1 X145.643 Y69.7 E.05204
G1 X126.712 Y50.769 E1.84649
G1 X126.125 Y50.769 E.04049
G1 X144.924 Y69.567 E1.83357
G1 X144.225 Y69.455 E.04882
G1 X125.539 Y50.769 E1.8226
G1 X124.952 Y50.769 E.04049
G1 X143.526 Y69.343 E1.81167
G1 X142.848 Y69.251 E.04719
G1 X124.361 Y50.764 E1.80319
G1 X123.728 Y50.718 E.04377
G1 X142.183 Y69.173 E1.80007
G1 X141.531 Y69.107 E.0452
G1 X122.632 Y50.209 E1.84332
;WIPE_START
G1 F2880
G1 X125.609 Y53.186 E-2.5
;WIPE_END
M204 S20000
G1 Z1 F3600
G1 X119.327 Y37.519
G1 Z.4
G1 E2.5 F1800
M204 S1250
G1 F1200
G1 X118.188 Y36.38 E.1111
G1 X117.979 Y36.262 E.01655
G1 X117.703 Y36.152 E.02049
G1 X117.406 Y36.076 E.02114
G1 X117.287 Y36.066 E.00824
G1 X119.268 Y38.046 E.19317
G1 X119.315 Y38.68 E.04385
G1 X116.693 Y36.058 E.25575
G1 X116.218 Y36.17 E.03366
G1 X119.348 Y39.299 E.30525
G1 X119.38 Y39.918 E.04275
G1 X115.816 Y36.354 E.34763
G1 X115.47 Y36.595 E.02908
G1 X119.413 Y40.537 E.38454
G1 X119.445 Y41.156 E.04275
G1 X115.154 Y36.865 E.41854
G1 X114.843 Y37.14 E.02863
G1 X119.478 Y41.775 E.45209
G1 X119.51 Y42.394 E.04275
G1 X114.532 Y37.416 E.48554
G1 X114.221 Y37.692 E.02868
G1 X119.543 Y43.013 E.51905
G1 X119.575 Y43.632 E.04275
G1 X113.91 Y37.967 E.55255
G1 X113.604 Y38.247 E.02861
G1 X119.608 Y44.252 E.58567
G1 X119.64 Y44.871 E.04275
G1 X113.304 Y38.534 E.61805
G1 X113.004 Y38.821 E.02863
G1 X119.673 Y45.49 E.65048
G1 X119.705 Y46.109 E.04275
G1 X112.705 Y39.108 E.68282
G1 X112.405 Y39.395 E.02863
G1 X119.796 Y46.786 E.7209
G1 X119.903 Y47.401 E.04305
G1 X119.95 Y47.526 E.00921
G1 X112.106 Y39.683 E.76504
G1 X111.816 Y39.979 E.02858
G1 X140.891 Y69.054 E2.83592
G1 X140.265 Y69.014 E.04326
G1 X111.525 Y40.275 E2.8032
G1 X111.235 Y40.571 E.02858
G1 X139.638 Y68.974 E2.77038
G1 X139.022 Y68.944 E.04254
G1 X110.95 Y40.872 E2.73809
G1 X110.666 Y41.175 E.02864
G1 X138.416 Y68.925 E2.70668
G1 X137.826 Y68.922 E.04069
G1 X110.383 Y41.478 E2.67679
G1 X110.103 Y41.785 E.02866
G1 X137.237 Y68.919 E2.6466
G1 X136.667 Y68.935 E.03933
G1 X109.826 Y42.094 E2.61802
G1 X109.549 Y42.404 E.02867
G1 X136.097 Y68.952 E2.58944
G1 X135.527 Y68.969 E.03933
G1 X109.274 Y42.716 E2.56067
G1 X109.005 Y43.032 E.02862
G1 X134.975 Y69.003 E2.53311
G1 X134.428 Y69.043 E.03783
G1 X108.735 Y43.349 E2.5061
G1 X108.465 Y43.666 E.02872
G1 X133.881 Y69.082 E2.47903
G1 X133.342 Y69.13 E.03732
