;FLAVOR:Marlin
;TIME:4347
;Filament used: 1.73727m
;Layer height: 0.2
;MINX:70.055
;MINY:230.246
;MINZ:0.2
;MAXX:99.085
;MAXY:259.086
;MAXZ:80
;Generated with Cura_SteamEngine 4.10.0
M104 S228
M105
M109 S228
M82 ;absolute extrusion mode
G28 ; home all axes
 M117 Purge extruder
 G92 E0 ; reset extruder
 G1 Z1.0 F3000 ; move z up little to prevent scratching of surface
 G1 X2 Y20 Z0.3 F5000.0 ; move to start-line position
 G1 X2 Y200.0 Z0.3 F1500.0 E15 ; draw 1st line
 G1 X2 Y200.0 Z0.4 F5000.0 ; move to side a little
 G1 X2 Y20 Z0.4 F1500.0 E30 ; draw 2nd line
 G92 E0 ; reset extruder
 G1 Z1.0 F3000 ; move z up little to prevent scratching of surface
G92 E0
G92 E0
G1 F2400 E-1.6
;LAYER_COUNT:400
;LAYER:0
M106 S89.3
G0 F6000 X80.015 Y230.881 Z0.2
;TYPE:SKIRT
G1 F2400 E0
G1 F900 X80.583 Y230.707 E0.02515
G1 X81.059 Y230.58 E0.04601
G1 X81.617 Y230.452 E0.07026
G1 X81.963 Y230.386 E0.08517
G1 X82.751 Y230.277 E0.11885
G1 X83.447 Y230.246 E0.14835
G1 X85.692 Y230.246 E0.24341
G1 X86.487 Y230.286 E0.27712
G1 X87.132 Y230.378 E0.30471
G1 X87.451 Y230.437 E0.31844
G1 X88.064 Y230.576 E0.34506
G1 X88.567 Y230.711 E0.36711
G1 X89.124 Y230.882 E0.39178
G1 X89.591 Y231.045 E0.41272
G1 X90.145 Y231.263 E0.43793
G1 X90.597 Y231.46 E0.45881
G1 X91.114 Y231.707 E0.48307
G1 X91.516 Y231.918 E0.5023
G1 X92.014 Y232.203 E0.52659
G1 X92.468 Y232.485 E0.54922
G1 X92.997 Y232.844 E0.57629
G1 X93.392 Y233.136 E0.59709
G1 X93.834 Y233.488 E0.62102
G1 X94.209 Y233.809 E0.64192
G1 X94.651 Y234.218 E0.66742
G1 X95.001 Y234.567 E0.68835
G1 X95.441 Y235.043 E0.71579
G1 X95.669 Y235.311 E0.73069
G1 X96.154 Y235.942 E0.76439
G1 X96.497 Y236.484 E0.79155
G1 X97.62 Y238.43 E0.88669
G1 X97.982 Y239.139 E0.92039
G1 X98.223 Y239.737 E0.94769
G1 X98.341 Y240.069 E0.96261
G1 X98.535 Y240.698 E0.99048
G1 X98.661 Y241.175 E1.01137
G1 X98.785 Y241.719 E1.035
G1 X98.877 Y242.203 E1.05586
G1 X98.967 Y242.799 E1.08138
G1 X99.022 Y243.289 E1.10226
G1 X99.065 Y243.867 E1.1268
G1 X99.084 Y244.36 E1.14769
G1 X99.085 Y244.953 E1.1728
G1 X99.067 Y245.447 E1.19373
G1 X99.023 Y246.041 E1.21896
G1 X98.968 Y246.532 E1.23988
G1 X98.873 Y247.154 E1.26652
G1 X98.779 Y247.64 E1.28748
G1 X98.662 Y248.152 E1.30972
G1 X98.537 Y248.627 E1.33051
G1 X98.35 Y249.237 E1.35753
G1 X98.234 Y249.567 E1.37234
G1 X97.933 Y250.304 E1.40605
G1 X97.622 Y250.899 E1.43448
G1 X96.498 Y252.847 E1.52971
G1 X96.066 Y253.516 E1.56343
G1 X95.661 Y254.032 E1.5912
G1 X95.433 Y254.299 E1.60607
G1 X94.994 Y254.772 E1.63339
G1 X94.644 Y255.12 E1.65429
G1 X94.22 Y255.513 E1.67877
G1 X93.845 Y255.835 E1.6997
G1 X93.388 Y256.198 E1.72441
G1 X92.991 Y256.491 E1.74531
G1 X92.499 Y256.827 E1.77053
G1 X92.104 Y257.075 E1.79028
G1 X91.752 Y257.284 E1.80762
G1 X91.55 Y257.395 E1.81738
G1 X91.149 Y257.608 E1.8366
G1 X90.618 Y257.865 E1.86158
G1 X90.167 Y258.063 E1.88244
G1 X89.516 Y258.315 E1.912
G1 X89.144 Y258.444 E1.92867
G1 X88.554 Y258.626 E1.95481
G1 X88.077 Y258.753 E1.97571
G1 X87.523 Y258.88 E1.99978
G1 X87.177 Y258.946 E2.01469
G1 X86.389 Y259.055 E2.04838
G1 X85.693 Y259.086 E2.07788
G1 X83.448 Y259.086 E2.17294
G1 X82.653 Y259.046 E2.20664
G1 X82.008 Y258.954 E2.23423
G1 X81.689 Y258.895 E2.24797
G1 X81.076 Y258.756 E2.27458
G1 X80.573 Y258.621 E2.29663
G1 X80.03 Y258.455 E2.32068
G1 X79.563 Y258.293 E2.34161
G1 X78.995 Y258.07 E2.36744
G1 X78.543 Y257.873 E2.38832
G1 X78.013 Y257.619 E2.41321
G1 X77.609 Y257.406 E2.43255
G1 X77.132 Y257.133 E2.45582
G1 X76.68 Y256.853 E2.47833
G1 X76.13 Y256.479 E2.50649
G1 X75.734 Y256.185 E2.52738
G1 X75.313 Y255.849 E2.55018
G1 X74.937 Y255.528 E2.57112
G1 X74.479 Y255.105 E2.59752
G1 X74.13 Y254.756 E2.61842
G1 X73.706 Y254.297 E2.64487
G1 X73.479 Y254.031 E2.65968
G1 X72.993 Y253.401 E2.69337
G1 X72.643 Y252.849 E2.72105
G1 X71.52 Y250.903 E2.81618
G1 X71.158 Y250.194 E2.84989
G1 X70.915 Y249.589 E2.8775
G1 X70.797 Y249.256 E2.89246
G1 X70.606 Y248.638 E2.91985
G1 X70.48 Y248.162 E2.9407
G1 X70.354 Y247.608 E2.96475
G1 X70.262 Y247.122 E2.9857
G1 X70.173 Y246.532 E3.01096
G1 X70.118 Y246.042 E3.03184
G1 X70.075 Y245.465 E3.05634
G1 X70.056 Y244.973 E3.07719
G1 X70.055 Y244.379 E3.10234
G1 X70.073 Y243.885 E3.12327
G1 X70.117 Y243.29 E3.14853
G1 X70.172 Y242.8 E3.16941
G1 X70.268 Y242.177 E3.1961
G1 X70.367 Y241.666 E3.21814
G1 X70.488 Y241.136 E3.24116
G1 X70.608 Y240.685 E3.26092
G1 X70.795 Y240.082 E3.28765
G1 X70.912 Y239.751 E3.30252
G1 X71.214 Y239.015 E3.33621
G1 X71.519 Y238.431 E3.3641
G1 X72.642 Y236.485 E3.45924
G1 X73.074 Y235.817 E3.49292
G1 X73.47 Y235.312 E3.5201
G1 X73.698 Y235.044 E3.53499
G1 X74.146 Y234.56 E3.56292
G1 X74.496 Y234.212 E3.58382
G1 X74.92 Y233.819 E3.6083
G1 X75.295 Y233.497 E3.62923
G1 X75.752 Y233.134 E3.65394
G1 X76.149 Y232.841 E3.67483
G1 X76.641 Y232.505 E3.70006
G1 X77.036 Y232.257 E3.71981
G1 X77.388 Y232.048 E3.73714
G1 X77.603 Y231.93 E3.74753
G1 X78.004 Y231.718 E3.76673
G1 X78.528 Y231.466 E3.79135
G1 X78.98 Y231.268 E3.81225
G1 X79.548 Y231.044 E3.8381
G1 X80.015 Y230.881 E3.85905
G0 F6000 X80.173 Y231.335
G1 F900 X80.707 Y231.17 E3.88271
G1 X81.183 Y231.043 E3.90357
G1 X81.707 Y230.924 E3.92632
G1 X82.053 Y230.858 E3.94124
G1 X82.817 Y230.753 E3.97389
G1 X83.447 Y230.726 E4.00059
G1 X85.692 Y230.726 E4.09565
G1 X86.462 Y230.766 E4.1283
G1 X87.045 Y230.85 E4.15324
G1 X87.364 Y230.909 E4.16698
G1 X87.94 Y231.039 E4.19198
G1 X88.443 Y231.174 E4.21403
G1 X88.966 Y231.336 E4.23722
G1 X89.433 Y231.499 E4.25816
G1 X89.954 Y231.703 E4.28185
G1 X90.406 Y231.9 E4.30273
G1 X90.891 Y232.132 E4.32549
G1 X91.293 Y232.343 E4.34472
G1 X91.761 Y232.611 E4.36755
G1 X92.215 Y232.893 E4.39018
G1 X92.712 Y233.23 E4.41561
G1 X93.107 Y233.522 E4.43641
G1 X93.522 Y233.853 E4.45889
G1 X93.897 Y234.174 E4.47979
G1 X94.312 Y234.558 E4.50373
G1 X94.662 Y234.907 E4.52466
G1 X95.076 Y235.354 E4.55046
G1 X95.304 Y235.622 E4.56535
G1 X95.772 Y236.235 E4.59801
G1 X96.081 Y236.724 E4.6225
G1 X97.204 Y238.67 E4.71764
G1 X97.554 Y239.357 E4.75029
G1 X97.77 Y239.897 E4.77491
G1 X97.888 Y240.229 E4.78983
G1 X98.071 Y240.821 E4.81607
G1 X98.197 Y241.298 E4.83696
G1 X98.313 Y241.809 E4.85915
G1 X98.405 Y242.293 E4.88001
G1 X98.49 Y242.852 E4.90395
G1 X98.545 Y243.342 E4.92483
G1 X98.585 Y243.885 E4.94788
G1 X98.604 Y244.378 E4.96877
G1 X98.605 Y244.936 E4.9924
G1 X98.587 Y245.43 E5.01333
G1 X98.546 Y245.987 E5.03698
G1 X98.491 Y246.478 E5.0579
G1 X98.402 Y247.063 E5.08296
G1 X98.308 Y247.549 E5.10392
G1 X98.198 Y248.029 E5.12477
G1 X98.073 Y248.504 E5.14557
G1 X97.897 Y249.078 E5.17099
G1 X97.781 Y249.408 E5.1858
G1 X97.488 Y250.122 E5.21848
G1 X97.206 Y250.659 E5.24416
G1 X96.082 Y252.607 E5.33939
G1 X95.663 Y253.254 E5.37203
G1 X95.296 Y253.72 E5.39715
G1 X95.068 Y253.987 E5.41201
G1 X94.656 Y254.432 E5.43769
G1 X94.306 Y254.78 E5.45859
G1 X93.907 Y255.149 E5.4816
G1 X93.532 Y255.471 E5.50253
G1 X93.103 Y255.812 E5.52573
G1 X92.706 Y256.105 E5.54663
G1 X92.244 Y256.42 E5.5703
G1 X91.849 Y256.668 E5.59005
G1 X91.514 Y256.867 E5.60655
G1 X91.325 Y256.971 E5.61569
G1 X90.924 Y257.184 E5.63491
G1 X90.425 Y257.425 E5.65838
G1 X89.974 Y257.623 E5.67923
G1 X89.362 Y257.86 E5.70702
G1 X89.248 Y257.898 E5.71211
G1 X88.985 Y257.991 E5.72392
G1 X88.43 Y258.163 E5.74852
G1 X87.953 Y258.29 E5.76943
G1 X87.433 Y258.408 E5.792
G1 X87.087 Y258.474 E5.80692
G1 X86.323 Y258.579 E5.83957
G1 X85.693 Y258.606 E5.86627
G1 X83.448 Y258.606 E5.96133
G1 X82.678 Y258.566 E5.99398
G1 X82.095 Y258.482 E6.01892
G1 X81.776 Y258.423 E6.03266
G1 X81.2 Y258.293 E6.05766
G1 X80.697 Y258.158 E6.07971
G1 X80.188 Y258.001 E6.10227
G1 X79.721 Y257.839 E6.1232
G1 X79.186 Y257.63 E6.14752
G1 X78.734 Y257.433 E6.1684
G1 X78.237 Y257.194 E6.19175
G1 X77.833 Y256.981 E6.21109
G1 X77.385 Y256.725 E6.23293
G1 X76.933 Y256.445 E6.25545
G1 X76.416 Y256.094 E6.28191
G1 X76.02 Y255.8 E6.30279
G1 X75.624 Y255.484 E6.32424
G1 X75.248 Y255.163 E6.34518
G1 X74.818 Y254.766 E6.36996
G1 X74.469 Y254.417 E6.39086
G1 X74.071 Y253.986 E6.4157
G1 X73.844 Y253.72 E6.4305
G1 X73.374 Y253.108 E6.46318
G1 X73.059 Y252.609 E6.48816
G1 X71.936 Y250.663 E6.5833
G1 X71.586 Y249.976 E6.61595
G1 X71.367 Y249.429 E6.6409
G1 X71.249 Y249.096 E6.65585
G1 X71.07 Y248.515 E6.6816
G1 X70.944 Y248.039 E6.70245
G1 X70.826 Y247.519 E6.72502
G1 X70.734 Y247.033 E6.74597
G1 X70.65 Y246.479 E6.76969
G1 X70.595 Y245.989 E6.79057
G1 X70.555 Y245.446 E6.81363
G1 X70.536 Y244.954 E6.83448
G1 X70.535 Y244.396 E6.8581
G1 X70.553 Y243.902 E6.87903
G1 X70.594 Y243.343 E6.90277
G1 X70.649 Y242.853 E6.92365
G1 X70.739 Y242.268 E6.94871
G1 X70.838 Y241.757 E6.97075
G1 X70.952 Y241.259 E6.99238
G1 X71.072 Y240.808 E7.01214
G1 X71.247 Y240.241 E7.03727
G1 X71.364 Y239.91 E7.05213
G1 X71.659 Y239.198 E7.08476
G1 X71.935 Y238.671 E7.10995
G1 X73.058 Y236.725 E7.20509
G1 X73.478 Y236.078 E7.23775
G1 X73.835 Y235.623 E7.26224
G1 X74.063 Y235.355 E7.27714
G1 X74.484 Y234.9 E7.30339
G1 X74.834 Y234.552 E7.32429
G1 X75.233 Y234.183 E7.3473
G1 X75.608 Y233.861 E7.36823
G1 X76.037 Y233.52 E7.39143
G1 X76.434 Y233.227 E7.41232
G1 X76.896 Y232.912 E7.436
G1 X77.291 Y232.664 E7.45575
G1 X77.626 Y232.465 E7.47225
G1 X77.828 Y232.355 E7.48199
G1 X78.229 Y232.143 E7.50119
G1 X78.721 Y231.905 E7.52434
G1 X79.173 Y231.707 E7.54523
G1 X79.706 Y231.498 E7.56947
G1 X80.173 Y231.335 E7.59042
G0 F6000 X80.331 Y231.788
G1 F900 X80.831 Y231.634 E7.61257
G1 X81.307 Y231.507 E7.63343
G1 X81.797 Y231.395 E7.65471
G1 X82.143 Y231.329 E7.66963
G1 X82.882 Y231.229 E7.7012
G1 X83.447 Y231.206 E7.72515
G1 X85.692 Y231.206 E7.82021
G1 X86.437 Y231.246 E7.8518
G1 X86.958 Y231.322 E7.87409
G1 X87.277 Y231.381 E7.88783
G1 X87.815 Y231.503 E7.91119
G1 X88.318 Y231.638 E7.93324
G1 X88.808 Y231.789 E7.95495
G1 X89.275 Y231.952 E7.97589
G1 X89.762 Y232.143 E7.99804
G1 X90.214 Y232.34 E8.01892
G1 X90.668 Y232.557 E8.04023
G1 X91.07 Y232.768 E8.05945
G1 X91.507 Y233.019 E8.08079
G1 X91.961 Y233.301 E8.10342
G1 X92.426 Y233.616 E8.1272
G1 X92.821 Y233.908 E8.148
G1 X93.21 Y234.218 E8.16906
G1 X93.585 Y234.539 E8.18997
G1 X93.973 Y234.898 E8.21235
G1 X94.323 Y235.247 E8.23328
G1 X94.71 Y235.665 E8.2574
G1 X94.938 Y235.933 E8.2723
G1 X95.39 Y236.526 E8.30387
G1 X95.665 Y236.964 E8.32577
G1 X96.788 Y238.91 E8.4209
G1 X97.126 Y239.575 E8.45249
G1 X97.318 Y240.058 E8.4745
G1 X97.436 Y240.39 E8.48942
G1 X97.607 Y240.943 E8.51393
G1 X97.733 Y241.42 E8.53482
G1 X97.842 Y241.898 E8.55558
G1 X97.934 Y242.382 E8.57644
G1 X98.013 Y242.906 E8.59887
G1 X98.068 Y243.396 E8.61975
G1 X98.106 Y243.904 E8.64132
G1 X98.125 Y244.397 E8.66221
G1 X98.125 Y244.918 E8.68427
G1 X98.107 Y245.412 E8.70521
G1 X98.069 Y245.934 E8.72737
G1 X98.014 Y246.425 E8.74829
G1 X97.93 Y246.972 E8.77172
G1 X97.836 Y247.458 E8.79268
G1 X97.734 Y247.907 E8.81218
G1 X97.609 Y248.382 E8.83297
G1 X97.444 Y248.919 E8.85676
G1 X97.328 Y249.249 E8.87157
G1 X97.043 Y249.939 E8.90318
G1 X96.79 Y250.419 E8.92616
G1 X95.666 Y252.367 E9.02139
G1 X95.26 Y252.993 E9.05298
G1 X94.931 Y253.409 E9.07544
G1 X94.703 Y253.676 E9.09031
G1 X94.317 Y254.092 E9.11433
G1 X93.967 Y254.44 E9.13523
G1 X93.594 Y254.784 E9.15672
G1 X93.219 Y255.106 E9.17765
G1 X92.818 Y255.426 E9.19937
G1 X92.421 Y255.719 E9.22026
G1 X91.989 Y256.014 E9.24241
G1 X91.594 Y256.262 E9.26216
G1 X91.277 Y256.449 E9.27775
G1 X91.1 Y256.547 E9.28631
G1 X90.699 Y256.76 E9.30554
G1 X90.232 Y256.986 E9.32751
G1 X89.781 Y257.184 E9.34836
G1 X89.209 Y257.406 E9.37434
G1 X88.826 Y257.539 E9.39151
G1 X88.307 Y257.699 E9.41451
G1 X87.83 Y257.826 E9.43541
G1 X87.343 Y257.937 E9.45656
G1 X86.997 Y258.003 E9.47147
G1 X86.258 Y258.103 E9.50305
G1 X85.693 Y258.126 E9.52699
G1 X83.448 Y258.126 E9.62205
G1 X82.703 Y258.086 E9.65364
G1 X82.182 Y258.01 E9.67594
G1 X81.863 Y257.951 E9.68967
G1 X81.325 Y257.829 E9.71303
G1 X80.822 Y257.694 E9.73509
G1 X80.345 Y257.548 E9.75621
G1 X79.878 Y257.386 E9.77714
G1 X79.378 Y257.19 E9.79988
G1 X78.926 Y256.993 E9.82076
G1 X78.461 Y256.77 E9.84259
G1 X78.057 Y256.557 E9.86193
G1 X77.638 Y256.317 E9.88238
G1 X77.186 Y256.037 E9.90489
G1 X76.702 Y255.708 E9.92967
G1 X76.306 Y255.414 E9.95055
G1 X75.936 Y255.119 E9.97059
G1 X75.56 Y254.798 E9.99152
G1 X75.158 Y254.426 E10.01472
G1 X74.809 Y254.077 E10.03562
G1 X74.436 Y253.674 E10.05887
G1 X74.209 Y253.408 E10.07367
G1 X73.756 Y252.815 E10.10527
G1 X73.475 Y252.369 E10.12759
G1 X72.352 Y250.423 E10.22273
G1 X72.014 Y249.758 E10.25431
G1 X71.82 Y249.269 E10.27659
G1 X71.702 Y248.936 E10.29155
G1 X71.534 Y248.392 E10.31566
G1 X71.408 Y247.916 E10.33651
G1 X71.297 Y247.43 E10.35761
G1 X71.205 Y246.944 E10.37856
G1 X71.127 Y246.425 E10.40078
G1 X71.072 Y245.935 E10.42166
G1 X71.034 Y245.428 E10.44319
G1 X71.015 Y244.936 E10.46404
G1 X71.015 Y244.414 E10.48614
G1 X71.033 Y243.92 E10.50707
G1 X71.071 Y243.397 E10.52927
G1 X71.126 Y242.907 E10.55015
G1 X71.21 Y242.359 E10.57363
G1 X71.309 Y241.848 E10.59567
G1 X71.416 Y241.382 E10.61591
G1 X71.536 Y240.931 E10.63567
G1 X71.7 Y240.401 E10.65916
G1 X71.817 Y240.07 E10.67403
G1 X72.103 Y239.382 E10.70558
G1 X72.351 Y238.911 E10.72812
G1 X73.474 Y236.965 E10.82325
G1 X73.881 Y236.34 E10.85483
G1 X74.201 Y235.934 E10.87672
G1 X74.429 Y235.666 E10.89162
G1 X74.823 Y235.24 E10.91619
G1 X75.173 Y234.892 E10.93709
G1 X75.546 Y234.548 E10.95857
G1 X75.921 Y234.226 E10.9795
G1 X76.322 Y233.906 E11.00123
G1 X76.719 Y233.613 E11.02212
G1 X77.151 Y233.318 E11.04427
G1 X77.546 Y233.07 E11.06402
G1 X77.863 Y232.883 E11.0796
G1 X78.052 Y232.779 E11.08874
G1 X78.453 Y232.567 E11.10794
G1 X78.913 Y232.345 E11.12957
G1 X79.365 Y232.147 E11.15047
G1 X79.864 Y231.951 E11.17317
G1 X80.331 Y231.788 E11.19411
G0 F6000 X80.49 Y232.241
G1 F900 X80.955 Y232.098 E11.21471
G1 X81.431 Y231.971 E11.23557
G1 X81.887 Y231.867 E11.25537
G1 X82.233 Y231.801 E11.27029
G1 X82.946 Y231.705 E11.30075
G1 X83.447 Y231.686 E11.32198
G1 X85.692 Y231.686 E11.41704
G1 X86.411 Y231.726 E11.44753
G1 X86.871 Y231.794 E11.46722
G1 X87.19 Y231.853 E11.48096
G1 X87.691 Y231.966 E11.5027
G1 X88.194 Y232.101 E11.52476
G1 X88.649 Y232.242 E11.54493
G1 X89.116 Y232.405 E11.56587
G1 X89.57 Y232.583 E11.58652
G1 X90.022 Y232.78 E11.6074
G1 X90.445 Y232.982 E11.62724
G1 X90.847 Y233.193 E11.64647
G1 X91.254 Y233.426 E11.66633
G1 X91.708 Y233.708 E11.68896
G1 X92.141 Y234.002 E11.71112
G1 X92.536 Y234.294 E11.73192
G1 X92.898 Y234.582 E11.7515
G1 X93.273 Y234.903 E11.77241
G1 X93.634 Y235.237 E11.79323
G1 X93.984 Y235.586 E11.81416
G1 X94.345 Y235.976 E11.83666
G1 X94.573 Y236.244 E11.85156
G1 X95.008 Y236.817 E11.88202
G1 X95.249 Y237.204 E11.90133
G1 X96.372 Y239.15 E11.99646
G1 X96.697 Y239.793 E12.02697
G1 X96.866 Y240.219 E12.04637
G1 X96.984 Y240.551 E12.06129
G1 X97.143 Y241.066 E12.08412
G1 X97.269 Y241.543 E12.10501
G1 X97.37 Y241.988 E12.12433
G1 X97.462 Y242.472 E12.14519
G1 X97.536 Y242.959 E12.16605
G1 X97.591 Y243.449 E12.18692
G1 X97.626 Y243.922 E12.20701
G1 X97.645 Y244.415 E12.2279
G1 X97.646 Y244.901 E12.24848
G1 X97.628 Y245.395 E12.26941
G1 X97.592 Y245.88 E12.29
G1 X97.537 Y246.371 E12.31092
G1 X97.459 Y246.881 E12.33277
G1 X97.365 Y247.367 E12.35373
G1 X97.27 Y247.785 E12.37188
G1 X97.145 Y248.26 E12.39268
G1 X96.991 Y248.76 E12.41483
G1 X96.875 Y249.09 E12.42964
G1 X96.599 Y249.755 E12.46013
G1 X96.375 Y250.18 E12.48047
G1 X95.251 Y252.128 E12.5757
G1 X94.857 Y252.73 E12.60616
G1 X94.566 Y253.097 E12.62599
G1 X94.338 Y253.364 E12.64086
G1 X93.979 Y253.751 E12.66321
G1 X93.629 Y254.099 E12.68411
G1 X93.281 Y254.42 E12.70416
G1 X92.906 Y254.742 E12.72509
G1 X92.533 Y255.04 E12.7453
G1 X92.136 Y255.333 E12.7662
G1 X91.734 Y255.607 E12.7868
G1 X91.339 Y255.855 E12.80654
G1 X91.04 Y256.032 E12.82126
G1 X90.875 Y256.123 E12.82924
G1 X90.474 Y256.336 E12.84846
G1 X90.039 Y256.546 E12.86891
G1 X89.588 Y256.744 E12.88977
G1 X89.055 Y256.951 E12.91398
G1 X88.666 Y257.086 E12.93142
G1 X88.183 Y257.235 E12.95282
G1 X87.706 Y257.362 E12.97372
G1 X87.253 Y257.465 E12.99339
G1 X86.907 Y257.531 E13.00831
G1 X86.194 Y257.627 E13.03877
G1 X85.693 Y257.646 E13.06
G1 X83.448 Y257.646 E13.15506
G1 X82.729 Y257.606 E13.18555
G1 X82.269 Y257.538 E13.20524
G1 X81.95 Y257.479 E13.21897
