;FLAVOR:Marlin
;TIME:2512
;Filament used: 4.30866m
;Layer height: 0.3
;MINX:19.013
;MINY:29.613
;MINZ:0.3
;MAXX:50.321
;MAXY:61.304
;MAXZ:63.6
;Generated with Cura_SteamEngine 4.10.0
M140 S30
M105
M190 S30
M104 S230
M105
M109 S230
M82 ;absolute extrusion mode
G21 ;metric values
G90 ;absolute positioning
M82 ;set extruder to absolute mode
M107 ;start with the fan off
G28 X0 Y0 ;move X/Y to min endstops
G28 Z0 ;move Z to min endstops
M501
M420 S1 ;Marlin Bed-leveling on
G1 Z15.0 F120 ;move the platform down 15mm
G92 E0 ;zero the extruded length
G1 F200 E3 ;extrude 3mm of feed stock
G92 E0 ;zero the extruded length again
G1 F120
M117 Printing...
G5
G92 E0
G92 E0
G1 F2700 E-7
;LAYER_COUNT:212
;LAYER:0
M107
M204 S3000
M205 X10 Y10
G1 F600 Z0.375
;MESH:AKP_Desk_Headphone_Holder_Screw_WIDE_x98_PETG_03nz_1h7m_v02.3mf
G0 F2400 X33.07 Y58.124 Z0.375
M204 S1800
M205 X8 Y8
;TYPE:WALL-INNER
G1 F600 Z0.3
G1 F2700 E0
G1 F1200 X32.943 Y58.262 E0.01539
G1 X32.916 Y58.217
G1 X32.609 Y57.703 E0.05016
G1 X32.052 Y57.133 E0.11557
G1 X31.392 Y56.702 E0.18026
G1 X31.067 Y56.564 E0.20924
G1 X30.513 Y56.345 E0.25813
G1 X29.999 Y56.115 E0.30435
G1 X29.487 Y55.858 E0.35136
G1 X29.038 Y55.604 E0.3937
G1 X28.556 Y55.301 E0.44042
G1 X28.103 Y54.987 E0.48566
G1 X27.582 Y54.588 E0.53951
G1 X26.974 Y54.211 E0.59823
G1 X26.23 Y53.951 E0.66291
G1 X25.387 Y53.867 E0.73243
G1 X25.285 Y53.88 E0.74087
G1 X25.195 Y53.892 E0.74832
G1 X25.215 Y53.82 E0.74911
G1 X25.257 Y53.67 E0.75505
G1 X25.296 Y52.868 E0.82094
G1 X25.147 Y52.054 E0.88886
G1 X24.872 Y51.421 E0.9455
G1 X24.55 Y50.825 E1.00109
G1 X24.326 Y50.365 E1.04308
G1 X24.099 Y49.836 E1.09033
G1 X23.907 Y49.324 E1.1352
G1 X23.74 Y48.806 E1.17987
G1 X23.595 Y48.272 E1.22528
G1 X23.452 Y47.631 E1.27918
G1 X23.228 Y46.945 E1.33841
G1 X22.814 Y46.26 E1.4041
G1 X22.233 Y45.665 E1.47235
G1 X22.15 Y45.612 E1.48043
G1 X22.073 Y45.562 E1.48796
G1 X22.134 Y45.521 E1.48867
G1 X22.266 Y45.43 E1.4949
G1 X22.826 Y44.816 E1.5631
G1 X23.217 Y44.122 E1.62848
G1 X23.413 Y43.461 E1.68506
G1 X23.541 Y42.831 E1.73782
G1 X23.679 Y42.281 E1.78436
G1 X23.845 Y41.734 E1.83127
G1 X24.01 Y41.264 E1.87215
G1 X24.229 Y40.724 E1.91997
G1 X24.45 Y40.245 E1.96327
G1 X24.762 Y39.645 E2.01877
G1 X25.028 Y38.977 E2.07778
G1 X25.155 Y38.188 E2.14336
G1 X25.096 Y37.391 E2.20895
G1 X25.084 Y37.349 E2.21254
G1 X25.031 Y37.176 E2.22739
G1 X25.093 Y37.176
G1 X25.682 Y37.167 E2.26189
G1 X26.459 Y36.971 E2.32766
G1 X27.167 Y36.609 E2.39292
G1 X27.443 Y36.399 E2.42138
G1 X27.941 Y36.005 E2.4735
G1 X28.35 Y35.709 E2.51493
G1 X28.81 Y35.408 E2.56005
G1 X29.306 Y35.114 E2.60737
G1 X29.801 Y34.852 E2.65333
G1 X30.282 Y34.625 E2.69698
G1 X30.893 Y34.372 E2.75126
G1 X31.531 Y34.031 E2.81063
G1 X32.137 Y33.505 E2.87648
G1 X32.618 Y32.829 E2.94457
G1 X32.692 Y32.653 E2.96024
G1 X32.733 Y32.687
G1 X33.194 Y33.063 E2.9947
G1 X33.916 Y33.413 E3.06055
G1 X34.683 Y33.589 E3.12513
G1 X35.034 Y33.608 E3.15398
G1 X35.669 Y33.626 E3.20611
G1 X36.187 Y33.664 E3.24874
G1 X36.754 Y33.731 E3.2956
G1 X37.277 Y33.819 E3.33912
G1 X37.816 Y33.932 E3.38432
G1 X38.352 Y34.074 E3.42983
G1 X38.986 Y34.273 E3.48436
G1 X39.693 Y34.42 E3.54363
G1 X40.493 Y34.406 E3.60929
G1 X41.298 Y34.2 E3.67749
G1 X41.466 Y34.114 E3.69298
G1 X41.475 Y34.165
G1 X41.588 Y34.75 E3.72749
G1 X41.916 Y35.481 E3.79325
G1 X42.39 Y36.108 E3.85776
G1 X42.646 Y36.349 E3.88661
G1 X43.099 Y36.749 E3.93621
G1 X43.504 Y37.142 E3.98252
G1 X43.873 Y37.535 E4.02676
G1 X44.236 Y37.958 E4.07251
G1 X44.585 Y38.406 E4.11912
G1 X44.881 Y38.826 E4.16129
G1 X45.18 Y39.291 E4.20666
G1 X45.683 Y39.959 E4.27528
G1 X46.316 Y40.469 E4.342
G1 X47.066 Y40.829 E4.41027
G1 X47.249 Y40.87 E4.42566
G1 X47.223 Y40.916
G1 X46.933 Y41.435 E4.4601
G1 X46.715 Y42.207 E4.52594
G1 X46.674 Y42.995 E4.5907
G1 X46.717 Y43.345 E4.61964
G1 X46.807 Y43.944 E4.66935
G1 X46.864 Y44.504 E4.71555
G1 X46.894 Y45.039 E4.75952
G1 X46.9 Y45.555 E4.80187
G1 X46.879 Y46.142 E4.85008
G1 X46.833 Y46.7 E4.89603
G1 X46.747 Y47.349 E4.94976
G1 X46.726 Y48.071 E5.00904
G1 X46.877 Y48.854 E5.07448
G1 X47.222 Y49.612 E5.14283
G1 X47.338 Y49.764 E5.15852
G1 X47.287 Y49.783
G1 X46.731 Y49.993 E5.19297
G1 X46.067 Y50.444 E5.25884
G1 X45.531 Y51.021 E5.32348
G1 X45.34 Y51.315 E5.35225
G1 X45.015 Y51.844 E5.4032
G1 X44.725 Y52.272 E5.44563
G1 X44.381 Y52.732 E5.49277
G1 X44.046 Y53.141 E5.53616
G1 X43.676 Y53.551 E5.58149
G1 X43.267 Y53.964 E5.62919
G1 X42.786 Y54.405 E5.68274
G1 X42.308 Y54.943 E5.74181
G1 X41.918 Y55.642 E5.8075
G1 X41.697 Y56.442 E5.87561
G1 X41.692 Y56.545 E5.88408
G1 X41.687 Y56.635 E5.89147
G1 X41.62 Y56.603 E5.89234
G1 X41.476 Y56.534 E5.89849
G1 X40.696 Y56.359 E5.96409
G1 X39.867 Y56.362 E6.03213
G1 X39.199 Y56.525 E6.08856
G1 X38.587 Y56.728 E6.14148
G1 X38.039 Y56.883 E6.18821
G1 X37.489 Y57.014 E6.23462
G1 X36.982 Y57.107 E6.27692
G1 X36.423 Y57.185 E6.32324
G1 X35.887 Y57.234 E6.36741
G1 X35.218 Y57.264 E6.42237
G1 X34.506 Y57.366 E6.4814
G1 X33.756 Y57.654 E6.54734
G1 X33.07 Y58.124 E6.61558
M204 S3000
M205 X10 Y10
G0 F2400 X33.098 Y59.127
M204 S1800
M205 X8 Y8
G1 F1200 X32.906 Y59.468 E6.6477
G1 X32.804 Y59.649 E6.66475
G1 X32.7 Y59.715 E6.67486
G1 X32.661 Y59.695 E6.67846
G1 X32.658 Y59.679
G1 X32.579 Y59.284 E6.6967
G1 X32.538 Y59.156 E6.70773
G1 X32.394 Y58.709 E6.74627
G1 X32.05 Y58.133 E6.80133
G1 X31.605 Y57.677 E6.85362
G1 X31.061 Y57.322 E6.90693
G1 X30.802 Y57.212 E6.93002
G1 X30.237 Y56.989 E6.97987
G1 X29.693 Y56.745 E7.02881
G1 X29.165 Y56.48 E7.07729
G1 X28.668 Y56.199 E7.12415
G1 X28.183 Y55.894 E7.17117
G1 X27.691 Y55.553 E7.22029
G1 X27.184 Y55.165 E7.27269
G1 X26.67 Y54.846 E7.32234
G1 X26.078 Y54.639 E7.37381
G1 X25.397 Y54.571 E7.42997
G1 X24.83 Y54.645 E7.4769
G1 X24.761 Y54.653 E7.4826
G1 X24.593 Y54.715 E7.4973
G1 X24.186 Y54.867 E7.53295
G1 X24.072 Y54.846 E7.54247
G1 X24.077 Y54.739
G1 X24.273 Y54.384 E7.55792
G1 X24.39 Y54.172 E7.5716
G1 X24.408 Y54.105 E7.57729
G1 X24.562 Y53.557 E7.62401
G1 X24.593 Y52.915 E7.67676
G1 X24.473 Y52.259 E7.73149
G1 X24.242 Y51.728 E7.77901
G1 X23.934 Y51.158 E7.83218
G1 X23.684 Y50.644 E7.87909
G1 X23.482 Y50.176 E7.92093
G1 X23.451 Y50.1 E7.92766
G1 X23.247 Y49.557 E7.97527
G1 X23.069 Y49.003 E8.02302
G1 X22.914 Y48.434 E8.07142
G1 X22.776 Y47.816 E8.12339
G1 X22.587 Y47.238 E8.1733
G1 X22.257 Y46.691 E8.22573
G1 X21.788 Y46.211 E8.2808
G1 X21.308 Y45.903 E8.32761
G1 X21.249 Y45.866 E8.33332
G1 X21.082 Y45.807 E8.34786
G1 X20.674 Y45.662 E8.38339
G1 X20.604 Y45.568 E8.39301
G1 X20.68 Y45.489
G1 X21.048 Y45.347 E8.40794
G1 X21.276 Y45.259 E8.4218
G1 X21.333 Y45.22 E8.42747
G1 X21.804 Y44.898 E8.47429
G1 X22.255 Y44.403 E8.52925
G1 X22.568 Y43.847 E8.58161
G1 X22.733 Y43.291 E8.62921
G1 X22.859 Y42.671 E8.68114
G1 X23 Y42.11 E8.72861
G1 X23.178 Y41.521 E8.77911
G1 X23.361 Y41.001 E8.82435
G1 X23.58 Y40.461 E8.87217
G1 X23.824 Y39.933 E8.91991
G1 X24.125 Y39.354 E8.97346
G1 X24.349 Y38.79 E9.02327
G1 X24.451 Y38.158 E9.07581
G1 X24.404 Y37.52 E9.12831
G1 X24.248 Y37.008 E9.17223
G1 X24.21 Y36.883 E9.18296
G1 X24.01 Y36.537 E9.21576
G1 X23.932 Y36.404 E9.22841
G1 X23.881 Y36.263 E9.24071
G1 X23.937 Y36.216 E9.24672
G1 X23.99 Y36.234
G1 X24.329 Y36.351 E9.26399
G1 X24.457 Y36.378 E9.2737
G1 X24.922 Y36.478 E9.31273
G1 X25.59 Y36.468 E9.36756
G1 X26.211 Y36.312 E9.42011
G1 X26.793 Y36.014 E9.47377
G1 X27.014 Y35.846 E9.49655
G1 X27.516 Y35.449 E9.54908
G1 X27.954 Y35.132 E9.59345
G1 X28.448 Y34.808 E9.64194
G1 X28.969 Y34.5 E9.69161
G1 X29.473 Y34.233 E9.73842
G1 X30.014 Y33.978 E9.7875
G1 X30.594 Y33.738 E9.83901
G1 X31.132 Y33.451 E9.88906
G1 X31.615 Y33.031 E9.94159
G1 X32.003 Y32.486 E9.99649
G1 X32.2 Y32.021 E10.03794
G1 X32.252 Y31.897 E10.04897
G1 X32.316 Y31.509 E10.08125
G1 X32.353 Y31.29 E10.09947
G1 X32.409 Y31.208 E10.10762
G1 X32.475 Y31.223 E10.11318
G1 X32.683 Y31.569 E10.13089
G1 X32.766 Y31.675 E10.14086
G1 X33.055 Y32.046 E10.17945
G1 X33.573 Y32.469 E10.23434
G1 X34.15 Y32.748 E10.28694
G1 X34.782 Y32.893 E10.34015
G1 X35.063 Y32.909 E10.36325
G1 X35.696 Y32.926 E10.41522
G1 X36.256 Y32.967 E10.4613
G1 X36.844 Y33.037 E10.5099
G1 X37.418 Y33.133 E10.55766
G1 X37.983 Y33.252 E10.60505
G1 X38.546 Y33.401 E10.65284
G1 X39.163 Y33.595 E10.70592
G1 X39.759 Y33.719 E10.75588
G1 X40.399 Y33.708 E10.80842
G1 X41.048 Y33.542 E10.86339
G1 X41.496 Y33.31 E10.9048
G1 X41.616 Y33.249 E10.91585
G1 X41.915 Y32.993 E10.94815
G1 X42.08 Y32.852 E10.96596
G1 X42.18 Y32.823 E10.97451
G1 X42.22 Y32.876 E10.97996
G1 X42.158 Y33.276 E10.99795
G1 X42.153 Y33.411 E11.00796
G1 X42.133 Y33.876 E11.04616
G1 X42.26 Y34.538 E11.10148
G1 X42.522 Y35.122 E11.15401
G1 X42.913 Y35.639 E11.20721
G1 X43.118 Y35.832 E11.23031
G1 X43.578 Y36.239 E11.28072
G1 X44.006 Y36.654 E11.32965
G1 X44.39 Y37.062 E11.37563
G1 X44.782 Y37.52 E11.4251
G1 X45.137 Y37.975 E11.47247
G1 X45.459 Y38.432 E11.51835
G1 X45.754 Y38.89 E11.56306
G1 X46.19 Y39.468 E11.62248
G1 X46.692 Y39.873 E11.67541
G1 X47.297 Y40.163 E11.73047
G1 X47.79 Y40.274 E11.77195
G1 X47.922 Y40.303 E11.78304
G1 X48.312 Y40.3 E11.81505
G1 X48.53 Y40.298 E11.83294
G1 X48.624 Y40.339 E11.84135
G1 X48.621 Y40.407 E11.84694
G1 X48.316 Y40.673 E11.86488
G1 X48.225 Y40.773 E11.87488
G1 X47.91 Y41.123 E11.91353
G1 X47.584 Y41.705 E11.96827
G1 X47.41 Y42.322 E12.02088
G1 X47.376 Y42.97 E12.07414
G1 X47.411 Y43.25 E12.0973
G1 X47.501 Y43.856 E12.14758
G1 X47.563 Y44.465 E12.19781
G1 X47.594 Y45.014 E12.24294
G1 X47.6 Y45.581 E12.28948
G1 X47.578 Y46.183 E12.33892
G1 X47.53 Y46.767 E12.38701
G1 X47.446 Y47.405 E12.43982
G1 X47.428 Y48.014 E12.48982
G1 X47.549 Y48.64 E12.54215
G1 X47.827 Y49.251 E12.59724
G1 X48.133 Y49.654 E12.63877
G1 X48.213 Y49.76 E12.64967
G1 X48.516 Y50.01 E12.6819
G1 X48.678 Y50.143 E12.69911
G1 X48.722 Y50.202 E12.70515
G1 X48.699 Y50.29 E12.71261
G1 X48.682 Y50.29
G1 X48.279 Y50.299 E12.73078
G1 X48.148 Y50.317 E12.74058
G1 X47.683 Y50.382 E12.77912
G1 X47.056 Y50.619 E12.83413
G1 X46.526 Y50.979 E12.88671
G1 X46.085 Y51.453 E12.93984
G1 X45.932 Y51.689 E12.96292
G1 X45.605 Y52.221 E13.01417
G1 X45.286 Y52.691 E13.06079
G1 X44.937 Y53.158 E13.10864
G1 X44.566 Y53.61 E13.15663
G1 X44.188 Y54.029 E13.20294
G1 X43.754 Y54.467 E13.25355
G1 X43.286 Y54.897 E13.30571
G1 X42.882 Y55.351 E13.35558
G1 X42.57 Y55.91 E13.40812
G1 X42.392 Y56.554 E13.46295
G1 X42.363 Y57.123 E13.50971
G1 X42.36 Y57.193 E13.51546
G1 X42.392 Y57.368 E13.53006
G1 X42.472 Y57.792 E13.56547
G1 X42.44 Y57.9 E13.57472
G1 X42.335 Y57.888
G1 X42.011 Y57.627 E13.59085
G1 X41.823 Y57.475 E13.60447
G1 X41.76 Y57.445 E13.6102
G1 X41.246 Y57.2 E13.65693
G1 X40.62 Y57.059 E13.70959
G1 X39.952 Y57.062 E13.76442
G1 X39.392 Y57.198 E13.81171
G1 X38.778 Y57.402 E13.86481
G1 X38.227 Y57.558 E13.91181
G1 X37.641 Y57.697 E13.96123
G1 X37.094 Y57.798 E14.00689
G1 X36.496 Y57.881 E14.05643
G1 X35.939 Y57.932 E14.10234
G1 X35.284 Y57.962 E14.15615
G1 X34.683 Y58.048 E14.20597
G1 X34.084 Y58.278 E14.25863
G1 X33.531 Y58.657 E14.31365
G1 X33.189 Y59.028 E14.35506
G1 X33.098 Y59.127 E14.36502
M204 S3000
M205 X10 Y10
G0 F2400 X33.627 Y59.512
M204 S1800
M205 X8 Y8
;TYPE:WALL-OUTER
G1 F1200 X33.329 Y60.04 E14.41478
G1 X33.142 Y60.236 E14.43701
G1 X32.86 Y60.361 E14.46233
G1 X32.604 Y60.368 E14.48335
G1 X32.366 Y60.289 E14.50393
G1 X32.176 Y60.142 E14.52364
G1 X32.048 Y59.948 E14.54272
G1 X31.949 Y59.447 E14.58463
G1 X31.798 Y58.979 E14.62499
G1 X31.531 Y58.532 E14.66772
G1 X31.19 Y58.182 E14.70782
G1 X30.754 Y57.898 E14.75052
G1 X30.556 Y57.814 E14.76818
G1 X29.977 Y57.585 E14.81928
G1 X29.407 Y57.329 E14.87056
G1 X28.86 Y57.054 E14.9208
G1 X28.343 Y56.762 E14.96953
G1 X27.816 Y56.431 E15.02061
G1 X27.312 Y56.081 E15.07096
G1 X26.814 Y55.701 E15.12237
G1 X26.388 Y55.436 E15.16355
G1 X25.936 Y55.278 E15.20285
G1 X25.406 Y55.225 E15.24656
G1 X24.918 Y55.288 E15.28694
G1 X24.349 Y55.5 E15.33677
G1 X24.115 Y55.534 E15.35618
G1 X23.872 Y55.487 E15.37649
G1 X23.662 Y55.364 E15.39647
G1 X23.512 Y55.192 E15.4152
G1 X23.419 Y54.967 E15.43518
G1 X23.406 Y54.718 E15.45564
G1 X23.473 Y54.487 E15.47538
G1 X23.784 Y53.924 E15.52817
G1 X23.916 Y53.452 E15.56839
G1 X23.94 Y52.958 E15.60898
G1 X23.847 Y52.45 E15.65136
G1 X23.657 Y52.013 E15.69047
G1 X23.362 Y51.467 E15.7414
G1 X23.087 Y50.902 E15.79297
G1 X22.885 Y50.434 E15.83481
G1 X22.849 Y50.346 E15.84261
G1 X22.666 Y49.862 E15.88507
G1 X22.635 Y49.775 E15.89265
G1 X22.476 Y49.287 E15.93478
G1 X22.447 Y49.191 E15.94301
G1 X22.284 Y48.594 E15.9938
G1 X22.149 Y47.989 E16.04467
G1 X21.992 Y47.511 E16.08596
G1 X21.739 Y47.091 E16.1262
G1 X21.375 Y46.719 E16.16891
G1 X20.961 Y46.454 E16.20925
G1 X20.395 Y46.253 E16.25855
G1 X20.189 Y46.126 E16.27841
G1 X19.989 Y45.84 E16.30705
G1 X19.941 Y45.594 E16.32762
G1 X19.985 Y45.328 E16.34975
G1 X20.164 Y45.051 E16.37681
G1 X20.378 Y44.909 E16.39789
G1 X20.971 Y44.68 E16.45006
G1 X21.374 Y44.404 E16.49015
G1 X21.725 Y44.019 E16.53291
G1 X21.966 Y43.592 E16.57315
G1 X22.102 Y43.134 E16.61236
G1 X22.224 Y42.53 E16.66293
G1 X22.374 Y41.936 E16.71321
G1 X22.556 Y41.333 E16.7649
G1 X22.753 Y40.772 E16.8137
G1 X22.99 Y40.188 E16.86542
G1 X23.247 Y39.633 E16.91562
G1 X23.533 Y39.083 E16.96649
G1 X23.719 Y38.616 E17.00775
G1 X23.797 Y38.13 E17.04814
G1 X23.761 Y37.64 E17.08847
G1 X23.61 Y37.144 E17.13102
G1 X23.356 Y36.706 E17.17257
G1 X23.255 Y36.51 E17.19067
G1 X23.219 Y36.273 E17.21034
G1 X23.262 Y36.039 E17.22986
G1 X23.375 Y35.835 E17.249
G1 X23.552 Y35.672 E17.26875
G1 X23.78 Y35.574 E17.28912
G1 X24.023 Y35.558 E17.3091
G1 X24.504 Y35.724 E17.35086
G1 X24.986 Y35.827 E17.39131
G1 X25.505 Y35.819 E17.43391
G1 X25.981 Y35.7 E17.47418
G1 X26.445 Y35.462 E17.51698
G1 X26.616 Y35.332 E17.53461
G1 X27.113 Y34.939 E17.58661
G1 X27.596 Y34.589 E17.63556
G1 X28.03 Y34.303 E17.67822
G1 X28.117 Y34.248 E17.68666
G1 X28.65 Y33.933 E17.73747
G1 X29.174 Y33.656 E17.78612
G1 X29.744 Y33.387 E17.83785
G1 X30.316 Y33.15 E17.88866
G1 X30.761 Y32.912 E17.93008
G1 X31.13 Y32.591 E17.97021
G1 X31.432 Y32.167 E18.01294
G1 X31.623 Y31.715 E18.05321
G1 X31.723 Y31.114 E18.10321
G1 X31.811 Y30.896 E18.1225
G1 X31.972 Y30.709 E18.14275
G1 X32.179 Y30.59 E18.16235
G1 X32.418 Y30.544 E18.18232
G1 X32.756 Y30.619 E18.21074
G1 X32.955 Y30.761 E18.2308
G1 X33.22 Y31.2 E18.27289
G1 X33.523 Y31.589 E18.31335
G1 X33.925 Y31.917 E18.35593
G1 X34.367 Y32.131 E18.39624
G1 X34.873 Y32.247 E18.43884
G1 X35.09 Y32.259 E18.45668
G1 X35.717 Y32.276 E18.50815
G1 X36.332 Y32.321 E18.55876
G1 X36.924 Y32.391 E18.60768
G1 X37.546 Y32.495 E18.65944
G1 X38.127 Y32.618 E18.70818
G1 X38.723 Y32.776 E18.75878
G1 X39.327 Y32.965 E18.81072
G1 X39.82 Y33.068 E18.85206
G1 X40.311 Y33.059 E18.89236
G1 X40.816 Y32.93 E18.93513
G1 X41.251 Y32.706 E18.97529
G1 X41.712 Y32.311 E19.02511
G1 X41.926 Y32.198 E19.04497
G1 X42.172 Y32.161 E19.06539
G1 X42.4 Y32.202 E19.0844
G1 X42.611 Y32.318 E19.10416
G1 X42.824 Y32.595 E19.13284
G1 X42.884 Y32.838 E19.15338
G1 X42.806 Y33.339 E19.19499
G1 X42.786 Y33.828 E19.23516
G1 X42.884 Y34.341 E19.27802
G1 X43.085 Y34.789 E19.31832
G1 X43.398 Y35.203 E19.36091
G1 X43.556 Y35.351 E19.37868
G1 X44.025 Y35.766 E19.43008
G1 X44.459 Y36.187 E19.4797
G1 X44.877 Y36.631 E19.52975
G1 X45.276 Y37.097 E19.58009
G1 X45.66 Y37.589 E19.63131
G1 X45.954 Y38.003 E19.67299
G1 X46.006 Y38.08 E19.68061
G1 X46.288 Y38.518 E19.72336
G1 X46.661 Y39.013 E19.77423
G1 X47.041 Y39.32 E19.81432
G1 X47.511 Y39.545 E19.85709
G1 X47.991 Y39.652 E19.89745
G1 X48.593 Y39.647 E19.94686
G1 X48.828 Y39.696 E19.96656
G1 X49.038 Y39.821 E19.98661
G1 X49.194 Y40.006 E20.00647
G1 X49.279 Y40.23 E20.02614
G1 X49.264 Y40.585 E20.0553
G1 X49.157 Y40.803 E20.07523
G1 X48.772 Y41.138 E20.11711
G1 X48.442 Y41.504 E20.15756
G1 X48.189 Y41.956 E20.20007
G1 X48.055 Y42.429 E20.24041
G1 X48.028 Y42.946 E20.2829
G1 X48.055 Y43.162 E20.30077
G1 X48.148 Y43.79 E20.35287
G1 X48.21 Y44.399 E20.40311
G1 X48.244 Y44.992 E20.45185
G1 X48.25 Y45.604 E20.50208
G1 X48.228 Y46.216 E20.55234
G1 X48.178 Y46.825 E20.60249
G1 X48.095 Y47.457 E20.6548
G1 X48.08 Y47.961 E20.69618
G1 X48.173 Y48.441 E20.73631
G1 X48.389 Y48.916 E20.77913
G1 X48.685 Y49.307 E20.81938
