;FLAVOR:Marlin
;TIME:3871
;Filament used: 4.07275m
;Layer height: 0.25
;Generated with Cura_SteamEngine 3.6.0
M140 S30
M105
M190 S30
M104 S220
M105
M109 S220
M82 ;absolute extrusion mode
G21 ;metric values
G90 ;absolute positioning
M82 ;set extruder to absolute mode
M107 ;start with the fan off
G28 X0 Y0 ;move X/Y to min endstops
G28 Z0 ;move Z to min endstops
G1 Z15.0 F120 ;move the platform down 15mm
G92 E0 ;zero the extruded length
G1 F200 E3 ;extrude 3mm of feed stock
G92 E0 ;zero the extruded length again
G1 F120
M117 Printing...
G5
G92 E0
G1 F2400 E-6
;LAYER_COUNT:80
;LAYER:0
M106 S255
M204 S3000
M205 X10 Y10
;MESH:sunglasses.stl
G0 F1200 X25.288 Y82.901 Z0.3
M204 S1800
M205 X8 Y8
;TYPE:WALL-INNER
G1 F2400 E0
G1 F600 X25.049 Y83.213 E0.0258
G1 X24.846 Y83.543 E0.05124
G1 X24.676 Y83.89 E0.07661
G1 X24.54 Y84.257 E0.10231
G1 X24.444 Y84.633 E0.12779
G1 X24.386 Y85.011 E0.15289
G1 X24.368 Y85.378 E0.17702
G1 X24.366 Y132.945 E3.30005
G1 X24.366 Y132.946 E3.30012
G1 X24.366 Y133.58 E3.34175
G1 X23.898 Y133.151 E3.36435
G1 X23.467 Y132.757 E3.40269
G1 X23.467 Y85.423 E6.51042
G1 X23.481 Y85.042 E6.53545
G1 X23.522 Y84.68 E6.55937
G1 X23.588 Y84.336 E6.58237
G1 X23.672 Y84.02 E6.60384
G1 X23.794 Y83.669 E6.62824
G1 X23.941 Y83.333 E6.65232
G1 X24.099 Y83.036 E6.6744
G1 X24.3 Y82.715 E6.69927
G1 X24.498 Y82.446 E6.7212
G1 X24.734 Y82.173 E6.74489
G1 X24.981 Y81.926 E6.76783
G1 X25.253 Y81.692 E6.79138
G1 X25.542 Y81.478 E6.81499
G1 X25.835 Y81.294 E6.83771
G1 X26.15 Y81.128 E6.86109
G1 X26.47 Y80.989 E6.88399
G1 X26.826 Y80.864 E6.90877
G1 X27.156 Y80.775 E6.93121
G1 X27.484 Y80.713 E6.95312
G1 X27.852 Y80.672 E6.97743
G1 X28.208 Y80.659 E7.00082
G1 X28.564 Y80.672 E7.02421
G1 X28.914 Y80.711 E7.04733
G1 X29.275 Y80.779 E7.07145
G1 X29.591 Y80.864 E7.09294
G1 X29.946 Y80.989 E7.11765
G1 X30.265 Y81.128 E7.14049
G1 X30.58 Y81.294 E7.16387
G1 X30.876 Y81.48 E7.18682
G1 X31.166 Y81.695 E7.21052
G1 X31.429 Y81.92 E7.23325
G1 X31.68 Y82.171 E7.25655
G1 X31.909 Y82.437 E7.2796
G1 X32.129 Y82.734 E7.30387
G1 X32.313 Y83.029 E7.32669
G1 X32.481 Y83.348 E7.35036
G1 X32.616 Y83.654 E7.37232
G1 X32.743 Y84.017 E7.39757
G1 X32.831 Y84.346 E7.41993
G1 X32.893 Y84.674 E7.44185
G1 X32.934 Y85.042 E7.46616
G1 X32.949 Y85.43 E7.49165
G1 X32.949 Y135.348 E10.76904
G1 X32.89 Y135.841 E10.80164
G1 X32.855 Y136.412 E10.8392
G1 X32.852 Y136.986 E10.87689
G1 X32.886 Y137.56 E10.91464
G1 X32.953 Y138.13 E10.95232
G1 X33.053 Y138.696 E10.99006
G1 X33.187 Y139.254 E11.02774
G1 X33.354 Y139.803 E11.06541
G1 X33.552 Y140.341 E11.10305
G1 X33.782 Y140.867 E11.14074
G1 X34.044 Y141.378 E11.17845
G1 X34.334 Y141.872 E11.21606
G1 X34.652 Y142.35 E11.25375
G1 X35 Y142.808 E11.29152
G1 X35.375 Y143.243 E11.32922
G1 X35.772 Y143.656 E11.36683
G1 X36.194 Y144.044 E11.40447
G1 X36.637 Y144.408 E11.44212
G1 X37.104 Y144.745 E11.47993
G1 X37.589 Y145.052 E11.51761
G1 X38.089 Y145.332 E11.55524
G1 X38.607 Y145.58 E11.59295
G1 X39.137 Y145.797 E11.63055
G1 X39.681 Y145.983 E11.66829
G1 X40.233 Y146.136 E11.7059
G1 X40.795 Y146.257 E11.74364
G1 X41.363 Y146.344 E11.78137
G1 X41.935 Y146.396 E11.81908
G1 X42.506 Y146.417 E11.8566
G1 X43.08 Y146.405 E11.89429
G1 X43.654 Y146.356 E11.93211
G1 X44.223 Y146.273 E11.96987
G1 X44.784 Y146.158 E12.00747
G1 X45.338 Y146.009 E12.04513
G1 X45.883 Y145.828 E12.08284
G1 X46.417 Y145.615 E12.12058
G1 X46.935 Y145.371 E12.15818
G1 X47.44 Y145.096 E12.19593
G1 X47.926 Y144.792 E12.23357
G1 X48.394 Y144.462 E12.27116
G1 X48.843 Y144.101 E12.30899
G1 X49.268 Y143.716 E12.34664
G1 X49.67 Y143.307 E12.38429
G1 X50.046 Y142.874 E12.42194
G1 X50.397 Y142.422 E12.45952
G1 X50.72 Y141.947 E12.49723
G1 X51.017 Y141.455 E12.53496
G1 X51.281 Y140.945 E12.57267
G1 X51.516 Y140.422 E12.61031
G1 X51.719 Y139.885 E12.648
G1 X51.891 Y139.337 E12.68571
G1 X52.029 Y138.781 E12.72333
G1 X52.136 Y138.216 E12.76108
G1 X52.206 Y137.647 E12.79872
G1 X52.246 Y137.076 E12.8363
G1 X52.25 Y136.501 E12.87405
G1 X52.221 Y135.926 E12.91185
G1 X52.156 Y135.357 E12.94946
G1 X52.06 Y134.791 E12.98715
G1 X51.928 Y134.231 E13.02492
G1 X51.765 Y133.681 E13.06258
G1 X51.593 Y133.205 E13.09581
G1 X42.693 Y96.324 E15.58676
G1 X42.563 Y95.72 E15.62733
G1 X42.458 Y95.112 E15.66784
G1 X42.379 Y94.5 E15.70835
G1 X42.329 Y93.898 E15.74801
G1 X42.305 Y93.265 E15.7896
G1 X42.306 Y92.667 E15.82886
G1 X42.336 Y92.059 E15.86883
G1 X42.392 Y91.463 E15.90813
G1 X42.48 Y90.818 E15.95087
G1 X42.521 Y90.603 E15.96524
G1 X42.599 Y90.185 E15.99316
G1 X42.952 Y90.423 E16.00942
G1 X43.412 Y90.735 E16.04592
G1 X43.354 Y91.041 E16.06636
G1 X43.286 Y91.558 E16.1006
G1 X43.228 Y92.206 E16.14332
G1 X43.203 Y92.857 E16.18609
G1 X43.207 Y93.51 E16.22896
G1 X43.248 Y94.164 E16.27199
G1 X43.319 Y94.813 E16.31485
G1 X43.425 Y95.458 E16.35777
G1 X43.559 Y96.088 E16.40005
G1 X52.489 Y133.084 E18.8988
G1 X52.679 Y133.661 E18.93869
G1 X52.827 Y134.199 E18.97532
G1 X52.938 Y134.707 E19.00946
G1 X53.032 Y135.275 E19.04726
G1 X53.094 Y135.833 E19.08412
G1 X53.125 Y136.35 E19.11813
G1 X53.128 Y136.904 E19.1545
G1 X53.101 Y137.492 E19.19315
G1 X53.05 Y138.017 E19.22778
G1 X52.966 Y138.571 E19.26457
G1 X52.854 Y139.116 E19.3011
G1 X52.711 Y139.665 E19.33835
G1 X52.556 Y140.154 E19.37203
G1 X52.347 Y140.71 E19.41102
G1 X52.136 Y141.194 E19.44569
G1 X51.897 Y141.674 E19.48089
G1 X51.619 Y142.165 E19.51794
G1 X51.309 Y142.65 E19.55573
G1 X51.004 Y143.078 E19.59024
G1 X50.648 Y143.526 E19.62781
G1 X50.29 Y143.931 E19.6633
G1 X49.914 Y144.313 E19.69849
G1 X49.494 Y144.698 E19.7359
G1 X49.065 Y145.052 E19.77241
G1 X48.623 Y145.38 E19.80855
G1 X48.15 Y145.692 E19.84575
G1 X47.702 Y145.956 E19.87989
G1 X47.194 Y146.221 E19.91751
G1 X46.682 Y146.455 E19.95447
G1 X46.172 Y146.656 E19.99046
G1 X45.655 Y146.83 E20.02628
G1 X45.131 Y146.976 E20.06199
G1 X44.594 Y147.095 E20.09811
G1 X44.02 Y147.192 E20.13633
G1 X43.49 Y147.254 E20.17136
G1 X42.945 Y147.288 E20.20721
G1 X42.398 Y147.294 E20.24313
G1 X41.816 Y147.27 E20.28137
G1 X41.287 Y147.22 E20.31626
G1 X40.73 Y147.138 E20.35322
G1 X40.202 Y147.031 E20.38859
G1 X39.663 Y146.894 E20.42511
G1 X39.121 Y146.725 E20.46238
G1 X38.623 Y146.54 E20.49726
G1 X38.111 Y146.319 E20.53388
G1 X37.603 Y146.067 E20.57111
G1 X37.14 Y145.807 E20.60597
G1 X36.66 Y145.504 E20.64324
G1 X36.21 Y145.184 E20.67949
G1 X35.794 Y144.856 E20.71427
G1 X35.357 Y144.472 E20.75247
G1 X34.976 Y144.101 E20.78738
G1 X34.596 Y143.691 E20.82409
G1 X34.236 Y143.258 E20.86106
G1 X33.91 Y142.821 E20.89685
G1 X33.61 Y142.371 E20.93236
G1 X33.312 Y141.87 E20.97063
G1 X33.071 Y141.412 E21.00461
G1 X32.83 Y140.891 E21.0423
G1 X32.633 Y140.397 E21.07722
G1 X32.451 Y139.862 E21.11432
G1 X32.303 Y139.337 E21.15013
G1 X32.174 Y138.77 E21.18831
G1 X32.085 Y138.257 E21.2225
G1 X32.016 Y137.689 E21.26006
G1 X31.981 Y137.154 E21.29526
G1 X31.972 Y136.617 E21.33053
G1 X31.994 Y136.021 E21.36968
G1 X32.048 Y135.436 E21.40825
G1 X32.048 Y85.367 E24.69556
G1 X32.027 Y85 E24.7197
G1 X31.968 Y84.617 E24.74514
G1 X31.87 Y84.241 E24.77065
G1 X31.734 Y83.875 E24.79628
G1 X31.561 Y83.526 E24.82186
G1 X31.355 Y83.197 E24.84734
G1 X31.115 Y82.889 E24.87298
G1 X30.847 Y82.609 E24.89843
G1 X30.552 Y82.357 E24.9239
G1 X30.233 Y82.135 E24.94942
G1 X29.892 Y81.946 E24.97502
G1 X29.533 Y81.794 E25.00061
G1 X29.163 Y81.678 E25.02607
G1 X28.781 Y81.601 E25.05165
G1 X28.393 Y81.562 E25.07726
G1 X28.005 Y81.563 E25.10273
G1 X27.617 Y81.603 E25.12834
G1 X27.235 Y81.683 E25.15397
G1 X26.866 Y81.801 E25.1794
G1 X26.51 Y81.953 E25.20482
G1 X26.169 Y82.142 E25.23041
G1 X25.849 Y82.367 E25.2561
G1 X25.555 Y82.621 E25.28161
G1 X25.288 Y82.901 E25.30701
M204 S3000
M205 X10 Y10
G0 F1200 X26.413 Y82.533
M204 S1800
M205 X8 Y8
;TYPE:WALL-OUTER
G1 F600 X26.132 Y82.73 E25.32954
G1 X25.873 Y82.954 E25.35202
G1 X25.638 Y83.201 E25.3744
G1 X25.428 Y83.474 E25.39702
G1 X25.249 Y83.765 E25.41945
G1 X25.099 Y84.071 E25.44182
G1 X24.98 Y84.394 E25.46442
G1 X24.895 Y84.725 E25.48686
G1 X24.844 Y85.057 E25.50891
G1 X24.828 Y85.389 E25.53074
G1 X24.826 Y133.99 E28.72166
G1 X24.826 Y133.991 E28.72173
G1 X24.826 Y134.625 E28.76335
G1 X24.358 Y134.197 E28.78594
G1 X23.007 Y132.96 E28.90621
G1 X23.007 Y85.407 E32.02833
G1 X23.021 Y85.012 E32.05428
G1 X23.067 Y84.609 E32.08091
G1 X23.137 Y84.243 E32.10537
G1 X23.234 Y83.879 E32.13011
G1 X23.368 Y83.495 E32.15681
G1 X23.522 Y83.142 E32.18209
G1 X23.705 Y82.797 E32.20773
G1 X23.914 Y82.464 E32.23355
G1 X24.139 Y82.158 E32.25848
G1 X24.392 Y81.865 E32.2839
G1 X24.674 Y81.583 E32.31008
G1 X24.962 Y81.335 E32.33504
G1 X25.282 Y81.099 E32.36114
G1 X25.606 Y80.895 E32.38628
G1 X25.957 Y80.71 E32.41233
G1 X26.299 Y80.561 E32.43682
G1 X26.683 Y80.426 E32.46355
G1 X27.055 Y80.326 E32.48884
G1 X27.419 Y80.258 E32.51315
G1 X27.822 Y80.212 E32.53978
G1 X28.208 Y80.198 E32.56514
G1 X28.594 Y80.212 E32.5905
G1 X28.982 Y80.256 E32.61614
G1 X29.374 Y80.33 E32.64233
G1 X29.733 Y80.426 E32.66673
G1 X30.117 Y80.561 E32.69345
G1 X30.458 Y80.71 E32.71789
G1 X30.809 Y80.895 E32.74394
G1 X31.143 Y81.105 E32.76984
G1 X31.452 Y81.334 E32.79509
G1 X31.735 Y81.576 E32.81954
G1 X32.023 Y81.864 E32.84628
G1 X32.271 Y82.152 E32.87123
G1 X32.507 Y82.471 E32.89729
G1 X32.711 Y82.797 E32.92253
G1 X32.896 Y83.148 E32.94858
G1 X33.044 Y83.485 E32.97275
G1 X33.182 Y83.879 E33.00016
G1 X33.28 Y84.245 E33.02504
G1 X33.348 Y84.609 E33.04935
G1 X33.394 Y85.012 E33.07598
G1 X33.409 Y85.413 E33.10232
G1 X33.409 Y135.378 E36.3828
G1 X33.348 Y135.883 E36.4162
G1 X33.315 Y136.427 E36.45198
G1 X33.312 Y136.974 E36.4879
G1 X33.344 Y137.52 E36.5238
G1 X33.408 Y138.063 E36.5597
G1 X33.504 Y138.602 E36.59565
G1 X33.631 Y139.133 E36.63149
G1 X33.79 Y139.656 E36.66738
G1 X33.979 Y140.169 E36.70328
G1 X34.198 Y140.67 E36.73918
G1 X34.447 Y141.157 E36.77509
G1 X34.724 Y141.628 E36.81096
G1 X35.027 Y142.083 E36.84685
G1 X35.358 Y142.518 E36.88274
G1 X35.715 Y142.933 E36.91868
G1 X36.094 Y143.327 E36.95458
G1 X36.496 Y143.697 E36.99045
G1 X36.918 Y144.043 E37.02628
G1 X37.362 Y144.364 E37.06225
G1 X37.824 Y144.657 E37.09817
G1 X38.301 Y144.923 E37.13403
G1 X38.794 Y145.159 E37.16991
G1 X39.299 Y145.366 E37.20575
G1 X39.817 Y145.543 E37.24169
G1 X40.343 Y145.689 E37.27753
G1 X40.878 Y145.804 E37.31345
G1 X41.419 Y145.887 E37.34939
G1 X41.964 Y145.937 E37.38532
G1 X42.509 Y145.957 E37.42113
G1 X43.056 Y145.945 E37.45705
G1 X43.601 Y145.899 E37.49296
G1 X44.143 Y145.82 E37.52892
G1 X44.678 Y145.71 E37.56478
G1 X45.206 Y145.568 E37.60068
G1 X45.725 Y145.396 E37.63658
G1 X46.233 Y145.193 E37.67249
G1 X46.727 Y144.96 E37.70835
G1 X47.208 Y144.699 E37.74428
G1 X47.671 Y144.409 E37.78015
G1 X48.117 Y144.094 E37.816
G1 X48.544 Y143.751 E37.85196
G1 X48.949 Y143.384 E37.88785
G1 X49.332 Y142.994 E37.92374
G1 X49.691 Y142.582 E37.95961
G1 X50.025 Y142.151 E37.99541
G1 X50.333 Y141.699 E38.03132
G1 X50.615 Y141.23 E38.06725
G1 X50.867 Y140.745 E38.10314
G1 X51.091 Y140.246 E38.13905
G1 X51.284 Y139.735 E38.17491
G1 X51.448 Y139.213 E38.21084
G1 X51.579 Y138.683 E38.24668
G1 X51.681 Y138.145 E38.28263
G1 X51.748 Y137.603 E38.31849
G1 X51.786 Y137.058 E38.35436
G1 X51.79 Y136.511 E38.39027
G1 X51.762 Y135.964 E38.42624
G1 X51.7 Y135.421 E38.46212
G1 X51.609 Y134.882 E38.49801
G1 X51.483 Y134.349 E38.53397
G1 X51.328 Y133.825 E38.56984
G1 X51.153 Y133.341 E38.60363
G1 X42.244 Y96.422 E41.09715
G1 X42.113 Y95.818 E41.13772
G1 X42.003 Y95.177 E41.18042
G1 X41.923 Y94.559 E41.22134
G1 X41.869 Y93.915 E41.26377
G1 X41.845 Y93.282 E41.30536
G1 X41.846 Y92.666 E41.3458
G1 X41.878 Y92.016 E41.38853
G1 X41.936 Y91.401 E41.42909
G1 X42.024 Y90.756 E41.47183
G1 X42.138 Y90.133 E41.51341
G1 X42.211 Y89.824 E41.53425
G1 X42.303 Y89.429 E41.56088
G1 X42.639 Y89.656 E41.57653
G1 X43.921 Y90.524 E41.67818
G1 X43.808 Y91.114 E41.71762
G1 X43.743 Y91.608 E41.75033
G1 X43.687 Y92.235 E41.79166
G1 X43.663 Y92.864 E41.83299
G1 X43.667 Y93.494 E41.87435
G1 X43.706 Y94.125 E41.91586
G1 X43.775 Y94.751 E41.95721
G1 X43.877 Y95.373 E41.99859
G1 X44.008 Y95.986 E42.03975
G1 X52.932 Y132.958 E44.53687
G1 X53.123 Y133.539 E44.57703
G1 X53.271 Y134.077 E44.61366
G1 X53.392 Y134.632 E44.65096
G1 X53.486 Y135.2 E44.68876
G1 X53.552 Y135.793 E44.72793
G1 X53.585 Y136.348 E44.76443
G1 X53.588 Y136.925 E44.80232
G1 X53.561 Y137.52 E44.84142
G1 X53.507 Y138.074 E44.87797
G1 X53.417 Y138.664 E44.91715
G1 X53.305 Y139.209 E44.95368
G1 X53.155 Y139.786 E44.99283
G1 X52.987 Y140.316 E45.02933
G1 X52.777 Y140.874 E45.06847
G1 X52.555 Y141.385 E45.10505
G1 X52.297 Y141.901 E45.14293
G1 X52.007 Y142.413 E45.18156
G1 X51.697 Y142.898 E45.21935
G1 X51.364 Y143.364 E45.25696
G1 X51.001 Y143.821 E45.29528
G1 X50.627 Y144.243 E45.3323
G1 X50.225 Y144.652 E45.36995
G1 X49.792 Y145.049 E45.40852
G1 X49.342 Y145.42 E45.44681
G1 X48.887 Y145.757 E45.48399
G1 X48.404 Y146.076 E45.52199
G1 X47.915 Y146.364 E45.55925
G1 X47.392 Y146.637 E45.59799
G1 X46.868 Y146.876 E45.6358
G1 X46.336 Y147.086 E45.67335
G1 X45.791 Y147.269 E45.7111
G1 X45.238 Y147.423 E45.74878
G1 X44.673 Y147.549 E45.78679
G1 X44.093 Y147.647 E45.82541
G1 X43.534 Y147.712 E45.86236
G1 X42.96 Y147.748 E45.90012
G1 X42.384 Y147.754 E45.93794
G1 X41.792 Y147.73 E45.97684
G1 X41.234 Y147.677 E46.01364
G1 X40.648 Y147.591 E46.05253
G1 X40.1 Y147.48 E46.08924
G1 X39.541 Y147.338 E46.1271
G1 X38.975 Y147.161 E46.16604
G1 X38.455 Y146.968 E46.20246
G1 X37.907 Y146.732 E46.24163
G1 X37.398 Y146.479 E46.27895
G1 X36.897 Y146.198 E46.31666
G1 X36.414 Y145.893 E46.35417
G1 X35.931 Y145.55 E46.39306
G1 X35.49 Y145.202 E46.42995
G1 X35.053 Y144.818 E46.46814
G1 X34.644 Y144.419 E46.50565
G1 X34.247 Y143.991 E46.54398
G1 X33.874 Y143.542 E46.58231
G1 X33.541 Y143.096 E46.61885
G1 X33.214 Y142.607 E46.65747
G1 X32.916 Y142.105 E46.6958
G1 X32.653 Y141.606 E46.73284
G1 X32.412 Y141.084 E46.77059
G1 X32.197 Y140.545 E46.80869
G1 X32.012 Y140.001 E46.84641
G1 X31.856 Y139.448 E46.88413
G1 X31.725 Y138.872 E46.92292
G1 X31.628 Y138.315 E46.96004
G1 X31.559 Y137.744 E46.9978
G1 X31.521 Y137.171 E47.0355
G1 X31.512 Y136.6 E47.073
G1 X31.534 Y136.004 E47.11216
G1 X31.588 Y135.415 E47.15099
G1 X31.588 Y85.38 E50.43606
G1 X31.569 Y85.048 E50.4579
G1 X31.517 Y84.71 E50.48035
G1 X31.431 Y84.38 E50.50274
G1 X31.311 Y84.058 E50.5253
G1 X31.159 Y83.75 E50.54785
G1 X30.978 Y83.461 E50.57024
G1 X30.767 Y83.19 E50.59279
G1 X30.531 Y82.944 E50.61517
G1 X30.27 Y82.721 E50.63771
G1 X29.99 Y82.526 E50.66011
G1 X29.69 Y82.36 E50.68262
G1 X29.374 Y82.226 E50.70516
G1 X29.048 Y82.124 E50.72758
G1 X28.712 Y82.056 E50.75009
G1 X28.371 Y82.022 E50.77259
G1 X28.029 Y82.023 E50.79505
G1 X27.688 Y82.058 E50.81755
G1 X27.352 Y82.128 E50.84009
G1 X27.027 Y82.232 E50.86249
G1 X26.713 Y82.367 E50.88493
G1 X26.413 Y82.533 E50.90744
M204 S3000
M205 X10 Y10
G0 F1200 X26.168 Y82.705
G0 X25.661 Y81.947
M204 S1800
M205 X8 Y8
;TYPE:SKIN
G1 F600 X25.501 Y82.07 E50.91577
G1 X24.805 Y82.788 E50.95706
G1 X24.28 Y83.677 E50.99969
G1 X23.966 Y84.777 E51.04692
G1 X23.917 Y86.425 E51.11499
G1 X23.916 Y96.89 E51.54707
G1 X23.915 Y123.759 E52.65644
G1 X23.915 Y132.527 E53.01845
M204 S3000
M205 X10 Y10
G0 F1200 X24.09 Y132.702
G0 X24.348 Y85.003
G0 X24.502 Y84.247
G0 X24.816 Y83.515
G0 X25.262 Y82.871
G0 X25.822 Y82.338
G0 X26.492 Y81.919
G0 X27.219 Y81.646
G0 X28.004 Y81.524
G0 X28.786 Y81.562
G0 X29.549 Y81.758
G0 X30.256 Y82.103
G0 X31.139 Y82.855
G0 X31.597 Y83.511
G0 X31.905 Y84.219
G0 X32.049 Y84.918
G0 X32.322 Y132.731
G0 X32.497 Y132.907
M204 S1800
M205 X8 Y8
G1 F600 X32.497 Y133.189 E53.03041
G1 X32.463 Y135.7 E53.13694
G1 X32.421 Y137.072 E53.19516
G1 X32.544 Y138.328 E53.24869
G1 X32.785 Y139.417 E53.29601
G1 X33.249 Y140.729 E53.35504
M204 S3000
M205 X10 Y10
G0 F1200 X33.4 Y141.446
M204 S1800
M205 X8 Y8
G1 F600 X34.361 Y142.407 E53.3869
M204 S3000
M205 X10 Y10
G0 F1200 X34.384 Y142.996
M204 S1800
M205 X8 Y8
G1 F600 X36.261 Y144.873 E53.44915
M204 S3000
M205 X10 Y10
G0 F1200 X37.342 Y145.388
M204 S1800
M205 X8 Y8
G1 F600 X37.993 Y145.756 E53.50553
M204 S3000
M205 X10 Y10
G0 F1200 X39.009 Y146.207
M204 S1800
M205 X8 Y8
G1 F600 X39.446 Y146.36 E53.52422
G1 X40.593 Y146.659 E53.57206
