; generated by PrusaSlicer 2.8.1+win64 on 2024-11-11 at 12:54:31 UTC


;
;
; 

; external perimeters extrusion width = 0.40mm
; perimeters extrusion width = 0.40mm
; infill extrusion width = 0.40mm
; solid infill extrusion width = 0.40mm
; top infill extrusion width = 0.40mm
; support material extrusion width = 0.40mm
; first layer extrusion width = 0.40mm

M73 P0 R14
;TYPE:Custom
G90 ; use absolute coordinates
M83 ; extruder relative mode
M140 S85 ; set bed temp
M190 S85 ; wait for bed temp
M104 S230 ; set extruder temp
M109 S230 ; wait for extruder temp
G28                                        ; move X/Y/Z to min endstops
G1 Z0.28                                   ; lift nozzle a bit 
G92 E0 
G1 Y3 F2400                                    ; zero the extruded length 
G1 X180  E40 F500                       ; Extrude 25mm of filament in a 5cm line. 
G92 E0                                     ; zero the extruded length again 
G1 E-0.2 F3000                                ; Retract a little 
M73 P2 R14
G1 X181 F4000                              ; Quickly wipe away from the filament line
M117
G21 ; set units to millimeters
G90 ; use absolute coordinates
M82 ; use absolute distances for extrusion
G92 E0
; Filament gcode
M107
;LAYER_CHANGE
;Z:0.2
;HEIGHT:0.2
G1 E-2 F2400
G92 E0
G1 Z.2 F12000
G1 X7.981 Y21.816
G1 E2 F2400
;TYPE:Skirt/Brim
;WIDTH:0.4
G1 F1200
G1 X21.412 Y16.903 E2.4034
G1 X23.04 Y16.489 E2.45078
G1 X24.805 Y16.318 E2.5008
G1 X205.668 Y16.337 E7.60235
G1 X207.333 Y16.561 E7.64974
M73 P3 R14
G1 X208.565 Y16.895 E7.68575
G1 X222.225 Y21.892 E8.09603
G1 X224.134 Y23.013 E8.15847
G1 X225.525 Y24.736 E8.22093
G1 X226.279 Y27.693 E8.30701
G1 X226.279 Y207.503 E13.37886
G1 X225.882 Y209.681 E13.44131
M73 P4 R13
G1 X224.742 Y211.58 E13.50379
G1 X223.007 Y212.955 E13.56623
G1 X220.1 Y213.682 E13.65075
G1 X219.158 Y213.637 E13.67735
G1 X13.674 Y188.794 E19.51559
G1 X11.787 Y188.402 E19.56995
M73 P6 R13
G1 X9.819 Y187.608 E19.62981
G1 X8.009 Y186.44 E19.69057
G1 X6.463 Y184.959 E19.75096
G1 X5.211 Y183.189 E19.81211
G1 X4.455 Y181.588 E19.86205
G1 X3.894 Y179.548 E19.92173
G1 X3.722 Y177.614 E19.9765
G1 X3.721 Y27.693 E24.20528
G1 X4.118 Y25.515 E24.26773
M73 P7 R13
G1 X5.258 Y23.616 E24.33021
G1 X7.775 Y21.892 E24.41626
G1 X7.925 Y21.837 E24.42077
;WIPE_START
G1 F9600
G1 X7.981 Y21.816 E24.40657
G1 X15.833 Y18.944 E22.42077
;WIPE_END
G92 E0
G92 E0
G1 X220 Y116.987 F12000
G1 E2 F2400
;TYPE:External perimeter
;WIDTH:0.38292
G1 F720
G1 X220 Y87.591 E2.7895
G1 X219.967 Y86.774 E2.81146
;WIDTH:0.427999
G1 X219.915 Y86.358 E2.82421
;WIDTH:0.473078
G1 X219.863 Y85.942 E2.83846
;WIDTH:0.505725
G1 X219.847 Y85.861 E2.84148
;WIDTH:0.538372
G1 X219.831 Y85.78 E2.84471
G1 X219.767 Y85.735 E2.84777
;WIDTH:0.499509
G1 X219.704 Y85.691 E2.85054
;WIDTH:0.460646
G1 X219.64 Y85.647 E2.8531
;WIDTH:0.421783
G1 X219.576 Y85.603 E2.85542
;WIDTH:0.38292
G1 X219.293 Y85.041 E2.87232
G1 X218.944 Y84.528 E2.88898
G1 X218.389 Y83.921 E2.91107
G1 X217.739 Y83.412 E2.93324
G1 X217.045 Y83.032 E2.95449
G1 X216.304 Y82.77 E2.9756
G1 X215.572 Y82.631 E2.99561
G1 X214.809 Y82.603 E3.01612
G1 X214.05 Y82.692 E3.03664
G1 X213.312 Y82.895 E3.0572
G1 X212.616 Y83.208 E3.0777
G1 X211.974 Y83.623 E3.09823
G1 X211.403 Y84.132 E3.11877
G1 X211.063 Y84.521 E3.13265
G1 X210.611 Y85.211 E3.1548
G1 X210.277 Y85.965 E3.17695
G1 X210.072 Y86.764 E3.1991
G1 X210 Y87.598 E3.22158
G1 X210 Y117.588 E4.02704
G1 X209.939 Y118.356 E4.04773
G1 X209.763 Y119.1 E4.06826
G1 X209.476 Y119.809 E4.0888
G1 X209.084 Y120.466 E4.10935
G1 X208.597 Y121.055 E4.12988
G1 X208.025 Y121.563 E4.15043
G1 X207.385 Y121.978 E4.17092
M73 P8 R13
G1 X206.688 Y122.291 E4.19144
G1 X205.95 Y122.494 E4.212
G1 X205.418 Y122.569 E4.22643
G1 X204.594 Y122.572 E4.24856
G1 X203.78 Y122.438 E4.27072
G1 X202.998 Y122.173 E4.2929
G1 X202.282 Y121.789 E4.31472
G1 X201.675 Y121.323 E4.33527
G1 X201.146 Y120.771 E4.3558
G1 X200.707 Y120.145 E4.37634
G1 X200.369 Y119.46 E4.39686
G1 X200.139 Y118.731 E4.41739
G1 X200.022 Y117.973 E4.43799
G1 X200 Y117.589 E4.44832
G1 X200 Y87.597 E5.25383
G1 X199.926 Y86.777 E5.27594
G1 X199.724 Y85.978 E5.29807
G1 X199.395 Y85.221 E5.32024
G1 X198.946 Y84.53 E5.34237
G1 X198.389 Y83.921 E5.36454
G1 X197.739 Y83.412 E5.38671
G1 X197.045 Y83.032 E5.40796
G1 X196.324 Y82.775 E5.42852
G1 X195.572 Y82.631 E5.44908
G1 X194.809 Y82.603 E5.46959
G1 X194.05 Y82.692 E5.49011
G1 X193.312 Y82.895 E5.51067
G1 X192.616 Y83.208 E5.53117
G1 X191.974 Y83.623 E5.5517
G1 X191.403 Y84.132 E5.57224
G1 X191.063 Y84.521 E5.58612
G1 X190.611 Y85.211 E5.60827
G1 X190.277 Y85.965 E5.63042
G1 X190.072 Y86.764 E5.65257
G1 X190 Y87.598 E5.67505
G1 X190 Y117.588 E6.48051
G1 X189.939 Y118.356 E6.5012
G1 X189.763 Y119.1 E6.52173
G1 X189.476 Y119.809 E6.54227
G1 X189.084 Y120.466 E6.56282
G1 X188.597 Y121.055 E6.58335
G1 X188.025 Y121.563 E6.6039
G1 X187.385 Y121.978 E6.62439
G1 X186.688 Y122.291 E6.64491
G1 X185.95 Y122.494 E6.66547
G1 X185.418 Y122.569 E6.6799
G1 X184.594 Y122.572 E6.70203
G1 X183.78 Y122.438 E6.72419
G1 X182.998 Y122.173 E6.74637
G1 X182.282 Y121.789 E6.76819
G1 X181.675 Y121.323 E6.78874
G1 X181.146 Y120.771 E6.80927
G1 X180.707 Y120.145 E6.82981
G1 X180.369 Y119.46 E6.85033
G1 X180.139 Y118.731 E6.87086
G1 X180.022 Y117.973 E6.89146
G1 X180 Y117.589 E6.90179
G1 X180 Y87.597 E7.7073
G1 X179.926 Y86.777 E7.72941
M73 P9 R13
G1 X179.724 Y85.978 E7.75154
G1 X179.395 Y85.221 E7.77371
G1 X178.946 Y84.53 E7.79584
G1 X178.389 Y83.921 E7.81801
G1 X177.739 Y83.412 E7.84018
G1 X177.045 Y83.032 E7.86143
G1 X176.324 Y82.775 E7.88199
G1 X175.572 Y82.631 E7.90255
G1 X174.809 Y82.603 E7.92306
G1 X174.05 Y82.692 E7.94358
G1 X173.312 Y82.895 E7.96414
G1 X172.616 Y83.208 E7.98464
G1 X171.974 Y83.623 E8.00517
G1 X171.403 Y84.132 E8.02571
G1 X171.063 Y84.521 E8.03959
G1 X170.611 Y85.211 E8.06174
G1 X170.277 Y85.965 E8.08389
G1 X170.072 Y86.764 E8.10604
G1 X170.001 Y87.584 E8.12815
G1 X170 Y117.588 E8.93398
G1 X169.939 Y118.356 E8.95467
G1 X169.763 Y119.1 E8.9752
G1 X169.476 Y119.809 E8.99574
G1 X169.084 Y120.466 E9.01629
G1 X168.597 Y121.055 E9.03682
G1 X168.025 Y121.563 E9.05737
G1 X167.384 Y121.978 E9.07788
G1 X166.688 Y122.291 E9.09838
G1 X165.95 Y122.494 E9.11894
G1 X165.418 Y122.569 E9.13337
G1 X164.594 Y122.572 E9.1555
G1 X163.78 Y122.438 E9.17766
G1 X162.998 Y122.173 E9.19984
G1 X162.282 Y121.789 E9.22166
G1 X161.675 Y121.323 E9.24221
G1 X161.146 Y120.771 E9.26274
G1 X160.707 Y120.145 E9.28328
G1 X160.369 Y119.46 E9.3038
G1 X160.139 Y118.731 E9.32433
G1 X160.022 Y117.973 E9.34493
G1 X160 Y117.589 E9.35526
G1 X160 Y87.597 E10.16077
G1 X159.926 Y86.777 E10.18288
M73 P10 R13
G1 X159.724 Y85.978 E10.20501
G1 X159.395 Y85.221 E10.22718
G1 X158.946 Y84.53 E10.24931
G1 X158.389 Y83.921 E10.27148
G1 X157.739 Y83.412 E10.29365
G1 X157.045 Y83.032 E10.3149
G1 X156.324 Y82.775 E10.33546
G1 X155.572 Y82.631 E10.35602
G1 X154.809 Y82.603 E10.37653
G1 X154.05 Y82.692 E10.39705
G1 X153.312 Y82.895 E10.41761
G1 X152.616 Y83.208 E10.43811
G1 X151.974 Y83.623 E10.45864
G1 X151.403 Y84.132 E10.47918
G1 X151.063 Y84.521 E10.49306
G1 X150.611 Y85.211 E10.51521
G1 X150.277 Y85.965 E10.53736
G1 X150.072 Y86.764 E10.55951
G1 X150.001 Y87.584 E10.58162
G1 X150 Y117.588 E11.38745
G1 X149.939 Y118.356 E11.40814
G1 X149.763 Y119.1 E11.42867
G1 X149.476 Y119.809 E11.44921
G1 X149.084 Y120.466 E11.46976
G1 X148.597 Y121.055 E11.49029
G1 X148.025 Y121.563 E11.51084
G1 X147.385 Y121.978 E11.53133
G1 X146.688 Y122.291 E11.55185
G1 X145.95 Y122.494 E11.57241
G1 X145.418 Y122.569 E11.58684
G1 X144.594 Y122.572 E11.60897
G1 X143.78 Y122.438 E11.63113
G1 X142.998 Y122.173 E11.65331
G1 X142.282 Y121.789 E11.67513
G1 X141.675 Y121.323 E11.69568
G1 X141.146 Y120.771 E11.71621
G1 X140.707 Y120.145 E11.73675
G1 X140.369 Y119.46 E11.75727
G1 X140.139 Y118.731 E11.7778
G1 X140.022 Y117.973 E11.7984
G1 X140 Y117.589 E11.80873
G1 X140 Y87.597 E12.61424
G1 X139.926 Y86.777 E12.63635
G1 X139.724 Y85.978 E12.65848
G1 X139.395 Y85.221 E12.68065
G1 X138.946 Y84.53 E12.70278
M73 P11 R13
G1 X138.389 Y83.921 E12.72495
G1 X137.739 Y83.412 E12.74712
G1 X137.045 Y83.032 E12.76837
G1 X136.324 Y82.775 E12.78893
G1 X135.572 Y82.631 E12.80949
G1 X134.809 Y82.603 E12.83
G1 X134.05 Y82.692 E12.85052
G1 X133.312 Y82.895 E12.87108
G1 X132.616 Y83.208 E12.89158
G1 X131.974 Y83.623 E12.91211
G1 X131.403 Y84.132 E12.93265
G1 X131.063 Y84.521 E12.94653
G1 X130.611 Y85.211 E12.96868
G1 X130.277 Y85.965 E12.99083
G1 X130.072 Y86.764 E13.01298
G1 X130 Y87.598 E13.03546
G1 X130 Y117.588 E13.84092
G1 X129.939 Y118.356 E13.86161
G1 X129.763 Y119.1 E13.88214
G1 X129.476 Y119.809 E13.90268
G1 X129.084 Y120.466 E13.92323
G1 X128.597 Y121.055 E13.94376
G1 X128.025 Y121.563 E13.96431
G1 X127.385 Y121.978 E13.9848
G1 X126.688 Y122.291 E14.00532
G1 X125.95 Y122.494 E14.02588
G1 X125.418 Y122.569 E14.04031
G1 X124.594 Y122.572 E14.06244
G1 X123.78 Y122.438 E14.0846
G1 X122.998 Y122.173 E14.10678
G1 X122.282 Y121.789 E14.1286
G1 X121.675 Y121.323 E14.14915
G1 X121.146 Y120.771 E14.16968
G1 X120.707 Y120.145 E14.19022
G1 X120.369 Y119.46 E14.21074
G1 X120.139 Y118.731 E14.23127
G1 X120.022 Y117.973 E14.25187
G1 X120 Y117.589 E14.2622
G1 X120 Y87.597 E15.06771
G1 X119.926 Y86.777 E15.08982
M73 P11 R12
G1 X119.725 Y85.978 E15.11195
G1 X119.395 Y85.221 E15.13413
G1 X118.946 Y84.53 E15.15626
G1 X118.389 Y83.921 E15.17843
G1 X117.739 Y83.412 E15.2006
G1 X117.045 Y83.032 E15.22185
G1 X116.324 Y82.775 E15.24241
G1 X115.572 Y82.631 E15.26297
G1 X114.809 Y82.603 E15.28348
G1 X114.05 Y82.692 E15.304
G1 X113.312 Y82.895 E15.32456
G1 X112.616 Y83.208 E15.34506
G1 X111.974 Y83.623 E15.36559
G1 X111.403 Y84.132 E15.38613
G1 X111.063 Y84.521 E15.40001
G1 X110.611 Y85.211 E15.42216
G1 X110.277 Y85.965 E15.44431
G1 X110.072 Y86.764 E15.46646
G1 X110 Y87.598 E15.48894
G1 X110 Y117.588 E16.2944
G1 X109.939 Y118.356 E16.31509
M73 P12 R12
G1 X109.763 Y119.1 E16.33562
G1 X109.476 Y119.809 E16.35616
G1 X109.084 Y120.466 E16.37671
G1 X108.597 Y121.055 E16.39724
G1 X108.025 Y121.563 E16.41779
G1 X107.385 Y121.978 E16.43828
G1 X106.688 Y122.291 E16.4588
G1 X105.95 Y122.494 E16.47936
G1 X105.418 Y122.569 E16.49379
G1 X104.594 Y122.572 E16.51592
G1 X103.78 Y122.438 E16.53808
G1 X102.998 Y122.173 E16.56026
G1 X102.282 Y121.789 E16.58208
G1 X101.675 Y121.323 E16.60263
G1 X101.146 Y120.771 E16.62316
G1 X100.707 Y120.145 E16.6437
G1 X100.369 Y119.46 E16.66422
G1 X100.139 Y118.731 E16.68475
G1 X100.023 Y117.974 E16.70532
G1 X100 Y117.589 E16.71568
G1 X100 Y87.597 E17.52119
G1 X99.925 Y86.777 E17.54331
G1 X99.724 Y85.978 E17.56544
G1 X99.395 Y85.222 E17.58758
G1 X98.946 Y84.53 E17.60973
G1 X98.389 Y83.921 E17.6319
G1 X97.739 Y83.412 E17.65407
G1 X97.045 Y83.032 E17.67532
G1 X96.324 Y82.775 E17.69588
G1 X95.573 Y82.631 E17.71642
G1 X94.809 Y82.603 E17.73695
G1 X94.029 Y82.696 E17.75805
G1 X93.313 Y82.895 E17.77801
G1 X92.616 Y83.209 E17.79854
G1 X91.974 Y83.623 E17.81906
G1 X91.403 Y84.131 E17.83959
G1 X91.063 Y84.521 E17.85349
G1 X90.61 Y85.211 E17.87566
G1 X90.277 Y85.965 E17.8978
G1 X90.072 Y86.764 E17.91995
G1 X90 Y87.598 E17.94243
G1 X90 Y117.588 E18.74789
G1 X89.939 Y118.356 E18.76858
M73 P13 R12
G1 X89.763 Y119.1 E18.78911
G1 X89.476 Y119.809 E18.80965
G1 X89.084 Y120.466 E18.8302
G1 X88.597 Y121.055 E18.85073
G1 X88.026 Y121.563 E18.87126
G1 X87.385 Y121.978 E18.89177
G1 X86.687 Y122.291 E18.91232
G1 X85.95 Y122.494 E18.93285
G1 X85.418 Y122.569 E18.94728
G1 X84.594 Y122.572 E18.96941
G1 X83.779 Y122.438 E18.99159
G1 X82.998 Y122.173 E19.01374
G1 X82.283 Y121.789 E19.03554
G1 X81.676 Y121.323 E19.05609
G1 X81.146 Y120.771 E19.07664
G1 X80.707 Y120.145 E19.09718
G1 X80.369 Y119.46 E19.1177
G1 X80.139 Y118.731 E19.13823
G1 X80.023 Y117.974 E19.1588
G1 X80 Y117.589 E19.16916
G1 X80 Y87.597 E19.97467
G1 X79.925 Y86.777 E19.99679
G1 X79.724 Y85.978 E20.01892
G1 X79.408 Y85.248 E20.04028
G1 X78.946 Y84.53 E20.06321
G1 X78.389 Y83.921 E20.08538
G1 X77.739 Y83.412 E20.10755
G1 X77.045 Y83.032 E20.1288
G1 X76.324 Y82.775 E20.14936
G1 X75.573 Y82.631 E20.1699
G1 X74.809 Y82.603 E20.19043
G1 X74.029 Y82.696 E20.21153
G1 X73.313 Y82.895 E20.23149
G1 X72.616 Y83.208 E20.25201
G1 X71.974 Y83.623 E20.27254
G1 X71.403 Y84.131 E20.29307
G1 X71.063 Y84.521 E20.30697
G1 X70.61 Y85.211 E20.32914
G1 X70.277 Y85.965 E20.35128
G1 X70.072 Y86.764 E20.37343
G1 X70 Y87.598 E20.39591
G1 X70 Y117.588 E21.20137
G1 X69.939 Y118.356 E21.22206
M73 P14 R12
G1 X69.763 Y119.1 E21.24259
G1 X69.476 Y119.809 E21.26313
G1 X69.084 Y120.466 E21.28368
G1 X68.597 Y121.055 E21.30421
G1 X68.026 Y121.563 E21.32474
G1 X67.385 Y121.978 E21.34525
G1 X66.687 Y122.291 E21.3658
G1 X65.95 Y122.494 E21.38633
G1 X65.418 Y122.569 E21.40076
G1 X64.594 Y122.572 E21.42289
G1 X63.779 Y122.438 E21.44507
G1 X62.998 Y122.173 E21.46722
G1 X62.283 Y121.789 E21.48902
G1 X61.676 Y121.323 E21.50957
G1 X61.146 Y120.771 E21.53012
G1 X60.707 Y120.145 E21.55066
G1 X60.369 Y119.46 E21.57118
G1 X60.139 Y118.731 E21.59171
G1 X60.023 Y117.974 E21.61228
G1 X60 Y117.589 E21.62264
G1 X60 Y87.597 E22.42815
G1 X59.925 Y86.777 E22.45027
G1 X59.724 Y85.978 E22.4724
G1 X59.395 Y85.222 E22.49454
G1 X58.946 Y84.53 E22.51669
G1 X58.389 Y83.921 E22.53886
G1 X57.739 Y83.412 E22.56103
G1 X57.045 Y83.032 E22.58228
G1 X56.324 Y82.775 E22.60284
G1 X55.573 Y82.631 E22.62338
G1 X54.809 Y82.603 E22.64391
G1 X54.029 Y82.696 E22.66501
G1 X53.313 Y82.895 E22.68497
G1 X52.616 Y83.208 E22.70549
G1 X51.974 Y83.623 E22.72602
G1 X51.403 Y84.131 E22.74655
G1 X51.063 Y84.521 E22.76045
G1 X50.61 Y85.211 E22.78262
G1 X50.277 Y85.965 E22.80476
G1 X50.072 Y86.764 E22.82691
G1 X50 Y87.598 E22.84939
G1 X50 Y117.588 E23.65485
G1 X49.939 Y118.356 E23.67554
G1 X49.763 Y119.1 E23.69607
G1 X49.476 Y119.809 E23.71661
G1 X49.084 Y120.466 E23.73716
G1 X48.597 Y121.055 E23.75769
G1 X48.026 Y121.563 E23.77822
G1 X47.385 Y121.978 E23.79873
G1 X46.687 Y122.291 E23.81928
G1 X45.95 Y122.494 E23.83981
G1 X45.418 Y122.569 E23.85424
G1 X44.594 Y122.572 E23.87637
G1 X43.779 Y122.438 E23.89855
G1 X42.998 Y122.173 E23.9207
G1 X42.283 Y121.789 E23.9425
G1 X41.676 Y121.323 E23.96305
G1 X41.146 Y120.771 E23.9836
G1 X40.707 Y120.145 E24.00414
G1 X40.369 Y119.46 E24.02466
G1 X40.139 Y118.731 E24.04519
G1 X40.023 Y117.974 E24.06576
M73 P15 R12
G1 X40 Y117.589 E24.07612
G1 X40 Y87.597 E24.88163
G1 X39.925 Y86.777 E24.90375
G1 X39.724 Y85.978 E24.92588
G1 X39.395 Y85.222 E24.94802
G1 X38.946 Y84.53 E24.97017
G1 X38.389 Y83.921 E24.99234
G1 X37.739 Y83.412 E25.01451
G1 X37.045 Y83.032 E25.03576
G1 X36.324 Y82.775 E25.05632
G1 X35.573 Y82.631 E25.07686
G1 X34.809 Y82.603 E25.09739
G1 X34.029 Y82.696 E25.11849
G1 X33.313 Y82.895 E25.13845
G1 X32.616 Y83.208 E25.15897
G1 X31.974 Y83.623 E25.1795
G1 X31.403 Y84.131 E25.20003
G1 X31.063 Y84.521 E25.21393
G1 X30.61 Y85.211 E25.2361
G1 X30.277 Y85.965 E25.25824
G1 X30.072 Y86.764 E25.28039
G1 X30 Y87.598 E25.30287
G1 X30 Y117.588 E26.10833
G1 X29.939 Y118.356 E26.12902
G1 X29.763 Y119.1 E26.14955
G1 X29.476 Y119.809 E26.17009
G1 X29.084 Y120.466 E26.19064
G1 X28.597 Y121.055 E26.21117
G1 X28.026 Y121.563 E26.2317
G1 X27.385 Y121.978 E26.25221
G1 X26.687 Y122.291 E26.27276
G1 X25.95 Y122.494 E26.29329
G1 X25.418 Y122.569 E26.30772
G1 X24.594 Y122.572 E26.32985
G1 X23.779 Y122.438 E26.35203
G1 X22.998 Y122.173 E26.37418
G1 X22.283 Y121.789 E26.39598
G1 X21.676 Y121.323 E26.41653
G1 X21.146 Y120.771 E26.43708
G1 X20.707 Y120.145 E26.45762
G1 X20.369 Y119.46 E26.47814
G1 X20.139 Y118.731 E26.49867
G1 X20.023 Y117.974 E26.51924
G1 X20 Y117.589 E26.5296
G1 X20 Y87.597 E27.33511
G1 X19.925 Y86.777 E27.35723
M73 P16 R12
G1 X19.724 Y85.978 E27.37936
G1 X19.395 Y85.222 E27.4015
G1 X18.946 Y84.53 E27.42365
G1 X18.389 Y83.921 E27.44582
G1 X17.739 Y83.412 E27.46799
G1 X17.026 Y83.023 E27.4898
G1 X16.324 Y82.775 E27.5098
G1 X15.573 Y82.631 E27.53034
G1 X14.788 Y82.604 E27.55144
G1 X14.05 Y82.692 E27.5714
G1 X13.313 Y82.895 E27.59193
G1 X12.616 Y83.208 E27.61245
G1 X11.974 Y83.623 E27.63298
G1 X11.403 Y84.131 E27.65351
G1 X11.063 Y84.521 E27.66741
G1 X10.61 Y85.211 E27.68958
