;FLAVOR:Marlin
;TIME:2927
;Filament used: 1.52042m
;Layer height: 0.1
;MINX:2.461
;MINY:41.142
;MINZ:0.2
;MAXX:49.398
;MAXY:78.003
;MAXZ:10
;Generated with Cura_SteamEngine 4.10.0
M104 S220
M105
M109 S220
M82 ;absolute extrusion mode
G21        ;metric values
G90        ;absolute positioning
M107       ;start with the fan off
G28   ;move to endstops

;Z-Offset Reset und dann Z +0,1 für PLA
;MacroZOffset0
;MacroZOffsetPlus0100

G92 E0                  ;zero the extruded length
G1 F200 E3              ;extrude 3mm of feed stock
G92 E0                  ;zero the extruded length again
G1 F120
;Put printing message on LCD screen
M117 Printing...
G92 E0
G92 E0
G1 F2700 E-7
;LAYER_COUNT:100
;LAYER:0
M107
M204 S4000
G0 F2400 X5.55 Y41.224 Z0.2
M204 S1800
;TYPE:SKIRT
G1 F2700 E0
G1 F1200 X6.05 Y41.161 E0.01576
G1 X6.769 Y41.143 E0.03824
G1 X7.811 Y41.142 E0.07082
G1 X8.49 Y41.152 E0.09205
G1 X11.488 Y41.321 E0.18593
G1 X14.25 Y41.398 E0.27232
G1 X16.945 Y41.398 E0.35657
G1 X19.715 Y41.319 E0.44321
G1 X21.233 Y41.233 E0.49075
G1 X21.323 Y41.235 E0.49356
G1 X22.749 Y41.153 E0.53822
G1 X23.632 Y41.143 E0.56583
G1 X24.345 Y41.154 E0.58812
G1 X24.746 Y41.183 E0.60069
G1 X25.341 Y41.259 E0.61945
G1 X28.066 Y41.568 E0.70519
G1 X30.787 Y41.8 E0.79057
G1 X33.483 Y41.954 E0.87499
G1 X36.245 Y42.032 E0.96138
G1 X38.94 Y42.032 E1.04564
G1 X41.691 Y41.954 E1.13168
G1 X43.196 Y41.88 E1.17879
G1 X44.016 Y41.834 E1.20447
G1 X44.911 Y41.822 E1.23245
G1 X45.612 Y41.832 E1.25437
G1 X46.147 Y41.88 E1.27117
G1 X46.668 Y42.006 E1.28792
G1 X47.164 Y42.209 E1.30468
G1 X47.625 Y42.483 E1.32145
G1 X48.099 Y42.879 E1.34076
G1 X48.267 Y43.046 E1.34816
G1 X48.618 Y43.451 E1.36492
G1 X48.905 Y43.904 E1.38168
G1 X49.148 Y44.473 E1.40103
G1 X49.279 Y44.993 E1.41779
G1 X49.331 Y45.491 E1.43345
G1 X49.361 Y46.412 E1.46226
G1 X49.369 Y46.827 E1.47524
G1 X49.397 Y47.82 E1.50629
G1 X49.398 Y53.431 E1.68172
G1 X49.369 Y55.465 E1.74532
G1 X49.372 Y55.569 E1.74857
G1 X49.328 Y57.648 E1.81358
G1 X49.328 Y73.717 E2.31597
G1 X49.318 Y74.444 E2.3387
G1 X49.27 Y74.978 E2.35547
G1 X49.144 Y75.499 E2.37223
G1 X48.942 Y75.996 E2.389
G1 X48.668 Y76.457 E2.40576
G1 X48.329 Y76.872 E2.42252
G1 X47.932 Y77.233 E2.43929
G1 X47.486 Y77.53 E2.45605
G1 X47 Y77.758 E2.47283
G1 X46.486 Y77.911 E2.4896
G1 X45.819 Y77.993 E2.51061
G1 X45.398 Y78.003 E2.52377
G1 X28.122 Y78.003 E3.0639
G1 X27.425 Y77.993 E3.08569
G1 X27.126 Y77.976 E3.09506
G1 X25.969 Y77.862 E3.13141
G1 X25.375 Y77.795 E3.15009
G1 X22.655 Y77.564 E3.23544
G1 X19.949 Y77.411 E3.32018
G1 X15.835 Y77.324 E3.44883
G1 X6.838 Y77.324 E3.73011
G1 X6.14 Y77.314 E3.75194
G1 X5.606 Y77.266 E3.7687
G1 X5.085 Y77.14 E3.78546
G1 X4.588 Y76.937 E3.80225
G1 X4.127 Y76.663 E3.81901
G1 X3.712 Y76.324 E3.83577
G1 X3.352 Y75.926 E3.85254
G1 X3.055 Y75.48 E3.8693
G1 X2.827 Y74.994 E3.88608
G1 X2.675 Y74.48 E3.90284
G1 X2.593 Y73.808 E3.924
G1 X2.583 Y73.371 E3.93767
G1 X2.582 Y56.89 E4.45294
G1 X2.539 Y53.97 E4.54424
G1 X2.515 Y53.122 E4.57077
G1 X2.512 Y52.748 E4.58246
G1 X2.473 Y50.319 E4.65841
G1 X2.461 Y49.885 E4.67198
G1 X2.461 Y45.538 E4.80789
G1 X2.471 Y44.871 E4.82875
G1 X2.519 Y44.337 E4.84551
G1 X2.646 Y43.816 E4.86228
G1 X2.849 Y43.319 E4.87906
G1 X3.123 Y42.859 E4.8958
G1 X3.518 Y42.387 E4.91504
G1 X3.684 Y42.22 E4.9224
G1 X4.089 Y41.869 E4.93916
G1 X4.542 Y41.582 E4.95593
G1 X5.033 Y41.365 E4.97271
G1 X5.55 Y41.224 E4.98946
M204 S4000
G0 F2400 X5.974 Y41.569
M204 S1800
G1 F1200 X6.774 Y41.543 E5.01449
G1 X7.805 Y41.542 E5.04672
G1 X8.484 Y41.552 E5.06795
G1 X11.489 Y41.721 E5.16205
G1 X14.238 Y41.798 E5.24803
G1 X16.956 Y41.798 E5.33301
G1 X19.714 Y41.719 E5.41927
G1 X21.256 Y41.632 E5.46756
G1 X21.338 Y41.634 E5.47012
G1 X22.76 Y41.553 E5.51465
G1 X23.625 Y41.543 E5.5417
G1 X24.338 Y41.554 E5.56399
G1 X24.695 Y41.58 E5.57518
G1 X25.26 Y41.652 E5.59299
G1 X28.058 Y41.97 E5.68103
G1 X30.731 Y42.197 E5.7649
G1 X33.483 Y42.354 E5.85108
G1 X36.234 Y42.432 E5.93713
G1 X38.951 Y42.432 E6.02207
G1 X41.722 Y42.354 E6.10874
G1 X43.193 Y42.28 E6.15479
G1 X44.028 Y42.233 E6.18093
G1 X44.906 Y42.222 E6.20839
G1 X45.607 Y42.232 E6.23031
G1 X46.11 Y42.279 E6.2461
G1 X46.6 Y42.405 E6.26192
G1 X47.063 Y42.607 E6.27771
G1 X47.49 Y42.879 E6.29354
G1 X47.985 Y43.33 E6.31448
G1 X48.314 Y43.713 E6.33026
G1 X48.579 Y44.144 E6.34608
G1 X48.769 Y44.599 E6.3615
G1 X48.89 Y45.09 E6.37731
G1 X48.931 Y45.505 E6.39034
G1 X48.961 Y46.42 E6.41897
G1 X48.97 Y46.838 E6.43204
G1 X48.996 Y47.727 E6.45984
G1 X48.998 Y53.425 E6.63799
G1 X48.968 Y55.505 E6.70303
G1 X48.972 Y55.561 E6.70478
G1 X48.928 Y57.619 E6.76914
G1 X48.928 Y73.711 E7.27225
G1 X48.918 Y74.438 E7.29498
G1 X48.871 Y74.941 E7.31077
G1 X48.745 Y75.431 E7.32659
G1 X48.544 Y75.895 E7.3424
G1 X48.272 Y76.321 E7.3582
G1 X47.937 Y76.7 E7.37402
G1 X47.546 Y77.02 E7.38981
G1 X47.11 Y77.275 E7.40561
G1 X46.639 Y77.459 E7.42142
G1 X46.144 Y77.565 E7.43724
G1 X45.488 Y77.602 E7.45778
G1 X28.128 Y77.603 E8.00054
G1 X27.431 Y77.593 E8.02233
G1 X27.165 Y77.578 E8.03066
G1 X26.014 Y77.465 E8.06682
G1 X25.418 Y77.397 E8.08557
G1 X22.676 Y77.165 E8.17161
G1 X19.952 Y77.011 E8.25691
G1 X15.844 Y76.924 E8.38537
G1 X6.844 Y76.924 E8.66675
G1 X6.146 Y76.914 E8.68858
G1 X5.643 Y76.867 E8.70437
G1 X5.153 Y76.741 E8.72019
G1 X4.689 Y76.539 E8.73601
G1 X4.263 Y76.267 E8.75181
G1 X3.885 Y75.932 E8.7676
G1 X3.565 Y75.541 E8.7834
G1 X3.31 Y75.104 E8.79922
G1 X3.127 Y74.633 E8.81502
G1 X3.02 Y74.139 E8.83082
G1 X2.984 Y73.455 E8.85223
G1 X2.982 Y56.884 E9.37032
G1 X2.939 Y53.964 E9.46162
G1 X2.915 Y53.119 E9.48805
G1 X2.912 Y52.713 E9.50074
G1 X2.872 Y50.313 E9.57579
G1 X2.861 Y49.885 E9.58917
G1 X2.861 Y45.544 E9.72489
G1 X2.871 Y44.877 E9.74575
G1 X2.919 Y44.374 E9.76155
G1 X3.045 Y43.884 E9.77737
G1 X3.247 Y43.421 E9.79316
G1 X3.519 Y42.994 E9.80899
G1 X3.967 Y42.502 E9.82979
G1 X4.351 Y42.173 E9.8456
G1 X4.782 Y41.908 E9.86142
G1 X5.249 Y41.714 E9.87723
G1 X5.974 Y41.569 E9.90034
M204 S4000
G1 F2700 E2.90034
;MESH:bracelet_buckle_femalev2.stl
G0 F2400 X9.088 Y44.089
G0 X8.65 Y45.548
G0 X22.568 Y45.584
G0 X22.637 Y45.6
M204 S1800
;TYPE:WALL-OUTER
G1 F2700 E9.90034
G1 F1200 X8.636 Y45.601 E10.33808
G1 X8.636 Y45.534 E10.34017
G1 X22.637 Y45.533 E10.41297
G1 X22.637 Y45.6 E10.41507
M204 S4000
G0 F2400 X22.437 Y45.6
G1 F2700 E3.41507
G0 F2400 X22.439 Y45.584
G0 X23.676 Y47.077
G0 X23.75 Y51.257
G0 X23.514 Y52.415
M204 S1800
;TYPE:WALL-INNER
G1 F2700 E10.41507
G1 F1200 X23.11 Y52.415 E10.4277
G1 X23.311 Y52.214 E10.43017
G1 X23.514 Y52.01 E10.43917
G1 X23.514 Y52.415 E10.44538
M204 S4000
G0 F2400 X7.518 Y52.415
M204 S1800
G1 F1200 X7.115 Y52.415 E10.45798
G1 X7.115 Y52.011 E10.47061
G1 X7.316 Y52.213 E10.47306
G1 X7.518 Y52.415 E10.47556
M204 S4000
G0 F2400 X6.878 Y51.257
G0 X6.893 Y47.002
G0 X7.435 Y45.939
M204 S1800
G1 F1200 X7.061 Y46.316 E10.49216
G1 X7.061 Y45.939 E10.49695
G1 X7.061 Y45.743 E10.50307
G1 X7.435 Y45.742 E10.51477
G1 X7.435 Y45.939 E10.52053
M204 S4000
G0 F2400 X6.893 Y47.002
G0 X6.878 Y51.257
G0 X7.186 Y57.358
G0 X8.386 Y70.483
G0 X22.614 Y70.854
M204 S1800
G1 F1200 X22.614 Y70.654 E10.52678
G1 X22.614 Y57.73 E10.93084
G1 X23.444 Y57.73 E10.95679
G1 X23.444 Y72.724 E11.42557
G1 X7.183 Y72.724 E11.93396
G1 X7.182 Y57.93 E12.39649
G1 X7.182 Y57.73 E12.40275
G1 X7.382 Y57.73 E12.40679
G1 X8.014 Y57.73 E12.42655
G1 X8.014 Y70.656 E12.83068
G1 X8.014 Y70.856 E12.83693
G1 X8.214 Y70.856 E12.84098
G1 X11.057 Y70.85 E12.92987
G1 X11.256 Y58.005 E13.33151
G1 X11.322 Y57.966 E13.3339
G1 X11.322 Y56.548 E13.37824
G1 X11.054 Y55.476 E13.41278
G1 X10.885 Y55.403 E13.41854
G1 X9.995 Y55.02 E13.44883
G1 X10.963 Y55.02 E13.46427
G1 X10.965 Y55.02 E13.46433
G1 X19.659 Y55.02 E13.73614
G1 X19.66 Y55.02 E13.73618
G1 X20.631 Y55.02 E13.76653
G1 X19.738 Y55.403 E13.78204
G1 X19.621 Y55.454 E13.78603
G1 X19.311 Y56.37 E13.81626
G1 X19.311 Y56.667 E13.82555
G1 X19.172 Y69.096 E14.21416
G1 X19.173 Y69.521 E14.22744
G1 X19.356 Y70.852 E14.26945
G1 X22.414 Y70.854 E14.36506
G1 X22.614 Y70.854 E14.3691
M204 S4000
G0 F2400 X23.774 Y52.745
G0 X23.844 Y52.815
M204 S1800
G1 F1200 X23.844 Y73.124 E15.00406
G1 X6.783 Y73.124 E15.53746
G1 X6.782 Y52.815 E16.17241
G1 X6.715 Y52.815 E16.17451
G1 X6.715 Y51.485 E16.21609
G1 X6.715 Y51.242 E16.22369
G1 X6.715 Y49.614 E16.27458
G1 X6.661 Y49.614 E16.27627
G1 X6.661 Y48.935 E16.2975
G1 X6.661 Y48.92 E16.29797
G1 X6.661 Y47.017 E16.35747
G1 X6.661 Y46.857 E16.36247
G1 X6.661 Y45.343 E16.4098
G1 X7.635 Y45.342 E16.44025
G1 X7.835 Y45.342 E16.44651
G1 X7.835 Y45.542 E16.45056
G1 X7.835 Y46.129 E16.46891
G1 X7.81 Y46.129 E16.46969
G1 X7.041 Y46.904 E16.50382
G1 X6.929 Y47.017 E16.50804
G1 X6.929 Y48.92 E16.5479
G1 X6.914 Y48.935 E16.54838
G1 X6.914 Y49.614 E16.56181
G1 X6.914 Y51.242 E16.58713
G1 X7.085 Y51.414 E16.59295
G1 X7.865 Y52.197 E16.6275
G1 X22.763 Y52.197 E17.09328
G1 X23.543 Y51.414 E17.12784
G1 X23.714 Y51.242 E17.13542
G1 X23.714 Y49.614 E17.18632
G1 X23.677 Y49.614 E17.18747
G1 X23.661 Y47.422 E17.25601
G1 X23.658 Y47.084 E17.26658
G1 X23.488 Y46.913 E17.27411
G1 X23.44 Y46.864 E17.27626
G1 X23.44 Y45.343 E17.32381
G1 X23.859 Y45.343 E17.33691
G1 X23.859 Y46.842 E17.38378
G1 X23.859 Y47.083 E17.38958
G1 X23.86 Y47.42 E17.39484
G1 X23.913 Y47.42 E17.39546
G1 X23.913 Y49.614 E17.43731
G1 X23.913 Y51.241 E17.46261
G1 X23.913 Y51.484 E17.46845
G1 X23.914 Y52.815 E17.51006
G1 X23.844 Y52.815 E17.51225
M204 S4000
G0 F2400 X23.774 Y52.745
G0 X23.442 Y57.358
G0 X22.242 Y70.482
G0 X8.386 Y70.483
G0 X7.144 Y57.4
G0 X7.214 Y57.33
M204 S1800
G1 F1200 X8.414 Y57.33 E17.54977
G1 X8.414 Y70.255 E17.95386
G1 X8.414 Y70.455 E17.96011
G1 X8.614 Y70.455 E17.96416
G1 X10.663 Y70.451 E18.02822
G1 X10.859 Y57.774 E18.42461
G1 X10.922 Y57.737 E18.4269
G1 X10.922 Y56.597 E18.46254
G1 X10.714 Y55.765 E18.48935
G1 X9.556 Y55.266 E18.52877
G1 X9.636 Y54.62 E18.54912
G1 X21.027 Y54.62 E18.90526
G1 X21.105 Y55.251 E18.92514
G1 X19.943 Y55.751 E18.96469
G1 X19.711 Y56.436 E18.9873
G1 X19.711 Y56.671 E18.99464
G1 X19.572 Y69.098 E19.38319
G1 X19.573 Y69.493 E19.39554
G1 X19.705 Y70.452 E19.42581
G1 X22.014 Y70.454 E19.498
G1 X22.214 Y70.454 E19.50425
G1 X22.214 Y70.254 E19.5083
G1 X22.214 Y57.33 E19.91236
G1 X23.414 Y57.33 E19.94988
G1 X23.414 Y52.815 E20.09104
G1 X7.214 Y52.815 E20.59752
G1 X7.214 Y57.33 E20.73868
M204 S4000
G0 F2400 X7.614 Y56.93
M204 S1800
;TYPE:WALL-OUTER
G1 F1200 X8.814 Y56.93 E20.7762
G1 X8.814 Y69.854 E21.18026
G1 X8.814 Y70.054 E21.18652
G1 X9.014 Y70.054 E21.19057
G1 X10.269 Y70.052 E21.2298
G1 X10.462 Y57.542 E21.62097
G1 X10.522 Y57.507 E21.62314
G1 X10.522 Y56.646 E21.65006
G1 X10.374 Y56.054 E21.66914
G1 X9.122 Y55.514 E21.71177
G1 X9.282 Y54.22 E21.75253
G1 X21.381 Y54.22 E22.1308
G1 X21.539 Y55.5 E22.17112
G1 X20.265 Y56.048 E22.21448
G1 X20.111 Y56.502 E22.22947
G1 X20.111 Y56.675 E22.23488
G1 X19.972 Y69.1 E22.62336
G1 X19.973 Y69.465 E22.63478
G1 X20.054 Y70.052 E22.6533
G1 X21.614 Y70.054 E22.70208
G1 X21.814 Y70.054 E22.70833
G1 X21.814 Y69.854 E22.71238
G1 X21.814 Y56.93 E23.11644
G1 X23.014 Y56.93 E23.15396
G1 X23.014 Y53.215 E23.2701
G1 X7.614 Y53.215 E23.75158
G1 X7.614 Y56.93 E23.86773
M204 S4000
G0 F2400 X7.814 Y56.93
G0 X7.814 Y57.43
G0 X8.386 Y70.483
G0 X22.242 Y70.482
G0 X23.214 Y59.853
G0 X23.744 Y53.215
G0 X24.244 Y53.215
M204 S1800
G1 F1200 X24.244 Y73.524 E24.50268
G1 X6.383 Y73.524 E25.06109
G1 X6.382 Y53.215 E25.69604
G1 X6.315 Y53.215 E25.69814
G1 X6.315 Y50.014 E25.79822
G1 X6.261 Y50.014 E25.79991
G1 X6.261 Y45.003 E25.95657
G1 X6.32 Y44.943 E25.9592
G1 X8.035 Y44.942 E26.01282
G1 X8.235 Y44.942 E26.01907
G1 X8.235 Y45.142 E26.02312
G1 X8.235 Y46.529 E26.06649
G1 X7.977 Y46.529 E26.07455
G1 X7.329 Y47.182 E26.10332
G1 X7.329 Y49.086 E26.16284
G1 X7.314 Y49.101 E26.16351
G1 X7.314 Y51.077 E26.22528
G1 X8.031 Y51.797 E26.25705
G1 X22.597 Y51.797 E26.71245
G1 X23.314 Y51.077 E26.74422
G1 X23.314 Y50.014 E26.77745
G1 X23.28 Y50.014 E26.77852
G1 X23.259 Y47.25 E26.86494
G1 X23.04 Y47.029 E26.87466
G1 X23.04 Y44.943 E26.93988
G1 X24.2 Y44.943 E26.97615
G1 X24.259 Y45.003 E26.97878
G1 X24.26 Y47.02 E27.04184
G1 X24.313 Y47.02 E27.0435
G1 X24.314 Y53.215 E27.23718
G1 X24.244 Y53.215 E27.23937
M204 S4000
G0 F2400 X24.244 Y53.415
G0 X23.744 Y53.415
G0 X23.442 Y57.358
G0 X23.054 Y58.12
M204 S1800
;TYPE:SKIN
G1 F1200 X23.054 Y72.334 E27.68376
G1 X7.573 Y72.334 E28.16777
G1 X7.572 Y58.12 E28.61216
G1 X7.624 Y58.12 E28.61379
G1 X7.624 Y71.246 E29.02417
G1 X11.441 Y71.24 E29.1435
G1 X11.642 Y58.23 E29.5503
G1 X11.712 Y58.189 E29.55284
G1 X11.712 Y56.5 E29.60565
G1 X11.44 Y55.41 E29.64077
G1 X19.224 Y55.41 E29.88413
G1 X18.921 Y56.306 E29.9137
G1 X18.921 Y56.663 E29.92486
G1 X18.782 Y69.094 E30.31354
G1 X18.783 Y69.548 E30.32773
G1 X19.016 Y71.242 E30.38119
G1 X23.004 Y71.244 E30.50588
G1 X23.004 Y58.12 E30.91619
G1 X23.054 Y58.12 E30.91775
M204 S4000
G0 F2400 X22.242 Y70.482
G0 X19.679 Y70.482
G0 X19.562 Y69.683
G0 X18.934 Y55.704
M204 S1800
G1 F1200 X18.82 Y55.589 E30.92282
M204 S4000
G0 F2400 X18.792 Y56.127
M204 S1800
G1 F1200 X18.254 Y55.589 E30.9466
M204 S4000
G0 F2400 X17.688 Y55.589
M204 S1800
G1 F1200 X18.741 Y56.642 E30.99316
M204 S4000
G0 F2400 X18.735 Y57.202
M204 S1800
G1 F1200 X17.123 Y55.589 E31.06446
M204 S4000
G0 F2400 X16.557 Y55.589
M204 S1800
G1 F1200 X18.729 Y57.761 E31.16049
M204 S4000
G0 F2400 X18.722 Y58.32
M204 S1800
G1 F1200 X15.991 Y55.589 E31.28124
M204 S4000
G0 F2400 X15.426 Y55.589
M204 S1800
G1 F1200 X18.716 Y58.88 E31.42673
M204 S4000
G0 F2400 X18.71 Y59.439
M204 S1800
G1 F1200 X14.86 Y55.589 E31.59696
M204 S4000
G0 F2400 X14.294 Y55.589
M204 S1800
G1 F1200 X18.704 Y59.999 E31.79195
M204 S4000
G0 F2400 X18.698 Y60.558
M204 S1800
G1 F1200 X13.729 Y55.589 E32.01165
M204 S4000
G0 F2400 X13.163 Y55.589
M204 S1800
G1 F1200 X18.691 Y61.118 E32.25609
M204 S4000
G0 F2400 X18.685 Y61.677
M204 S1800
G1 F1200 X12.597 Y55.589 E32.52527
M204 S4000
G0 F2400 X12.032 Y55.589
M204 S1800
G1 F1200 X18.678 Y62.236 E32.81914
M204 S4000
G0 F2400 X18.672 Y62.796
M204 S1800
G1 F1200 X11.737 Y55.861 E33.12577
M204 S4000
G0 F2400 X11.892 Y56.581
M204 S1800
G1 F1200 X18.666 Y63.355 E33.42528
M204 S4000
G0 F2400 X18.66 Y63.915
M204 S1800
G1 F1200 X11.892 Y57.146 E33.72455
M204 S4000
G0 F2400 X11.892 Y57.712
M204 S1800
G1 F1200 X18.654 Y64.474 E34.02353
M204 S4000
G0 F2400 X18.647 Y65.034
M204 S1800
G1 F1200 X11.892 Y58.278 E34.32222
M204 S4000
G0 F2400 X11.812 Y58.764
M204 S1800
G1 F1200 X18.641 Y65.593 E34.62416
M204 S4000
G0 F2400 X18.635 Y66.152
M204 S1800
G1 F1200 X11.804 Y59.322 E34.92617
M204 S4000
G0 F2400 X11.795 Y59.879
M204 S1800
G1 F1200 X18.628 Y66.711 E35.22827
M204 S4000
G0 F2400 X18.622 Y67.271
M204 S1800
G1 F1200 X11.787 Y60.436 E35.53048
M204 S4000
G0 F2400 X11.778 Y60.992
M204 S1800
G1 F1200 X18.616 Y67.83 E35.83282
M204 S4000
G0 F2400 X18.61 Y68.39
M204 S1800
G1 F1200 X11.769 Y61.55 E36.13527
M204 S4000
G0 F2400 X11.761 Y62.107
M204 S1800
G1 F1200 X18.603 Y68.949 E36.43779
M204 S4000
G0 F2400 X18.603 Y69.514
M204 S1800
G1 F1200 X11.752 Y62.664 E36.74068
M204 S4000
G0 F2400 X11.744 Y63.221
M204 S1800
G1 F1200 X18.686 Y70.164 E37.04764
M204 S4000
G0 F2400 X18.777 Y70.82
M204 S1800
G1 F1200 X11.735 Y63.778 E37.359
M204 S4000
G0 F2400 X11.726 Y64.335
M204 S1800
G1 F1200 X19.544 Y72.153 E37.70467
M204 S4000
G0 F2400 X20.11 Y72.153
M204 S1800
G1 F1200 X19.378 Y71.422 E37.73701
M204 S4000
G0 F2400 X19.944 Y71.422
M204 S1800
G1 F1200 X20.675 Y72.153 E37.76933
M204 S4000
G0 F2400 X21.241 Y72.153
M204 S1800
G1 F1200 X20.511 Y71.422 E37.80163
M204 S4000
G0 F2400 X21.076 Y71.422
M204 S1800
G1 F1200 X21.807 Y72.153 E37.83395
M204 S4000
G0 F2400 X22.372 Y72.153
M204 S1800
G1 F1200 X21.643 Y71.423 E37.86621
M204 S4000
G0 F2400 X22.208 Y71.423
M204 S1800
G1 F1200 X22.873 Y72.088 E37.89561
M204 S4000
G0 F2400 X22.873 Y71.522
M204 S1800
G1 F1200 X22.774 Y71.423 E37.89999
M204 S4000
G0 F2400 X18.978 Y72.153
M204 S1800
G1 F1200 X11.718 Y64.892 E38.22101
M204 S4000
G0 F2400 X11.709 Y65.449
M204 S1800
G1 F1200 X18.413 Y72.153 E38.51742
M204 S4000
G0 F2400 X17.847 Y72.153
M204 S1800
G1 F1200 X11.701 Y66.007 E38.78917
M204 S4000
