;FLAVOR:Marlin
;TIME:1220
;Filament used: 2.05491m
;Layer height: 0.4
;MINX:135.998
;MINY:124.866
;MINZ:0.5
;MAXX:181.629
;MAXY:177.498
;MAXZ:26.1
;Generated with Cura_SteamEngine 4.10.0
M140 S90
M105
M190 S90
M104 S240
M105
M109 S240
M82 ;absolute extrusion mode
G28 ; home all axes
 M117 Purge extruder
 G92 E0 ; reset extruder
 G1 Z1.0 F3000 ; move z up little to prevent scratching of surface
 G1 X2 Y20 Z0.3 F5000.0 ; move to start-line position
 G1 X2 Y200.0 Z0.3 F1500.0 E15 ; draw 1st line
 G1 X2 Y200.0 Z0.4 F5000.0 ; move to side a little
 G1 X2 Y20 Z0.4 F1500.0 E30 ; draw 2nd line
 G92 E0 ; reset extruder
 G1 Z1.0 F3000 ; move z up little to prevent scratching of surface
G92 E0
G92 E0
G1 F2100 E-2
;LAYER_COUNT:65
;LAYER:0
M107
G0 F6000 X141.234 Y128.238 Z0.5
;TYPE:SKIRT
G1 F2100 E0
G1 F600 X141.4 Y128.072 E0.02782
G1 X142.087 Y127.44 E0.13842
G1 X142.827 Y126.87 E0.2491
G1 X143.612 Y126.365 E0.3597
G1 X144.438 Y125.93 E0.47032
G1 X145.298 Y125.566 E0.58097
G1 X146.186 Y125.278 E0.69158
G1 X147.095 Y125.066 E0.80218
G1 X148.019 Y124.933 E0.91279
G1 X148.534 Y124.894 E0.97399
G1 X148.686 Y124.886 E0.99202
G1 X149.126 Y124.872 E1.04419
G1 X149.668 Y124.866 E1.10841
G1 X152.336 Y124.866 E1.42454
G1 X154.524 Y124.896 E1.68382
G1 X157.147 Y124.896 E1.99462
G1 X157.894 Y124.878 E2.08315
G1 X158.836 Y124.868 E2.19478
G1 X161.43 Y124.872 E2.50214
G1 X161.815 Y124.878 E2.54776
G1 X162.747 Y124.933 E2.65839
G1 X163.671 Y125.067 E2.76901
G1 X164.58 Y125.28 E2.87964
G1 X165.467 Y125.569 E2.99018
G1 X166.327 Y125.934 E3.10088
G1 X167.152 Y126.37 E3.21144
G1 X167.609 Y126.654 E3.27519
G1 X167.94 Y126.87 E3.32203
G1 X170.137 Y128.265 E3.63039
G1 X172.332 Y129.573 E3.93315
G1 X174.784 Y130.939 E4.26573
G1 X175.526 Y131.337 E4.3655
G1 X176.329 Y131.813 E4.4761
G1 X177.089 Y132.356 E4.58678
G1 X177.799 Y132.962 E4.69738
G1 X178.455 Y133.627 E4.80807
G1 X179.137 Y134.459 E4.93554
G1 X179.248 Y134.609 E4.95765
G1 X179.486 Y134.944 E5.00634
G1 X179.665 Y135.206 E5.04394
G1 X180.158 Y135.999 E5.15458
G1 X180.582 Y136.831 E5.26522
G1 X180.933 Y137.696 E5.37583
G1 X181.208 Y138.588 E5.48643
G1 X181.381 Y139.358 E5.57995
G1 X181.422 Y139.578 E5.60646
G1 X181.494 Y140.017 E5.65917
G1 X181.507 Y140.107 E5.66995
G1 X181.614 Y141.336 E5.81612
G1 X181.624 Y141.667 E5.85536
G1 X181.629 Y141.996 E5.89435
G1 X181.629 Y142.69 E5.97658
G1 X181.578 Y165.411 E8.66878
G1 X181.566 Y166.152 E8.75659
G1 X181.51 Y167.084 E8.86722
G1 X181.376 Y168.008 E8.97785
G1 X181.163 Y168.917 E9.08848
G1 X180.872 Y169.805 E9.1992
G1 X180.507 Y170.664 E9.30979
G1 X180.07 Y171.489 E9.42041
G1 X179.797 Y171.93 E9.48187
G1 X179.722 Y172.045 E9.49813
G1 X179.392 Y172.523 E9.56696
G1 X179.172 Y172.824 E9.61113
G1 X178.589 Y173.553 E9.72174
G1 X177.946 Y174.23 E9.83237
G1 X177.248 Y174.85 E9.94299
G1 X176.499 Y175.407 E10.05359
G1 X175.335 Y176.097 E10.21392
G1 X174.927 Y176.299 E10.26787
G1 X174.704 Y176.404 E10.29707
G1 X173.843 Y176.765 E10.4077
G1 X172.53 Y177.159 E10.57013
G1 X172.272 Y177.219 E10.60151
G1 X171.354 Y177.391 E10.71218
G1 X170.426 Y177.484 E10.82269
G1 X169.492 Y177.498 E10.93337
G1 X168.561 Y177.431 E11.04397
G1 X167.669 Y177.291 E11.15095
G1 X167.118 Y177.181 E11.21753
G1 X166.836 Y177.121 E11.25169
G1 X145.77 Y172.332 E13.81147
G1 X145.051 Y172.158 E13.89913
G1 X144.154 Y171.9 E14.00972
G1 X143.003 Y171.44 E14.15659
G1 X142.791 Y171.341 E14.18431
G1 X141.963 Y170.91 E14.29492
G1 X141.08 Y170.343 E14.41926
G1 X140.875 Y170.197 E14.44908
G1 X140.138 Y169.624 E14.55969
G1 X139.453 Y168.989 E14.67037
G1 X138.826 Y168.298 E14.78093
G1 X138.367 Y167.708 E14.8695
G1 X138.094 Y167.321 E14.92561
G1 X137.924 Y167.069 E14.96163
G1 X137.435 Y166.273 E15.07233
G1 X137.017 Y165.439 E15.18286
G1 X136.671 Y164.571 E15.29358
G1 X136.401 Y163.678 E15.40412
G1 X136.208 Y162.764 E15.51481
G1 X136.068 Y161.392 E15.67822
G1 X136.058 Y161.132 E15.70905
G1 X136.05 Y160.745 E15.75492
G1 X135.998 Y142.921 E17.86688
G1 X136.007 Y142.049 E17.97021
G1 X136.016 Y141.715 E18.0098
G1 X136.027 Y141.452 E18.04099
G1 X136.042 Y141.166 E18.07492
G1 X136.07 Y140.755 E18.12373
G1 X136.119 Y140.227 E18.18656
G1 X136.136 Y140.082 E18.20386
G1 X136.284 Y139.16 E18.31451
G1 X136.511 Y138.254 E18.42518
G1 X136.751 Y137.537 E18.51477
G1 X136.993 Y136.892 E18.5964
G1 X137.555 Y135.447 E18.78011
G1 X138.55 Y132.646 E19.13231
G1 X138.623 Y132.432 E19.1591
G1 X138.961 Y131.562 E19.2697
G1 X139.373 Y130.724 E19.38034
G1 X139.855 Y129.924 E19.49101
G1 X140.403 Y129.169 E19.60155
G1 X141.234 Y128.238 E19.74941
G0 F6000 X141.658 Y128.662
G1 F600 X141.824 Y128.496 E19.77723
G1 X142.493 Y127.883 E19.88475
G1 X143.214 Y127.331 E19.99234
G1 X143.98 Y126.846 E20.09976
G1 X144.787 Y126.429 E20.2074
G1 X145.626 Y126.085 E20.31484
G1 X146.493 Y125.816 E20.4224
G1 X147.38 Y125.625 E20.52991
G1 X148.566 Y125.493 E20.67131
G1 X148.718 Y125.485 E20.68934
G1 X149.133 Y125.472 E20.73854
G1 X149.668 Y125.466 E20.80194
G1 X152.336 Y125.466 E21.11806
G1 X154.516 Y125.496 E21.3764
G1 X157.123 Y125.496 E21.6853
G1 X157.9 Y125.478 E21.77739
G1 X158.836 Y125.468 E21.8883
G1 X161.42 Y125.472 E22.19448
G1 X161.805 Y125.478 E22.2401
G1 X162.711 Y125.532 E22.34764
G1 X163.609 Y125.666 E22.45522
G1 X164.491 Y125.878 E22.56271
G1 X165.352 Y126.167 E22.67032
G1 X166.183 Y126.531 E22.77782
G1 X167.281 Y127.156 E22.92752
G1 X167.622 Y127.379 E22.9758
G1 X169.842 Y128.789 E23.28741
G1 X172.016 Y130.084 E23.58725
G1 X174.5 Y131.468 E23.92418
G1 X175.243 Y131.866 E24.02405
G1 X176.023 Y132.329 E24.13153
G1 X176.759 Y132.86 E24.23906
G1 X177.446 Y133.453 E24.3466
G1 X178.077 Y134.105 E24.45411
G1 X178.655 Y134.816 E24.56268
G1 X178.766 Y134.966 E24.58479
G1 X178.991 Y135.283 E24.63085
G1 X179.17 Y135.545 E24.66845
G1 X179.648 Y136.316 E24.77593
G1 X180.057 Y137.126 E24.88345
G1 X180.393 Y137.969 E24.99098
G1 X180.653 Y138.839 E25.09857
G1 X180.791 Y139.468 E25.17487
G1 X180.832 Y139.688 E25.20139
G1 X180.9 Y140.103 E25.25122
G1 X180.913 Y140.193 E25.26199
G1 X181.014 Y141.354 E25.40008
G1 X181.024 Y141.685 E25.43932
G1 X181.029 Y141.996 E25.47617
G1 X181.029 Y142.689 E25.55828
G1 X180.978 Y165.402 E28.24954
G1 X180.966 Y166.143 E28.33735
G1 X180.911 Y167.049 E28.4449
G1 X180.777 Y167.946 E28.55236
G1 X180.564 Y168.828 E28.65987
G1 X180.275 Y169.689 E28.76749
G1 X179.911 Y170.52 E28.87498
G1 X179.294 Y171.603 E29.02267
G1 X179.219 Y171.718 E29.03894
G1 X178.908 Y172.169 E29.10385
G1 X178.688 Y172.47 E29.14803
G1 X178.12 Y173.178 E29.25558
G1 X177.493 Y173.834 E29.3631
G1 X176.81 Y174.432 E29.47066
G1 X176.078 Y174.967 E29.5781
G1 X175.061 Y175.563 E29.71777
G1 X174.672 Y175.756 E29.76922
G1 X174.449 Y175.861 E29.79843
G1 X173.611 Y176.211 E29.90603
G1 X172.394 Y176.574 E30.05651
G1 X172.136 Y176.634 E30.0879
G1 X171.244 Y176.801 E30.19543
G1 X170.341 Y176.888 E30.30292
G1 X169.433 Y176.895 E30.41051
G1 X168.529 Y176.823 E30.51796
G1 X167.787 Y176.703 E30.60702
G1 X167.236 Y176.593 E30.6736
G1 X166.969 Y176.536 E30.70595
G1 X145.911 Y171.749 E33.26475
G1 X145.192 Y171.575 E33.35241
G1 X144.321 Y171.323 E33.45984
G1 X143.257 Y170.897 E33.59565
G1 X143.045 Y170.798 E33.62337
G1 X142.24 Y170.378 E33.73096
G1 X141.428 Y169.855 E33.8454
G1 X141.223 Y169.709 E33.87522
G1 X140.508 Y169.15 E33.98276
G1 X139.844 Y168.531 E34.09032
G1 X139.238 Y167.856 E34.1978
G1 X138.853 Y167.356 E34.27258
G1 X138.591 Y166.985 E34.32639
G1 X138.421 Y166.733 E34.36241
G1 X137.947 Y165.959 E34.46995
G1 X137.543 Y165.147 E34.57742
G1 X137.213 Y164.302 E34.6849
G1 X136.957 Y163.431 E34.79247
G1 X136.78 Y162.541 E34.89999
G1 X136.668 Y161.369 E35.0395
G1 X136.658 Y161.109 E35.07033
G1 X136.65 Y160.743 E35.1137
G1 X136.599 Y142.774 E37.24285
G1 X136.607 Y142.055 E37.32804
G1 X136.615 Y141.74 E37.36538
G1 X136.626 Y141.477 E37.39657
G1 X136.641 Y141.207 E37.42861
G1 X136.669 Y140.796 E37.47742
G1 X136.715 Y140.297 E37.5368
G1 X136.732 Y140.152 E37.5541
G1 X136.877 Y139.256 E37.66165
G1 X137.101 Y138.376 E37.76924
G1 X137.313 Y137.747 E37.84789
G1 X137.552 Y137.11 E37.92851
G1 X138.114 Y135.666 E38.11211
G1 X139.122 Y132.829 E38.46885
G1 X139.191 Y132.625 E38.49437
G1 X139.521 Y131.78 E38.60185
G1 X139.924 Y130.967 E38.70937
G1 X140.397 Y130.192 E38.81695
G1 X140.937 Y129.463 E38.92445
G1 X141.658 Y128.662 E39.05214
G0 F6000 X159.182 Y137.049
G1 F600 X159.195 Y137.062 E39.05432
G1 X159.41 Y137.221 E39.08601
G1 X159.662 Y137.31 E39.11767
G1 X159.831 Y137.326 E39.13779
G1 X160.328 Y137.326 E39.19668
G1 X160.182 Y137.678 E39.24183
G1 X160.113 Y138.023 E39.28352
G1 X160.113 Y138.713 E39.36528
G1 X159.181 Y138.714 E39.47571
G1 X159.182 Y137.049 E39.67299
G0 F6000 X159.619 Y136.638
G1 F600 X159.831 Y136.726 E39.70019
G1 X160.429 Y136.726 E39.77105
G1 X160.641 Y136.638 E39.79825
G1 X161.213 Y136.066 E39.89409
G1 X161.524 Y136.066 E39.93094
G1 X161.525 Y136.766 E40.01389
G1 X161.03 Y137.259 E40.09667
G1 X160.965 Y137.356 E40.1105
G1 X160.736 Y137.908 E40.18131
G1 X160.713 Y138.023 E40.19521
G1 X160.713 Y139.313 E40.34806
G1 X158.581 Y139.314 E40.60068
G1 X158.583 Y136.082 E40.98364
G1 X158.599 Y136.066 E40.98632
G1 X159.047 Y136.066 E41.0394
G1 X159.619 Y136.638 E41.13525
G0 F6000 X152.724 Y136.86
G1 F600 X152.506 Y136.766 E41.16338
G1 X149.23 Y136.766 E41.55155
G1 X149.23 Y136.066 E41.63449
G1 X152.725 Y136.066 E42.04861
G1 X152.724 Y136.86 E42.14269
G1 F2100 E40.14269
;MESH:PhoneHolderTwist_note9InSamsungCaseV02.stl 41
G0 F6000 X170.258 Y140.25
G0 X170.642 Y140.436
G0 X171.15 Y141.048
G0 X171.291 Y141.669
G0 X171.241 Y166.001
G0 X171.151 Y166.286
G0 X170.83 Y166.739
G0 X170.199 Y167.111
G0 X169.516 Y167.131
G0 X169.884 Y166.193
;TYPE:WALL-OUTER
G1 F2100 E42.14269
G1 F600 X169.696 Y166.183 E42.16618
G1 X147.743 Y161.194 E44.97409
G1 X147.513 Y161.082 E45.006
G1 X147.35 Y160.851 E45.04126
G1 X147.296 Y142.201 E47.3674
G1 X147.303 Y142.066 E47.38426
G1 X147.348 Y142.066 E47.38987
G1 X147.35 Y141.48 E47.46296
G1 X147.511 Y141.251 E47.49788
G1 X147.742 Y141.139 E47.5299
G1 X147.856 Y141.114 E47.54445
G1 X169.771 Y141.113 E50.27781
G1 X169.882 Y141.138 E50.292
G1 X170.113 Y141.25 E50.32402
G1 X170.276 Y141.481 E50.35929
G1 X170.276 Y142.066 E50.43225
G1 X170.329 Y142.066 E50.43886
G1 X170.277 Y165.851 E53.40546
G1 X170.114 Y166.081 E53.44063
G1 X169.884 Y166.193 E53.47253
G0 F6000 X169.687 Y165.575
;TYPE:SKIN
G1 F600 X147.94 Y160.634 E56.11499
G1 X147.887 Y142.656 E58.2452
G1 X147.936 Y142.656 E58.251
G1 X147.94 Y141.704 E58.36381
G1 X169.686 Y141.703 E60.94047
G1 X169.686 Y142.656 E61.05339
G1 X169.737 Y142.656 E61.05944
G1 X169.687 Y165.575 E63.7751
G1 F2100 E61.7751
G0 F6000 X169.344 Y167.092
G0 X147.368 Y162.083
G0 X146.983 Y161.896
G0 X146.477 Y161.285
G0 X146.383 Y160.063
G0 X148.177 Y160.057
G1 F2100 E63.7751
G1 F600 X148.674 Y160.554 E63.85838
G0 F6000 X149.772 Y160.803
G1 F600 X148.174 Y159.205 E64.12616
G0 F6000 X148.172 Y158.355
G1 F600 X150.87 Y161.052 E64.57817
G0 F6000 X151.968 Y161.302
G1 F600 X148.169 Y157.503 E65.21477
G0 F6000 X148.167 Y156.653
G1 F600 X153.066 Y161.551 E66.03561
G0 F6000 X154.164 Y161.801
G1 F600 X148.165 Y155.801 E67.04094
G0 F6000 X148.162 Y154.951
G1 F600 X155.262 Y162.051 E68.23068
G0 F6000 X156.361 Y162.3
G1 F600 X148.16 Y154.099 E69.60491
G0 F6000 X148.157 Y153.249
G1 F600 X157.458 Y162.549 E71.16339
G0 F6000 X158.556 Y162.799
G1 F600 X148.155 Y152.397 E72.90636
G0 F6000 X148.152 Y151.546
G1 F600 X159.654 Y163.048 E74.83374
G0 F6000 X160.752 Y163.298
G1 F600 X148.15 Y150.695 E76.94553
G0 F6000 X148.147 Y149.844
G1 F600 X161.851 Y163.548 E79.24189
G0 F6000 X162.948 Y163.797
G1 F600 X148.145 Y148.993 E81.7225
G0 F6000 X148.142 Y148.142
G1 F600 X164.046 Y164.046 E84.38752
G0 F6000 X165.144 Y164.296
G1 F600 X148.14 Y147.291 E87.23695
G0 F6000 X148.137 Y146.44
G1 F600 X166.242 Y164.545 E90.27079
G0 F6000 X167.341 Y164.795
G1 F600 X148.135 Y145.589 E93.48912
G0 F6000 X148.132 Y144.738
G1 F600 X168.438 Y165.044 E96.89178
G0 F6000 X169.448 Y165.205
G1 F600 X148.13 Y143.887 E100.46401
G0 F6000 X148.127 Y143.036
G1 F600 X169.449 Y164.358 E104.03692
G0 F6000 X169.451 Y163.512
G1 F600 X148.176 Y142.236 E107.60204
G0 F6000 X148.732 Y141.943
G1 F600 X169.453 Y162.664 E111.07424
G0 F6000 X169.455 Y161.818
G1 F600 X149.58 Y141.943 E114.40467
G0 F6000 X150.429 Y141.943
G1 F600 X169.457 Y160.972 E117.59326
G0 F6000 X169.458 Y160.125
G1 F600 X151.277 Y141.943 E120.63992
G0 F6000 X152.126 Y141.943
G1 F600 X169.46 Y159.278 E123.54464
G0 F6000 X169.462 Y158.431
G1 F600 X152.974 Y141.943 E126.30752
G0 F6000 X153.823 Y141.943
G1 F600 X169.464 Y157.585 E128.92855
G0 F6000 X169.465 Y156.737
G1 F600 X154.671 Y141.943 E131.40757
G0 F6000 X155.52 Y141.943
G1 F600 X169.468 Y155.891 E133.74482
G0 F6000 X169.47 Y155.045
G1 F600 X156.368 Y141.943 E135.94031
G0 F6000 X157.217 Y141.943
G1 F600 X169.471 Y154.198 E137.99379
G0 F6000 X169.473 Y153.351
G1 F600 X158.065 Y141.943 E139.90542
G0 F6000 X158.914 Y141.943
G1 F600 X169.475 Y152.504 E141.67511
G0 F6000 X169.477 Y151.658
G1 F600 X159.762 Y141.943 E143.30305
G0 F6000 X160.611 Y141.943
G1 F600 X169.478 Y150.811 E144.78897
G0 F6000 X169.48 Y149.964
G1 F600 X161.46 Y141.943 E146.13295
G0 F6000 X162.308 Y141.943
G1 F600 X169.482 Y149.118 E147.33518
G0 F6000 X169.484 Y148.271
G1 F600 X163.157 Y141.943 E148.39547
G0 F6000 X164.005 Y141.943
G1 F600 X169.486 Y147.424 E149.31392
G0 F6000 X169.487 Y146.577
G1 F600 X164.854 Y141.943 E150.09035
G0 F6000 X165.702 Y141.943
G1 F600 X169.489 Y145.731 E150.72502
G0 F6000 X169.491 Y144.884
G1 F600 X166.551 Y141.943 E151.21775
G0 F6000 X167.399 Y141.943
G1 F600 X169.493 Y144.037 E151.56864
G0 F6000 X169.495 Y143.191
G1 F600 X168.248 Y141.943 E151.77769
G0 F6000 X169.096 Y141.943
G1 F600 X169.445 Y142.292 E151.83617
G1 F2100 E149.83617
;MESH:NONMESH
G0 F300 X169.445 Y142.292 Z0.9
G0 F6000 X169.444 Y140.149
G0 X149.23 Y136.066
;TIME_ELAPSED:139.041991
;LAYER:1
M106 S12.8
;TYPE:SUPPORT
G1 F2100 E151.83617
G1 F1800 X152.725 Y136.066 E152.1849
G1 X152.724 Y136.86 E152.26413
G1 X152.63 Y136.766 E152.27739
G1 X149.23 Y136.766 E152.61664
G1 X149.23 Y136.066 E152.68649
G1 F2100 E150.68649
G0 F6000 X149.23 Y135.101
G0 X153.714 Y135.113
G0 X157.617 Y136.082
G0 X158.583 Y136.082
G1 F2100 E152.68649
G1 F1800 X158.599 Y136.066 E152.68875
G1 X159.047 Y136.066 E152.73345
G1 X159.707 Y136.726 E152.82658
G1 X160.553 Y136.726 E152.911
G1 X161.213 Y136.066 E153.00413
G1 X161.524 Y136.066 E153.03516
G1 X161.525 Y136.766 E153.10501
G1 X160.988 Y137.301 E153.18064
G1 X160.713 Y137.963 E153.25217
G1 X160.713 Y138.769 E153.33259
G1 X158.581 Y138.768 E153.54533
G1 X158.583 Y136.082 E153.81334
G0 F6000 X159.003 Y136.616
G1 F1800 X159.001 Y138.348 E153.98616
G1 X160.293 Y138.349 E154.11507
G1 X160.293 Y137.879 E154.16197
G1 X160.598 Y137.146 E154.24119
G1 X159.533 Y137.146 E154.34745
G1 X159.003 Y136.616 E154.42224
G1 F2100 E152.42224
;MESH:PhoneHolderTwist_note9InSamsungCaseV02.stl 41
G0 F6000 X157.617 Y136.616
G0 X153.714 Y135.113
G0 X148.832 Y135.105
G0 X148.269 Y135.668
G0 X145.835 Y141.132
G0 X145.765 Y142.349
G0 X146.729 Y142.38
;TYPE:WALL-OUTER
G1 F2100 E154.42224
G1 F1800 X146.729 Y142.066 E154.45357
G1 X146.754 Y142.066 E154.45607
G1 X146.754 Y141.438 E154.51873
G1 X146.956 Y140.992 E154.56758
G1 X147.121 Y140.83 E154.59066
G1 X147.459 Y140.616 E154.63057
G1 X147.478 Y140.609 E154.63259
G1 X147.833 Y140.568 E154.66825
G1 X169.794 Y140.569 E156.85953
G1 X170.15 Y140.609 E156.89527
G1 X170.163 Y140.614 E156.89666
G1 X170.505 Y140.831 E156.93708
G1 X170.669 Y140.992 E156.96001
G1 X170.873 Y141.44 E157.00913
G1 X170.873 Y142.066 E157.07159
G1 X170.906 Y142.066 E157.07488
G1 X170.897 Y149.515 E157.81815
G1 X170.872 Y165.893 E159.45235
G1 X170.669 Y166.34 E159.50134
G1 X170.506 Y166.5 E159.52413
G1 X170.167 Y166.716 E159.56424
G1 X170.148 Y166.722 E159.56623
G1 X169.813 Y166.761 E159.59988
G1 X169.46 Y166.72 E159.63534
G1 X147.503 Y161.73 E161.88208
G1 X147.46 Y161.716 E161.88659
G1 X147.121 Y161.501 E161.92665
G1 X146.956 Y161.339 E161.94972
G1 X146.754 Y160.893 E161.99857
G1 X146.719 Y142.68 E163.81588
G1 X146.729 Y142.38 E163.84583
G0 F6000 X147.31 Y142.656
;TYPE:SKIN
