;FLAVOR:Marlin
;TIME:8255
;Filament used: 12.1536m
;Layer height: 0.4
;MINX:137.812
;MINY:107.225
;MINZ:0.5
;MAXX:187.36
;MAXY:214.784
;MAXZ:113.7
;Generated with Cura_SteamEngine 4.10.0
M140 S90
M105
M190 S90
M104 S240
M105
M109 S240
M82 ;absolute extrusion mode
G28 ; home all axes
 M117 Purge extruder
 G92 E0 ; reset extruder
 G1 Z1.0 F3000 ; move z up little to prevent scratching of surface
 G1 X2 Y20 Z0.3 F5000.0 ; move to start-line position
 G1 X2 Y200.0 Z0.3 F1500.0 E15 ; draw 1st line
 G1 X2 Y200.0 Z0.4 F5000.0 ; move to side a little
 G1 X2 Y20 Z0.4 F1500.0 E30 ; draw 2nd line
 G92 E0 ; reset extruder
 G1 Z1.0 F3000 ; move z up little to prevent scratching of surface
G92 E0
G92 E0
G1 F2100 E-2
;LAYER_COUNT:284
;LAYER:0
M107
G0 F6000 X142.61 Y113.45 Z0.5
;TYPE:SKIRT
G1 F2100 E0
G1 F600 X143.357 Y112.606 E0.13355
G1 X144.163 Y111.817 E0.26719
G1 X145.022 Y111.087 E0.40076
G1 X145.675 Y110.598 E0.49743
G1 X145.998 Y110.366 E0.54455
G1 X146.933 Y109.737 E0.67807
G1 X147.911 Y109.175 E0.81173
G1 X148.926 Y108.684 E0.94532
G1 X149.974 Y108.267 E1.07897
G1 X151.048 Y107.924 E1.21256
G1 X151.971 Y107.695 E1.32524
G1 X152.479 Y107.585 E1.38683
G1 X153.589 Y107.386 E1.52045
G1 X154.71 Y107.265 E1.65405
G1 X155.951 Y107.225 E1.80117
G1 X169.951 Y107.319 E3.46006
G1 X171.077 Y107.367 E3.5936
G1 X172.198 Y107.494 E3.72727
G1 X173.424 Y107.727 E3.87514
G1 X173.926 Y107.843 E3.93619
G1 X175.015 Y108.136 E4.06981
G1 X176.08 Y108.505 E4.20336
G1 X177.117 Y108.949 E4.33703
G1 X178.12 Y109.465 E4.47067
G1 X179.083 Y110.051 E4.60425
G1 X179.809 Y110.558 E4.70917
G1 X180.264 Y110.895 E4.77626
G1 X181.146 Y111.598 E4.9099
G1 X181.976 Y112.361 E5.04349
G1 X182.75 Y113.182 E5.17718
G1 X183.463 Y114.055 E5.31074
G1 X183.9 Y114.66 E5.39917
G1 X184.255 Y115.176 E5.47338
G1 X184.861 Y116.127 E5.607
G1 X185.398 Y117.119 E5.74066
G1 X185.863 Y118.146 E5.87424
G1 X186.145 Y118.884 E5.96785
G1 X186.309 Y119.349 E6.02627
G1 X186.423 Y119.681 E6.06787
G1 X186.751 Y120.76 E6.20149
G1 X187.002 Y121.86 E6.33518
G1 X187.199 Y123.193 E6.49484
G1 X187.274 Y123.911 E6.58038
G1 X187.351 Y125.036 E6.71399
G1 X187.36 Y125.67 E6.78912
G1 X187.214 Y147.271 E9.34867
G1 X187.166 Y148.398 E9.48233
G1 X187.039 Y149.519 E9.616
G1 X186.832 Y150.627 E9.74956
G1 X186.548 Y151.718 E9.88314
G1 X186.187 Y152.787 E10.01683
G1 X185.751 Y153.827 E10.15045
G1 X185.242 Y154.833 E10.28404
G1 X184.664 Y155.801 E10.41763
G1 X184.018 Y156.725 E10.55122
G1 X183.308 Y157.602 E10.68492
G1 X182.538 Y158.426 E10.81855
G1 X181.712 Y159.193 E10.95211
G1 X180.833 Y159.9 E11.08577
G1 X179.907 Y160.542 E11.21928
G1 X178.937 Y161.118 E11.35295
G1 X177.929 Y161.623 E11.48654
G1 X176.887 Y162.055 E11.6202
G1 X176.462 Y162.197 E11.67329
G1 X176.733 Y162.289 E11.7072
G1 X177.773 Y162.725 E11.84082
G1 X178.779 Y163.234 E11.97441
G1 X179.747 Y163.813 E12.10806
G1 X180.672 Y164.458 E12.24168
G1 X181.548 Y165.168 E12.37528
G1 X182.372 Y165.938 E12.50891
G1 X183.139 Y166.764 E12.64247
G1 X183.846 Y167.643 E12.77614
G1 X184.488 Y168.57 E12.90974
G1 X185.064 Y169.539 E13.04331
G1 X185.569 Y170.548 E13.17701
G1 X186.001 Y171.589 E13.31055
G1 X186.359 Y172.659 E13.44425
G1 X186.64 Y173.751 E13.57785
G1 X186.842 Y174.86 E13.71142
G1 X186.966 Y175.981 E13.84505
G1 X187.01 Y177.269 E13.99776
G1 X186.88 Y196.669 E16.2965
G1 X186.832 Y197.795 E16.43004
G1 X186.77 Y198.429 E16.50552
G1 X186.685 Y199.148 E16.59131
G1 X186.513 Y200.262 E16.72487
G1 X186.262 Y201.362 E16.85856
G1 X185.846 Y202.693 E17.02379
G1 X185.61 Y203.345 E17.10595
G1 X185.189 Y204.391 E17.23955
G1 X184.694 Y205.404 E17.37315
G1 X184.129 Y206.38 E17.50677
G1 X183.614 Y207.151 E17.61663
G1 X183.249 Y207.664 E17.69123
G1 X182.563 Y208.559 E17.82485
G1 X181.816 Y209.403 E17.9584
G1 X181.01 Y210.192 E18.09204
G1 X180.151 Y210.922 E18.22561
G1 X179.565 Y211.363 E18.31251
G1 X179.108 Y211.691 E18.37917
G1 X178.169 Y212.316 E18.51282
G1 X177.188 Y212.872 E18.64643
G1 X176.171 Y213.358 E18.77998
G1 X175.121 Y213.77 E18.91363
G1 X174.045 Y214.107 E19.04723
G1 X173.196 Y214.315 E19.15081
G1 X172.687 Y214.425 E19.21251
G1 X171.577 Y214.624 E19.34613
G1 X170.455 Y214.744 E19.47983
G1 X169.221 Y214.784 E19.62613
G1 X155.222 Y214.69 E21.28489
G1 X154.096 Y214.642 E21.41843
G1 X152.975 Y214.515 E21.55211
G1 X151.749 Y214.282 E21.69998
G1 X151.247 Y214.166 E21.76103
G1 X150.158 Y213.873 E21.89465
G1 X149.093 Y213.504 E22.0282
G1 X148.056 Y213.06 E22.16186
G1 X147.053 Y212.544 E22.29551
G1 X146.09 Y211.958 E22.42908
G1 X145.364 Y211.451 E22.53401
G1 X144.909 Y211.114 E22.6011
G1 X144.027 Y210.411 E22.73474
G1 X143.197 Y209.648 E22.86833
G1 X142.423 Y208.827 E23.00202
G1 X141.71 Y207.954 E23.13558
G1 X141.273 Y207.349 E23.22401
G1 X140.918 Y206.833 E23.29822
G1 X140.312 Y205.882 E23.43184
G1 X139.775 Y204.89 E23.5655
G1 X139.31 Y203.863 E23.69908
G1 X139.028 Y203.125 E23.79269
G1 X138.864 Y202.66 E23.85111
G1 X138.75 Y202.328 E23.89271
G1 X138.422 Y201.249 E24.02633
G1 X138.171 Y200.149 E24.16002
G1 X137.976 Y198.838 E24.31707
G1 X137.9 Y198.12 E24.40262
G1 X137.821 Y196.995 E24.53625
G1 X137.812 Y196.338 E24.6141
G1 X137.944 Y176.937 E26.91296
G1 X137.992 Y175.81 E27.04662
G1 X138.119 Y174.69 E27.18018
G1 X138.326 Y173.581 E27.31386
G1 X138.61 Y172.49 E27.44744
G1 X138.972 Y171.422 E27.58105
G1 X139.408 Y170.382 E27.71467
G1 X139.916 Y169.375 E27.84832
G1 X140.495 Y168.407 E27.98196
G1 X141.141 Y167.483 E28.11555
G1 X141.85 Y166.607 E28.24909
G1 X142.62 Y165.783 E28.38272
G1 X143.447 Y165.016 E28.51636
G1 X144.325 Y164.309 E28.64993
G1 X145.252 Y163.666 E28.78361
G1 X146.222 Y163.091 E28.91722
G1 X147.23 Y162.586 E29.05081
G1 X148.272 Y162.153 E29.18451
G1 X148.696 Y162.012 E29.23745
G1 X148.425 Y161.92 E29.27136
G1 X147.385 Y161.484 E29.40498
G1 X146.379 Y160.975 E29.53857
G1 X145.411 Y160.396 E29.67222
G1 X144.486 Y159.751 E29.80584
G1 X143.61 Y159.041 E29.93945
G1 X142.786 Y158.271 E30.07308
G1 X142.019 Y157.445 E30.20664
G1 X141.312 Y156.566 E30.3403
G1 X140.67 Y155.639 E30.47391
G1 X140.094 Y154.67 E30.60748
G1 X139.589 Y153.661 E30.74117
G1 X139.157 Y152.62 E30.87472
G1 X138.799 Y151.55 E31.00841
G1 X138.518 Y150.458 E31.14201
G1 X138.316 Y149.349 E31.27558
G1 X138.192 Y148.228 E31.40922
G1 X138.148 Y146.941 E31.5618
G1 X138.251 Y131.444 E33.39807
G1 X138.294 Y125.336 E34.12182
G1 X138.342 Y124.209 E34.25548
G1 X138.401 Y123.603 E34.32762
G1 X138.485 Y122.884 E34.4134
G1 X138.656 Y121.769 E34.54706
G1 X138.905 Y120.669 E34.68069
G1 X139.325 Y119.325 E34.84754
G1 X139.561 Y118.672 E34.92981
G1 X139.981 Y117.625 E35.06348
G1 X140.475 Y116.612 E35.19702
G1 X141.039 Y115.635 E35.33069
G1 X141.559 Y114.858 E35.44147
G1 X141.924 Y114.345 E35.51607
G1 X142.61 Y113.45 E35.64968
G0 F6000 X143.086 Y113.816
G1 F600 X143.821 Y112.989 E35.78078
G1 X144.614 Y112.218 E35.91183
G1 X145.46 Y111.506 E36.04285
G1 X146.022 Y111.087 E36.12591
G1 X146.35 Y110.852 E36.17372
G1 X147.268 Y110.235 E36.30478
G1 X148.229 Y109.686 E36.43592
G1 X149.226 Y109.208 E36.56693
G1 X150.255 Y108.803 E36.69796
G1 X151.311 Y108.474 E36.82902
G1 X152.098 Y108.282 E36.925
G1 X152.606 Y108.172 E36.98659
G1 X153.695 Y107.977 E37.11768
G1 X154.795 Y107.861 E37.24874
G1 X155.947 Y107.825 E37.3853
G1 X169.947 Y107.919 E39.04419
G1 X171.052 Y107.967 E39.17524
G1 X172.151 Y108.094 E39.30633
G1 X173.289 Y108.312 E39.44362
G1 X173.791 Y108.428 E39.50467
G1 X174.859 Y108.716 E39.63574
G1 X175.903 Y109.08 E39.76674
G1 X176.919 Y109.519 E39.89789
G1 X177.9 Y110.03 E40.02895
G1 X178.841 Y110.61 E40.15993
G1 X179.452 Y111.04 E40.24845
G1 X179.907 Y111.377 E40.31554
G1 X180.772 Y112.067 E40.44665
G1 X181.584 Y112.818 E40.57771
G1 X182.34 Y113.625 E40.70873
G1 X183.036 Y114.485 E40.83982
G1 X183.406 Y115 E40.91496
G1 X183.761 Y115.516 E40.98917
G1 X184.355 Y116.449 E41.12023
G1 X184.879 Y117.423 E41.25128
G1 X185.332 Y118.432 E41.38233
G1 X185.58 Y119.084 E41.46498
G1 X185.742 Y119.544 E41.52277
G1 X185.856 Y119.876 E41.56436
G1 X186.177 Y120.935 E41.69548
G1 X186.421 Y122.014 E41.82656
G1 X186.602 Y123.255 E41.97516
G1 X186.677 Y123.973 E42.0607
G1 X186.752 Y125.077 E42.19181
G1 X186.76 Y125.666 E42.26161
G1 X186.614 Y147.267 E44.82115
G1 X186.566 Y148.373 E44.95232
G1 X186.439 Y149.471 E45.08329
G1 X186.233 Y150.558 E45.21438
G1 X185.949 Y151.627 E45.34544
G1 X185.588 Y152.673 E45.47656
G1 X185.153 Y153.69 E45.60762
G1 X184.645 Y154.673 E45.73873
G1 X184.067 Y155.616 E45.86978
G1 X183.423 Y156.515 E46.00082
G1 X182.716 Y157.366 E46.13191
G1 X181.949 Y158.163 E46.26297
G1 X181.127 Y158.903 E46.39402
G1 X180.253 Y159.581 E46.52509
G1 X179.332 Y160.194 E46.65618
G1 X178.37 Y160.74 E46.78725
G1 X177.371 Y161.214 E46.91827
G1 X176.34 Y161.615 E47.04934
G1 X175.283 Y161.94 E47.18037
G1 X174.209 Y162.187 E47.31095
G1 X174.504 Y162.243 E47.34653
G1 X175.573 Y162.528 E47.47762
G1 X176.619 Y162.888 E47.60869
G1 X177.636 Y163.324 E47.73981
G1 X178.619 Y163.831 E47.87086
G1 X179.562 Y164.409 E48.00191
G1 X180.462 Y165.053 E48.13304
G1 X181.312 Y165.76 E48.26405
G1 X182.109 Y166.527 E48.39511
G1 X182.849 Y167.349 E48.52616
G1 X183.527 Y168.223 E48.65723
G1 X184.141 Y169.144 E48.78838
G1 X184.686 Y170.106 E48.91939
G1 X185.16 Y171.105 E49.05041
G1 X185.561 Y172.136 E49.18149
G1 X185.886 Y173.194 E49.31263
G1 X186.135 Y174.272 E49.44372
G1 X186.304 Y175.365 E49.57477
G1 X186.394 Y176.467 E49.70578
G1 X186.41 Y177.265 E49.80036
G1 X186.28 Y196.665 E52.0991
G1 X186.232 Y197.77 E52.23015
G1 X186.174 Y198.358 E52.30016
G1 X186.089 Y199.077 E52.38595
G1 X185.92 Y200.17 E52.517
G1 X185.672 Y201.248 E52.64806
G1 X185.282 Y202.488 E52.80209
G1 X185.046 Y203.14 E52.88425
G1 X184.632 Y204.166 E53.01534
G1 X184.145 Y205.159 E53.14639
G1 X183.587 Y206.115 E53.27755
G1 X183.126 Y206.803 E53.37568
G1 X182.761 Y207.316 E53.45028
G1 X182.087 Y208.193 E53.58134
G1 X181.352 Y209.02 E53.71244
G1 X180.559 Y209.791 E53.84349
G1 X179.713 Y210.503 E53.97451
G1 X179.215 Y210.876 E54.04823
G1 X178.758 Y211.204 E54.11488
G1 X177.837 Y211.816 E54.24591
G1 X176.874 Y212.36 E54.37696
G1 X175.874 Y212.833 E54.50804
G1 X174.842 Y213.232 E54.63914
G1 X173.784 Y213.556 E54.77025
G1 X173.069 Y213.729 E54.85741
G1 X172.56 Y213.839 E54.91911
G1 X171.471 Y214.033 E55.05018
G1 X170.371 Y214.148 E55.18123
G1 X169.225 Y214.184 E55.31708
G1 X155.226 Y214.09 E56.97585
G1 X154.121 Y214.042 E57.10691
G1 X153.022 Y213.915 E57.23799
G1 X151.884 Y213.697 E57.37529
G1 X151.382 Y213.581 E57.43633
G1 X150.314 Y213.293 E57.5674
G1 X149.27 Y212.929 E57.69841
G1 X148.254 Y212.49 E57.82955
G1 X147.273 Y211.979 E57.96061
G1 X146.332 Y211.399 E58.09159
G1 X145.721 Y210.969 E58.18012
G1 X145.266 Y210.632 E58.24721
G1 X144.401 Y209.942 E58.37831
G1 X143.589 Y209.191 E58.50937
G1 X142.833 Y208.384 E58.64039
G1 X142.137 Y207.524 E58.77148
G1 X141.767 Y207.009 E58.84662
G1 X141.412 Y206.493 E58.92083
G1 X140.818 Y205.56 E59.05189
G1 X140.294 Y204.586 E59.18294
G1 X139.841 Y203.577 E59.31399
G1 X139.593 Y202.925 E59.39665
G1 X139.431 Y202.465 E59.45443
G1 X139.317 Y202.133 E59.49602
G1 X138.996 Y201.074 E59.62714
G1 X138.752 Y199.995 E59.75822
G1 X138.573 Y198.775 E59.90433
G1 X138.497 Y198.057 E59.98988
G1 X138.42 Y196.953 E60.12101
G1 X138.412 Y196.342 E60.19341
G1 X138.544 Y176.941 E62.49227
G1 X138.592 Y175.836 E62.62333
G1 X138.719 Y174.737 E62.75441
G1 X138.925 Y173.65 E62.8855
G1 X139.21 Y172.581 E63.01659
G1 X139.57 Y171.535 E63.14767
G1 X140.006 Y170.519 E63.27867
G1 X140.513 Y169.536 E63.40972
G1 X141.091 Y168.592 E63.54088
G1 X141.735 Y167.693 E63.67191
G1 X142.442 Y166.843 E63.80291
G1 X143.209 Y166.045 E63.93406
G1 X144.032 Y165.306 E64.06512
G1 X144.906 Y164.628 E64.19619
G1 X145.826 Y164.014 E64.32725
G1 X146.789 Y163.469 E64.45836
G1 X147.788 Y162.995 E64.58938
G1 X148.819 Y162.594 E64.72045
G1 X149.876 Y162.268 E64.85152
G1 X150.947 Y162.022 E64.98172
G1 X150.654 Y161.966 E65.01707
G1 X149.585 Y161.681 E65.14816
G1 X148.539 Y161.321 E65.27923
G1 X147.522 Y160.885 E65.41034
G1 X146.539 Y160.378 E65.5414
G1 X145.596 Y159.8 E65.67245
G1 X144.696 Y159.156 E65.80358
G1 X143.846 Y158.449 E65.93458
G1 X143.049 Y157.682 E66.06565
G1 X142.309 Y156.86 E66.1967
G1 X141.631 Y155.986 E66.32777
G1 X141.017 Y155.065 E66.45892
G1 X140.472 Y154.103 E66.58993
G1 X139.998 Y153.104 E66.72095
G1 X139.597 Y152.073 E66.85203
G1 X139.272 Y151.015 E66.98317
G1 X139.023 Y149.937 E67.11426
G1 X138.854 Y148.844 E67.24531
G1 X138.764 Y147.742 E67.37632
G1 X138.748 Y146.945 E67.47078
G1 X138.851 Y131.448 E69.30704
G1 X138.894 Y125.34 E70.03079
G1 X138.942 Y124.235 E70.16185
G1 X138.997 Y123.673 E70.22876
G1 X139.081 Y122.954 E70.31453
G1 X139.249 Y121.86 E70.44568
G1 X139.496 Y120.782 E70.57672
G1 X139.889 Y119.529 E70.73232
G1 X140.125 Y118.876 E70.81459
G1 X140.538 Y117.85 E70.94564
G1 X141.025 Y116.856 E71.07679
G1 X141.582 Y115.9 E71.20789
G1 X142.047 Y115.206 E71.30688
G1 X142.412 Y114.693 E71.38148
G1 X143.086 Y113.816 E71.51254
G0 F6000 X143.562 Y114.181
G1 F600 X144.284 Y113.373 E71.64093
G1 X145.064 Y112.619 E71.76947
G1 X145.898 Y111.926 E71.89796
G1 X146.369 Y111.577 E71.96742
G1 X146.702 Y111.337 E72.01605
G1 X147.603 Y110.733 E72.14458
G1 X148.545 Y110.197 E72.273
G1 X149.525 Y109.732 E72.40153
G1 X150.536 Y109.341 E72.52997
G1 X151.573 Y109.025 E72.65842
G1 X152.225 Y108.868 E72.73788
G1 X152.733 Y108.758 E72.79947
G1 X153.8 Y108.568 E72.92789
G1 X154.879 Y108.457 E73.05641
G1 X155.943 Y108.425 E73.18254
G1 X169.943 Y108.519 E74.84143
G1 X171.026 Y108.567 E74.96988
G1 X172.103 Y108.694 E75.09837
G1 X173.154 Y108.896 E75.22519
G1 X173.656 Y109.012 E75.28623
G1 X174.702 Y109.295 E75.41463
G1 X175.725 Y109.655 E75.54313
G1 X176.719 Y110.088 E75.6716
G1 X177.678 Y110.594 E75.80008
G1 X178.597 Y111.169 E75.92853
G1 X179.095 Y111.522 E76.00086
G1 X179.55 Y111.859 E76.06795
G1 X180.397 Y112.536 E76.19642
G1 X181.192 Y113.274 E76.32496
G1 X181.93 Y114.068 E76.4534
G1 X182.912 Y115.34 E76.64381
G1 X183.267 Y115.856 E76.71802
G1 X183.848 Y116.771 E76.84645
G1 X184.36 Y117.727 E76.97494
G1 X184.8 Y118.718 E77.10342
G1 X185.014 Y119.284 E77.17512
G1 X185.174 Y119.739 E77.23227
G1 X185.288 Y120.071 E77.27386
G1 X185.602 Y121.109 E77.40236
G1 X185.839 Y122.167 E77.53083
G1 X186.005 Y123.318 E77.66862
G1 X186.08 Y124.036 E77.75416
G1 X186.153 Y125.118 E77.88265
G1 X186.16 Y125.662 E77.94712
G1 X186.014 Y147.263 E80.50666
G1 X185.966 Y148.347 E80.63523
G1 X185.839 Y149.423 E80.76361
G1 X185.633 Y150.488 E80.89214
G1 X185.349 Y151.534 E81.02056
G1 X184.989 Y152.557 E81.14907
G1 X184.554 Y153.55 E81.27752
G1 X184.048 Y154.509 E81.406
G1 X183.472 Y155.427 E81.53441
G1 X182.829 Y156.301 E81.66298
G1 X182.125 Y157.125 E81.79139
G1 X181.361 Y157.895 E81.91992
G1 X180.543 Y158.606 E82.04834
G1 X179.674 Y159.255 E82.17685
G1 X178.76 Y159.838 E82.30531
G1 X177.806 Y160.353 E82.43377
G1 X176.816 Y160.795 E82.56223
G1 X175.796 Y161.164 E82.69076
G1 X174.752 Y161.456 E82.81921
G1 X173.689 Y161.671 E82.94771
G1 X172.614 Y161.806 E83.07609
G1 X171.214 Y161.864 E83.24211
G1 X153.948 Y161.747 E85.288
G1 X152.865 Y161.699 E85.41645
G1 X151.788 Y161.572 E85.54494
G1 X150.724 Y161.366 E85.67336
G1 X149.677 Y161.082 E85.8019
G1 X148.655 Y160.722 E85.93029
G1 X147.662 Y160.287 E86.05874
G1 X146.703 Y159.78 E86.18728
G1 X145.784 Y159.204 E86.31579
G1 X144.911 Y158.562 E86.44419
G1 X144.087 Y157.857 E86.57268
G1 X143.317 Y157.094 E86.70112
G1 X142.606 Y156.276 E86.82954
G1 X141.957 Y155.407 E86.95806
G1 X141.373 Y154.493 E87.08658
G1 X140.859 Y153.539 E87.21498
G1 X140.416 Y152.549 E87.34349
G1 X140.048 Y151.529 E87.47198
G1 X139.756 Y150.485 E87.60043
G1 X139.541 Y149.422 E87.72893
G1 X139.406 Y148.346 E87.85742
G1 X139.348 Y146.949 E88.0231
G1 X139.451 Y131.453 E89.85925
G1 X139.494 Y125.345 E90.583
G1 X139.593 Y123.742 E90.7733
G1 X139.677 Y123.023 E90.85907
G1 X139.843 Y121.952 E90.98749
G1 X140.087 Y120.895 E91.11602
G1 X140.453 Y119.733 E91.26038
G1 X140.689 Y119.08 E91.34265
G1 X141.095 Y118.074 E91.47119
G1 X141.574 Y117.101 E91.59969
G1 X142.123 Y116.167 E91.72806
G1 X142.536 Y115.554 E91.81565
G1 X142.901 Y115.041 E91.89025
G1 X143.562 Y114.181 E92.01877
