;FLAVOR:Marlin
;TIME:1004
;Filament used: 0.619367m
;Layer height: 0.2
;MINX:57.592
;MINY:241.656
;MINZ:0.2
;MAXX:79.069
;MAXY:260.256
;MAXZ:8
;Generated with Cura_SteamEngine 4.10.0
M104 S228
M105
M109 S228
M82 ;absolute extrusion mode
G28 ; home all axes
 M117 Purge extruder
 G92 E0 ; reset extruder
 G1 Z1.0 F3000 ; move z up little to prevent scratching of surface
 G1 X2 Y20 Z0.3 F5000.0 ; move to start-line position
 G1 X2 Y200.0 Z0.3 F1500.0 E15 ; draw 1st line
 G1 X2 Y200.0 Z0.4 F5000.0 ; move to side a little
 G1 X2 Y20 Z0.4 F1500.0 E30 ; draw 2nd line
 G92 E0 ; reset extruder
 G1 Z1.0 F3000 ; move z up little to prevent scratching of surface
G92 E0
G92 E0
G1 F2400 E-1.6
;LAYER_COUNT:40
;LAYER:0
M106 S89.3
;MESH:nut_M12_19hex_v01.stl
G0 F6000 X69.63 Y243.586 Z0.2
;TYPE:WALL-INNER
G1 F2400 E0
G1 F900 X69.053 Y243.509 E0.02273
G1 X68.502 Y243.477 E0.04429
G1 X68.222 Y243.479 E0.05522
G1 X67.876 Y243.489 E0.06874
G1 X67.316 Y243.542 E0.09071
G1 X66.744 Y243.644 E0.1134
G1 X66.199 Y243.785 E0.13539
G1 X66.075 Y243.824 E0.14046
G1 X65.631 Y243.975 E0.15878
G1 X65.096 Y244.211 E0.18162
G1 X64.592 Y244.475 E0.20384
G1 X64.319 Y244.647 E0.21644
G1 X64.146 Y244.743 E0.22416
G1 X63.659 Y245.068 E0.24703
G1 X63.201 Y245.429 E0.2698
G1 X62.766 Y245.828 E0.29286
G1 X62.442 Y246.181 E0.31157
G1 X62.376 Y246.248 E0.31524
G1 X62.065 Y246.643 E0.33488
G1 X62.018 Y246.696 E0.33764
G1 X61.715 Y247.148 E0.3589
G1 X61.68 Y247.196 E0.36122
G1 X61.437 Y247.628 E0.38057
G1 X61.404 Y247.674 E0.38278
G1 X61.117 Y248.287 E0.40922
G1 X61.01 Y248.583 E0.42151
G1 X60.911 Y248.958 E0.43666
G1 X60.799 Y249.556 E0.46042
G1 X60.74 Y250.132 E0.48303
G1 X60.724 Y250.72 E0.506
G1 X60.739 Y251.041 E0.51855
G1 X60.755 Y251.317 E0.52935
G1 X60.826 Y251.895 E0.55209
G1 X60.954 Y252.493 E0.57598
G1 X61.109 Y253.026 E0.59765
G1 X61.318 Y253.584 E0.62092
G1 X61.357 Y253.662 E0.62433
G1 X61.539 Y254.092 E0.64257
G1 X61.778 Y254.572 E0.66351
G1 X62.081 Y255.072 E0.68634
G1 X62.417 Y255.541 E0.70887
G1 X62.796 Y255.991 E0.73185
G1 X63.198 Y256.401 E0.75427
G1 X63.641 Y256.789 E0.77727
G1 X64.086 Y257.116 E0.79884
G1 X64.194 Y257.19 E0.80395
G1 X64.486 Y257.371 E0.81737
G1 X64.531 Y257.408 E0.81964
G1 X65.057 Y257.684 E0.84284
G1 X65.209 Y257.754 E0.84938
G1 X65.633 Y257.935 E0.86738
G1 X65.65 Y257.943 E0.86812
G1 X66.206 Y258.133 E0.89106
G1 X66.713 Y258.261 E0.91148
G1 X66.729 Y258.263 E0.91211
G1 X67.317 Y258.371 E0.93546
G1 X67.918 Y258.429 E0.95904
G1 X68.46 Y258.436 E0.98021
G1 X68.589 Y258.433 E0.98525
G1 X69.057 Y258.405 E1.00356
G1 X69.647 Y258.323 E1.02682
G1 X70.199 Y258.203 E1.04889
G1 X70.774 Y258.029 E1.07235
G1 X71.326 Y257.813 E1.0955
G1 X71.82 Y257.574 E1.11693
G1 X72.347 Y257.27 E1.14069
G1 X72.831 Y256.935 E1.16368
G1 X73.284 Y256.564 E1.18655
G1 X73.592 Y256.271 E1.20315
G1 X73.743 Y256.119 E1.21151
G1 X74.063 Y255.767 E1.23009
G1 X74.419 Y255.306 E1.25284
G1 X74.735 Y254.824 E1.27535
G1 X75.018 Y254.316 E1.29806
G1 X75.207 Y253.895 E1.31608
G1 X75.295 Y253.687 E1.3249
G1 X75.418 Y253.343 E1.33917
G1 X75.451 Y253.263 E1.34255
G1 X75.58 Y252.794 E1.36155
G1 X75.632 Y252.576 E1.3703
G1 X75.724 Y252.112 E1.38877
G1 X75.785 Y251.588 E1.40938
G1 X75.794 Y251.453 E1.41466
G1 X75.812 Y250.956 E1.43408
G1 X75.791 Y250.375 E1.45679
G1 X75.735 Y249.901 E1.47543
G1 X75.728 Y249.818 E1.47868
G1 X75.638 Y249.373 E1.49641
G1 X75.581 Y249.122 E1.50646
G1 X75.486 Y248.781 E1.52029
G1 X75.463 Y248.688 E1.52403
G1 X75.258 Y248.128 E1.54732
G1 X75.018 Y247.599 E1.57001
G1 X74.759 Y247.13 E1.59093
G1 X74.661 Y246.973 E1.59816
G1 X74.414 Y246.597 E1.61573
G1 X74.124 Y246.227 E1.63409
G1 X74.074 Y246.157 E1.63745
G1 X73.672 Y245.718 E1.66069
G1 X73.266 Y245.334 E1.68252
G1 X73.252 Y245.32 E1.68329
G1 X72.792 Y244.948 E1.70639
G1 X72.318 Y244.625 E1.7288
G1 X71.818 Y244.337 E1.75133
G1 X71.296 Y244.086 E1.77395
G1 X70.755 Y243.878 E1.79659
G1 X70.199 Y243.71 E1.81927
G1 X69.63 Y243.586 E1.84201
G0 F6000 X69.547 Y244.059
G1 F900 X69.007 Y243.987 E1.86329
G1 X68.49 Y243.957 E1.88351
G1 X68.23 Y243.959 E1.89367
G1 X67.905 Y243.968 E1.90637
G1 X67.381 Y244.018 E1.92692
G1 X66.846 Y244.113 E1.94814
G1 X66.332 Y244.246 E1.96888
G1 X66.225 Y244.28 E1.97326
G1 X65.806 Y244.423 E1.99055
G1 X65.304 Y244.644 E2.01198
G1 X64.831 Y244.891 E2.03281
G1 X64.558 Y245.063 E2.04542
G1 X64.396 Y245.153 E2.05265
G1 X63.941 Y245.457 E2.07402
G1 X63.512 Y245.795 E2.09535
G1 X63.106 Y246.168 E2.11689
G1 X62.795 Y246.506 E2.13482
G1 X62.737 Y246.565 E2.13805
G1 X62.438 Y246.946 E2.15697
G1 X62.399 Y246.99 E2.15927
G1 X62.114 Y247.415 E2.17925
G1 X62.084 Y247.456 E2.18123
G1 X61.845 Y247.882 E2.20031
G1 X61.821 Y247.916 E2.20194
G1 X61.561 Y248.471 E2.22587
G1 X61.469 Y248.726 E2.23646
G1 X61.379 Y249.064 E2.25012
G1 X61.274 Y249.625 E2.27241
G1 X61.219 Y250.163 E2.29353
G1 X61.204 Y250.715 E2.3151
G1 X61.218 Y251.016 E2.32686
G1 X61.233 Y251.274 E2.33696
G1 X61.3 Y251.815 E2.35825
G1 X61.42 Y252.376 E2.38065
G1 X61.565 Y252.875 E2.40094
G1 X61.759 Y253.393 E2.42255
G1 X61.796 Y253.468 E2.42581
G1 X61.975 Y253.891 E2.44375
G1 X62.199 Y254.34 E2.46335
G1 X62.482 Y254.808 E2.48471
G1 X62.796 Y255.246 E2.50575
G1 X63.151 Y255.668 E2.52729
G1 X63.528 Y256.052 E2.54831
G1 X63.942 Y256.414 E2.56978
G1 X64.363 Y256.724 E2.5902
G1 X64.456 Y256.787 E2.59459
G1 X64.769 Y256.982 E2.60899
G1 X64.798 Y257.006 E2.61046
G1 X65.269 Y257.253 E2.63123
G1 X65.405 Y257.316 E2.63709
G1 X65.822 Y257.495 E2.65481
G1 X66.343 Y257.672 E2.6763
G1 X66.815 Y257.792 E2.69532
G1 X67.383 Y257.895 E2.71786
G1 X67.944 Y257.949 E2.73987
G1 X68.457 Y257.956 E2.75991
G1 X68.568 Y257.953 E2.76425
G1 X69.01 Y257.927 E2.78154
G1 X69.563 Y257.85 E2.80334
G1 X70.078 Y257.738 E2.82393
G1 X70.617 Y257.575 E2.84592
G1 X71.134 Y257.373 E2.86759
G1 X71.595 Y257.15 E2.88759
G1 X72.09 Y256.864 E2.90992
G1 X72.542 Y256.551 E2.93139
G1 X72.966 Y256.204 E2.95279
G1 X73.256 Y255.928 E2.96842
G1 X73.395 Y255.788 E2.97613
G1 X73.695 Y255.458 E2.99355
G1 X74.028 Y255.027 E3.01482
G1 X74.324 Y254.575 E3.03592
G1 X74.589 Y254.1 E3.05716
G1 X74.767 Y253.704 E3.07412
G1 X74.847 Y253.513 E3.0822
G1 X74.966 Y253.181 E3.09598
G1 X74.996 Y253.108 E3.09906
G1 X75.115 Y252.675 E3.1166
G1 X75.163 Y252.474 E3.12467
G1 X75.249 Y252.038 E3.14202
G1 X75.307 Y251.543 E3.16149
G1 X75.315 Y251.428 E3.16599
G1 X75.332 Y250.956 E3.18444
G1 X75.312 Y250.412 E3.2057
G1 X75.258 Y249.958 E3.22355
G1 X75.252 Y249.885 E3.22641
G1 X75.169 Y249.474 E3.24279
G1 X75.116 Y249.24 E3.25216
G1 X75.02 Y248.898 E3.26603
G1 X75.003 Y248.827 E3.26888
G1 X74.813 Y248.31 E3.29039
G1 X74.589 Y247.814 E3.31165
G1 X74.345 Y247.373 E3.33133
G1 X74.257 Y247.232 E3.33782
G1 X74.024 Y246.877 E3.3544
G1 X73.746 Y246.523 E3.37198
G1 X73.701 Y246.461 E3.37498
G1 X73.329 Y246.054 E3.39651
G1 X72.936 Y245.681 E3.41767
G1 X72.506 Y245.334 E3.43925
G1 X72.063 Y245.032 E3.46019
G1 X71.594 Y244.762 E3.48132
G1 X71.105 Y244.527 E3.50251
G1 X70.599 Y244.332 E3.52369
G1 X70.078 Y244.175 E3.54494
G1 X69.547 Y244.059 E3.56617
G0 F6000 X69.464 Y244.532
;TYPE:WALL-OUTER
G1 F900 X68.961 Y244.465 E3.58598
G1 X68.478 Y244.437 E3.60488
G1 X68.238 Y244.439 E3.61425
G1 X67.934 Y244.447 E3.62613
G1 X67.447 Y244.494 E3.64524
G1 X67.085 Y244.559 E3.6596
G1 X66.948 Y244.583 E3.66503
G1 X66.464 Y244.708 E3.68455
G1 X66.375 Y244.736 E3.6882
G1 X65.981 Y244.871 E3.70446
G1 X65.512 Y245.077 E3.72447
G1 X65.07 Y245.308 E3.74395
G1 X64.803 Y245.476 E3.75627
G1 X64.647 Y245.563 E3.76324
G1 X64.223 Y245.846 E3.78315
G1 X63.823 Y246.161 E3.80303
G1 X63.446 Y246.508 E3.82304
G1 X63.139 Y246.841 E3.84073
G1 X63.099 Y246.882 E3.84297
G1 X62.811 Y247.249 E3.86119
G1 X62.78 Y247.284 E3.86302
G1 X62.513 Y247.682 E3.88173
G1 X62.489 Y247.715 E3.88333
G1 X62.252 Y248.138 E3.90226
G1 X62.237 Y248.159 E3.90327
G1 X62.005 Y248.655 E3.92466
G1 X61.927 Y248.87 E3.93359
G1 X61.847 Y249.17 E3.94571
G1 X61.749 Y249.694 E3.96653
G1 X61.698 Y250.194 E3.98616
G1 X61.684 Y250.71 E4.00632
G1 X61.697 Y250.991 E4.01731
G1 X61.711 Y251.23 E4.02666
G1 X61.774 Y251.735 E4.04653
G1 X61.886 Y252.259 E4.06746
G1 X62.021 Y252.724 E4.08637
G1 X62.2 Y253.202 E4.1063
G1 X62.233 Y253.269 E4.10922
G1 X62.357 Y253.566 E4.12179
G1 X62.41 Y253.687 E4.12695
G1 X62.62 Y254.108 E4.14532
G1 X62.815 Y254.429 E4.15999
G1 X62.884 Y254.544 E4.16523
G1 X63.176 Y254.952 E4.18482
G1 X63.506 Y255.345 E4.20486
G1 X63.857 Y255.702 E4.22441
G1 X64.243 Y256.039 E4.24443
G1 X64.64 Y256.332 E4.2637
G1 X64.717 Y256.384 E4.26732
G1 X65.048 Y256.59 E4.28255
G1 X65.064 Y256.603 E4.28336
G1 X65.481 Y256.822 E4.30175
G1 X65.6 Y256.877 E4.30687
G1 X65.994 Y257.046 E4.32361
G1 X66.48 Y257.211 E4.34366
G1 X66.92 Y257.323 E4.36139
G1 X67.002 Y257.339 E4.36465
G1 X67.448 Y257.419 E4.38235
G1 X67.97 Y257.469 E4.40283
G1 X68.453 Y257.476 E4.42169
G1 X68.546 Y257.473 E4.42533
G1 X68.963 Y257.449 E4.44164
G1 X69.479 Y257.377 E4.46199
G1 X69.957 Y257.273 E4.48109
G1 X70.46 Y257.121 E4.50161
G1 X70.828 Y256.978 E4.51703
G1 X70.941 Y256.933 E4.52178
G1 X71.37 Y256.726 E4.54038
G1 X71.833 Y256.458 E4.56128
G1 X72.253 Y256.167 E4.58123
G1 X72.539 Y255.934 E4.59564
G1 X72.647 Y255.845 E4.6011
G1 X72.92 Y255.585 E4.61583
G1 X73.047 Y255.457 E4.62287
G1 X73.327 Y255.149 E4.63913
G1 X73.637 Y254.748 E4.65892
G1 X73.913 Y254.326 E4.67861
G1 X74.16 Y253.884 E4.69839
G1 X74.327 Y253.512 E4.71431
G1 X74.4 Y253.339 E4.72165
G1 X74.522 Y252.998 E4.73579
G1 X74.541 Y252.952 E4.73773
G1 X74.65 Y252.555 E4.75381
G1 X74.694 Y252.372 E4.76116
G1 X74.774 Y251.964 E4.7774
G1 X74.829 Y251.497 E4.79576
G1 X74.836 Y251.402 E4.79948
G1 X74.852 Y250.956 E4.81691
G1 X74.833 Y250.45 E4.83669
G1 X74.781 Y250.015 E4.8538
G1 X74.776 Y249.952 E4.85627
G1 X74.7 Y249.574 E4.87132
G1 X74.651 Y249.358 E4.87997
G1 X74.558 Y249.029 E4.89333
G1 X74.543 Y248.968 E4.89578
G1 X74.368 Y248.492 E4.91559
G1 X74.159 Y248.029 E4.93543
G1 X73.931 Y247.616 E4.95385
G1 X73.853 Y247.491 E4.9596
G1 X73.634 Y247.158 E4.97517
G1 X73.368 Y246.819 E4.992
G1 X73.329 Y246.766 E4.99457
G1 X72.986 Y246.39 E5.01444
G1 X72.62 Y246.042 E5.03417
G1 X72.22 Y245.72 E5.05422
G1 X71.808 Y245.439 E5.0737
G1 X71.37 Y245.187 E5.09343
G1 X70.914 Y244.968 E5.11319
G1 X70.443 Y244.786 E5.13291
G1 X69.957 Y244.64 E5.15273
G1 X69.464 Y244.532 E5.17244
G0 F6000 X69.555 Y244.012
G1 F2400 E3.57244
G0 F6000 X73.377 Y245.177
G0 X73.713 Y244.786
G0 X74.273 Y245.019
;TYPE:WALL-INNER
G1 F2400 E5.17244
G1 F900 X74.573 Y245.338 E5.18954
G1 X74.86 Y245.672 E5.20674
G1 X74.878 Y245.696 E5.20791
G1 X75.503 Y246.776 E5.25664
G1 X75.755 Y247.243 E5.27736
G1 X76.025 Y247.685 E5.29759
G1 X76.168 Y247.932 E5.30874
G1 X76.325 Y248.378 E5.3272
G1 X76.444 Y248.781 E5.34362
G1 X76.551 Y249.229 E5.3616
G1 X76.623 Y249.622 E5.37721
G1 X76.678 Y250.015 E5.39271
G1 X76.718 Y250.486 E5.41117
G1 X76.731 Y250.95 E5.42929
G1 X76.72 Y251.366 E5.44555
G1 X76.682 Y251.85 E5.46451
G1 X76.63 Y252.255 E5.48045
G1 X76.548 Y252.697 E5.49801
G1 X76.448 Y253.121 E5.51502
G1 X76.319 Y253.556 E5.53274
G1 X76.182 Y253.943 E5.54878
G1 X76.163 Y253.988 E5.55068
G1 X74.871 Y256.226 E5.65161
G1 X74.556 Y256.595 E5.67055
G1 X74.293 Y256.872 E5.68547
G1 X73.922 Y257.223 E5.70542
G1 X73.625 Y257.479 E5.72073
G1 X73.281 Y257.743 E5.73766
G1 X72.936 Y257.982 E5.75406
G1 X72.548 Y258.222 E5.77187
G1 X72.152 Y258.436 E5.78945
G1 X71.733 Y258.635 E5.80757
G1 X71.337 Y258.8 E5.82432
G1 X70.935 Y258.942 E5.84097
G1 X70.483 Y259.075 E5.85937
G1 X70.085 Y259.172 E5.87537
G1 X69.732 Y259.235 E5.88938
G1 X69.603 Y259.256 E5.89448
G1 X67.04 Y259.256 E5.99458
G1 X66.576 Y259.17 E6.013
G1 X66.136 Y259.064 E6.03068
G1 X65.726 Y258.943 E6.04738
G1 X65.334 Y258.804 E6.06362
G1 X64.911 Y258.628 E6.08151
G1 X64.516 Y258.439 E6.09861
G1 X64.159 Y258.247 E6.11444
G1 X63.734 Y257.988 E6.13388
G1 X63.386 Y257.748 E6.15039
G1 X63.059 Y257.497 E6.16649
G1 X62.717 Y257.206 E6.18403
G1 X62.379 Y256.884 E6.20226
G1 X62.088 Y256.575 E6.21883
G1 X61.792 Y256.229 E6.23662
G1 X60.504 Y253.999 E6.33719
G1 X60.462 Y253.888 E6.34183
G1 X60.337 Y253.533 E6.35652
G1 X60.209 Y253.104 E6.37401
G1 X60.116 Y252.708 E6.38989
G1 X60.035 Y252.269 E6.40733
G1 X59.974 Y251.804 E6.42564
G1 X59.946 Y251.46 E6.43912
G1 X59.931 Y251.001 E6.45706
G1 X59.943 Y250.484 E6.47725
G1 X59.976 Y250.09 E6.4927
G1 X60.034 Y249.65 E6.51003
G1 X60.116 Y249.202 E6.52782
G1 X60.217 Y248.776 E6.54491
G1 X60.338 Y248.369 E6.5615
G1 X60.487 Y247.95 E6.57886
G1 X60.498 Y247.925 E6.57993
G1 X61.14 Y246.811 E6.63014
G1 X61.403 Y246.382 E6.6498
G1 X61.644 Y245.939 E6.66949
G1 X61.79 Y245.685 E6.68093
G1 X62.106 Y245.317 E6.69988
G1 X62.377 Y245.031 E6.71526
G1 X62.735 Y244.692 E6.73452
G1 X63.041 Y244.431 E6.75023
G1 X63.388 Y244.165 E6.7673
G1 X63.753 Y243.914 E6.7846
G1 X64.131 Y243.681 E6.80194
G1 X64.503 Y243.48 E6.81846
G1 X64.92 Y243.28 E6.83652
G1 X65.307 Y243.119 E6.85289
G1 X65.747 Y242.963 E6.87112
G1 X66.123 Y242.851 E6.88644
G1 X66.602 Y242.735 E6.90569
G1 X66.921 Y242.678 E6.91834
G1 X67.059 Y242.656 E6.9238
G1 X67.31 Y242.656 E6.9336
G1 X67.833 Y242.669 E6.95404
G1 X68.335 Y242.656 E6.97365
G1 X68.834 Y242.669 E6.99314
G1 X69.354 Y242.656 E7.01346
G1 X69.62 Y242.656 E7.02385
G1 X69.646 Y242.659 E7.02487
G1 X70.085 Y242.742 E7.04232
G1 X70.505 Y242.843 E7.05919
G1 X70.921 Y242.966 E7.07613
G1 X71.327 Y243.11 E7.09295
G1 X71.777 Y243.297 E7.11198
G1 X72.13 Y243.465 E7.12725
G1 X72.512 Y243.67 E7.14418
G1 X72.911 Y243.915 E7.16247
G1 X73.246 Y244.144 E7.17832
G1 X73.619 Y244.429 E7.19665
G1 X73.951 Y244.714 E7.21374
G1 X74.273 Y245.019 E7.23106
G0 F6000 X74.613 Y244.681
G1 F900 X74.621 Y244.69 E7.23153
G1 X74.937 Y245.025 E7.24951
G1 X75.234 Y245.371 E7.26732
G1 X75.276 Y245.427 E7.27006
G1 X75.925 Y246.548 E7.32064
G1 X76.171 Y247.004 E7.34088
G1 X76.441 Y247.445 E7.36107
G1 X76.594 Y247.71 E7.37302
G1 X76.607 Y247.741 E7.37434
G1 X76.62 Y247.77 E7.37558
G1 X76.778 Y248.218 E7.39413
G1 X76.911 Y248.669 E7.41249
G1 X77.018 Y249.117 E7.43048
G1 X77.022 Y249.142 E7.43147
G1 X77.095 Y249.535 E7.44708
G1 X77.097 Y249.555 E7.44786
G1 X77.152 Y249.947 E7.46332
G1 X77.155 Y249.964 E7.464
G1 X77.195 Y250.445 E7.48285
G1 X77.198 Y250.473 E7.48395
G1 X77.211 Y250.95 E7.50258
G1 X77.2 Y251.403 E7.52028
G1 X77.197 Y251.422 E7.52103
G1 X77.161 Y251.889 E7.53932
G1 X77.103 Y252.338 E7.557
G1 X77.018 Y252.796 E7.5752
G1 X76.911 Y253.249 E7.59338
G1 X76.776 Y253.702 E7.61184
G1 X76.626 Y254.125 E7.62936
G1 X76.594 Y254.203 E7.63266
G1 X75.273 Y256.49 E7.7358
G1 X75.231 Y256.546 E7.73854
G1 X74.919 Y256.909 E7.75723
G1 X74.904 Y256.924 E7.75806
G1 X74.623 Y257.221 E7.77403
G1 X74.248 Y257.576 E7.79419
G1 X73.928 Y257.851 E7.81067
G1 X73.566 Y258.129 E7.8285
G1 X73.197 Y258.385 E7.84603
G1 X72.788 Y258.638 E7.86482
G1 X72.365 Y258.867 E7.8836
G1 X71.935 Y259.071 E7.90219
G1 X71.504 Y259.251 E7.92043
G1 X71.087 Y259.398 E7.9377
G1 X70.973 Y259.43 E7.94232
G1 X70.622 Y259.535 E7.95663
G1 X70.199 Y259.637 E7.97362
G1 X70.169 Y259.645 E7.97484
G1 X69.816 Y259.708 E7.98884
G1 X69.641 Y259.736 E7.99576
G1 X67.011 Y259.736 E8.09847
G1 X66.942 Y259.728 E8.10119
G1 X66.477 Y259.64 E8.11967
G1 X66.024 Y259.531 E8.13787
G1 X65.581 Y259.4 E8.15591
G1 X65.158 Y259.25 E8.17344
G1 X64.711 Y259.064 E8.19234
G1 X64.304 Y258.87 E8.20995
G1 X63.911 Y258.658 E8.22739
G1 X63.484 Y258.398 E8.24692
G1 X63.111 Y258.141 E8.26461
G1 X62.746 Y257.862 E8.28255
G1 X62.394 Y257.561 E8.30064
G1 X62.048 Y257.232 E8.31928
G1 X61.723 Y256.887 E8.33779
G1 X61.424 Y256.538 E8.35574
G1 X61.39 Y256.494 E8.35791
G1 X60.069 Y254.206 E8.46109
G1 X60.013 Y254.058 E8.46727
G1 X59.884 Y253.693 E8.48239
G1 X59.746 Y253.231 E8.50122
G1 X59.646 Y252.807 E8.51823
G1 X59.56 Y252.342 E8.5367
G1 X59.498 Y251.866 E8.55545
G1 X59.497 Y251.844 E8.55631
G1 X59.469 Y251.501 E8.56975
G1 X59.466 Y251.475 E8.57077
G1 X59.451 Y251.005 E8.58914
G1 X59.463 Y250.473 E8.60992
G1 X59.5 Y250.028 E8.62736
G1 X59.559 Y249.577 E8.64512
G1 X59.644 Y249.115 E8.66347
G1 X59.753 Y248.654 E8.68197
G1 X59.882 Y248.218 E8.69972
G1 X60.035 Y247.788 E8.71755
G1 X60.067 Y247.71 E8.72084
G1 X60.724 Y246.571 E8.77219
