;FLAVOR:Marlin
;TIME:12834
;Filament used: 12.5403m
;Layer height: 0.28
;MINX:124.986
;MINY:128.005
;MINZ:0.28
;MAXX:186.073
;MAXY:193.605
;MAXZ:125.16
;Generated with Cura_SteamEngine 4.10.0
M104 S205
M105
M109 S205
M82 ;absolute extrusion mode
G28 ; home all axes
 M117 Purge extruder
 G92 E0 ; reset extruder
 G1 Z1.0 F3000 ; move z up little to prevent scratching of surface
 G1 X2 Y20 Z0.3 F5000.0 ; move to start-line position
 G1 X2 Y200.0 Z0.3 F1500.0 E15 ; draw 1st line
 G1 X2 Y200.0 Z0.4 F5000.0 ; move to side a little
 G1 X2 Y20 Z0.4 F1500.0 E30 ; draw 2nd line
 G92 E0 ; reset extruder
 G1 Z1.0 F3000 ; move z up little to prevent scratching of surface
G92 E0
G92 E0
G1 F1500 E-2
;LAYER_COUNT:447
;LAYER:0
M106 S127.5
M204 S2500
G0 F6000 X125.943 Y129.283 Z0.28
M204 S3000
;TYPE:SKIRT
G1 F1500 E0
G1 F1200 X126.338 Y128.899 E0.02309
G1 X126.784 Y128.575 E0.04619
G1 X127.272 Y128.32 E0.06926
G1 X127.792 Y128.137 E0.09237
G1 X128.333 Y128.032 E0.11546
G1 X128.786 Y128.005 E0.13448
G1 X176.286 Y128.005 E2.1251
G1 X176.983 Y128.024 E2.15432
G1 X177.198 Y128.036 E2.16334
G1 X177.781 Y128.086 E2.18786
G1 X178.009 Y128.112 E2.19748
G1 X178.58 Y128.196 E2.22167
G1 X178.797 Y128.235 E2.23091
G1 X179.353 Y128.35 E2.2547
G1 X179.599 Y128.409 E2.2653
G1 X180.129 Y128.556 E2.28835
G1 X180.368 Y128.631 E2.29885
G1 X180.874 Y128.808 E2.32132
G1 X181.124 Y128.906 E2.33257
G1 X181.597 Y129.11 E2.35416
G1 X181.871 Y129.241 E2.36688
G1 X182.307 Y129.472 E2.38756
G1 X182.587 Y129.636 E2.40116
G1 X182.984 Y129.892 E2.42096
G1 X183.274 Y130.099 E2.43589
G1 X183.625 Y130.375 E2.4546
G1 X183.922 Y130.635 E2.47114
G1 X184.223 Y130.927 E2.48872
G1 X184.532 Y131.265 E2.50791
G1 X184.785 Y131.578 E2.52478
G1 X185.064 Y131.972 E2.54501
G1 X185.262 Y132.293 E2.56081
G1 X185.52 Y132.789 E2.58424
G1 X185.663 Y133.122 E2.59943
G1 X185.855 Y133.689 E2.62452
G1 X185.941 Y134.029 E2.63922
G1 X186.043 Y134.64 E2.66518
G1 X186.072 Y134.982 E2.67956
G1 X186.073 Y135.62 E2.7063
G1 X186.044 Y135.966 E2.72085
G1 X185.942 Y136.578 E2.74685
G1 X185.857 Y136.915 E2.76142
G1 X185.665 Y137.482 E2.7865
G1 X185.522 Y137.816 E2.80173
G1 X185.26 Y138.32 E2.82553
G1 X185.06 Y138.643 E2.84145
G1 X184.794 Y139.02 E2.86079
G1 X184.543 Y139.333 E2.8776
G1 X184.219 Y139.688 E2.89775
G1 X183.917 Y139.98 E2.91535
G1 X183.625 Y140.235 E2.9316
G1 X183.274 Y140.511 E2.95031
G1 X182.986 Y140.717 E2.96515
G1 X182.591 Y140.972 E2.98485
G1 X182.309 Y141.137 E2.99854
G1 X181.871 Y141.369 E3.01932
G1 X181.597 Y141.5 E3.03204
G1 X181.124 Y141.704 E3.05363
G1 X180.874 Y141.802 E3.06488
G1 X180.368 Y141.979 E3.08735
G1 X180.129 Y142.054 E3.09785
G1 X179.599 Y142.201 E3.1209
G1 X179.353 Y142.26 E3.1315
G1 X178.797 Y142.375 E3.15529
G1 X178.58 Y142.414 E3.16453
G1 X178.009 Y142.498 E3.18872
G1 X177.781 Y142.524 E3.19834
G1 X177.198 Y142.574 E3.22286
G1 X176.955 Y142.587 E3.23306
G1 X176.225 Y142.602 E3.26366
G1 X148.084 Y142.603 E4.44298
G1 X148.084 Y182.007 E6.09432
G1 X176.286 Y182.007 E7.2762
G1 X176.836 Y182.047 E7.29931
G1 X177.374 Y182.166 E7.3224
G1 X177.889 Y182.362 E7.34549
G1 X178.37 Y182.63 E7.36857
G1 X178.808 Y182.964 E7.39165
G1 X179.192 Y183.359 E7.41474
G1 X179.516 Y183.805 E7.43784
G1 X179.771 Y184.293 E7.46092
G1 X179.954 Y184.813 E7.48402
G1 X180.059 Y185.354 E7.50711
G1 X180.086 Y185.807 E7.52613
G1 X180.086 Y189.805 E7.69368
G1 X180.046 Y190.355 E7.71679
G1 X179.927 Y190.893 E7.73988
G1 X179.731 Y191.408 E7.76297
G1 X179.463 Y191.889 E7.78605
G1 X179.129 Y192.327 E7.80913
G1 X178.734 Y192.711 E7.83222
G1 X178.288 Y193.035 E7.85532
G1 X177.8 Y193.29 E7.87839
G1 X177.28 Y193.473 E7.9015
G1 X176.739 Y193.578 E7.92459
G1 X176.286 Y193.605 E7.94361
G1 X141.286 Y193.605 E9.41038
G1 X140.736 Y193.565 E9.43349
G1 X140.198 Y193.446 E9.45658
G1 X139.683 Y193.25 E9.47968
G1 X139.202 Y192.982 E9.50275
G1 X138.764 Y192.648 E9.52583
G1 X138.38 Y192.253 E9.54892
G1 X138.056 Y191.807 E9.57202
G1 X137.801 Y191.319 E9.5951
G1 X137.618 Y190.799 E9.6182
G1 X137.513 Y190.258 E9.6413
G1 X137.486 Y189.805 E9.66031
G1 X137.487 Y171.507 E10.42714
G1 X137.196 Y171.443 E10.43963
G1 X136.681 Y171.247 E10.46272
G1 X136.2 Y170.979 E10.4858
G1 X135.762 Y170.645 E10.50888
G1 X135.378 Y170.25 E10.53197
G1 X135.025 Y169.757 E10.55738
G1 X132.027 Y164.76 E10.80159
G1 X131.779 Y164.268 E10.82468
G1 X131.604 Y163.746 E10.84775
G1 X131.507 Y163.203 E10.87087
G1 X131.489 Y162.653 E10.89393
G1 X131.551 Y162.105 E10.91704
G1 X131.691 Y161.572 E10.94014
G1 X131.908 Y161.065 E10.96325
G1 X132.195 Y160.595 E10.98633
G1 X132.547 Y160.171 E11.00942
G1 X132.956 Y159.803 E11.03248
G1 X133.415 Y159.497 E11.05559
G1 X133.913 Y159.262 E11.07867
G1 X134.44 Y159.1 E11.10178
G1 X134.985 Y159.017 E11.12488
G1 X135.286 Y159.005 E11.1375
G1 X137.486 Y159.005 E11.2297
G1 X137.486 Y152.51 E11.50189
G1 X137.198 Y152.446 E11.51426
G1 X136.683 Y152.25 E11.53735
G1 X136.202 Y151.982 E11.56042
G1 X135.764 Y151.648 E11.58351
G1 X135.38 Y151.253 E11.60659
G1 X135.056 Y150.807 E11.6297
G1 X134.801 Y150.319 E11.65277
G1 X134.618 Y149.799 E11.67587
G1 X134.513 Y149.258 E11.69897
G1 X134.486 Y148.805 E11.71799
G1 X134.486 Y143.805 E11.92753
G1 X134.526 Y143.255 E11.95064
G1 X134.645 Y142.717 E11.97373
G1 X134.841 Y142.202 E11.99682
G1 X135.109 Y141.721 E12.0199
G1 X135.443 Y141.283 E12.04298
G1 X135.838 Y140.899 E12.06607
G1 X136.284 Y140.575 E12.08917
G1 X136.772 Y140.32 E12.11224
G1 X137.292 Y140.137 E12.13534
G1 X137.486 Y140.099 E12.14363
G1 X137.486 Y139.605 E12.16433
G1 X135.586 Y139.605 E12.24396
G1 X135.586 Y139.805 E12.25234
G1 X135.546 Y140.355 E12.27545
G1 X135.427 Y140.893 E12.29854
G1 X135.231 Y141.408 E12.32163
G1 X134.963 Y141.889 E12.34471
G1 X134.629 Y142.327 E12.36779
G1 X134.234 Y142.711 E12.39088
G1 X133.788 Y143.035 E12.41398
G1 X133.3 Y143.29 E12.43705
G1 X132.78 Y143.473 E12.46016
G1 X132.239 Y143.578 E12.48325
G1 X131.786 Y143.605 E12.50227
G1 X128.786 Y143.605 E12.62799
G1 X128.236 Y143.565 E12.6511
G1 X127.698 Y143.446 E12.67419
G1 X127.183 Y143.25 E12.69729
G1 X126.702 Y142.982 E12.72036
G1 X126.264 Y142.648 E12.74345
G1 X125.88 Y142.253 E12.76653
G1 X125.556 Y141.807 E12.78964
G1 X125.301 Y141.319 E12.81271
G1 X125.118 Y140.799 E12.83581
G1 X125.013 Y140.258 E12.85891
G1 X124.986 Y139.805 E12.87793
G1 X124.986 Y131.805 E13.21319
G1 X125.026 Y131.255 E13.2363
G1 X125.145 Y130.717 E13.25939
G1 X125.341 Y130.202 E13.28248
G1 X125.609 Y129.721 E13.30556
G1 X125.943 Y129.283 E13.32864
M204 S2500
G0 F6000 X126.338 Y129.445
M204 S3000
G1 F1200 X126.728 Y129.099 E13.35049
G1 X127.166 Y128.816 E13.37234
G1 X127.641 Y128.603 E13.39416
G1 X128.144 Y128.466 E13.41601
G1 X128.786 Y128.405 E13.44303
G1 X176.384 Y128.406 E15.43776
G1 X176.971 Y128.423 E15.46237
G1 X177.164 Y128.434 E15.47047
G1 X177.747 Y128.484 E15.49499
G1 X177.951 Y128.508 E15.5036
G1 X178.522 Y128.592 E15.52779
G1 X178.716 Y128.626 E15.53604
G1 X179.272 Y128.741 E15.55983
G1 X179.492 Y128.795 E15.56933
G1 X180.022 Y128.942 E15.59238
G1 X180.236 Y129.009 E15.60178
G1 X180.742 Y129.186 E15.62424
G1 X180.965 Y129.273 E15.63427
G1 X181.438 Y129.477 E15.65586
G1 X181.684 Y129.595 E15.66729
G1 X182.12 Y129.826 E15.68797
G1 X182.371 Y129.973 E15.70016
G1 X182.768 Y130.229 E15.71996
G1 X183.027 Y130.413 E15.73327
G1 X183.378 Y130.689 E15.75198
G1 X183.643 Y130.922 E15.76677
G1 X183.944 Y131.214 E15.78435
G1 X184.221 Y131.517 E15.80155
G1 X184.474 Y131.83 E15.81842
G1 X184.724 Y132.182 E15.83651
G1 X184.922 Y132.503 E15.85232
G1 X185.152 Y132.946 E15.87324
G1 X185.295 Y133.279 E15.88842
G1 X185.467 Y133.787 E15.9109
G1 X185.553 Y134.127 E15.9256
G1 X185.645 Y134.674 E15.94884
G1 X185.674 Y135.016 E15.96323
G1 X185.674 Y135.587 E15.98716
G1 X185.645 Y135.933 E16.00171
G1 X185.554 Y136.481 E16.02499
G1 X185.469 Y136.818 E16.03955
G1 X185.298 Y137.324 E16.06194
G1 X185.155 Y137.658 E16.07716
G1 X184.92 Y138.11 E16.09851
G1 X184.72 Y138.433 E16.11443
G1 X184.481 Y138.77 E16.13175
G1 X184.23 Y139.083 E16.14856
G1 X183.941 Y139.4 E16.16654
G1 X183.639 Y139.692 E16.18414
G1 X183.378 Y139.921 E16.19869
G1 X183.027 Y140.197 E16.21741
G1 X182.769 Y140.38 E16.23066
G1 X182.374 Y140.635 E16.25036
G1 X182.121 Y140.784 E16.26267
G1 X181.683 Y141.016 E16.28344
G1 X181.438 Y141.133 E16.29482
G1 X180.965 Y141.337 E16.31641
G1 X180.742 Y141.424 E16.32644
G1 X180.236 Y141.601 E16.3489
G1 X180.022 Y141.668 E16.3583
G1 X179.492 Y141.815 E16.38135
G1 X179.272 Y141.869 E16.39084
G1 X178.716 Y141.984 E16.41464
G1 X178.522 Y142.018 E16.42289
G1 X177.951 Y142.102 E16.44708
G1 X177.747 Y142.126 E16.45569
G1 X177.164 Y142.176 E16.48021
G1 X176.946 Y142.187 E16.48936
G1 X176.225 Y142.202 E16.51958
G1 X147.684 Y142.203 E17.71567
G1 X147.684 Y182.407 E19.40053
G1 X176.286 Y182.407 E20.59917
G1 X176.806 Y182.447 E20.62103
G1 X177.313 Y182.566 E20.64285
G1 X177.796 Y182.761 E20.66468
G1 X178.244 Y183.027 E20.68652
G1 X178.646 Y183.359 E20.70837
G1 X178.992 Y183.749 E20.73022
G1 X179.275 Y184.187 E20.75207
G1 X179.488 Y184.662 E20.77389
G1 X179.625 Y185.165 E20.79573
G1 X179.686 Y185.807 E20.82276
G1 X179.686 Y189.805 E20.99031
G1 X179.646 Y190.325 E21.01216
G1 X179.527 Y190.832 E21.03399
G1 X179.332 Y191.315 E21.05582
G1 X179.066 Y191.763 E21.07765
G1 X178.734 Y192.165 E21.0995
G1 X178.344 Y192.511 E21.12135
G1 X177.906 Y192.794 E21.1432
G1 X177.431 Y193.007 E21.16502
G1 X176.928 Y193.144 E21.18687
G1 X176.286 Y193.205 E21.21389
G1 X141.286 Y193.205 E22.68067
G1 X140.766 Y193.165 E22.70252
G1 X140.259 Y193.046 E22.72435
G1 X139.776 Y192.851 E22.74618
G1 X139.328 Y192.585 E22.76801
G1 X138.926 Y192.253 E22.78986
G1 X138.58 Y191.863 E22.81171
G1 X138.297 Y191.425 E22.83356
G1 X138.084 Y190.95 E22.85538
G1 X137.947 Y190.447 E22.87723
G1 X137.886 Y189.805 E22.90425
G1 X137.887 Y171.171 E23.68516
G1 X137.764 Y171.162 E23.69033
G1 X137.257 Y171.043 E23.71215
G1 X136.774 Y170.848 E23.73398
G1 X136.326 Y170.582 E23.75582
G1 X135.924 Y170.25 E23.77767
G1 X135.578 Y169.86 E23.79952
G1 X135.368 Y169.551 E23.81517
G1 X132.37 Y164.554 E24.05938
G1 X132.137 Y164.088 E24.08122
G1 X131.978 Y163.592 E24.10305
G1 X131.897 Y163.077 E24.12489
G1 X131.895 Y162.556 E24.14673
G1 X131.973 Y162.041 E24.16856
G1 X132.129 Y161.543 E24.19043
G1 X132.359 Y161.076 E24.21224
G1 X132.657 Y160.649 E24.23406
G1 X133.018 Y160.272 E24.25594
G1 X133.432 Y159.955 E24.27779
G1 X133.889 Y159.705 E24.29962
G1 X134.379 Y159.528 E24.32145
G1 X134.89 Y159.428 E24.34328
G1 X135.286 Y159.405 E24.3599
G1 X137.886 Y159.405 E24.46886
G1 X137.886 Y152.174 E24.77189
G1 X137.766 Y152.165 E24.77694
G1 X137.259 Y152.046 E24.79876
G1 X136.776 Y151.851 E24.82059
G1 X136.328 Y151.585 E24.84243
G1 X135.926 Y151.253 E24.86428
G1 X135.58 Y150.863 E24.88612
G1 X135.297 Y150.425 E24.90798
G1 X135.084 Y149.95 E24.92979
G1 X134.947 Y149.447 E24.95164
G1 X134.886 Y148.805 E24.97867
G1 X134.886 Y143.805 E25.18821
G1 X134.926 Y143.285 E25.21006
G1 X135.045 Y142.778 E25.23189
G1 X135.24 Y142.295 E25.25372
G1 X135.506 Y141.847 E25.27555
G1 X135.838 Y141.445 E25.2974
G1 X136.228 Y141.099 E25.31925
G1 X136.666 Y140.816 E25.3411
G1 X137.141 Y140.603 E25.36292
G1 X137.644 Y140.466 E25.38477
G1 X137.886 Y140.443 E25.39495
G1 X137.886 Y139.205 E25.44684
G1 X135.186 Y139.205 E25.55999
G1 X135.186 Y139.805 E25.58513
G1 X135.146 Y140.325 E25.60699
G1 X135.027 Y140.832 E25.62881
G1 X134.832 Y141.315 E25.65064
G1 X134.566 Y141.763 E25.67248
G1 X134.234 Y142.165 E25.69433
G1 X133.844 Y142.511 E25.71617
G1 X133.406 Y142.794 E25.73803
G1 X132.931 Y143.007 E25.75984
G1 X132.428 Y143.144 E25.78169
G1 X131.786 Y143.205 E25.80872
G1 X128.786 Y143.205 E25.93444
G1 X128.266 Y143.165 E25.9563
G1 X127.759 Y143.046 E25.97812
G1 X127.276 Y142.851 E25.99995
G1 X126.828 Y142.585 E26.02179
G1 X126.426 Y142.253 E26.04364
G1 X126.08 Y141.863 E26.06548
G1 X125.797 Y141.425 E26.08734
G1 X125.584 Y140.95 E26.10915
G1 X125.447 Y140.447 E26.131
G1 X125.386 Y139.805 E26.15803
G1 X125.386 Y131.805 E26.49329
G1 X125.426 Y131.285 E26.51515
G1 X125.545 Y130.778 E26.53697
G1 X125.74 Y130.295 E26.5588
G1 X126.006 Y129.847 E26.58063
G1 X126.338 Y129.445 E26.60248
M204 S2500
G0 F6000 X126.404 Y129.981
M204 S3000
G1 F1200 X126.732 Y129.618 E26.62299
G1 X127.115 Y129.313 E26.6435
G1 X127.543 Y129.075 E26.66403
G1 X128.003 Y128.909 E26.68452
G1 X128.484 Y128.82 E26.70502
G1 X128.786 Y128.805 E26.71769
G1 X176.286 Y128.805 E28.70831
G1 X176.96 Y128.823 E28.73657
G1 X177.129 Y128.833 E28.74366
G1 X177.712 Y128.883 E28.76819
G1 X177.893 Y128.904 E28.77582
G1 X178.464 Y128.988 E28.80001
G1 X178.635 Y129.018 E28.80728
G1 X179.191 Y129.133 E28.83108
G1 X179.385 Y129.18 E28.83944
G1 X179.915 Y129.327 E28.86249
G1 X180.104 Y129.386 E28.87079
G1 X180.61 Y129.563 E28.89326
G1 X180.807 Y129.64 E28.90212
G1 X181.28 Y129.844 E28.92371
G1 X181.497 Y129.948 E28.93379
G1 X181.933 Y130.179 E28.95447
G1 X182.154 Y130.309 E28.96521
G1 X182.551 Y130.565 E28.98501
G1 X182.779 Y130.728 E28.99676
G1 X183.13 Y131.004 E29.01547
G1 X183.365 Y131.209 E29.02854
G1 X183.666 Y131.501 E29.04611
G1 X183.91 Y131.768 E29.06127
G1 X184.163 Y132.081 E29.07814
G1 X184.383 Y132.392 E29.0941
G1 X184.581 Y132.713 E29.10991
G1 X184.785 Y133.104 E29.12839
G1 X184.928 Y133.437 E29.14358
G1 X185.079 Y133.885 E29.16339
G1 X185.165 Y134.225 E29.17809
G1 X185.246 Y134.708 E29.19861
G1 X185.275 Y135.05 E29.213
G1 X185.276 Y135.554 E29.23412
G1 X185.247 Y135.9 E29.24867
G1 X185.166 Y136.383 E29.26919
G1 X185.081 Y136.72 E29.28376
G1 X184.93 Y137.167 E29.30353
G1 X184.787 Y137.501 E29.31876
G1 X184.58 Y137.899 E29.33756
G1 X184.38 Y138.222 E29.35348
G1 X184.169 Y138.52 E29.36878
G1 X183.918 Y138.833 E29.38559
G1 X183.663 Y139.113 E29.40146
G1 X183.361 Y139.405 E29.41907
G1 X183.13 Y139.606 E29.4319
G1 X182.779 Y139.882 E29.45061
G1 X182.552 Y140.044 E29.4623
G1 X182.157 Y140.299 E29.482
G1 X181.934 Y140.43 E29.49284
G1 X181.496 Y140.662 E29.51361
G1 X181.28 Y140.766 E29.52366
G1 X180.807 Y140.97 E29.54525
G1 X180.61 Y141.047 E29.55411
G1 X180.104 Y141.224 E29.57658
G1 X179.915 Y141.283 E29.58488
G1 X179.385 Y141.43 E29.60793
G1 X179.191 Y141.477 E29.61629
G1 X178.635 Y141.592 E29.64008
G1 X178.464 Y141.622 E29.64736
G1 X177.893 Y141.706 E29.67155
G1 X177.712 Y141.727 E29.67918
G1 X177.129 Y141.777 E29.70371
G1 X176.938 Y141.787 E29.71172
G1 X176.225 Y141.802 E29.74161
G1 X147.284 Y141.803 E30.95446
G1 X147.284 Y182.807 E32.67285
G1 X176.286 Y182.807 E33.88826
G1 X176.774 Y182.847 E33.90877
G1 X177.249 Y182.966 E33.9293
G1 X177.698 Y183.16 E33.94979
G1 X178.11 Y183.425 E33.97032
G1 X178.473 Y183.753 E33.99083
G1 X178.778 Y184.136 E34.01134
G1 X179.016 Y184.564 E34.03187
G1 X179.182 Y185.024 E34.05236
G1 X179.271 Y185.505 E34.07286
G1 X179.286 Y185.807 E34.08553
G1 X179.286 Y189.805 E34.25308
G1 X179.246 Y190.293 E34.2736
G1 X179.127 Y190.768 E34.29412
G1 X178.933 Y191.217 E34.31462
G1 X178.668 Y191.629 E34.33515
G1 X178.34 Y191.992 E34.35565
G1 X177.957 Y192.297 E34.37617
G1 X177.529 Y192.535 E34.39669
G1 X177.069 Y192.701 E34.41719
G1 X176.588 Y192.79 E34.43769
G1 X176.286 Y192.805 E34.45036
G1 X141.286 Y192.805 E35.91713
G1 X140.798 Y192.765 E35.93765
G1 X140.323 Y192.646 E35.95817
G1 X139.874 Y192.452 E35.97867
G1 X139.462 Y192.187 E35.9992
G1 X139.099 Y191.859 E36.0197
G1 X138.794 Y191.476 E36.04022
G1 X138.556 Y191.048 E36.06074
G1 X138.39 Y190.588 E36.08124
G1 X138.301 Y190.107 E36.10174
G1 X138.286 Y189.805 E36.11441
G1 X138.286 Y173.806 E36.78489
G1 X138.288 Y170.802 E36.91078
G1 X137.796 Y170.762 E36.93147
G1 X137.321 Y170.643 E36.95199
G1 X136.872 Y170.449 E36.97249
G1 X136.46 Y170.184 E36.99302
G1 X136.097 Y169.856 E37.01352
G1 X135.711 Y169.345 E37.04036
G1 X132.713 Y164.348 E37.28457
G1 X132.497 Y163.91 E37.30504
G1 X132.354 Y163.441 E37.32558
G1 X132.29 Y162.956 E37.34609
G1 X132.305 Y162.467 E37.36659
G1 X132.4 Y161.987 E37.38709
G1 X132.571 Y161.528 E37.40762
G1 X132.815 Y161.104 E37.42812
G1 X133.125 Y160.724 E37.44867
G1 X133.492 Y160.401 E37.46916
G1 X133.907 Y160.141 E37.48969
G1 X134.358 Y159.952 E37.51018
G1 X134.835 Y159.839 E37.53072
G1 X135.286 Y159.805 E37.54968
G1 X138.286 Y159.805 E37.6754
