;FLAVOR:Marlin
;TIME:12983
;Filament used: 12.6821m
;Layer height: 0.28
;MINX:120.986
;MINY:124.005
;MINZ:0.28
;MAXX:190.085
;MAXY:197.605
;MAXZ:125.16
;Generated with Cura_SteamEngine 4.10.0
M104 S205
M105
M109 S205
M82 ;absolute extrusion mode
G28 ; home all axes
 M117 Purge extruder
 G92 E0 ; reset extruder
 G1 Z1.0 F3000 ; move z up little to prevent scratching of surface
 G1 X2 Y20 Z0.3 F5000.0 ; move to start-line position
 G1 X2 Y200.0 Z0.3 F1500.0 E15 ; draw 1st line
 G1 X2 Y200.0 Z0.4 F5000.0 ; move to side a little
 G1 X2 Y20 Z0.4 F1500.0 E30 ; draw 2nd line
 G92 E0 ; reset extruder
 G1 Z1.0 F3000 ; move z up little to prevent scratching of surface
G92 E0
G92 E0
G1 F1500 E-2
;LAYER_COUNT:447
;LAYER:0
M106 S127.5
M204 S2500
G0 F6000 X123.409 Y126.154 Z0.28
M204 S3000
;TYPE:SKIRT
G1 F1500 E0
G1 F1200 X124.008 Y125.639 E0.03311
G1 X124.656 Y125.188 E0.06619
G1 X125.347 Y124.804 E0.09932
G1 X126.072 Y124.492 E0.1324
G1 X126.825 Y124.255 E0.16548
G1 X127.599 Y124.096 E0.19859
G1 X128.384 Y124.015 E0.23167
G1 X128.786 Y124.005 E0.24852
G1 X176.286 Y124.005 E2.23914
G1 X176.512 Y124.008 E2.24861
G1 X177.099 Y124.025 E2.27322
G1 X177.54 Y124.051 E2.29173
G1 X178.123 Y124.101 E2.31626
G1 X178.591 Y124.155 E2.336
G1 X179.162 Y124.239 E2.36019
G1 X179.607 Y124.318 E2.37913
G1 X180.163 Y124.433 E2.40292
G1 X180.668 Y124.555 E2.42469
G1 X181.198 Y124.702 E2.44774
G1 X181.688 Y124.855 E2.46925
G1 X182.194 Y125.032 E2.49172
G1 X182.708 Y125.233 E2.51485
G1 X183.181 Y125.437 E2.53644
G1 X183.744 Y125.707 E2.5626
G1 X184.18 Y125.938 E2.58328
G1 X184.755 Y126.275 E2.61121
G1 X185.152 Y126.531 E2.63101
G1 X185.746 Y126.955 E2.66159
G1 X186.097 Y127.231 E2.6803
G1 X186.707 Y127.764 E2.71425
G1 X187.008 Y128.056 E2.73183
G1 X187.643 Y128.751 E2.77128
G1 X187.896 Y129.064 E2.78815
G1 X188.469 Y129.872 E2.82966
G1 X188.667 Y130.193 E2.84546
G1 X189.195 Y131.21 E2.89348
G1 X189.338 Y131.543 E2.90867
G1 X189.613 Y132.284 E2.9418
G1 X189.733 Y132.708 E2.96026
G1 X189.819 Y133.048 E2.97496
G1 X189.973 Y133.823 E3.00807
G1 X190.029 Y134.302 E3.02828
G1 X190.058 Y134.644 E3.04267
G1 X190.085 Y135.433 E3.07575
G1 X190.059 Y135.954 E3.09761
G1 X190.03 Y136.3 E3.11216
G1 X189.924 Y137.083 E3.14528
G1 X189.82 Y137.557 E3.16561
G1 X189.735 Y137.894 E3.18018
G1 X189.503 Y138.649 E3.21328
G1 X189.342 Y139.056 E3.23162
G1 X189.199 Y139.39 E3.24685
G1 X188.661 Y140.426 E3.29577
G1 X188.461 Y140.749 E3.31169
G1 X187.914 Y141.523 E3.35141
G1 X187.663 Y141.836 E3.36822
G1 X187 Y142.563 E3.40946
G1 X186.698 Y142.855 E3.42706
G1 X186.097 Y143.379 E3.46048
G1 X185.746 Y143.655 E3.47919
G1 X185.155 Y144.077 E3.50962
G1 X184.76 Y144.332 E3.52933
G1 X184.181 Y144.672 E3.55747
G1 X183.743 Y144.904 E3.57824
G1 X183.181 Y145.173 E3.60435
G1 X182.708 Y145.377 E3.62594
G1 X182.194 Y145.578 E3.64907
G1 X181.688 Y145.755 E3.67153
G1 X181.198 Y145.908 E3.69304
G1 X180.668 Y146.055 E3.71609
G1 X180.163 Y146.177 E3.73787
G1 X179.607 Y146.292 E3.76166
G1 X179.162 Y146.371 E3.7806
G1 X178.591 Y146.455 E3.80479
G1 X178.123 Y146.509 E3.82453
G1 X177.54 Y146.559 E3.84905
G1 X177.046 Y146.586 E3.86978
G1 X176.416 Y146.6 E3.89619
G1 X176.243 Y146.602 E3.90344
G1 X152.084 Y146.602 E4.91589
G1 X152.085 Y178.007 E6.23201
G1 X176.286 Y178.007 E7.24622
G1 X177.075 Y178.047 E7.27932
G1 X177.855 Y178.166 E7.31239
G1 X178.62 Y178.364 E7.34551
G1 X179.36 Y178.638 E7.37858
G1 X180.069 Y178.986 E7.41168
G1 X180.74 Y179.404 E7.44481
G1 X181.364 Y179.887 E7.47787
G1 X181.937 Y180.43 E7.51096
G1 X182.452 Y181.029 E7.54406
G1 X182.903 Y181.677 E7.57715
G1 X183.287 Y182.368 E7.61028
G1 X183.599 Y183.093 E7.64335
G1 X183.836 Y183.846 E7.67644
G1 X183.995 Y184.62 E7.70955
G1 X184.076 Y185.405 E7.74262
G1 X184.086 Y185.807 E7.75948
G1 X184.086 Y189.805 E7.92702
G1 X184.046 Y190.594 E7.96013
G1 X183.927 Y191.374 E7.9932
G1 X183.729 Y192.139 E8.02631
G1 X183.455 Y192.879 E8.05938
G1 X183.107 Y193.588 E8.09248
G1 X182.689 Y194.259 E8.12561
G1 X182.206 Y194.883 E8.15868
G1 X181.663 Y195.456 E8.19176
G1 X181.064 Y195.971 E8.22487
G1 X180.416 Y196.422 E8.25795
G1 X179.725 Y196.806 E8.29108
G1 X179 Y197.118 E8.32416
G1 X178.247 Y197.355 E8.35724
G1 X177.473 Y197.514 E8.39036
G1 X176.688 Y197.595 E8.42343
G1 X176.286 Y197.605 E8.44028
G1 X141.286 Y197.605 E9.90705
G1 X140.497 Y197.565 E9.94016
G1 X139.717 Y197.446 E9.97323
G1 X138.952 Y197.248 E10.00634
G1 X138.212 Y196.974 E10.03941
G1 X137.503 Y196.626 E10.07251
G1 X136.832 Y196.208 E10.10564
G1 X136.208 Y195.725 E10.13871
G1 X135.635 Y195.182 E10.17179
G1 X135.12 Y194.583 E10.2049
G1 X134.669 Y193.935 E10.23798
G1 X134.285 Y193.244 E10.27111
G1 X133.973 Y192.519 E10.30419
G1 X133.736 Y191.766 E10.33727
G1 X133.577 Y190.992 E10.37039
G1 X133.496 Y190.207 E10.40346
G1 X133.486 Y189.805 E10.42031
G1 X133.486 Y173.939 E11.08522
G1 X133.206 Y173.722 E11.10007
G1 X132.633 Y173.179 E11.13315
G1 X132.118 Y172.58 E11.16625
G1 X131.595 Y171.815 E11.20509
G1 X128.597 Y166.818 E11.4493
G1 X128.226 Y166.121 E11.48239
G1 X127.927 Y165.39 E11.51549
G1 X127.703 Y164.633 E11.54857
G1 X127.557 Y163.857 E11.58166
G1 X127.49 Y163.07 E11.61476
G1 X127.504 Y162.28 E11.64788
G1 X127.597 Y161.496 E11.68096
G1 X127.768 Y160.725 E11.71406
G1 X128.017 Y159.976 E11.74714
G1 X128.34 Y159.255 E11.78025
G1 X128.735 Y158.571 E11.81335
G1 X129.197 Y157.931 E11.84643
G1 X129.721 Y157.34 E11.87953
G1 X130.302 Y156.805 E11.91263
G1 X130.934 Y156.332 E11.94571
G1 X131.611 Y155.925 E11.97881
G1 X132.325 Y155.589 E12.01188
G1 X133.07 Y155.326 E12.04499
G1 X133.486 Y155.226 E12.06292
G1 X133.486 Y154.94 E12.07491
G1 X133.208 Y154.725 E12.08964
G1 X132.635 Y154.182 E12.12272
G1 X132.12 Y153.583 E12.15582
G1 X131.669 Y152.935 E12.18891
G1 X131.285 Y152.244 E12.22204
G1 X130.973 Y151.519 E12.25512
G1 X130.736 Y150.766 E12.2882
G1 X130.577 Y149.992 E12.32131
G1 X130.496 Y149.207 E12.35438
G1 X130.486 Y148.805 E12.37124
G1 X130.486 Y147.605 E12.42153
G1 X128.786 Y147.605 E12.49277
G1 X127.997 Y147.565 E12.52588
G1 X127.217 Y147.446 E12.55894
G1 X126.452 Y147.248 E12.59206
G1 X125.712 Y146.974 E12.62513
G1 X125.003 Y146.626 E12.65823
G1 X124.332 Y146.208 E12.69136
G1 X123.708 Y145.725 E12.72443
G1 X123.135 Y145.182 E12.75751
G1 X122.62 Y144.583 E12.79061
G1 X122.169 Y143.935 E12.8237
G1 X121.785 Y143.244 E12.85683
G1 X121.473 Y142.519 E12.88991
G1 X121.236 Y141.766 E12.92299
G1 X121.077 Y140.992 E12.9561
G1 X120.996 Y140.207 E12.98918
G1 X120.986 Y139.805 E13.00603
G1 X120.986 Y131.805 E13.34129
G1 X121.026 Y131.016 E13.3744
G1 X121.145 Y130.236 E13.40746
G1 X121.343 Y129.471 E13.44058
G1 X121.617 Y128.731 E13.47365
G1 X121.965 Y128.022 E13.50675
G1 X122.383 Y127.351 E13.53988
G1 X122.866 Y126.727 E13.57295
G1 X123.409 Y126.154 E13.60603
M204 S2500
G0 F6000 X123.802 Y126.335
M204 S3000
G1 F1200 X124.397 Y125.847 E13.63828
G1 X125.039 Y125.424 E13.6705
G1 X125.722 Y125.069 E13.70276
G1 X126.437 Y124.788 E13.73495
G1 X127.179 Y124.582 E13.76722
G1 X127.937 Y124.454 E13.79944
G1 X128.786 Y124.405 E13.83508
G1 X176.286 Y124.405 E15.8257
G1 X176.5 Y124.408 E15.83467
G1 X177.087 Y124.425 E15.85928
G1 X177.505 Y124.449 E15.87682
G1 X178.088 Y124.499 E15.90134
G1 X178.533 Y124.551 E15.92012
G1 X179.104 Y124.635 E15.94431
G1 X179.526 Y124.709 E15.96226
G1 X180.082 Y124.824 E15.98606
G1 X180.561 Y124.94 E16.00671
G1 X181.091 Y125.087 E16.02976
G1 X181.556 Y125.233 E16.05019
G1 X182.062 Y125.41 E16.07265
G1 X182.55 Y125.6 E16.0946
G1 X183.023 Y125.804 E16.11618
G1 X183.556 Y126.06 E16.14096
G1 X183.992 Y126.291 E16.16164
G1 X184.538 Y126.611 E16.18816
G1 X184.935 Y126.867 E16.20796
G1 X185.499 Y127.269 E16.23699
G1 X185.85 Y127.545 E16.2557
G1 X186.429 Y128.051 E16.28792
G1 X186.73 Y128.343 E16.3055
G1 X187.332 Y129.002 E16.3429
G1 X187.585 Y129.315 E16.35977
G1 X188.128 Y130.082 E16.39915
G1 X188.326 Y130.403 E16.41496
G1 X188.828 Y131.368 E16.46054
G1 X188.971 Y131.701 E16.47573
G1 X189.237 Y132.423 E16.50798
G1 X189.345 Y132.806 E16.52465
G1 X189.431 Y133.146 E16.53935
G1 X189.581 Y133.901 E16.57161
G1 X189.631 Y134.336 E16.58996
G1 X189.66 Y134.678 E16.60434
G1 X189.685 Y135.447 E16.63659
G1 X189.66 Y135.921 E16.65648
G1 X189.631 Y136.267 E16.67103
G1 X189.527 Y137.029 E16.70326
G1 X189.432 Y137.459 E16.72172
G1 X189.347 Y137.796 E16.73628
G1 X189.121 Y138.531 E16.76851
G1 X188.975 Y138.899 E16.7851
G1 X188.832 Y139.233 E16.80032
G1 X188.321 Y140.216 E16.84675
G1 X188.121 Y140.539 E16.86267
G1 X187.602 Y141.272 E16.90031
G1 X187.351 Y141.585 E16.91713
G1 X186.722 Y142.276 E16.95629
G1 X186.42 Y142.568 E16.97389
G1 X185.85 Y143.065 E17.00558
G1 X185.499 Y143.341 E17.0243
G1 X184.939 Y143.741 E17.05314
G1 X184.544 Y143.996 E17.07284
G1 X183.994 Y144.318 E17.09955
G1 X183.556 Y144.55 E17.12032
G1 X183.023 Y144.806 E17.1451
G1 X182.55 Y145.01 E17.16669
G1 X182.062 Y145.2 E17.18863
G1 X181.556 Y145.377 E17.2111
G1 X181.091 Y145.523 E17.23152
G1 X180.561 Y145.67 E17.25457
G1 X180.082 Y145.786 E17.27523
G1 X179.526 Y145.901 E17.29902
G1 X179.104 Y145.975 E17.31698
G1 X178.533 Y146.059 E17.34116
G1 X178.088 Y146.111 E17.35994
G1 X177.505 Y146.161 E17.38446
G1 X177.037 Y146.186 E17.4041
G1 X176.243 Y146.202 E17.43738
G1 X151.684 Y146.202 E18.4666
G1 X151.685 Y178.407 E19.81624
G1 X176.286 Y178.407 E20.84721
G1 X177.054 Y178.447 E20.87944
G1 X177.814 Y178.566 E20.91168
G1 X178.557 Y178.764 E20.9439
G1 X179.276 Y179.038 E20.97614
G1 X179.962 Y179.385 E21.00836
G1 X180.609 Y179.801 E21.0406
G1 X181.209 Y180.282 E21.07282
G1 X181.756 Y180.823 E21.10507
G1 X182.244 Y181.418 E21.13732
G1 X182.667 Y182.06 E21.16953
G1 X183.022 Y182.743 E21.20179
G1 X183.303 Y183.458 E21.23399
G1 X183.509 Y184.2 E21.26626
G1 X183.637 Y184.958 E21.29848
G1 X183.686 Y185.807 E21.33411
G1 X183.686 Y189.805 E21.50166
G1 X183.646 Y190.573 E21.53389
G1 X183.527 Y191.333 E21.56613
G1 X183.329 Y192.076 E21.59835
G1 X183.055 Y192.795 E21.6306
G1 X182.708 Y193.481 E21.66282
G1 X182.292 Y194.128 E21.69505
G1 X181.811 Y194.728 E21.72728
G1 X181.27 Y195.275 E21.75952
G1 X180.675 Y195.763 E21.79177
G1 X180.033 Y196.186 E21.82399
G1 X179.35 Y196.541 E21.85625
G1 X178.635 Y196.822 E21.88844
G1 X177.893 Y197.028 E21.92071
G1 X177.135 Y197.156 E21.95293
G1 X176.286 Y197.205 E21.98857
G1 X141.286 Y197.205 E23.45534
G1 X140.518 Y197.165 E23.48757
G1 X139.758 Y197.046 E23.51981
G1 X139.015 Y196.848 E23.55203
G1 X138.296 Y196.574 E23.58428
G1 X137.61 Y196.227 E23.61649
G1 X136.963 Y195.811 E23.64873
G1 X136.363 Y195.33 E23.68096
G1 X135.816 Y194.789 E23.7132
G1 X135.328 Y194.194 E23.74545
G1 X134.905 Y193.552 E23.77767
G1 X134.55 Y192.869 E23.80993
G1 X134.269 Y192.154 E23.84212
G1 X134.063 Y191.412 E23.87439
G1 X133.935 Y190.654 E23.90661
G1 X133.886 Y189.805 E23.94225
G1 X133.886 Y173.748 E24.61516
G1 X133.361 Y173.327 E24.64336
G1 X132.814 Y172.786 E24.6756
G1 X132.326 Y172.191 E24.70785
G1 X131.938 Y171.609 E24.73717
G1 X128.94 Y166.612 E24.98138
G1 X128.58 Y165.933 E25.01358
G1 X128.291 Y165.22 E25.04583
G1 X128.078 Y164.481 E25.07806
G1 X127.943 Y163.724 E25.11028
G1 X127.888 Y162.956 E25.14255
G1 X127.912 Y162.188 E25.17475
G1 X128.016 Y161.425 E25.20702
G1 X128.198 Y160.678 E25.23924
G1 X128.457 Y159.954 E25.27147
G1 X128.79 Y159.261 E25.30369
G1 X129.193 Y158.606 E25.33592
G1 X129.662 Y157.996 E25.36816
G1 X130.191 Y157.438 E25.40039
G1 X130.776 Y156.938 E25.43264
G1 X131.409 Y156.502 E25.46485
G1 X132.085 Y156.133 E25.49712
G1 X132.794 Y155.837 E25.52932
G1 X133.531 Y155.616 E25.56157
G1 X133.886 Y155.549 E25.57671
G1 X133.886 Y154.749 E25.61023
G1 X133.363 Y154.33 E25.63832
G1 X132.816 Y153.789 E25.67056
G1 X132.328 Y153.194 E25.70281
G1 X131.905 Y152.552 E25.73503
G1 X131.55 Y151.869 E25.76728
G1 X131.269 Y151.154 E25.79948
G1 X131.063 Y150.412 E25.83175
G1 X130.935 Y149.654 E25.86397
G1 X130.886 Y148.805 E25.89961
G1 X130.886 Y147.205 E25.96666
G1 X128.786 Y147.205 E26.05467
G1 X128.018 Y147.165 E26.08689
G1 X127.258 Y147.046 E26.11913
G1 X126.515 Y146.848 E26.15136
G1 X125.796 Y146.574 E26.1836
G1 X125.11 Y146.227 E26.21582
G1 X124.463 Y145.811 E26.24805
G1 X123.863 Y145.33 E26.28028
G1 X123.316 Y144.789 E26.31252
G1 X122.828 Y144.194 E26.34477
G1 X122.405 Y143.552 E26.37699
G1 X122.05 Y142.869 E26.40925
G1 X121.769 Y142.154 E26.44145
G1 X121.563 Y141.412 E26.47372
G1 X121.435 Y140.654 E26.50593
G1 X121.386 Y139.805 E26.54157
G1 X121.386 Y131.805 E26.87683
G1 X121.426 Y131.037 E26.90906
G1 X121.545 Y130.277 E26.9413
G1 X121.743 Y129.534 E26.97352
G1 X122.017 Y128.815 E27.00577
G1 X122.364 Y128.129 E27.03799
G1 X122.78 Y127.482 E27.07022
G1 X123.261 Y126.882 E27.10245
G1 X123.802 Y126.335 E27.13469
M204 S2500
G0 F6000 X124.194 Y126.521
M204 S3000
G1 F1200 X124.784 Y126.062 E27.16602
G1 X125.42 Y125.667 E27.19739
G1 X126.094 Y125.343 E27.22873
G1 X126.799 Y125.093 E27.26008
G1 X127.527 Y124.919 E27.29145
G1 X128.269 Y124.824 E27.3228
G1 X128.786 Y124.805 E27.34448
G1 X176.286 Y124.805 E29.3351
G1 X176.489 Y124.808 E29.34361
G1 X177.076 Y124.825 E29.36822
G1 X177.471 Y124.848 E29.3848
G1 X178.054 Y124.898 E29.40932
G1 X178.475 Y124.947 E29.42708
G1 X179.046 Y125.031 E29.45127
G1 X179.445 Y125.101 E29.46825
G1 X180.001 Y125.216 E29.49204
G1 X180.454 Y125.326 E29.51158
G1 X180.984 Y125.473 E29.53463
G1 X181.424 Y125.611 E29.55395
G1 X181.93 Y125.788 E29.57642
G1 X182.391 Y125.967 E29.59714
G1 X182.864 Y126.171 E29.61873
G1 X183.369 Y126.414 E29.64221
G1 X183.805 Y126.645 E29.66289
G1 X184.322 Y126.947 E29.68798
G1 X184.719 Y127.203 E29.70778
G1 X185.252 Y127.583 E29.73521
G1 X185.603 Y127.859 E29.75393
G1 X186.15 Y128.338 E29.7844
G1 X186.451 Y128.63 E29.80197
G1 X187.021 Y129.254 E29.83739
G1 X187.274 Y129.567 E29.85426
G1 X187.788 Y130.292 E29.8915
G1 X187.986 Y130.613 E29.90731
G1 X188.46 Y131.526 E29.95042
G1 X188.603 Y131.859 E29.9656
G1 X188.957 Y132.904 E30.01184
G1 X189.043 Y133.244 E30.02654
G1 X189.188 Y133.978 E30.05789
G1 X189.232 Y134.37 E30.07443
G1 X189.261 Y134.712 E30.08881
G1 X189.284 Y135.459 E30.12013
G1 X189.262 Y135.888 E30.13813
G1 X189.233 Y136.234 E30.15268
G1 X189.13 Y136.975 E30.18403
G1 X189.044 Y137.361 E30.20061
G1 X188.959 Y137.698 E30.21517
G1 X188.607 Y138.741 E30.2613
G1 X188.464 Y139.075 E30.27653
G1 X187.98 Y140.005 E30.32047
G1 X187.78 Y140.328 E30.33639
G1 X187.29 Y141.022 E30.37199
G1 X187.039 Y141.335 E30.3888
G1 X186.444 Y141.988 E30.42583
G1 X186.142 Y142.28 E30.44343
G1 X185.603 Y142.751 E30.47343
G1 X185.252 Y143.027 E30.49214
G1 X184.722 Y143.405 E30.51942
G1 X184.327 Y143.66 E30.53913
G1 X183.807 Y143.965 E30.56439
G1 X183.369 Y144.197 E30.58516
G1 X182.864 Y144.439 E30.60863
G1 X182.391 Y144.643 E30.63022
G1 X181.93 Y144.822 E30.65094
G1 X181.424 Y144.999 E30.67341
G1 X180.984 Y145.137 E30.69273
G1 X180.454 Y145.284 E30.71578
G1 X180.001 Y145.394 E30.73532
G1 X179.445 Y145.509 E30.75911
G1 X179.046 Y145.579 E30.77609
G1 X178.475 Y145.663 E30.80027
G1 X178.054 Y145.712 E30.81804
G1 X177.471 Y145.762 E30.84256
G1 X177.029 Y145.786 E30.86111
G1 X176.243 Y145.802 E30.89406
G1 X151.284 Y145.802 E31.94003
G1 X151.285 Y178.807 E33.3232
G1 X176.286 Y178.807 E34.37093
G1 X177.033 Y178.847 E34.40228
G1 X177.771 Y178.966 E34.43361
G1 X178.493 Y179.164 E34.46499
G1 X179.189 Y179.437 E34.49632
G1 X179.852 Y179.784 E34.52768
G1 X180.475 Y180.199 E34.55905
G1 X181.049 Y180.678 E34.59038
G1 X181.57 Y181.215 E34.62173
G1 X182.029 Y181.805 E34.65306
G1 X182.424 Y182.441 E34.68444
G1 X182.748 Y183.115 E34.71578
G1 X182.998 Y183.82 E34.74712
G1 X183.172 Y184.548 E34.77849
G1 X183.267 Y185.29 E34.80984
G1 X183.286 Y185.807 E34.83152
G1 X183.286 Y189.805 E34.99907
G1 X183.246 Y190.552 E35.03042
G1 X183.127 Y191.29 E35.06175
G1 X182.929 Y192.012 E35.09312
G1 X182.656 Y192.708 E35.12445
G1 X182.309 Y193.371 E35.15581
G1 X181.894 Y193.994 E35.18718
G1 X181.415 Y194.568 E35.21852
G1 X180.878 Y195.089 E35.24987
G1 X180.288 Y195.548 E35.2812
G1 X179.652 Y195.943 E35.31257
G1 X178.978 Y196.267 E35.34391
G1 X178.273 Y196.517 E35.37526
G1 X177.545 Y196.691 E35.40663
G1 X176.803 Y196.786 E35.43798
G1 X176.286 Y196.805 E35.45966
G1 X141.286 Y196.805 E36.92643
G1 X140.539 Y196.765 E36.95778
