;FLAVOR:Marlin
;TIME:12907
;Filament used: 12.7251m
;Layer height: 0.3
;MINX:96.073
;MINY:68.894
;MINZ:0.3
;MAXX:258.12
;MAXY:231.105
;MAXZ:5.1
;Generated with Cura_SteamEngine 4.10.0
M104 S228
M105
M109 S228
M82 ;absolute extrusion mode
G28 ; home all axes
 M117 Purge extruder
 G92 E0 ; reset extruder
 G1 Z1.0 F3000 ; move z up little to prevent scratching of surface
 G1 X2 Y20 Z0.3 F5000.0 ; move to start-line position
 G1 X2 Y200.0 Z0.3 F1500.0 E15 ; draw 1st line
 G1 X2 Y200.0 Z0.4 F5000.0 ; move to side a little
 G1 X2 Y20 Z0.4 F1500.0 E30 ; draw 2nd line
 G92 E0 ; reset extruder
 G1 Z1.0 F3000 ; move z up little to prevent scratching of surface
G92 E0
G92 E0
G1 F2400 E-1.6
;LAYER_COUNT:17
;LAYER:0
M106 S89.3
G0 F6000 X115.196 Y92.137 Z0.3
;TYPE:SKIRT
G1 F2400 E0
G1 F900 X115.529 Y91.983 E0.0233
G1 X116.008 Y91.672 E0.05958
G1 X116.474 Y91.262 E0.099
G1 X118.522 Y89.162 E0.28531
G1 X118.891 Y88.726 E0.32158
G1 X119.196 Y88.243 E0.35787
G1 X119.235 Y88.156 E0.36392
G1 X119.58 Y88.053 E0.38679
G1 X120.099 Y87.815 E0.42305
G1 X120.626 Y87.471 E0.46303
G1 X121.267 Y86.98 E0.51431
G1 X116.789 Y93.558 E1.01973
G1 X111.494 Y97.548 E1.44083
G1 X111.606 Y97.298 E1.45823
G1 X111.764 Y96.749 E1.49451
G1 X111.779 Y96.641 E1.50144
G1 X112.067 Y96.453 E1.52328
G1 X112.497 Y96.077 E1.55956
G1 X112.897 Y95.609 E1.59866
G1 X114.63 Y93.24 E1.78509
G1 X114.934 Y92.757 E1.82134
G1 X115.168 Y92.236 E1.85761
G1 X115.196 Y92.137 E1.86415
G0 F6000 X114.739 Y92.009
G1 F900 X114.799 Y91.783 E1.879
G1 X114.9 Y91.751 E1.88573
G1 X115.381 Y91.514 E1.91979
G1 X115.822 Y91.208 E1.95388
G1 X116.13 Y90.926 E1.9804
G1 X118.178 Y88.826 E2.16671
G1 X118.523 Y88.416 E2.20074
G1 X118.803 Y87.958 E2.23484
G1 X118.891 Y87.75 E2.24918
G1 X118.992 Y87.733 E2.25569
G1 X119.502 Y87.568 E2.28973
G1 X119.982 Y87.329 E2.32379
G1 X120.334 Y87.091 E2.35078
G1 X122.315 Y85.571 E2.50937
G1 X122.017 Y86.73 E2.58538
G1 X117.141 Y93.893 E3.13573
G1 X110.164 Y99.152 E3.69066
G1 X110.111 Y99.169 E3.69419
G1 X110.95 Y97.594 E3.80754
G1 X111.166 Y97.103 E3.84161
G1 X111.307 Y96.586 E3.87564
G1 X111.335 Y96.35 E3.89074
G1 X111.412 Y96.313 E3.89616
G1 X111.854 Y96.01 E3.9302
G1 X112.247 Y95.645 E3.96427
G1 X112.51 Y95.326 E3.99053
G1 X114.243 Y92.957 E4.17695
G1 X114.526 Y92.501 E4.21104
G1 X114.739 Y92.009 E4.24509
G0 F6000 X114.785 Y91.28
G1 F900 X115.226 Y91.047 E4.27677
G1 X115.787 Y90.591 E4.32269
G1 X117.835 Y88.491 E4.50899
G1 X118.153 Y88.107 E4.54066
G1 X118.407 Y87.677 E4.57238
G1 X118.546 Y87.321 E4.59665
G1 X118.945 Y87.249 E4.62241
G1 X119.416 Y87.082 E4.65415
G1 X120.042 Y86.71 E4.7004
G1 X122.368 Y84.926 E4.88658
G1 X122.738 Y84.591 E4.91828
G1 X123.051 Y84.202 E4.94999
G1 X123.247 Y83.856 E4.97525
G1 X123.252 Y83.855 E4.97557
G1 X122.46 Y86.933 E5.17744
G1 X117.493 Y94.23 E5.73808
G1 X110.388 Y99.585 E6.30317
G1 X109.13 Y99.984 E6.387
G1 X109.145 Y99.962 E6.38869
G1 X110.527 Y97.368 E6.57537
G1 X110.725 Y96.91 E6.60706
G1 X110.848 Y96.426 E6.63878
G1 X110.883 Y96.038 E6.66352
G1 X111.23 Y95.863 E6.6882
G1 X111.634 Y95.569 E6.71994
G1 X112.122 Y95.042 E6.76556
G1 X113.855 Y92.673 E6.95198
G1 X114.117 Y92.248 E6.98369
G1 X114.307 Y91.786 E7.01542
G1 X114.395 Y91.411 E7.03989
G1 X114.785 Y91.28 E7.06602
G0 F6000 X114.662 Y90.809
G1 F900 X115.061 Y90.58 E7.09524
G1 X115.443 Y90.256 E7.12705
G1 X117.491 Y88.156 E7.31336
G1 X117.782 Y87.801 E7.34251
G1 X118.007 Y87.401 E7.37166
G1 X118.159 Y86.967 E7.40087
G1 X118.175 Y86.864 E7.40749
G1 X118.443 Y86.857 E7.42452
G1 X118.893 Y86.765 E7.45369
G1 X119.32 Y86.597 E7.48283
G1 X119.75 Y86.329 E7.51502
G1 X122.076 Y84.545 E7.7012
G1 X122.414 Y84.235 E7.73033
G1 X122.694 Y83.871 E7.7595
G1 X122.907 Y83.464 E7.78867
G1 X122.942 Y83.349 E7.79631
G1 X123.216 Y83.381 E7.81383
G1 X123.674 Y83.354 E7.84297
G1 X123.889 Y83.302 E7.85702
G1 X122.904 Y87.135 E8.10838
G1 X117.846 Y94.565 E8.67926
G1 X110.612 Y100.017 E9.2546
G1 X107.58 Y100.978 E9.45661
G1 X107.548 Y100.857 E9.46456
G1 X107.751 Y100.758 E9.47891
G1 X108.122 Y100.488 E9.50805
G1 X108.441 Y100.158 E9.5372
G1 X108.721 Y99.736 E9.56937
G1 X110.103 Y97.142 E9.75605
G1 X110.283 Y96.72 E9.78519
G1 X110.387 Y96.273 E9.81434
G1 X110.412 Y95.814 E9.84353
G1 X110.398 Y95.707 E9.85039
G1 X110.637 Y95.629 E9.86636
G1 X111.042 Y95.414 E9.89548
G1 X111.404 Y95.131 E9.92466
G1 X111.735 Y94.759 E9.95629
G1 X113.468 Y92.39 E10.14272
G1 X113.706 Y91.997 E10.1719
G1 X113.872 Y91.569 E10.20106
G1 X113.961 Y91.119 E10.23019
G1 X113.962 Y91.011 E10.23705
G1 X114.231 Y90.965 E10.25438
G1 X114.662 Y90.809 E10.2835
G0 F6000 X114.532 Y90.338
G1 F900 X114.882 Y90.115 E10.30986
G1 X115.099 Y89.921 E10.32834
G1 X117.147 Y87.821 E10.51465
G1 X117.407 Y87.497 E10.54104
G1 X117.601 Y87.13 E10.5674
G1 X117.72 Y86.732 E10.59379
G1 X117.757 Y86.443 E10.61229
G1 X117.761 Y86.375 E10.61662
G1 X118.013 Y86.39 E10.63265
G1 X118.428 Y86.375 E10.65903
G1 X118.832 Y86.281 E10.68537
G1 X119.211 Y86.111 E10.71175
G1 X119.458 Y85.948 E10.73055
G1 X121.784 Y84.164 E10.91673
G1 X122.087 Y83.881 E10.94307
G1 X122.331 Y83.545 E10.96944
G1 X122.506 Y83.168 E10.99584
G1 X122.584 Y82.889 E11.01424
G1 X122.601 Y82.806 E11.01962
G1 X122.856 Y82.858 E11.03615
G1 X123.269 Y82.902 E11.06253
G1 X123.683 Y82.866 E11.08893
G1 X124.082 Y82.751 E11.1153
G1 X124.345 Y82.626 E11.13379
G1 X124.595 Y82.486 E11.15199
G1 X123.348 Y87.334 E11.46993
G1 X118.198 Y94.9 E12.05124
G1 X110.834 Y100.451 E12.63696
G1 X107.121 Y101.627 E12.88433
G1 X107.138 Y101.346 E12.90221
G1 X107.082 Y100.934 E12.92862
G1 X106.997 Y100.656 E12.94709
G1 X106.97 Y100.586 E12.95185
G1 X107.166 Y100.511 E12.96518
G1 X107.537 Y100.326 E12.99151
G1 X107.867 Y100.072 E13.01796
G1 X108.141 Y99.761 E13.04429
G1 X108.297 Y99.511 E13.063
G1 X109.679 Y96.917 E13.24968
G1 X109.838 Y96.533 E13.27608
G1 X109.921 Y96.126 E13.30246
G1 X109.925 Y95.711 E13.32882
G1 X109.88 Y95.424 E13.34727
G1 X109.865 Y95.357 E13.35163
G1 X110.092 Y95.304 E13.36644
G1 X110.486 Y95.172 E13.39283
G1 X110.847 Y94.967 E13.4192
G1 X111.162 Y94.696 E13.44559
G1 X111.347 Y94.475 E13.4639
G1 X113.08 Y92.106 E13.65032
G1 X113.292 Y91.749 E13.67669
G1 X113.432 Y91.358 E13.70307
G1 X113.494 Y90.948 E13.72941
G1 X113.49 Y90.652 E13.74821
G1 X113.485 Y90.587 E13.75235
G1 X113.737 Y90.565 E13.76842
G1 X114.146 Y90.49 E13.79483
G1 X114.532 Y90.338 E13.82118
G0 F6000 X113.957 Y89.543
G1 F900 X114.233 Y89.402 E13.84086
G1 X114.412 Y89.251 E13.85574
G1 X116.46 Y87.151 E14.04204
G1 X116.646 Y86.904 E14.06168
G1 X116.762 Y86.617 E14.08134
G1 X116.799 Y86.385 E14.09627
G1 X116.823 Y85.987 E14.12159
G1 X116.802 Y85.679 E14.1412
G1 X116.702 Y85.386 E14.16086
G1 X116.578 Y85.185 E14.17586
G1 X115.268 Y83.475 E14.31268
G1 X116.908 Y85.07 E14.45798
G1 X117.156 Y85.255 E14.47763
G1 X117.443 Y85.371 E14.49729
G1 X117.673 Y85.408 E14.51209
G1 X118.071 Y85.432 E14.53741
G1 X118.379 Y85.411 E14.55702
G1 X118.672 Y85.311 E14.57669
G1 X118.873 Y85.186 E14.59172
G1 X121.199 Y83.402 E14.7779
G1 X121.418 Y83.184 E14.79753
G1 X121.574 Y82.917 E14.81717
G1 X121.644 Y82.694 E14.83201
G1 X121.725 Y82.304 E14.85731
G1 X121.748 Y81.996 E14.87693
G1 X121.692 Y81.692 E14.89656
G1 X121.598 Y81.475 E14.91158
G1 X120.514 Y79.533 E15.05284
G1 X121.947 Y81.394 E15.20202
G1 X122.166 Y81.613 E15.2217
G1 X122.433 Y81.768 E15.2413
G1 X122.657 Y81.838 E15.25621
G1 X123.048 Y81.918 E15.28156
G1 X123.357 Y81.94 E15.30123
G1 X123.661 Y81.883 E15.32088
G1 X123.876 Y81.789 E15.33578
G1 X126.085 Y80.551 E15.49662
G1 X124.236 Y87.736 E15.96784
G1 X118.902 Y95.572 E16.5699
G1 X111.282 Y101.316 E17.17598
G1 X105.648 Y103.101 E17.55135
G1 X106.107 Y101.835 E17.63688
G1 X106.174 Y101.533 E17.65652
G1 X106.162 Y101.224 E17.67617
G1 X106.1 Y100.998 E17.69105
G1 X105.958 Y100.626 E17.71634
G1 X105.812 Y100.354 E17.73595
G1 X105.6 Y100.128 E17.75563
G1 X105.402 Y99.995 E17.77078
G1 X103.641 Y99.055 E17.89756
G1 X105.611 Y99.767 E18.03061
G1 X105.913 Y99.833 E18.05024
G1 X106.222 Y99.821 E18.06988
G1 X106.45 Y99.758 E18.08491
G1 X106.822 Y99.615 E18.11022
G1 X107.093 Y99.468 E18.1298
G1 X107.319 Y99.256 E18.14948
G1 X107.45 Y99.059 E18.16451
G1 X108.832 Y96.465 E18.35119
G1 X108.941 Y96.176 E18.37081
G1 X108.973 Y95.868 E18.39047
G1 X108.943 Y95.636 E18.40533
G1 X108.855 Y95.247 E18.43066
G1 X108.749 Y94.957 E18.45027
G1 X108.572 Y94.704 E18.46988
G1 X108.394 Y94.544 E18.48509
G1 X106.752 Y93.341 E18.61437
G1 X108.654 Y94.35 E18.75112
G1 X108.943 Y94.459 E18.77074
G1 X109.251 Y94.489 E18.79039
G1 X109.487 Y94.459 E18.8055
G1 X109.875 Y94.369 E18.8308
G1 X110.165 Y94.261 E18.85046
G1 X110.417 Y94.082 E18.87009
G1 X110.573 Y93.909 E18.88488
G1 X112.306 Y91.54 E19.07131
G1 X112.454 Y91.269 E19.09092
G1 X112.529 Y90.968 E19.11063
G1 X112.533 Y90.732 E19.12562
G1 X112.5 Y90.335 E19.15092
G1 X112.435 Y90.032 E19.1706
G1 X112.295 Y89.757 E19.1902
G1 X112.144 Y89.577 E19.20513
G1 X110.634 Y88.098 E19.33937
G1 X112.451 Y89.418 E19.48202
G1 X112.722 Y89.566 E19.50163
G1 X113.022 Y89.64 E19.52125
G1 X113.258 Y89.643 E19.53624
G1 X113.655 Y89.609 E19.56155
G1 X113.957 Y89.543 E19.58119
G0 F6000 X113.846 Y89.071
G1 F900 X114.068 Y88.916 E19.59838
G1 X116.116 Y86.816 E19.78469
G1 X116.253 Y86.619 E19.79993
G1 X116.32 Y86.356 E19.81717
G1 X116.344 Y85.958 E19.84249
G1 X116.318 Y85.721 E19.85764
G1 X116.197 Y85.477 E19.87493
G1 X113.829 Y82.386 E20.12225
G1 X113.786 Y82.23 E20.13252
G1 X113.86 Y82.084 E20.14292
G1 X114.04 Y81.93 E20.15797
G1 X114.209 Y81.871 E20.16933
G1 X114.382 Y81.944 E20.18126
G1 X117.243 Y84.726 E20.43472
G1 X117.44 Y84.862 E20.44992
G1 X117.702 Y84.929 E20.4671
G1 X118.1 Y84.953 E20.49243
G1 X118.337 Y84.927 E20.50757
G1 X118.581 Y84.805 E20.5249
G1 X120.907 Y83.021 E20.71108
G1 X121.07 Y82.846 E20.72627
G1 X121.174 Y82.596 E20.74347
G1 X121.255 Y82.206 E20.76877
G1 X121.264 Y81.967 E20.78396
G1 X121.179 Y81.709 E20.80121
G1 X119.268 Y78.287 E21.05015
G1 X119.248 Y78.124 E21.06058
G1 X119.342 Y77.992 E21.07087
G1 X119.55 Y77.859 E21.08655
G1 X119.723 Y77.826 E21.09774
G1 X119.875 Y77.917 E21.10899
G1 X122.328 Y81.101 E21.36428
G1 X122.503 Y81.264 E21.37947
G1 X122.754 Y81.367 E21.3967
G1 X123.145 Y81.447 E21.42205
G1 X123.384 Y81.456 E21.43724
G1 X123.641 Y81.37 E21.45445
G1 X126.197 Y79.937 E21.64057
G1 X126.383 Y79.787 E21.65574
G1 X126.522 Y79.554 E21.67297
G1 X126.658 Y79.179 E21.69831
G1 X126.701 Y78.944 E21.71348
G1 X126.653 Y78.677 E21.73071
G1 X125.243 Y74.996 E21.98107
G1 X125.247 Y74.823 E21.99207
G1 X125.357 Y74.708 E22.00217
G1 X125.586 Y74.603 E22.01817
G1 X125.764 Y74.594 E22.02949
G1 X125.892 Y74.696 E22.03989
G1 X127.315 Y77.228 E22.22436
G1 X127.068 Y77.353 E22.24195
G1 X126.906 Y77.529 E22.25714
G1 X126.81 Y77.748 E22.27233
G1 X126.796 Y78.023 E22.28982
G1 X126.95 Y79.114 E22.3598
G1 X124.68 Y87.937 E22.93843
G1 X119.255 Y95.907 E23.55078
G1 X111.503 Y101.75 E24.16734
G1 X104.865 Y103.853 E24.6096
G1 X105.656 Y101.671 E24.75702
G1 X105.699 Y101.436 E24.77219
G1 X105.652 Y101.169 E24.78941
G1 X105.51 Y100.797 E24.8147
G1 X105.388 Y100.591 E24.8299
G1 X105.176 Y100.419 E24.84724
G1 X101.785 Y98.609 E25.09138
G1 X101.676 Y98.48 E25.10211
G1 X101.684 Y98.315 E25.1126
G1 X101.78 Y98.107 E25.12715
G1 X101.904 Y97.989 E25.13802
G1 X102.092 Y97.984 E25.14997
G1 X105.774 Y99.315 E25.39864
G1 X106.01 Y99.358 E25.41387
G1 X106.277 Y99.31 E25.4311
G1 X106.649 Y99.167 E25.45642
G1 X106.855 Y99.045 E25.47162
G1 X107.026 Y98.834 E25.48887
G1 X108.408 Y96.24 E25.67555
G1 X108.484 Y96.013 E25.69076
G1 X108.475 Y95.742 E25.70798
G1 X108.387 Y95.353 E25.73331
G1 X108.296 Y95.132 E25.74849
G1 X108.11 Y94.931 E25.76588
G1 X105 Y92.653 E26.01073
G1 X104.91 Y92.507 E26.02163
G1 X104.939 Y92.353 E26.03158
G1 X105.063 Y92.161 E26.0461
G1 X105.215 Y92.053 E26.05794
G1 X105.384 Y92.072 E26.06874
G1 X108.879 Y93.926 E26.32002
G1 X109.106 Y94.001 E26.33521
G1 X109.379 Y93.991 E26.35256
G1 X109.767 Y93.901 E26.37786
G1 X109.987 Y93.809 E26.393
G1 X110.185 Y93.625 E26.41017
G1 X111.918 Y91.256 E26.5966
G1 X112.025 Y91.042 E26.61179
G1 X112.055 Y90.771 E26.62911
G1 X112.022 Y90.374 E26.65441
G1 X111.962 Y90.143 E26.66957
G1 X111.808 Y89.92 E26.68678
G1 X109.039 Y87.207 E26.933
G1 X108.974 Y87.059 E26.94327
G1 X109.027 Y86.904 E26.95367
G1 X109.182 Y86.726 E26.96866
G1 X109.339 Y86.646 E26.97985
G1 X109.516 Y86.692 E26.99147
G1 X112.733 Y89.029 E27.24402
G1 X112.947 Y89.136 E27.25922
G1 X113.217 Y89.164 E27.27646
G1 X113.614 Y89.13 E27.30176
G1 X113.846 Y89.071 E27.31697
G0 F6000 X113.573 Y88.652
G1 F900 X113.725 Y88.581 E27.32762
G1 X115.773 Y86.481 E27.51393
G1 X115.841 Y86.327 E27.52462
G1 X115.865 Y85.929 E27.54995
G1 X115.816 Y85.769 E27.56058
G1 X113.391 Y82.604 E27.81382
G1 X113.273 Y82.178 E27.8419
G1 X113.477 Y81.781 E27.87025
G1 X113.795 Y81.507 E27.89691
G1 X114.225 Y81.358 E27.92581
G1 X114.652 Y81.536 E27.95519
G1 X117.578 Y84.382 E28.21445
G1 X117.731 Y84.45 E28.22508
G1 X118.129 Y84.474 E28.25041
G1 X118.289 Y84.424 E28.26105
G1 X120.615 Y82.64 E28.44724
G1 X120.704 Y82.499 E28.45783
G1 X120.785 Y82.109 E28.48313
G1 X120.76 Y81.943 E28.49379
G1 X118.802 Y78.438 E28.74879
G1 X118.748 Y77.998 E28.77694
G1 X119.006 Y77.637 E28.80512
G1 X119.367 Y77.406 E28.83234
G1 X119.812 Y77.321 E28.86112
G1 X120.2 Y77.552 E28.8898
G1 X122.708 Y80.808 E29.15084
G1 X122.85 Y80.897 E29.16148
G1 X123.241 Y80.977 E29.18683
G1 X123.406 Y80.951 E29.19744
G1 X125.962 Y79.518 E29.38356
G1 X126.071 Y79.391 E29.39419
G1 X126.207 Y79.016 E29.41952
G1 X126.205 Y78.848 E29.43019
G1 X124.761 Y75.078 E29.68661
G1 X124.771 Y74.627 E29.71526
G1 X125.075 Y74.309 E29.7432
G1 X125.469 Y74.129 E29.77071
G1 X125.923 Y74.106 E29.79958
G1 X126.265 Y74.38 E29.82742
G1 X128.018 Y77.497 E30.05455
G1 X127.432 Y77.695 E30.09384
G1 X127.32 Y77.774 E30.10254
G1 X127.271 Y77.956 E30.11452
G1 X127.439 Y79.142 E30.1906
G1 X125.124 Y88.138 E30.78059
G1 X119.608 Y96.242 E31.40322
G1 X111.727 Y102.182 E32.03003
G1 X102.735 Y105.03 E32.62911
G1 X100.761 Y104.884 E32.75483
G1 X100.627 Y104.913 E32.76354
G1 X100.508 Y105.073 E32.77621
G1 X100.355 Y105.784 E32.8224
G1 X99.211 Y105.367 E32.89974
G1 X98.88 Y105.075 E32.92777
G1 X98.836 Y104.63 E32.95617
G1 X98.954 Y104.228 E32.98278
G1 X99.227 Y103.883 E33.01073
G1 X99.679 Y103.806 E33.03985
G1 X103.58 Y104.62 E33.29295
G1 X103.746 Y104.594 E33.30362
G1 X104.094 Y104.399 E33.32896
G1 X104.203 Y104.272 E33.33959
G1 X105.205 Y101.508 E33.52632
G1 X105.203 Y101.34 E33.537
G1 X105.061 Y100.968 E33.56229
G1 X104.95 Y100.842 E33.57295
G1 X101.477 Y98.988 E33.823
G1 X101.188 Y98.647 E33.85139
G1 X101.21 Y98.197 E33.88
G1 X101.381 Y97.823 E33.90612
G1 X101.707 Y97.514 E33.93465
G1 X102.167 Y97.502 E33.96388
G1 X105.937 Y98.864 E34.21848
G1 X106.105 Y98.862 E34.22915
G1 X106.477 Y98.719 E34.25446
G1 X106.603 Y98.608 E34.26512
G1 X107.985 Y96.014 E34.4518
G1 X108.007 Y95.848 E34.46244
G1 X107.919 Y95.459 E34.48777
G1 X107.827 Y95.318 E34.49846
G1 X104.64 Y92.983 E34.7494
G1 X104.403 Y92.601 E34.77795
G1 X104.487 Y92.169 E34.8059
G1 X104.711 Y91.822 E34.83214
G1 X105.087 Y91.556 E34.86139
G1 X105.526 Y91.605 E34.88945
G1 X109.104 Y93.502 E35.14666
G1 X109.27 Y93.524 E35.1573
G1 X109.658 Y93.434 E35.1826
G1 X109.798 Y93.342 E35.19324
G1 X111.531 Y90.973 E35.37966
G1 X111.576 Y90.811 E35.39034
G1 X111.543 Y90.414 E35.41565
G1 X111.472 Y90.263 E35.42624
G1 X108.639 Y87.487 E35.67816
G1 X108.46 Y87.082 E35.70629
G1 X108.604 Y86.659 E35.73467
G1 X108.881 Y86.341 E35.76145
G1 X109.282 Y86.137 E35.79003
G1 X109.723 Y86.249 E35.81893
G1 X113.015 Y88.641 E36.07739
G1 X113.176 Y88.686 E36.088
G1 X113.573 Y88.652 E36.11331
G0 F6000 X112.876 Y91.506
G1 F900 X112.985 Y91.156 E36.13659
G1 X113.011 Y90.692 E36.16611
G1 X112.978 Y90.295 E36.19141
G1 X112.94 Y90.102 E36.20391
G1 X113.299 Y90.121 E36.22674
G1 X113.696 Y90.087 E36.25205
G1 X114.056 Y90.016 E36.27535
G1 X114.391 Y89.869 E36.29859
G1 X114.756 Y89.586 E36.32792
G1 X116.804 Y87.486 E36.51423
G1 X117.029 Y87.198 E36.53744
G1 X117.187 Y86.867 E36.56074
G1 X117.278 Y86.414 E36.59008
G1 X117.302 Y86.016 E36.61541
G1 X117.292 Y85.817 E36.62806
G1 X117.644 Y85.887 E36.65086
