;FLAVOR:Marlin
;TIME:9857
;Filament used: 10.5157m
;Layer height: 0.3
;MINX:97.472
;MINY:8.591
;MINZ:0.3
;MAXX:245.112
;MAXY:189.955
;MAXZ:2.4
;Generated with Cura_SteamEngine 4.10.0
M104 S228
M105
M109 S228
M82 ;absolute extrusion mode
G28 ; home all axes
 M117 Purge extruder
 G92 E0 ; reset extruder
 G1 Z1.0 F3000 ; move z up little to prevent scratching of surface
 G1 X2 Y20 Z0.3 F5000.0 ; move to start-line position
 G1 X2 Y200.0 Z0.3 F1500.0 E15 ; draw 1st line
 G1 X2 Y200.0 Z0.4 F5000.0 ; move to side a little
 G1 X2 Y20 Z0.4 F1500.0 E30 ; draw 2nd line
 G92 E0 ; reset extruder
 G1 Z1.0 F3000 ; move z up little to prevent scratching of surface
G92 E0
G92 E0
G1 F2400 E-1.6
;LAYER_COUNT:8
;LAYER:0
M106 S89.3
;MESH:numbers1.stl
G0 F6000 X124.411 Y23.011 Z0.3
;TYPE:WALL-INNER
G1 F2400 E0
G1 F900 X113.683 Y22.849 E0.62853
G1 X110.106 Y23.407 E0.84061
G1 X108.252 Y26.507 E1.05221
G1 X108.657 Y29.929 E1.25407
G1 X111.138 Y31.922 E1.4405
G1 X123.84 Y32.16 E2.18473
G1 X146.424 Y32.041 E3.50774
G1 X156.556 Y31.982 E4.10129
G1 X158.973 Y30.772 E4.25964
G1 X160.121 Y28.157 E4.42694
G1 X159.605 Y24.686 E4.63251
G1 X156.638 Y23.109 E4.82934
G1 X141.155 Y22.848 E5.73648
G1 X124.411 Y23.011 E6.71741
G0 F6000 X124.409 Y23.491
G1 F900 X113.717 Y23.33 E7.34383
G1 X110.402 Y23.847 E7.54037
G1 X108.748 Y26.613 E7.72917
G1 X109.111 Y29.678 E7.90997
G1 X111.311 Y31.445 E8.07528
G1 X123.843 Y31.68 E8.80954
G1 X146.421 Y31.561 E10.13221
G1 X156.441 Y31.503 E10.7192
G1 X158.603 Y30.42 E10.86085
G1 X159.626 Y28.091 E11.00987
G1 X159.166 Y24.996 E11.19317
G1 X156.515 Y23.587 E11.36904
G1 X141.153 Y23.328 E12.26909
G1 X124.409 Y23.491 E13.25002
G0 F6000 X124.407 Y23.971
;TYPE:WALL-OUTER
G1 F900 X113.751 Y23.811 E13.87433
G1 X110.698 Y24.287 E14.05534
G1 X109.244 Y26.719 E14.22133
G1 X109.565 Y29.427 E14.38107
G1 X111.484 Y30.968 E14.52525
G1 X123.846 Y31.2 E15.24956
G1 X146.418 Y31.081 E16.57187
G1 X156.326 Y31.024 E17.1523
G1 X158.233 Y30.068 E17.27726
G1 X159.131 Y28.025 E17.408
G1 X158.727 Y25.306 E17.56903
G1 X156.392 Y24.065 E17.72393
G1 X141.151 Y23.808 E18.61689
G1 X124.407 Y23.971 E19.59782
G0 F6000 X124.408 Y23.443
G1 F2400 E17.99782
G0 F6000 X141.152 Y23.568
G0 X156.452 Y23.828
G0 X158.942 Y25.154
G0 X159.376 Y28.058
G0 X158.415 Y30.241
G0 X156.383 Y31.262
G0 X146.425 Y32.231
G0 X146.414 Y30.176
G0 X146.203 Y41.024
G0 X146.254 Y38.968
G0 X154.013 Y39.356
;TYPE:WALL-INNER
G1 F2400 E19.59782
G1 F900 X131.223 Y38.78 E20.93331
G1 X112.711 Y38.975 E22.01782
G1 X109.206 Y40.139 E22.23418
G1 X107.827 Y43.008 E22.42065
G1 X108.86 Y46.458 E22.63162
G1 X109.626 Y46.898 E22.68337
G1 X125.247 Y48.018 E23.60082
G1 X142.619 Y48.17 E24.61853
G1 X157.463 Y47.65 E25.48864
G1 X158.118 Y47.475 E25.52835
G1 X160.112 Y45.126 E25.70885
G1 X159.834 Y41.964 E25.8948
G1 X157.759 Y39.848 E26.06841
G1 X154.013 Y39.356 E26.28974
G0 F6000 X153.976 Y39.835
G1 F900 X131.219 Y39.26 E27.6233
G1 X112.791 Y39.454 E28.70289
G1 X109.55 Y40.53 E28.90294
G1 X108.34 Y43.048 E29.0666
G1 X109.265 Y46.137 E29.25549
G1 X109.77 Y46.427 E29.28961
G1 X125.266 Y47.538 E30.19971
G1 X142.613 Y47.69 E31.21595
G1 X157.392 Y47.172 E32.08226
G1 X157.849 Y47.05 E32.10996
G1 X159.616 Y44.968 E32.26993
G1 X159.371 Y42.177 E32.43406
G1 X157.532 Y40.302 E32.58792
G1 X153.976 Y39.835 E32.79802
G0 F6000 X153.939 Y40.314
;TYPE:WALL-OUTER
G1 F900 X131.215 Y39.74 E34.12964
G1 X112.871 Y39.933 E35.20431
G1 X109.894 Y40.921 E35.38806
G1 X108.853 Y43.088 E35.52889
G1 X109.67 Y45.816 E35.69572
G1 X109.914 Y45.956 E35.71219
G1 X125.285 Y47.058 E36.61496
G1 X142.607 Y47.21 E37.62974
G1 X157.321 Y46.694 E38.49223
G1 X157.58 Y46.625 E38.50793
G1 X159.12 Y44.81 E38.64737
G1 X158.908 Y42.39 E38.78968
G1 X157.305 Y40.756 E38.92377
G1 X153.939 Y40.314 E39.12265
G0 F6000 X153.98 Y39.788
G1 F2400 E37.52265
G0 F6000 X131.225 Y38.59
G0 X131.204 Y40.645
G0 X124.622 Y30.364
G0 X123.857 Y30.295
G0 X113.816 Y24.716
G0 X121.029 Y24.751
G0 X113.329 Y12.723
G0 X113.15 Y14.794
G0 X110.609 Y13.434
G0 X109.573 Y13.299
G0 X106.879 Y11.437
;TYPE:WALL-INNER
G1 F2400 E39.12265
G1 F900 X109.213 Y13.975 E39.32464
G1 X113.168 Y14.584 E39.55906
G1 X140.903 Y15.079 E41.18406
G1 X155.126 Y15.289 E42.01735
G1 X158.366 Y14.228 E42.21707
G1 X158.721 Y12.058 E42.34588
G1 X164.035 Y11.763 E42.65766
G1 X165.236 Y19.857 E43.13701
G1 X166.107 Y37.573 E44.17608
G1 X165.236 Y55.285 E45.21493
G1 X164.521 Y60.105 E45.50038
G1 X164.486 Y60.344 E45.51453
G1 X164.248 Y60.306 E45.52362
G1 X158.472 Y59.38 E45.86631
G1 X157.599 Y56.339 E46.05165
G1 X142.214 Y55.79 E46.95349
G1 X120.981 Y55.861 E48.19735
G1 X111.146 Y56.139 E48.77373
G1 X107.609 Y57.669 E48.99948
G1 X105.533 Y60.233 E49.19274
G1 X100.436 Y59.189 E49.49753
G1 X101.938 Y49.053 E50.09779
G1 X102.503 Y37.573 E50.77112
G1 X101.938 Y26.093 E51.44444
G1 X100.252 Y14.723 E52.11779
G1 X99.415 Y11.377 E52.31984
G1 X99.356 Y11.138 E52.33427
G1 X99.597 Y11.087 E52.3435
G1 X105.975 Y9.726 E52.72555
G1 X106.879 Y11.437 E52.83891
G0 F6000 X107.274 Y11.158
G1 F900 X109.452 Y13.526 E53.02738
G1 X113.209 Y14.105 E53.25007
G1 X140.911 Y14.599 E54.87314
G1 X155.053 Y14.808 E55.70169
G1 X157.939 Y13.863 E55.87958
G1 X158.309 Y11.6 E56.01391
G1 X164.008 Y11.285 E56.34828
G1 X164.446 Y11.26 E56.37398
G1 X165.714 Y19.805 E56.88003
G1 X166.585 Y37.549 E57.92075
G1 X166.587 Y37.573 E57.92216
G1 X165.714 Y55.337 E58.96405
G1 X164.925 Y60.656 E59.27905
G1 X164.89 Y60.895 E59.2932
G1 X164.652 Y60.857 E59.30229
G1 X158.095 Y59.806 E59.69131
G1 X157.234 Y56.806 E59.87415
G1 X142.206 Y56.27 E60.75507
G1 X120.989 Y56.341 E61.99799
G1 X111.252 Y56.616 E62.56862
G1 X107.908 Y58.063 E62.78207
G1 X105.723 Y60.762 E62.9855
G1 X99.894 Y59.568 E63.33406
G1 X101.46 Y49.006 E63.95955
G1 X102.022 Y37.573 E64.63012
G1 X101.46 Y26.14 E65.30069
G1 X99.781 Y14.817 E65.97125
G1 X98.829 Y11.013 E66.20097
G1 X98.769 Y10.773 E66.21546
G1 X99.011 Y10.723 E66.22472
G1 X99.012 Y10.722 E66.2248
G1 X99.255 Y10.67 E66.23936
G1 X105.874 Y9.258 E66.63583
G1 X106.231 Y9.181 E66.65723
G1 X107.274 Y11.158 E66.78817
G0 F6000 X107.67 Y10.879
;TYPE:WALL-OUTER
G1 F900 X109.691 Y13.077 E66.96309
G1 X113.25 Y13.626 E67.17404
G1 X140.919 Y14.119 E68.79518
G1 X154.98 Y14.327 E69.61898
G1 X157.512 Y13.498 E69.77505
G1 X157.897 Y11.142 E69.9149
G1 X164.857 Y10.757 E70.32325
G1 X166.192 Y19.753 E70.85602
G1 X167.067 Y37.573 E71.90119
G1 X166.192 Y55.389 E72.94613
G1 X165.294 Y61.446 E73.30483
G1 X157.718 Y60.232 E73.7543
G1 X156.869 Y57.273 E73.93464
G1 X142.198 Y56.75 E74.79463
G1 X120.997 Y56.821 E76.03661
G1 X111.358 Y57.093 E76.6015
G1 X108.207 Y58.457 E76.80264
G1 X105.913 Y61.29 E77.01619
G1 X99.352 Y59.947 E77.40851
G1 X100.982 Y48.959 E78.05924
G1 X101.541 Y37.573 E78.72705
G1 X100.982 Y26.187 E79.39486
G1 X99.31 Y14.911 E80.06264
G1 X98.182 Y10.408 E80.33458
G1 X106.487 Y8.636 E80.83205
G1 X107.67 Y10.879 E80.9806
G0 F6000 X107.239 Y11.183
G0 X106.492 Y11.711
;TYPE:SKIN
G1 F900 X108.978 Y14.414 E81.19573
G1 X113.128 Y15.054 E81.44172
G1 X140.895 Y15.549 E83.0686
G1 X155.197 Y15.761 E83.90651
G1 X158.783 Y14.586 E84.12758
G1 X159.124 Y12.507 E84.25099
G1 X163.633 Y12.257 E84.51554
G1 X164.767 Y19.894 E84.96783
G1 X165.635 Y37.573 E86.00473
G1 X164.767 Y55.244 E87.04117
G1 X164.091 Y59.805 E87.31127
G1 X158.842 Y58.963 E87.6227
G1 X157.957 Y55.881 E87.81054
G1 X142.222 Y55.32 E88.7329
G1 X120.973 Y55.391 E89.97769
G1 X111.042 Y55.671 E90.55969
G1 X107.317 Y57.283 E90.79747
G1 X105.347 Y59.716 E90.98086
G1 X100.966 Y58.819 E91.24283
G1 X102.406 Y49.1 E91.81839
G1 X102.973 Y37.573 E92.49447
G1 X102.406 Y26.046 E93.17055
G1 X100.714 Y14.631 E93.84656
G1 X99.93 Y11.496 E94.03587
G1 X105.726 Y10.26 E94.38304
G1 X106.492 Y11.711 E94.47916
G1 F2400 E92.87916
G0 F6000 X106.789 Y11.502
G0 X109.108 Y14.171
G0 X110.14 Y12.233
G0 X111.253 Y25.113
G0 X110.506 Y23.133
G0 X110.032 Y23.307
G0 X109.816 Y22.976
G1 F2400 E94.47916
G1 F900 X107.766 Y26.403 E94.71309
G1 X108.213 Y30.175 E94.9356
G1 X110.969 Y32.388 E95.14266
G1 X123.836 Y32.63 E95.89656
G1 X146.426 Y32.511 E97.21992
G1 X156.668 Y32.452 E97.81992
G1 X159.335 Y31.116 E97.99466
G1 X160.606 Y28.222 E98.17983
G1 X160.035 Y24.382 E98.40725
G1 X156.759 Y22.641 E98.62458
G1 X141.157 Y22.378 E99.53869
G1 X124.414 Y22.541 E100.51956
G1 X113.65 Y22.379 E101.1502
G1 X109.816 Y22.976 E101.3775
G1 F2400 E99.7775
G0 F6000 X110.032 Y23.307
G0 X108.998 Y26.667
G0 X109.342 Y29.551
G0 X111.007 Y30.889
G0 X112.818 Y32.145
G0 X112.855 Y30.089
G0 X113.021 Y40.836
G0 X112.887 Y38.763
G0 X112.633 Y38.505
G1 F2400 E101.3775
G1 F900 X108.869 Y39.755 E101.60985
G1 X107.324 Y42.969 E101.81875
G1 X108.464 Y46.772 E102.05133
G1 X109.485 Y47.359 E102.12032
G1 X125.228 Y48.488 E103.04493
G1 X142.625 Y48.64 E104.0641
G1 X157.533 Y48.118 E104.93796
G1 X158.381 Y47.892 E104.98938
G1 X160.598 Y45.281 E105.19003
G1 X160.288 Y41.755 E105.39738
G1 X157.981 Y39.403 E105.59038
G1 X154.05 Y38.886 E105.82265
G1 X131.227 Y38.31 E107.16007
G1 X112.633 Y38.505 E108.24939
G1 F2400 E106.64939
G0 F6000 X112.691 Y38.864
G0 X115.052 Y38.78
G0 X115.074 Y40.814
G0 X100.082 Y48.87
G0 X102.147 Y49.074
G0 X101.299 Y59.252
G0 X101.461 Y58.472
G1 F2400 E108.24939
G1 F900 X102.033 Y58.588 E108.28358
G1 X101.52 Y58.075 E108.32608
G1 X101.607 Y57.483 E108.36113
G1 X102.886 Y58.763 E108.46713
G1 X103.74 Y58.938 E108.5182
G1 X101.694 Y56.892 E108.6877
G1 X101.782 Y56.301 E108.72271
G1 X104.593 Y59.112 E108.95559
G1 X105.172 Y59.231 E108.99021
G1 X105.27 Y59.11 E108.99934
G1 X101.87 Y55.71 E109.28101
G1 X101.957 Y55.118 E109.31606
G1 X105.574 Y58.735 E109.61572
G1 X105.877 Y58.36 E109.64396
G1 X102.045 Y54.527 E109.96147
G1 X102.133 Y53.936 E109.99647
G1 X106.181 Y57.985 E110.33188
G1 X106.485 Y57.61 E110.36016
G1 X102.22 Y53.344 E110.71354
G1 X102.307 Y52.753 E110.74853
G1 X106.789 Y57.235 E111.11985
G1 X107.041 Y56.922 E111.14339
G1 X107.12 Y56.887 E111.14845
G1 X102.395 Y52.162 E111.5399
G1 X102.483 Y51.571 E111.5749
G1 X107.594 Y56.682 E111.99833
G1 X108.067 Y56.477 E112.02853
G1 X102.57 Y50.98 E112.48393
G1 X102.658 Y50.389 E112.51893
G1 X108.541 Y56.272 E113.00632
G1 X109.015 Y56.067 E113.03657
G1 X102.745 Y49.797 E113.55602
G1 X102.833 Y49.206 E113.59102
G1 X109.489 Y55.862 E114.14244
G1 X109.962 Y55.657 E114.17264
G1 X102.871 Y48.565 E114.76015
G1 X102.903 Y47.918 E114.79809
G1 X110.436 Y55.452 E115.42222
G1 X110.91 Y55.246 E115.45249
G1 X102.934 Y47.271 E116.11323
G1 X102.966 Y46.624 E116.15118
G1 X111.557 Y55.215 E116.86291
G1 X112.217 Y55.196 E116.90159
G1 X102.998 Y45.977 E117.66535
G1 X103.03 Y45.33 E117.7033
G1 X112.878 Y55.178 E118.51917
G1 X113.538 Y55.159 E118.55785
G1 X103.062 Y44.683 E119.42574
G1 X103.094 Y44.036 E119.46369
G1 X114.198 Y55.14 E120.38361
G1 X114.858 Y55.122 E120.42229
G1 X103.125 Y43.389 E121.39433
G1 X103.157 Y42.742 E121.43227
G1 X115.519 Y55.104 E122.45642
G1 X116.179 Y55.085 E122.4951
G1 X108.251 Y47.157 E123.1519
G1 X109.351 Y47.789 E123.22622
G1 X109.579 Y47.806 E123.23961
G1 X116.839 Y55.066 E123.84108
G1 X117.499 Y55.048 E123.87976
G1 X110.31 Y47.859 E124.47534
G1 X111.041 Y47.911 E124.51827
G1 X118.16 Y55.029 E125.10801
G1 X118.82 Y55.011 E125.14669
G1 X111.773 Y47.963 E125.73054
G1 X112.504 Y48.016 E125.77348
G1 X119.48 Y54.992 E126.35141
G1 X120.14 Y54.974 E126.39009
G1 X113.236 Y48.069 E126.9621
G1 X113.967 Y48.121 E127.00503
G1 X120.801 Y54.955 E127.5712
G1 X120.965 Y54.951 E127.58081
G1 X121.473 Y54.949 E127.61057
G1 X114.698 Y48.173 E128.1719
G1 X115.43 Y48.226 E128.21489
G1 X122.15 Y54.947 E128.77166
G1 X122.827 Y54.945 E128.81132
G1 X116.161 Y48.279 E129.36357
G1 X116.892 Y48.331 E129.4065
G1 X123.503 Y54.942 E129.9542
G1 X124.179 Y54.94 E129.9938
G1 X117.623 Y48.383 E130.53698
G1 X118.355 Y48.436 E130.57997
G1 X124.856 Y54.937 E131.11856
G1 X125.533 Y54.935 E131.15822
G1 X119.086 Y48.489 E131.69228
G1 X119.817 Y48.541 E131.73521
G1 X126.21 Y54.933 E132.26481
G1 X126.886 Y54.93 E132.30441
G1 X120.548 Y48.593 E132.82945
G1 X121.28 Y48.646 E132.87244
G1 X127.562 Y54.928 E133.39288
G1 X128.239 Y54.926 E133.43254
G1 X122.011 Y48.699 E133.94846
G1 X122.743 Y48.751 E133.99145
G1 X128.916 Y54.924 E134.50286
G1 X129.592 Y54.922 E134.54246
G1 X123.474 Y48.803 E135.04936
G1 X124.206 Y48.856 E135.09235
G1 X130.268 Y54.919 E135.59461
G1 X130.945 Y54.917 E135.63427
G1 X124.937 Y48.909 E136.13201
G1 X125.209 Y48.928 E136.14798
G1 X125.639 Y48.932 E136.17317
G1 X131.622 Y54.915 E136.66884
G1 X132.298 Y54.913 E136.70844
G1 X126.323 Y48.938 E137.20344
G1 X127.009 Y48.944 E137.24363
G1 X132.974 Y54.91 E137.73785
G1 X133.651 Y54.908 E137.77751
G1 X127.693 Y48.95 E138.27111
G1 X128.378 Y48.956 E138.31124
G1 X134.328 Y54.906 E138.80417
G1 X135.005 Y54.904 E138.84383
G1 X129.063 Y48.962 E139.3361
G1 X129.748 Y48.968 E139.37623
G1 X135.681 Y54.901 E139.86776
G1 X136.357 Y54.899 E139.90736
G1 X130.432 Y48.974 E140.39822
G1 X131.117 Y48.979 E140.43835
G1 X137.034 Y54.896 E140.92855
G1 X137.711 Y54.894 E140.96821
G1 X131.802 Y48.986 E141.45771
G1 X132.487 Y48.991 E141.49784
G1 X138.387 Y54.892 E141.98667
G1 X139.064 Y54.89 E142.02633
G1 X133.172 Y48.998 E142.51446
G1 X133.856 Y49.003 E142.55453
G1 X139.74 Y54.887 E143.042
G1 X140.417 Y54.885 E143.08166
G1 X134.541 Y49.01 E143.56842
G1 X135.226 Y49.015 E143.60855
G1 X141.093 Y54.883 E144.09465
G1 X141.77 Y54.881 E144.13431
G1 X135.911 Y49.022 E144.61971
G1 X136.596 Y49.027 E144.65983
G1 X142.455 Y54.887 E145.14527
G1 X143.159 Y54.912 E145.18654
G1 X137.28 Y49.033 E145.67359
G1 X137.965 Y49.039 E145.71372
G1 X143.863 Y54.937 E146.20235
G1 X144.567 Y54.962 E146.24361
G1 X138.65 Y49.045 E146.73382
G1 X139.335 Y49.051 E146.77394
G1 X145.271 Y54.988 E147.26576
G1 X145.975 Y55.012 E147.30703
G1 X140.019 Y49.057 E147.80042
G1 X140.705 Y49.064 E147.84061
G1 X146.679 Y55.038 E148.33553
G1 X147.382 Y55.063 E148.37674
G1 X141.389 Y49.069 E148.87328
G1 X142.074 Y49.076 E148.91341
G1 X148.087 Y55.088 E149.41152
G1 X148.79 Y55.113 E149.45273
G1 X142.753 Y49.076 E149.95287
G1 X143.409 Y49.053 E149.99132
G1 X149.494 Y55.138 E150.49544
G1 X150.198 Y55.163 E150.53671
G1 X144.065 Y49.03 E151.0448
G1 X144.721 Y49.007 E151.08326
G1 X150.902 Y55.188 E151.59533
G1 X151.606 Y55.213 E151.63659
G1 X145.376 Y48.984 E152.15268
G1 X146.033 Y48.961 E152.1912
G1 X152.31 Y55.238 E152.71122
G1 X153.014 Y55.263 E152.75249
G1 X146.688 Y48.938 E153.27653
G1 X147.344 Y48.915 E153.31498
G1 X153.717 Y55.288 E153.84296
G1 X154.422 Y55.314 E153.88429
G1 X148 Y48.892 E154.41633
G1 X148.656 Y48.869 E154.45478
G1 X155.125 Y55.338 E154.99071
G1 X155.83 Y55.364 E155.03204
G1 X149.311 Y48.846 E155.57207
G1 X149.968 Y48.823 E155.61058
G1 X156.533 Y55.389 E156.15451
G1 X157.237 Y55.413 E156.19578
G1 X150.623 Y48.8 E156.74368
G1 X151.279 Y48.777 E156.78213
G1 X157.941 Y55.439 E157.33405
G0 F6000 X158.29 Y55.452
G1 F900 X158.425 Y55.923 E157.36276
G1 X161.436 Y58.933 E157.61216
G1 X162.244 Y59.063 E157.66011
G1 X151.935 Y48.754 E158.51417
G1 X152.591 Y48.731 E158.55262
G1 X163.053 Y59.194 E159.4194
G1 X163.721 Y59.301 E159.45903
G1 X163.736 Y59.198 E159.46513
G1 X153.247 Y48.708 E160.33414
G1 X153.903 Y48.685 E160.37259
G1 X163.824 Y58.607 E161.19455
G1 X163.912 Y58.015 E161.22961
G1 X154.558 Y48.662 E162.00451
G1 X155.214 Y48.639 E162.04297
G1 X163.999 Y57.424 E162.77077
G1 X164.086 Y56.833 E162.80577
G1 X155.87 Y48.616 E163.48647
G1 X156.526 Y48.593 E163.52492
G1 X164.174 Y56.241 E164.15853
G1 X164.261 Y55.65 E164.19353
G1 X157.182 Y48.57 E164.78004
G1 X157.598 Y48.555 E164.80442
G1 X157.794 Y48.503 E164.8163
G1 X164.335 Y55.044 E165.3582
G1 X164.366 Y54.397 E165.39614
G1 X158.33 Y48.361 E165.8962
G1 X158.625 Y48.281 E165.91411
G1 X158.765 Y48.117 E165.92674
G1 X164.398 Y53.75 E166.39341
G1 X164.43 Y53.103 E166.43136
G1 X159.077 Y47.75 E166.87483
G1 X159.388 Y47.383 E166.90302
G1 X164.462 Y52.456 E167.32334
G1 X164.494 Y51.809 E167.36128
G1 X159.7 Y47.016 E167.75841
G1 X160.012 Y46.649 E167.78662
G1 X164.526 Y51.162 E168.16055
G1 X164.557 Y50.515 E168.1985
G1 X160.324 Y46.282 E168.54918
G1 X160.636 Y45.915 E168.5774
G1 X164.589 Y49.868 E168.90489
G1 X164.62 Y49.22 E168.9429
G1 X160.948 Y45.548 E169.24711
