;FLAVOR:Marlin
;TIME:1699
;Filament used: 2.28881m
;Layer height: 0.3
;MINX:62.387
;MINY:143.793
;MINZ:0.3
;MAXX:155.684
;MAXY:237.089
;MAXZ:2.1
;Generated with Cura_SteamEngine 4.10.0
M104 S228
M105
M109 S228
M82 ;absolute extrusion mode
G28 ; home all axes
 M117 Purge extruder
 G92 E0 ; reset extruder
 G1 Z1.0 F3000 ; move z up little to prevent scratching of surface
 G1 X2 Y20 Z0.3 F5000.0 ; move to start-line position
 G1 X2 Y200.0 Z0.3 F1500.0 E15 ; draw 1st line
 G1 X2 Y200.0 Z0.4 F5000.0 ; move to side a little
 G1 X2 Y20 Z0.4 F1500.0 E30 ; draw 2nd line
 G92 E0 ; reset extruder
 G1 Z1.0 F3000 ; move z up little to prevent scratching of surface
G92 E0
G92 E0
G1 F2400 E-2
;LAYER_COUNT:7
;LAYER:0
M107
G0 F6000 X85.884 Y149.943 Z0.3
;TYPE:SKIRT
G1 F2400 E0
G1 F1200 X86.261 Y149.737 E0.0224
G1 X86.717 Y149.5 E0.04919
G1 X89.063 Y148.306 E0.18643
G1 X89.736 Y147.977 E0.22549
G1 X90.279 Y147.731 E0.25656
G1 X90.635 Y147.583 E0.27666
G1 X91.064 Y147.413 E0.30072
G1 X93.547 Y146.462 E0.43934
G1 X94.221 Y146.213 E0.4768
G1 X94.8 Y146.017 E0.50867
G1 X94.98 Y145.962 E0.51849
G1 X95.245 Y145.885 E0.53287
G1 X95.666 Y145.769 E0.55564
G1 X98.251 Y145.078 E0.69514
G1 X98.954 Y144.901 E0.73294
G1 X99.477 Y144.783 E0.76089
G1 X99.673 Y144.744 E0.77131
G1 X99.979 Y144.688 E0.78753
G1 X100.398 Y144.617 E0.80968
G1 X102.922 Y144.217 E0.94291
G1 X103.758 Y144.096 E0.98695
G1 X104.364 Y144.026 E1.01876
G1 X104.803 Y143.991 E1.04172
G1 X105.214 Y143.966 E1.06318
G1 X107.905 Y143.827 E1.20367
G1 X108.627 Y143.799 E1.24134
G1 X109.236 Y143.793 E1.27309
G1 X109.454 Y143.797 E1.28446
G1 X109.732 Y143.806 E1.29896
G1 X110.059 Y143.82 E1.31602
G1 X112.652 Y143.955 E1.45139
G1 X113.497 Y144.011 E1.49554
G1 X114.1 Y144.069 E1.52713
G1 X114.553 Y144.127 E1.55094
G1 X114.99 Y144.192 E1.57397
G1 X117.613 Y144.609 E1.71244
G1 X118.306 Y144.727 E1.74909
G1 X119.087 Y144.89 E1.79068
G1 X119.546 Y145.004 E1.81534
G1 X122.254 Y145.728 E1.96148
G1 X123.09 Y145.965 E2.00678
G1 X123.603 Y146.125 E2.0348
G1 X123.75 Y146.175 E2.04289
G1 X124.045 Y146.28 E2.05922
G1 X124.516 Y146.456 E2.08543
G1 X126.879 Y147.364 E2.21741
G1 X127.643 Y147.67 E2.26032
G1 X128.157 Y147.892 E2.28951
G1 X128.377 Y147.994 E2.30215
G1 X128.788 Y148.194 E2.32598
G1 X131.236 Y149.44 E2.46919
G1 X131.987 Y149.835 E2.51343
G1 X132.465 Y150.103 E2.542
G1 X132.638 Y150.206 E2.5525
G1 X132.894 Y150.364 E2.56818
G1 X133.291 Y150.616 E2.59269
G1 X135.538 Y152.077 E2.73243
G1 X136.12 Y152.467 E2.76895
G1 X136.598 Y152.807 E2.79954
G1 X136.768 Y152.935 E2.81063
G1 X136.983 Y153.101 E2.82479
G1 X137.314 Y153.365 E2.84686
G1 X139.387 Y155.044 E2.98594
G1 X139.944 Y155.508 E3.02374
G1 X140.39 Y155.901 E3.05473
G1 X140.724 Y156.217 E3.0787
G1 X141.016 Y156.504 E3.10005
G1 X142.899 Y158.388 E3.23892
G1 X143.429 Y158.933 E3.27855
G1 X143.843 Y159.383 E3.31043
G1 X144.123 Y159.711 E3.33292
G1 X144.399 Y160.045 E3.3555
G1 X146.074 Y162.118 E3.49445
G1 X146.541 Y162.712 E3.53385
G1 X146.867 Y163.148 E3.56223
G1 X146.973 Y163.298 E3.5718
G1 X147.154 Y163.563 E3.58853
G1 X147.364 Y163.881 E3.6084
G1 X148.838 Y166.154 E3.74964
G1 X149.219 Y166.759 E3.78692
G1 X149.515 Y167.259 E3.81721
G1 X149.624 Y167.455 E3.8289
G1 X149.76 Y167.707 E3.84383
G1 X149.915 Y168.005 E3.86134
G1 X151.166 Y170.461 E4.00504
G1 X151.477 Y171.091 E4.04167
G1 X151.748 Y171.686 E4.07576
G1 X151.899 Y172.051 E4.09635
G1 X152.049 Y172.431 E4.11765
G1 X153.018 Y174.957 E4.2587
G1 X153.266 Y175.629 E4.29605
G1 X153.466 Y176.227 E4.32892
G1 X153.575 Y176.591 E4.34873
G1 X153.712 Y177.082 E4.37531
G1 X154.353 Y179.477 E4.50457
G1 X154.579 Y180.37 E4.55259
G1 X154.709 Y180.951 E4.58363
G1 X154.787 Y181.371 E4.6059
G1 X154.857 Y181.787 E4.62789
G1 X155.284 Y184.49 E4.77056
G1 X155.381 Y185.168 E4.80627
G1 X155.449 Y185.762 E4.83744
G1 X155.481 Y186.174 E4.85899
G1 X155.512 Y186.658 E4.88427
G1 X155.649 Y189.308 E5.02261
G1 X155.677 Y190.025 E5.06002
G1 X155.684 Y190.611 E5.09058
G1 X155.681 Y190.799 E5.10038
G1 X155.672 Y191.095 E5.11582
G1 X155.652 Y191.551 E5.13961
G1 X155.523 Y194.022 E5.26862
G1 X155.461 Y194.939 E5.31653
G1 X155.41 Y195.486 E5.34518
G1 X155.385 Y195.694 E5.3561
G1 X155.346 Y195.98 E5.37115
G1 X155.287 Y196.38 E5.39223
G1 X154.865 Y199.038 E5.53254
G1 X154.747 Y199.725 E5.56888
G1 X154.617 Y200.364 E5.60288
G1 X154.515 Y200.787 E5.62556
G1 X154.413 Y201.181 E5.64678
G1 X153.749 Y203.66 E5.78058
G1 X153.512 Y204.496 E5.82588
G1 X153.352 Y205.009 E5.8539
G1 X153.302 Y205.156 E5.86199
G1 X153.197 Y205.451 E5.87832
G1 X153.021 Y205.922 E5.90453
G1 X152.113 Y208.285 E6.03651
G1 X151.807 Y209.049 E6.07942
G1 X151.584 Y209.565 E6.10872
G1 X151.375 Y210.008 E6.13426
G1 X151.203 Y210.353 E6.15436
G1 X149.97 Y212.77 E6.29582
G1 X149.631 Y213.413 E6.33372
G1 X149.329 Y213.947 E6.3657
G1 X149.218 Y214.131 E6.3769
G1 X148.954 Y214.551 E6.40277
G1 X147.452 Y216.866 E6.54664
G1 X147.026 Y217.502 E6.58655
G1 X146.739 Y217.91 E6.61255
G1 X146.599 Y218.099 E6.62482
G1 X146.383 Y218.381 E6.64333
G1 X146.141 Y218.684 E6.66355
G1 X144.41 Y220.82 E6.80689
G1 X143.946 Y221.375 E6.8446
G1 X143.575 Y221.797 E6.8739
G1 X143.284 Y222.105 E6.89599
G1 X142.934 Y222.462 E6.92205
G1 X141.06 Y224.333 E7.06011
G1 X140.546 Y224.832 E7.09746
G1 X140.116 Y225.227 E7.1279
G1 X139.752 Y225.54 E7.15293
G1 X139.398 Y225.831 E7.17682
G1 X137.484 Y227.381 E7.30523
G1 X136.776 Y227.939 E7.35223
G1 X136.296 Y228.296 E7.38341
G1 X135.932 Y228.546 E7.40644
G1 X135.491 Y228.838 E7.43401
G1 X133.482 Y230.142 E7.55888
G1 X132.715 Y230.626 E7.60616
G1 X132.162 Y230.952 E7.63963
G1 X131.774 Y231.163 E7.66266
G1 X131.438 Y231.338 E7.68241
G1 X129.042 Y232.558 E7.82259
G1 X128.381 Y232.884 E7.86101
G1 X127.81 Y233.146 E7.89376
G1 X127.385 Y233.322 E7.91775
G1 X127.08 Y233.442 E7.93483
G1 X124.617 Y234.387 E8.07237
G1 X123.806 Y234.685 E8.11742
G1 X123.241 Y234.874 E8.14848
G1 X122.83 Y234.996 E8.17083
G1 X122.402 Y235.115 E8.19399
G1 X119.973 Y235.765 E8.32508
G1 X119.117 Y235.981 E8.37111
G1 X118.594 Y236.099 E8.39906
G1 X118.398 Y236.138 E8.40948
G1 X118.092 Y236.194 E8.4257
G1 X117.673 Y236.265 E8.44785
G1 X115.149 Y236.665 E8.58108
G1 X114.313 Y236.786 E8.62512
G1 X113.733 Y236.853 E8.65556
G1 X113.541 Y236.87 E8.66561
G1 X113.234 Y236.893 E8.68166
G1 X112.872 Y236.914 E8.70057
G1 X110.166 Y237.055 E8.84184
G1 X109.442 Y237.083 E8.87961
G1 X108.832 Y237.089 E8.91141
G1 X108.348 Y237.077 E8.93666
G1 X108.01 Y237.062 E8.9543
G1 X105.456 Y236.929 E9.08763
G1 X104.537 Y236.867 E9.13565
G1 X103.953 Y236.811 E9.16624
G1 X103.507 Y236.753 E9.18968
G1 X103.067 Y236.687 E9.21288
G1 X100.454 Y236.272 E9.35082
G1 X99.762 Y236.154 E9.38742
G1 X98.984 Y235.992 E9.42885
G1 X98.525 Y235.878 E9.4535
G1 X95.817 Y235.154 E9.59965
G1 X94.981 Y234.917 E9.64495
G1 X94.442 Y234.748 E9.6744
G1 X94.27 Y234.689 E9.68388
G1 X94.016 Y234.598 E9.69794
G1 X93.613 Y234.448 E9.72036
G1 X91.056 Y233.465 E9.86319
G1 X90.454 Y233.224 E9.89699
G1 X89.969 Y233.016 E9.92451
G1 X89.786 Y232.932 E9.935
G1 X89.491 Y232.791 E9.95205
G1 X89.096 Y232.594 E9.97506
G1 X86.688 Y231.366 E10.11599
G1 X86.089 Y231.05 E10.15129
G1 X85.541 Y230.74 E10.18412
G1 X85.144 Y230.498 E10.20836
G1 X84.815 Y230.288 E10.22871
G1 X82.462 Y228.76 E10.37498
G1 X81.908 Y228.387 E10.4098
G1 X81.454 Y228.063 E10.43888
G1 X81.116 Y227.804 E10.46108
G1 X80.722 Y227.49 E10.48734
G1 X78.674 Y225.83 E10.62479
G1 X78.12 Y225.368 E10.66239
G1 X77.658 Y224.96 E10.69453
G1 X77.349 Y224.666 E10.71677
G1 X77.082 Y224.405 E10.73623
G1 X75.158 Y222.48 E10.87813
G1 X74.628 Y221.933 E10.91783
G1 X74.275 Y221.55 E10.94499
G1 X74.145 Y221.402 E10.95526
G1 X73.948 Y221.171 E10.97109
G1 X73.672 Y220.837 E10.99368
G1 X71.997 Y218.764 E11.13262
G1 X71.53 Y218.17 E11.17202
G1 X71.204 Y217.734 E11.2004
G1 X71.098 Y217.584 E11.20998
G1 X70.917 Y217.319 E11.22671
G1 X70.708 Y217.002 E11.2465
G1 X69.221 Y214.71 E11.38894
G1 X68.824 Y214.077 E11.4279
G1 X68.539 Y213.595 E11.45709
G1 X68.445 Y213.426 E11.46717
G1 X68.208 Y212.98 E11.4935
G1 X66.98 Y210.571 E11.63447
G1 X66.588 Y209.776 E11.68069
G1 X66.344 Y209.244 E11.7112
G1 X66.27 Y209.07 E11.72106
G1 X66.166 Y208.815 E11.73542
G1 X66.016 Y208.434 E11.75676
G1 X65.055 Y205.929 E11.89664
G1 X64.806 Y205.255 E11.9341
G1 X64.599 Y204.64 E11.96793
G1 X64.479 Y204.232 E11.99011
G1 X64.363 Y203.811 E12.01287
G1 X63.672 Y201.226 E12.15237
G1 X63.495 Y200.523 E12.19017
G1 X63.379 Y200.011 E12.21754
G1 X63.336 Y199.796 E12.22897
G1 X63.274 Y199.457 E12.24694
G1 X63.221 Y199.138 E12.2638
G1 X62.811 Y196.548 E12.40051
G1 X62.687 Y195.683 E12.44607
G1 X62.621 Y195.11 E12.47614
G1 X62.586 Y194.667 E12.49931
G1 X62.561 Y194.25 E12.52108
G1 X62.42 Y191.558 E12.66162
G1 X62.393 Y190.847 E12.69872
G1 X62.387 Y190.246 E12.73005
G1 X62.399 Y189.759 E12.75545
G1 X62.416 Y189.387 E12.77487
G1 X62.559 Y186.697 E12.91531
G1 X62.609 Y185.95 E12.95434
G1 X62.664 Y185.368 E12.98482
G1 X62.723 Y184.91 E13.00889
G1 X62.782 Y184.518 E13.02956
G1 X63.207 Y181.835 E13.17118
G1 X63.327 Y181.14 E13.20795
G1 X63.454 Y180.518 E13.24105
G1 X63.504 Y180.305 E13.25246
G1 X63.631 Y179.806 E13.2793
G1 X64.352 Y177.115 E13.42455
G1 X64.558 Y176.39 E13.46384
G1 X64.724 Y175.858 E13.4929
G1 X64.779 Y175.697 E13.50177
G1 X64.879 Y175.417 E13.51727
G1 X65.035 Y175 E13.54048
G1 X65.958 Y172.598 E13.67464
G1 X66.266 Y171.829 E13.71782
G1 X66.5 Y171.288 E13.74855
G1 X66.592 Y171.091 E13.75989
G1 X66.707 Y170.853 E13.77367
G1 X66.856 Y170.556 E13.79099
G1 X68.107 Y168.102 E13.9346
G1 X68.423 Y167.502 E13.96995
G1 X68.725 Y166.966 E14.00203
G1 X68.979 Y166.549 E14.02748
G1 X69.189 Y166.22 E14.04783
G1 X70.618 Y164.018 E14.18469
G1 X71.045 Y163.38 E14.22471
G1 X71.332 Y162.972 E14.25072
G1 X71.472 Y162.783 E14.26298
G1 X71.688 Y162.501 E14.2815
G1 X71.93 Y162.198 E14.30172
G1 X73.661 Y160.062 E14.44506
G1 X74.125 Y159.507 E14.48277
G1 X74.496 Y159.085 E14.51207
G1 X74.787 Y158.777 E14.53416
G1 X75.137 Y158.42 E14.56022
G1 X77.011 Y156.549 E14.69828
G1 X77.525 Y156.05 E14.73563
G1 X77.979 Y155.634 E14.76774
G1 X78.33 Y155.334 E14.79181
G1 X78.629 Y155.088 E14.81199
G1 X80.724 Y153.393 E14.95249
G1 X81.285 Y152.951 E14.98973
G1 X81.804 Y152.567 E15.02338
G1 X82.162 Y152.321 E15.04603
G1 X82.511 Y152.09 E15.06785
G1 X84.601 Y150.732 E15.19779
G1 X85.36 Y150.253 E15.24459
G1 X85.884 Y149.943 E15.27633
G0 F6000 X86.097 Y150.328
G1 F1200 X86.465 Y150.127 E15.29819
G1 X86.917 Y149.892 E15.32475
G1 X89.257 Y148.701 E15.46164
G1 X89.93 Y148.372 E15.50069
G1 X90.449 Y148.136 E15.53042
G1 X90.798 Y147.992 E15.5501
G1 X91.222 Y147.824 E15.57388
G1 X93.699 Y146.874 E15.71219
G1 X94.373 Y146.625 E15.74965
G1 X94.929 Y146.438 E15.78023
G1 X95.109 Y146.383 E15.79005
G1 X95.363 Y146.309 E15.80384
G1 X95.779 Y146.194 E15.82634
G1 X98.359 Y145.504 E15.96558
G1 X99.062 Y145.327 E16.00337
G1 X99.563 Y145.215 E16.03014
G1 X99.759 Y145.176 E16.04055
G1 X100.052 Y145.122 E16.05609
G1 X100.467 Y145.052 E16.07803
G1 X103.133 Y144.63 E16.21875
G1 X103.82 Y144.531 E16.25494
G1 X104.402 Y144.465 E16.28548
G1 X104.831 Y144.431 E16.30791
G1 X105.237 Y144.406 E16.32912
G1 X107.922 Y144.267 E16.46929
G1 X108.644 Y144.239 E16.50696
G1 X109.227 Y144.233 E16.53736
G1 X109.713 Y144.245 E16.5627
G1 X110.036 Y144.26 E16.57956
G1 X112.783 Y144.404 E16.72297
G1 X113.468 Y144.45 E16.75876
G1 X114.045 Y144.505 E16.78898
G1 X114.489 Y144.563 E16.81233
G1 X114.921 Y144.627 E16.8351
G1 X117.54 Y145.043 E16.97335
G1 X118.233 Y145.161 E17.01
G1 X118.98 Y145.317 E17.04979
G1 X119.439 Y145.431 E17.07444
G1 X122.14 Y146.153 E17.2202
G1 X122.97 Y146.388 E17.26518
G1 X123.461 Y146.541 E17.29199
G1 X123.608 Y146.591 E17.30008
G1 X123.891 Y146.692 E17.31575
G1 X124.358 Y146.867 E17.34175
G1 X126.861 Y147.83 E17.48157
G1 X127.479 Y148.078 E17.51629
G1 X127.972 Y148.291 E17.54429
G1 X128.192 Y148.393 E17.55693
G1 X128.44 Y148.512 E17.57127
G1 X128.685 Y148.634 E17.58554
G1 X131.168 Y149.9 E17.73085
G1 X131.782 Y150.224 E17.76704
G1 X132.24 Y150.482 E17.79445
G1 X132.659 Y150.735 E17.81997
G1 X133.051 Y150.985 E17.8442
G1 X135.293 Y152.443 E17.98363
G1 X135.875 Y152.833 E18.02016
G1 X136.333 Y153.159 E18.04947
G1 X136.709 Y153.446 E18.07413
G1 X137.037 Y153.707 E18.09598
G1 X139.105 Y155.382 E18.23473
G1 X139.662 Y155.846 E18.27252
G1 X140.09 Y156.223 E18.30226
G1 X140.416 Y156.531 E18.32564
G1 X140.705 Y156.815 E18.34677
G1 X142.584 Y158.695 E18.48534
G1 X143.114 Y159.24 E18.52498
G1 X143.51 Y159.672 E18.55553
G1 X143.785 Y159.992 E18.57753
G1 X144.057 Y160.322 E18.59982
G1 X145.728 Y162.389 E18.7384
G1 X146.195 Y162.983 E18.77779
G1 X146.507 Y163.402 E18.80502
G1 X146.613 Y163.552 E18.8146
G1 X146.787 Y163.806 E18.83065
G1 X146.995 Y164.12 E18.85029
G1 X148.466 Y166.389 E18.99127
G1 X148.847 Y166.994 E19.02854
G1 X149.131 Y167.473 E19.05758
G1 X149.24 Y167.669 E19.06927
G1 X149.37 Y167.91 E19.08354
G1 X149.523 Y168.204 E19.10082
G1 X150.771 Y170.656 E19.24426
G1 X151.082 Y171.286 E19.28089
G1 X151.342 Y171.856 E19.31356
G1 X151.49 Y172.213 E19.3337
G1 X151.638 Y172.589 E19.35477
G1 X152.605 Y175.11 E19.49554
G1 X152.853 Y175.782 E19.53289
G1 X153.045 Y176.354 E19.56434
G1 X153.151 Y176.71 E19.58371
G1 X153.287 Y177.196 E19.61002
G1 X153.964 Y179.729 E19.74671
G1 X154.153 Y180.477 E19.78694
G1 X154.277 Y181.035 E19.81674
G1 X154.353 Y181.445 E19.83848
G1 X154.422 Y181.856 E19.8602
G1 X154.848 Y184.553 E20.00256
G1 X154.945 Y185.231 E20.03826
G1 X155.01 Y185.8 E20.06812
G1 X155.042 Y186.202 E20.08915
G1 X155.072 Y186.681 E20.11417
G1 X155.209 Y189.325 E20.2522
G1 X155.237 Y190.042 E20.28961
G1 X155.244 Y190.604 E20.31891
G1 X155.241 Y190.792 E20.32871
G1 X155.232 Y191.075 E20.34347
G1 X155.212 Y191.528 E20.36711
G1 X155.083 Y193.999 E20.49612
G1 X155.022 Y194.909 E20.54367
G1 X154.973 Y195.434 E20.57116
G1 X154.948 Y195.642 E20.58208
G1 X154.911 Y195.916 E20.59649
G1 X154.852 Y196.311 E20.61731
G1 X154.432 Y198.963 E20.7573
G1 X154.314 Y199.65 E20.79364
G1 X154.189 Y200.263 E20.82626
G1 X154.089 Y200.678 E20.84851
G1 X153.988 Y201.067 E20.86947
G1 X153.281 Y203.702 E21.0117
G1 X153.089 Y204.376 E21.04824
G1 X152.936 Y204.867 E21.07505
G1 X152.886 Y205.014 E21.08315
G1 X152.785 Y205.297 E21.09881
G1 X152.61 Y205.764 E21.12481
G1 X151.647 Y208.267 E21.26463
G1 X151.399 Y208.885 E21.29935
G1 X151.185 Y209.38 E21.32747
G1 X151.095 Y209.574 E21.33861
G1 X150.98 Y209.813 E21.35244
G1 X150.811 Y210.153 E21.37224
G1 X149.581 Y212.564 E21.51335
G1 X149.242 Y213.207 E21.55124
G1 X148.952 Y213.72 E21.58197
G1 X148.714 Y214.109 E21.60574
G1 X148.531 Y214.397 E21.62353
G1 X147.083 Y216.627 E21.76215
G1 X146.661 Y217.257 E21.80169
G1 X146.385 Y217.648 E21.82664
G1 X146.245 Y217.837 E21.8389
G1 X146.038 Y218.108 E21.85668
G1 X145.799 Y218.408 E21.87668
G1 X144.073 Y220.538 E22.01961
G1 X143.609 Y221.093 E22.05732
G1 X143.252 Y221.497 E22.08543
G1 X142.969 Y221.797 E22.10693
G1 X142.623 Y222.151 E22.13274
G1 X140.754 Y224.017 E22.27043
G1 X140.24 Y224.516 E22.30778
G1 X139.827 Y224.895 E22.337
G1 X139.666 Y225.035 E22.34813
G1 X139.471 Y225.2 E22.36144
G1 X139.121 Y225.489 E22.38511
G1 X137.096 Y227.128 E22.52093
G1 X136.504 Y227.594 E22.56021
G1 X136.044 Y227.936 E22.59009
G1 X135.914 Y228.027 E22.59837
G1 X135.69 Y228.179 E22.61248
G1 X135.251 Y228.468 E22.63988
G1 X133.13 Y229.844 E22.77169
G1 X132.48 Y230.254 E22.81176
G1 X131.95 Y230.567 E22.84385
G1 X131.57 Y230.773 E22.86638
G1 X131.238 Y230.946 E22.8859
G1 X128.848 Y232.164 E23.02575
G1 X128.187 Y232.49 E23.06418
G1 X127.639 Y232.74 E23.09558
G1 X127.223 Y232.912 E23.11905
G1 X126.922 Y233.031 E23.13592
G1 X124.313 Y234.031 E23.28159
G1 X123.655 Y234.272 E23.31813
G1 X123.113 Y234.453 E23.34792
G1 X122.712 Y234.572 E23.36973
G1 X122.288 Y234.69 E23.39267
G1 X119.712 Y235.378 E23.53168
G1 X119.009 Y235.555 E23.56947
G1 X118.508 Y235.667 E23.59624
G1 X118.312 Y235.706 E23.60666
G1 X118.019 Y235.76 E23.62219
G1 X117.604 Y235.83 E23.64413
G1 X114.938 Y236.252 E23.78486
G1 X114.251 Y236.351 E23.82104
G1 X113.694 Y236.415 E23.85027
G1 X113.502 Y236.432 E23.86032
G1 X113.207 Y236.454 E23.87574
G1 X112.849 Y236.475 E23.89444
