;FLAVOR:Marlin
;TIME:1580
;Filament used: 1.45816m
;Layer height: 0.3
;Generated with Cura_SteamEngine 3.6.0
M140 S30
M105
M190 S30
M104 S220
M105
M109 S220
M82 ;absolute extrusion mode
G21        ;metric values
G90        ;absolute positioning
M107       ;start with the fan off
G28   ;move to endstops
G92 E0                  ;zero the extruded length
G1 F200 E3              ;extrude 3mm of feed stock
G92 E0                  ;zero the extruded length again
G1 F120
;Put printing message on LCD screen
M117 Printing...
G92 E0
;LAYER_COUNT:21
;LAYER:0
M107
G0 F3600 X-27.031 Y-1.831 Z0.2
;TYPE:SKIRT
G1 F600 X-27.023 Y-1.966 E0.00748
G1 X-26.837 Y-4.403 E0.14262
G1 X-26.816 Y-4.615 E0.1544
G1 X-26.298 Y-8.619 E0.37765
G1 X-26.24 Y-8.951 E0.39629
G1 X-25.933 Y-10.378 E0.477
G1 X-25.876 Y-10.612 E0.49031
G1 X-25.452 Y-12.136 E0.57778
G1 X-25.336 Y-12.488 E0.59828
G1 X-24.562 Y-14.526 E0.71882
G1 X-24.386 Y-14.924 E0.74289
G1 X-23.65 Y-16.371 E0.83265
G1 X-23.456 Y-16.71 E0.85425
G1 X-22.19 Y-18.698 E0.98457
G1 X-21.937 Y-19.053 E1.00868
G1 X-20.686 Y-20.617 E1.11942
G1 X-20.409 Y-20.929 E1.14249
G1 X-18.33 Y-23.04 E1.30632
G1 X-18.248 Y-23.12 E1.31266
G1 X-14.252 Y-26.954 E1.61887
G1 X-10.53 Y-30.952 E1.92091
G1 X-8.799 Y-32.979 E2.0683
G1 X-5.127 Y-37.641 E2.39645
G1 X-4.993 Y-37.801 E2.40799
G1 X-3.785 Y-39.182 E2.50944
G1 X-3.47 Y-39.505 E2.53439
G1 X-2.513 Y-40.38 E2.60609
G1 X-1.963 Y-40.802 E2.64443
G1 X-.541 Y-41.712 E2.73778
G1 X-0.042 Y-41.985 E2.76923
G1 X0.301 Y-42.123 E2.78967
G1 X1.632 Y-42.59 E2.86767
G1 X2.399 Y-42.777 E2.91132
G1 X3.237 Y-42.897 E2.95813
G1 X3.804 Y-42.938 E2.98957
G1 X4.33 Y-42.905 E3.01871
G1 X5.598 Y-42.741 E3.08941
G1 X6.238 Y-42.605 E3.12559
G1 X6.797 Y-42.438 E3.15785
G1 X7.497 Y-42.155 E3.1996
G1 X8.945 Y-41.407 E3.28972
G1 X9.538 Y-41.033 E3.32848
G1 X10.298 Y-40.455 E3.38128
G1 X10.736 Y-40.068 E3.4136
G1 X12.241 Y-38.535 E3.53239
G1 X12.511 Y-38.231 E3.55487
G1 X17.651 Y-31.82 E4.00923
G1 X21.292 Y-27.814 E4.30857
G1 X25.094 Y-24.099 E4.6025
G1 X25.203 Y-23.976 E4.61158
G1 X27.303 Y-21.976 E4.77194
G1 X27.504 Y-21.771 E4.78782
G1 X28.506 Y-20.671 E4.87009
G1 X28.687 Y-20.459 E4.88551
G1 X29.818 Y-19.031 E4.98623
G1 X30.008 Y-18.77 E5.00408
G1 X30.958 Y-17.352 E5.09846
G1 X31.193 Y-16.953 E5.12407
G1 X32.37 Y-14.668 E5.26619
G1 X32.591 Y-14.155 E5.29708
G1 X33.45 Y-11.709 E5.44043
G1 X33.56 Y-11.34 E5.46172
G1 X33.939 Y-9.808 E5.54899
G1 X34.007 Y-9.476 E5.56772
G1 X34.489 Y-6.47 E5.73606
G1 X34.521 Y-6.226 E5.74967
G1 X34.782 Y-3.575 E5.89697
G1 X34.795 Y-3.396 E5.90689
G1 X35.11 Y2.455 E6.23089
G1 X35.115 Y2.597 E6.23875
G1 X35.231 Y8.74 E6.57849
G1 X35.225 Y9.047 E6.59546
G1 X35.017 Y12.693 E6.7974
G1 X34.971 Y13.114 E6.82081
G1 X34.629 Y15.212 E6.93836
G1 X34.538 Y15.632 E6.96212
G1 X34.076 Y17.315 E7.05862
G1 X33.908 Y17.801 E7.08706
G1 X32.994 Y19.994 E7.21843
G1 X32.713 Y20.545 E7.25263
G1 X31.543 Y22.463 E7.37686
G1 X31.259 Y22.871 E7.40435
G1 X30.028 Y24.423 E7.51388
G1 X29.7 Y24.788 E7.54102
G1 X27.849 Y26.615 E7.68483
G1 X27.575 Y26.862 E7.70523
G1 X25.983 Y28.17 E7.81916
G1 X25.754 Y28.345 E7.83509
G1 X22.177 Y30.881 E8.07755
G1 X22.076 Y30.951 E8.08434
G1 X19.093 Y32.932 E8.28235
G1 X18.9 Y33.052 E8.29492
G1 X17.474 Y33.888 E8.38632
G1 X17.245 Y34.013 E8.40074
G1 X15.383 Y34.949 E8.51598
G1 X15.074 Y35.088 E8.53471
G1 X12.664 Y36.056 E8.67832
G1 X12.248 Y36.197 E8.70261
G1 X10.74 Y36.62 E8.78921
G1 X10.263 Y36.724 E8.81621
G1 X7.994 Y37.074 E8.94316
G1 X7.639 Y37.113 E8.96291
G1 X4.788 Y37.298 E9.12088
G1 X4.243 Y37.296 E9.15102
G1 X2.033 Y37.141 E9.27352
G1 X1.55 Y37.078 E9.30046
G1 X-1.477 Y36.495 E9.47091
G1 X-1.828 Y36.411 E9.49087
G1 X-3.995 Y35.789 E9.61553
G1 X-4.311 Y35.684 E9.63394
G1 X-6.851 Y34.723 E9.78411
G1 X-7.093 Y34.622 E9.79861
G1 X-10.39 Y33.124 E9.99885
G1 X-10.809 Y32.904 E10.02502
G1 X-14.832 Y30.474 E10.2849
G1 X-15.116 Y30.285 E10.30376
G1 X-18.882 Y27.553 E10.56103
G1 X-19.13 Y27.359 E10.57844
G1 X-19.803 Y26.786 E10.62731
G1 X-19.928 Y26.674 E10.63659
G1 X-20.695 Y25.964 E10.69439
G1 X-20.945 Y25.712 E10.71401
G1 X-22.682 Y23.796 E10.85702
G1 X-23.039 Y23.34 E10.88904
G1 X-24.401 Y21.32 E11.02375
G1 X-24.731 Y20.731 E11.06109
G1 X-25.909 Y18.137 E11.21862
G1 X-26.12 Y17.557 E11.25275
G1 X-26.677 Y15.574 E11.36664
G1 X-26.781 Y15.091 E11.39396
G1 X-27.114 Y12.914 E11.51574
G1 X-27.154 Y12.54 E11.53653
G1 X-27.352 Y9.177 E11.72281
G1 X-27.359 Y8.896 E11.73836
G1 X-27.317 Y4.906 E11.95899
G1 X-27.313 Y4.776 E11.96619
G1 X-27.031 Y-1.831 E12.33185
G0 F3600 X-26.332 Y-1.801
G1 F600 X-26.325 Y-1.913 E12.33806
G1 X-26.139 Y-4.35 E12.4732
G1 X-26.121 Y-4.525 E12.48293
G1 X-25.603 Y-8.529 E12.70618
G1 X-25.556 Y-8.804 E12.7216
G1 X-25.249 Y-10.231 E12.80232
G1 X-25.201 Y-10.424 E12.81331
G1 X-24.777 Y-11.948 E12.90078
G1 X-24.682 Y-12.239 E12.91771
G1 X-23.908 Y-14.277 E13.03825
G1 X-23.762 Y-14.607 E13.05821
G1 X-23.026 Y-16.054 E13.14797
G1 X-22.866 Y-16.334 E13.16581
G1 X-21.6 Y-18.322 E13.29613
G1 X-21.39 Y-18.616 E13.31611
G1 X-20.139 Y-20.18 E13.42685
G1 X-19.91 Y-20.438 E13.44593
G1 X-17.831 Y-22.549 E13.60976
G1 X-17.763 Y-22.615 E13.615
G1 X-13.758 Y-26.458 E13.92192
G1 X-10.004 Y-30.491 E14.22658
G1 X-8.259 Y-32.534 E14.37515
G1 X-4.577 Y-37.208 E14.70415
G1 X-4.466 Y-37.341 E14.71373
G1 X-3.258 Y-38.722 E14.81519
G1 X-2.998 Y-38.988 E14.83576
G1 X-2.041 Y-39.863 E14.90746
G1 X-1.586 Y-40.213 E14.9392
G1 X-.164 Y-41.123 E15.03255
G1 X0.533 Y-41.462 E15.07541
G1 X1.864 Y-41.929 E15.1534
G1 X2.498 Y-42.084 E15.18949
G1 X3.336 Y-42.204 E15.2363
G1 X3.852 Y-42.238 E15.2649
G1 X4.241 Y-42.21 E15.28646
G1 X5.509 Y-42.046 E15.35716
G1 X6.038 Y-41.934 E15.38706
G1 X6.597 Y-41.767 E15.41932
G1 X7.176 Y-41.533 E15.45385
G1 X8.624 Y-40.785 E15.54397
G1 X9.114 Y-40.475 E15.57603
G1 X9.874 Y-39.897 E15.62883
G1 X10.237 Y-39.578 E15.65555
G1 X11.742 Y-38.045 E15.77434
G1 X11.965 Y-37.793 E15.79295
G1 X17.12 Y-31.363 E16.24865
G1 X20.788 Y-27.328 E16.55017
G1 X24.605 Y-23.598 E16.84528
G1 X24.696 Y-23.494 E16.85292
G1 X26.821 Y-21.47 E17.01519
G1 X26.987 Y-21.3 E17.02833
G1 X27.989 Y-20.2 E17.1106
G1 X28.138 Y-20.024 E17.12336
G1 X29.269 Y-18.596 E17.22408
G1 X29.426 Y-18.381 E17.2388
G1 X30.376 Y-16.963 E17.33318
G1 X30.571 Y-16.632 E17.35442
G1 X31.748 Y-14.347 E17.49655
G1 X31.931 Y-13.923 E17.52209
G1 X32.79 Y-11.477 E17.66544
G1 X32.881 Y-11.172 E17.68303
G1 X33.26 Y-9.64 E17.7703
G1 X33.316 Y-9.365 E17.78582
G1 X33.798 Y-6.359 E17.95416
G1 X33.824 Y-6.157 E17.96542
G1 X34.085 Y-3.506 E18.11272
G1 X34.096 Y-3.358 E18.12092
G1 X34.411 Y2.493 E18.44492
G1 X34.415 Y2.61 E18.45139
G1 X34.531 Y8.753 E18.79113
G1 X34.527 Y9.007 E18.80518
G1 X34.319 Y12.653 E19.00711
G1 X34.28 Y13.001 E19.02648
G1 X33.938 Y15.099 E19.14402
G1 X33.862 Y15.447 E19.16371
G1 X33.4 Y17.13 E19.26022
G1 X33.262 Y17.532 E19.28372
G1 X32.348 Y19.725 E19.41509
G1 X32.116 Y20.181 E19.44338
G1 X30.946 Y22.099 E19.56761
G1 X30.711 Y22.436 E19.59033
G1 X29.48 Y23.988 E19.69986
G1 X29.208 Y24.29 E19.72234
G1 X27.357 Y26.117 E19.86615
G1 X27.131 Y26.321 E19.88298
G1 X25.539 Y27.629 E19.99691
G1 X25.35 Y27.774 E20.01009
G1 X21.773 Y30.31 E20.25254
G1 X21.688 Y30.368 E20.25823
G1 X18.705 Y32.349 E20.45624
G1 X18.546 Y32.448 E20.46659
G1 X17.12 Y33.284 E20.558
G1 X16.931 Y33.387 E20.5699
G1 X15.069 Y34.323 E20.68513
G1 X14.813 Y34.439 E20.70067
G1 X12.403 Y35.407 E20.84428
G1 X12.059 Y35.524 E20.86437
G1 X10.551 Y35.947 E20.95098
G1 X10.157 Y36.032 E20.97326
G1 X7.888 Y36.382 E21.10021
G1 X7.594 Y36.414 E21.11657
G1 X4.743 Y36.599 E21.27454
G1 X4.292 Y36.598 E21.29948
G1 X2.082 Y36.443 E21.42198
G1 X1.682 Y36.391 E21.44429
G1 X-1.345 Y35.808 E21.61474
G1 X-1.635 Y35.738 E21.63124
G1 X-3.802 Y35.116 E21.7559
G1 X-4.063 Y35.029 E21.77111
G1 X-6.603 Y34.068 E21.92128
G1 X-6.804 Y33.985 E21.9333
G1 X-10.101 Y32.487 E22.13355
G1 X-10.447 Y32.304 E22.15519
G1 X-14.47 Y29.874 E22.41507
G1 X-14.705 Y29.719 E22.43064
G1 X-18.471 Y26.987 E22.6879
G1 X-18.676 Y26.826 E22.70232
G1 X-19.349 Y26.253 E22.75119
G1 X-19.453 Y26.16 E22.75891
G1 X-20.22 Y25.45 E22.8167
G1 X-20.426 Y25.242 E22.83289
G1 X-22.163 Y23.326 E22.97589
G1 X-22.459 Y22.949 E23.00239
G1 X-23.821 Y20.929 E23.13711
G1 X-24.093 Y20.441 E23.168
G1 X-25.271 Y17.847 E23.32553
G1 X-25.446 Y17.368 E23.35373
G1 X-26.003 Y15.385 E23.46762
G1 X-26.089 Y14.986 E23.49019
G1 X-26.422 Y12.809 E23.61197
G1 X-26.455 Y12.499 E23.62921
G1 X-26.653 Y9.136 E23.81549
G1 X-26.659 Y8.904 E23.82832
G1 X-26.617 Y4.914 E24.04896
G1 X-26.614 Y4.806 E24.05493
G1 X-26.332 Y-1.801 E24.4206
;MESH:Object 1
G0 F3600 X-23.404 Y-4.786
G0 X-21.676 Y-4.629
G0 X-12.959 Y-15.69
;TYPE:WALL-INNER
G1 F600 X-13.431 Y-15.085 E24.46303
G1 X-13.739 Y-14.454 E24.50185
G1 X-13.929 Y-13.833 E24.53776
G1 X-14.039 Y-13.234 E24.57144
G1 X-14.099 Y-12.654 E24.60368
G1 X-14.128 Y-12.077 E24.63563
G1 X-14.126 Y14.661 E26.1141
G1 X-14.094 Y15.242 E26.14628
G1 X-14.03 Y15.823 E26.1786
G1 X-13.914 Y16.411 E26.21174
G1 X-13.739 Y16.983 E26.24482
G1 X-13.431 Y17.614 E26.28364
G1 X-12.959 Y18.219 E26.32607
G1 X-12.356 Y18.686 E26.36824
G1 X-11.725 Y18.994 E26.40707
G1 X-11.104 Y19.184 E26.44298
G1 X-10.507 Y19.294 E26.47655
G1 X-9.883 Y19.359 E26.51124
G1 X17.891 Y19.36 E28.047
G1 X18.521 Y19.294 E28.08203
G1 X19.119 Y19.184 E28.11565
G1 X19.741 Y18.994 E28.15161
G1 X20.37 Y18.686 E28.19034
G1 X20.973 Y18.218 E28.23254
G1 X21.444 Y17.615 E28.27485
G1 X21.753 Y16.985 E28.31365
G1 X21.944 Y16.363 E28.34963
G1 X22.056 Y15.762 E28.38344
G1 X22.083 Y15.486 E28.39877
G1 X22.082 Y-12.992 E29.97346
G1 X22.041 Y-13.309 E29.99113
G1 X21.929 Y-13.884 E30.02353
G1 X21.753 Y-14.456 E30.05662
G1 X21.444 Y-15.086 E30.09542
G1 X20.973 Y-15.689 E30.13773
G1 X20.37 Y-16.157 E30.17993
G1 X19.741 Y-16.465 E30.21866
G1 X19.119 Y-16.655 E30.25462
G1 X18.519 Y-16.765 E30.28835
G1 X17.94 Y-16.825 E30.32054
G1 X17.362 Y-16.854 E30.35254
G1 X-9.347 Y-16.854 E31.82941
G1 X-9.926 Y-16.825 E31.86147
G1 X-10.507 Y-16.765 E31.89377
G1 X-11.104 Y-16.655 E31.92733
G1 X-11.725 Y-16.465 E31.96324
G1 X-12.356 Y-16.157 E32.00207
G1 X-12.959 Y-15.69 E32.04424
G0 F3600 X-9.875 Y-16.165
G0 X17.889 Y-16.165
G0 X18.963 Y-16.011
G0 X19.494 Y-15.85
G0 X20.02 Y-15.592
G0 X20.503 Y-15.217
G0 X20.809 Y-14.825
G0 X29.199 Y0.811
G1 F600 X29.294 Y2.022 E32.11141
G1 X29.356 Y3.71 E32.20481
G1 X29.411 Y5.714 E32.31566
G1 X29.438 Y7.352 E32.40625
G1 X29.443 Y8.063 E32.44557
G1 X29.432 Y9.22 E32.50954
G1 X29.417 Y9.79 E32.54107
G1 X29.387 Y10.499 E32.58031
G1 X29.337 Y11.265 E32.62276
G1 X29.275 Y11.966 E32.66167
G1 X29.168 Y12.854 E32.71113
G1 X29.103 Y13.29 E32.7355
G1 X29.021 Y13.757 E32.76172
G1 X28.921 Y14.238 E32.78889
G1 X28.816 Y14.682 E32.81412
G1 X28.686 Y15.163 E32.84167
G1 X28.548 Y15.613 E32.86769
G1 X28.409 Y16.02 E32.89148
G1 X28.24 Y16.467 E32.9179
G1 X28.059 Y16.903 E32.944
G1 X27.885 Y17.282 E32.96706
G1 X27.624 Y17.797 E32.99899
G1 X27.441 Y18.138 E33.02039
G1 X27.233 Y18.494 E33.04319
G1 X26.99 Y18.882 E33.0685
G1 X26.762 Y19.221 E33.09109
G1 X26.467 Y19.63 E33.11898
G1 X26.202 Y19.976 E33.14307
G1 X25.913 Y20.332 E33.16843
G1 X25.61 Y20.684 E33.19411
G1 X25.421 Y20.886 E33.20941
G1 X25.315 Y21.011 E33.21847
G1 X25.131 Y21.196 E33.2329
G1 X25.015 Y21.326 E33.24253
G1 X24.83 Y21.502 E33.25665
G1 X24.682 Y21.66 E33.26862
G1 X24.532 Y21.794 E33.27974
G1 X24.384 Y21.943 E33.29136
G1 X24.267 Y22.041 E33.2998
G1 X24.042 Y22.257 E33.31704
G1 X23.903 Y22.372 E33.32702
G1 X23.725 Y22.539 E33.34051
G1 X23.596 Y22.643 E33.34968
G1 X23.381 Y22.833 E33.36554
G1 X23.275 Y22.914 E33.37292
G1 X23.068 Y23.092 E33.38801
G1 X23.024 Y23.12 E33.3909
G1 X22.66 Y23.418 E33.41691
G1 X21.541 Y24.264 E33.49448
G1 X21.181 Y24.526 E33.5191
G1 X20.477 Y25.013 E33.56643
G1 X20.36 Y25.102 E33.57456
G1 X20.114 Y25.261 E33.59076
G1 X19.957 Y25.382 E33.60172
G1 X19.748 Y25.514 E33.61539
G1 X19.565 Y25.653 E33.62809
G1 X19.381 Y25.765 E33.64
G1 X19.156 Y25.934 E33.65556
G1 X19.014 Y26.018 E33.66469
G1 X18.734 Y26.22 E33.68378
G1 X18.64 Y26.276 E33.68983
G1 X18.32 Y26.501 E33.71146
G1 X18.261 Y26.535 E33.71522
G1 X17.922 Y26.77 E33.73803
G1 X16.254 Y27.879 E33.84879
G1 X15.497 Y28.351 E33.89812
G1 X14.67 Y28.819 E33.95066
G1 X13.909 Y29.229 E33.99846
G1 X13.029 Y29.656 E34.05254
G1 X12.207 Y30.03 E34.10248
G1 X11.362 Y30.377 E34.15299
G1 X10.506 Y30.68 E34.2032
G1 X9.671 Y30.923 E34.25129
G1 X8.813 Y31.12 E34.29997
G1 X8.258 Y31.219 E34.33114
G1 X7.674 Y31.298 E34.36373
G1 X7.013 Y31.36 E34.40044
G1 X6.418 Y31.393 E34.43339
G1 X5.142 Y31.492 E34.50416
G1 X3.973 Y31.518 E34.56881
G1 X2.813 Y31.409 E34.63324
G1 X2.177 Y31.316 E34.66878
G1 X1.545 Y31.197 E34.70434
G1 X-.267 Y30.832 E34.80655
G1 X-.84 Y30.692 E34.83916
G1 X-1.71 Y30.444 E34.88918
G1 X-2.607 Y30.149 E34.9414
G1 X-3.731 Y29.725 E35.00782
G1 X-5.639 Y28.961 E35.12147
G1 X-6.354 Y28.652 E35.16454
G1 X-6.903 Y28.399 E35.19797
G1 X-7.761 Y27.97 E35.25101
G1 X-8.442 Y27.597 E35.29394
G1 X-9.25 Y27.132 E35.34549
G1 X-10.404 Y26.428 E35.42024
G1 X-10.866 Y26.131 E35.45061
G1 X-10.995 Y26.059 E35.45878
G1 X-11.35 Y25.819 E35.48247
G1 X-11.529 Y25.719 E35.49381
G1 X-11.796 Y25.527 E35.51199
G1 X-12.043 Y25.379 E35.52792
G1 X-12.232 Y25.242 E35.54082
G1 X-12.451 Y25.108 E35.55502
G1 X-12.608 Y24.987 E35.56598
G1 X-12.892 Y24.805 E35.58463
G1 X-13.003 Y24.719 E35.5924
G1 X-13.293 Y24.526 E35.61166
G1 X-13.382 Y24.454 E35.61799
G1 X-13.756 Y24.195 E35.64314
G1 X-15.002 Y23.248 E35.72968
G1 X-15.473 Y22.866 E35.76322
G1 X-15.845 Y22.55 E35.7902
G1 X-16.296 Y22.148 E35.82361
G1 X-16.687 Y21.784 E35.85315
G1 X-17.058 Y21.419 E35.88193
G1 X-17.382 Y21.08 E35.90786
G1 X-17.783 Y20.64 E35.94078
G1 X-18.147 Y20.211 E35.97189
G1 X-18.471 Y19.801 E36.00078
G1 X-18.781 Y19.381 E36.02965
G1 X-19.094 Y18.92 E36.06046
G1 X-19.362 Y18.494 E36.08829
G1 X-19.64 Y18.01 E36.11915
G1 X-19.878 Y17.559 E36.14735
G1 X-20.12 Y17.05 E36.17851
G1 X-20.314 Y16.602 E36.20551
G1 X-20.501 Y16.117 E36.23425
G1 X-20.691 Y15.567 E36.26642
G1 X-20.831 Y15.103 E36.29322
G1 X-20.977 Y14.55 E36.32485
G1 X-21.09 Y14.046 E36.35341
G1 X-21.185 Y13.552 E36.38123
G1 X-21.27 Y13.022 E36.41091
G1 X-21.347 Y12.449 E36.44288
G1 X-21.429 Y11.687 E36.48525
G1 X-21.484 Y10.971 E36.52496
G1 X-21.523 Y10.26 E36.56434
G1 X-21.55 Y9.503 E36.60622
G1 X-21.567 Y8.43 E36.66556
G1 X-21.558 Y6.934 E36.74828
G1 X-21.51 Y4.69 E36.87239
G1 X-21.365 Y0.709 E37.09267
G1 X-21.294 Y-.655 E37.16819
G1 X-21.22 Y-1.891 E37.23666
G1 X-21.122 Y-3.209 E37.30974
G1 X-20.999 Y-4.556 E37.38453
G1 X-20.866 Y-5.783 E37.45278
G1 X-20.794 Y-6.344 E37.48405
G1 X-20.666 Y-7.202 E37.53202
G1 X-20.562 Y-7.828 E37.56711
G1 X-20.424 Y-8.508 E37.60548
G1 X-20.259 Y-9.232 E37.64654
G1 X-20.12 Y-9.752 E37.6763
G1 X-19.889 Y-10.528 E37.72107
G1 X-19.761 Y-10.914 E37.74356
G1 X-19.419 Y-11.821 E37.79715
G1 X-19.221 Y-12.298 E37.82571
G1 X-18.963 Y-12.851 E37.85945
G1 X-18.641 Y-13.48 E37.89853
G1 X-18.337 Y-14.019 E37.93275
G1 X-17.949 Y-14.647 E37.97356
G1 X-17.611 Y-15.152 E38.00716
G1 X-17.285 Y-15.605 E38.03803
G1 X-16.966 Y-16.025 E38.06719
G1 X-16.605 Y-16.474 E38.09905
G1 X-16.277 Y-16.864 E38.12722
G1 X-15.621 Y-17.584 E38.18108
G1 X-14.926 Y-18.295 E38.23606
G1 X-13.959 Y-19.202 E38.30937
G1 X-13.167 Y-19.895 E38.36756
G1 X-12.319 Y-20.6 E38.42854
G1 X-11.042 Y-21.637 E38.5195
G1 X-10.219 Y-22.318 E38.57857
G1 X-9.396 Y-23.039 E38.63907
G1 X-8.59 Y-23.794 E38.70014
G1 X-8.181 Y-24.202 E38.73208
G1 X-7.417 Y-25.015 E38.79377
G1 X-6.606 Y-25.945 E38.862
G1 X-5.954 Y-26.747 E38.91915
G1 X-5.229 Y-27.68 E38.98449
G1 X-4.564 Y-28.571 E39.04597
G1 X-2.817 Y-31.018 E39.21222
G1 X-2.42 Y-31.563 E39.2495
G1 X-1.837 Y-32.391 E39.3055
G1 X-1.339 Y-33.071 E39.3521
G1 X-.874 Y-33.682 E39.39456
G1 X-.456 Y-34.206 E39.43162
G1 X-0.018 Y-34.724 E39.46913
G1 X0.388 Y-35.17 E39.50248
G1 X0.794 Y-35.578 E39.53431
G1 X1.064 Y-35.826 E39.55458
G1 X1.261 Y-35.994 E39.5689
G1 X1.502 Y-36.181 E39.58576
G1 X1.75 Y-36.359 E39.60264
G1 X1.999 Y-36.519 E39.61901
G1 X2.185 Y-36.628 E39.63093
G1 X2.402 Y-36.742 E39.64448
G1 X2.683 Y-36.862 E39.66138
G1 X2.866 Y-36.931 E39.67219
