; generated by PrusaSlicer 2.6.1+win64 on 2023-10-24 at 18:51:00 UTC

; 

; external perimeters extrusion width = 0.42mm
; perimeters extrusion width = 0.45mm
; infill extrusion width = 0.45mm
; solid infill extrusion width = 0.45mm
; top infill extrusion width = 0.42mm
; first layer extrusion width = 0.50mm

M201 X1000 Y1000 Z1000 E5000 ; sets maximum accelerations, mm/sec^2
M203 X200 Y200 Z12 E120 ; sets maximum feedrates, mm / sec
M204 S1250 T1250 ; sets acceleration (S) and retract acceleration (R), mm/sec^2
M205 X8.00 Y8.00 Z0.40 E1.50 ; sets the jerk limits, mm/sec
M205 S0 T0 ; sets the minimum extruding and travel feed rate, mm/sec
;TYPE:Custom
; Initial setups
G90 ; use absolute coordinates
M83 ; extruder relative mode
M220 S100 ; reset speed factor to 100%
M221 S100 ; reset extrusion rate to 100%

; Set the heating
M190 S0 ; wait for bed to heat up
M104 S235 ; start nozzle heating but don't wait

; Home
G1 Z3 F3000 ; move z up little to prevent scratching of surface
G28 ; home all axes
G1 X3 Y3 F5000 ; move to corner of the bed to avoid ooze over centre

; Wait for final heating
M109 S235 ; wait for the nozzle to heat up
M190 S0 ; wait for the bed to heat up

; Return to prime position, Prime line routine
G92 E0 ; Reset Extruder
G1 Z3 F3000 ; move z up little to prevent scratching of surface
G1 X10 Y.5 Z0.25 F5000.0 ; Move to start position
G1 X100 Y.5 Z0.25 F1500.0 E15 ; Draw the first line
G1 X100 Y.2 Z0.25 F5000.0 ; Move to side a little
G1 X10 Y.2 Z0.25 F1500.0 E30 ; Draw the second line
G92 E0 ; Reset Extruder
M221 S95
G21 ; set units to millimeters
G90 ; use absolute coordinates
M83 ; use relative distances for extrusion
; Filament gcode
M107
;LAYER_CHANGE
;Z:0.4
;HEIGHT:0.4
;BEFORE_LAYER_CHANGE
;0.4
G92 E0
G1 E-.8 F2100
G1 Z.6 F3600
;AFTER_LAYER_CHANGE
;0.4
M204 S20000
G1 X135.643 Y137.51
G1 Z.4
G1 E.8 F2100
M204 S1250
;TYPE:Skirt/Brim
;WIDTH:0.5
G1 F651.923
G1 X136.28 Y136.893 E.06963
G1 X136.996 Y136.27 E.07452
G1 X137.751 Y135.679 E.07528
G1 X138.515 Y135.143 E.07328
G1 X139.317 Y134.643 E.07421
G1 X139.971 Y134.277 E.05884
G1 X140.965 Y133.782 E.08719
G1 X141.599 Y133.511 E.05414
G1 X142.805 Y133.062 E.10104
G1 X143.594 Y132.818 E.06485
G1 X144.494 Y132.589 E.07292
G1 X145.396 Y132.409 E.07222
G1 X146.299 Y132.276 E.07167
G1 X147.199 Y132.189 E.071
G1 X148.107 Y132.147 E.07137
G1 X149.033 Y132.152 E.07271
G1 X150.041 Y132.211 E.07928
G1 X150.921 Y132.31 E.06953
G1 X151.807 Y132.453 E.07047
G1 X152.744 Y132.656 E.07528
G1 X153.611 Y132.889 E.07049
G1 X154.5 Y133.179 E.07342
G1 X155.439 Y133.542 E.07905
G1 X156.249 Y133.904 E.06966
G1 X157.049 Y134.311 E.07048
G1 X157.96 Y134.839 E.08268
G1 X158.685 Y135.31 E.06788
G1 X159.377 Y135.81 E.06703
G1 X159.963 Y136.276 E.05879
G1 X160.646 Y136.868 E.07097
G1 X161.263 Y137.459 E.06708
G1 X161.834 Y138.062 E.0652
G1 X162.378 Y138.688 E.06512
G1 X162.893 Y139.342 E.06536
G1 X163.38 Y140.023 E.06574
G1 X163.832 Y140.722 E.06536
G1 X164.253 Y141.438 E.06522
G1 X164.638 Y142.174 E.06522
G1 X164.995 Y142.941 E.06643
G1 X165.325 Y143.747 E.06838
G1 X165.641 Y144.647 E.07489
G1 X165.97 Y145.796 E.09384
G1 X170.462 Y145.421 E.35393
G1 X170.943 Y145.493 E.03819
G1 X171.468 Y145.676 E.04365
G1 X171.854 Y145.902 E.03512
G1 X172.415 Y146.391 E.05843
G1 X172.686 Y146.749 E.03525
G1 X172.897 Y147.156 E.036
G1 X173.073 Y147.768 E.05
G1 X173.163 Y149.134 E.10749
G1 X173.184 Y150.173 E.0816
G1 X173.163 Y151.219 E.08215
G1 X173.081 Y152.536 E.10361
G1 X172.902 Y153.191 E.05331
G1 X172.664 Y153.64 E.0399
G1 X172.321 Y154.061 E.04264
G1 X171.843 Y154.462 E.04899
G1 X171.383 Y154.715 E.04122
G1 X170.843 Y154.885 E.04445
G1 X170.28 Y154.938 E.0444
G1 X165.959 Y154.559 E.34058
G1 X165.819 Y155.126 E.04586
G1 X165.488 Y156.164 E.08554
G1 X165.184 Y156.969 E.06756
G1 X164.817 Y157.811 E.07212
G1 X164.402 Y158.642 E.07293
G1 X163.949 Y159.441 E.07212
G1 X163.349 Y160.375 E.08716
G1 X162.897 Y161.007 E.06101
G1 X162.322 Y161.733 E.07272
G1 X161.708 Y162.432 E.07305
G1 X161.043 Y163.113 E.07474
G1 X160.401 Y163.707 E.06867
G1 X159.727 Y164.273 E.06911
G1 X158.828 Y164.943 E.08803
G1 X158.184 Y165.376 E.06093
G1 X157.326 Y165.891 E.07857
G1 X156.574 Y166.291 E.06688
G1 X155.817 Y166.651 E.06582
G1 X154.97 Y167.003 E.07202
G1 X154.189 Y167.283 E.06514
G1 X153.392 Y167.53 E.06551
G1 X152.702 Y167.71 E.05599
G1 X151.771 Y167.909 E.07475
G1 X150.927 Y168.045 E.06712
G1 X150.116 Y168.138 E.06409
G1 X149.301 Y168.194 E.06414
G1 X148.483 Y168.212 E.06424
G1 X147.658 Y168.193 E.06479
G1 X146.791 Y168.132 E.06824
G1 X145.929 Y168.032 E.06814
G1 X145.09 Y167.892 E.06679
G1 X144.262 Y167.713 E.06651
G1 X143.365 Y167.472 E.07293
G1 X142.5 Y167.192 E.07139
G1 X141.358 Y166.746 E.09626
G1 X140.428 Y166.315 E.08048
G1 X139.677 Y165.92 E.06663
G1 X138.935 Y165.482 E.06765
G1 X138.217 Y165.009 E.06751
G1 X137.518 Y164.5 E.06789
G1 X136.861 Y163.974 E.06608
G1 X136.164 Y163.355 E.07319
G1 X135.532 Y162.734 E.06957
G1 X134.925 Y162.077 E.07023
G1 X134.362 Y161.4 E.06914
G1 X133.777 Y160.625 E.07624
G1 X133.311 Y159.932 E.06557
G1 X132.656 Y158.826 E.10093
G1 X132.349 Y158.247 E.05146
G1 X131.935 Y157.359 E.07693
G1 X131.566 Y156.444 E.07747
G1 X131.266 Y155.562 E.07315
G1 X131.011 Y154.672 E.07269
G1 X130.808 Y153.795 E.07068
G1 X130.65 Y152.898 E.07151
G1 X130.532 Y151.978 E.07283
G1 X130.464 Y151.051 E.07298
G1 X130.442 Y150.132 E.07218
G1 X130.468 Y149.209 E.0725
G1 X130.544 Y148.273 E.07373
G1 X130.667 Y147.34 E.07389
G1 X130.833 Y146.442 E.0717
G1 X131.049 Y145.542 E.07267
G1 X131.303 Y144.673 E.07109
G1 X131.656 Y143.674 E.08319
G1 X132.006 Y142.833 E.07152
G1 X132.404 Y142 E.07249
G1 X132.842 Y141.189 E.07237
G1 X133.32 Y140.404 E.07216
G1 X133.832 Y139.653 E.07137
G1 X134.386 Y138.922 E.07202
G1 X134.972 Y138.225 E.0715
G1 X135.561 Y137.597 E.0676
M204 S20000
G1 X135.862 Y137.881 F3600
M204 S1250
G1 F651.923
G1 X136.564 Y137.194 E.07712
G1 X137.264 Y136.587 E.07275
G1 X138.002 Y136.009 E.0736
G1 X138.749 Y135.486 E.0716
G1 X139.524 Y135.002 E.07174
G1 X140.16 Y134.645 E.05727
G1 X141.134 Y134.16 E.08543
G1 X141.748 Y133.897 E.05245
G1 X142.944 Y133.452 E.1002
G1 X143.702 Y133.218 E.06229
G1 X144.58 Y132.994 E.07115
G1 X145.462 Y132.818 E.07062
G1 X146.354 Y132.686 E.0708
G1 X147.233 Y132.601 E.06934
G1 X148.12 Y132.561 E.06972
G1 X149.025 Y132.566 E.07106
G1 X150 Y132.623 E.07669
G1 X150.87 Y132.721 E.06874
G1 X151.735 Y132.861 E.0688
G1 X152.651 Y133.06 E.0736
G1 X153.498 Y133.288 E.06887
G1 X154.367 Y133.571 E.07176
G1 X155.275 Y133.922 E.07644
G1 X156.075 Y134.28 E.06882
G1 X156.856 Y134.677 E.06879
G1 X157.739 Y135.189 E.08014
G1 X158.446 Y135.648 E.06618
G1 X159.123 Y136.137 E.06557
G1 X159.696 Y136.592 E.05745
G1 X160.371 Y137.177 E.07013
G1 X160.966 Y137.748 E.06475
G1 X161.53 Y138.343 E.06437
G1 X162.056 Y138.949 E.06301
G1 X162.559 Y139.586 E.06373
G1 X163.035 Y140.252 E.06428
G1 X163.478 Y140.936 E.06399
G1 X163.888 Y141.635 E.06363
G1 X164.269 Y142.362 E.06445
G1 X164.618 Y143.111 E.06488
G1 X164.936 Y143.889 E.06599
G1 X165.249 Y144.781 E.07422
G1 X165.483 Y145.57 E.06462
G1 X165.639 Y146.24 E.05401
G1 X170.428 Y145.834 E.37737
G1 X170.829 Y145.891 E.0318
G1 X171.28 Y146.046 E.03744
G1 X171.6 Y146.229 E.02894
G1 X172.101 Y146.661 E.05194
G1 X172.327 Y146.957 E.02924
G1 X172.52 Y147.329 E.03291
G1 X172.661 Y147.817 E.03988
G1 X172.749 Y149.147 E.10466
G1 X172.77 Y150.169 E.08026
G1 X172.749 Y151.206 E.08144
G1 X172.669 Y152.489 E.10093
G1 X172.525 Y153.017 E.04297
G1 X172.308 Y153.427 E.03642
G1 X172.015 Y153.782 E.03614
G1 X171.595 Y154.13 E.04283
G1 X171.204 Y154.342 E.03492
G1 X170.78 Y154.475 E.03489
G1 X170.296 Y154.524 E.0382
G1 X165.642 Y154.116 E.36682
G1 X165.422 Y155.007 E.07206
G1 X165.098 Y156.024 E.08381
G1 X164.803 Y156.808 E.06577
G1 X164.444 Y157.631 E.0705
G1 X164.034 Y158.452 E.07205
G1 X163.592 Y159.232 E.07039
G1 X163.003 Y160.147 E.08544
G1 X162.563 Y160.762 E.05937
G1 X162 Y161.472 E.07115
G1 X161.4 Y162.155 E.07138
G1 X160.758 Y162.812 E.07213
G1 X160.123 Y163.399 E.0679
G1 X159.465 Y163.952 E.06749
G1 X158.585 Y164.608 E.08618
G1 X157.957 Y165.03 E.05941
G1 X157.126 Y165.528 E.07607
G1 X156.384 Y165.924 E.06604
G1 X155.644 Y166.275 E.06431
G1 X154.826 Y166.615 E.06955
G1 X154.062 Y166.888 E.0637
G1 X153.283 Y167.13 E.06405
G1 X152.611 Y167.306 E.05454
G1 X151.689 Y167.503 E.07403
G1 X150.876 Y167.634 E.06466
G1 X150.083 Y167.725 E.06267
G1 X149.287 Y167.78 E.06265
G1 X148.487 Y167.797 E.06283
G1 X147.673 Y167.779 E.06393
G1 X146.834 Y167.72 E.06604
G1 X145.991 Y167.622 E.06664
G1 X145.173 Y167.486 E.06511
G1 X144.364 Y167.312 E.06497
G1 X143.478 Y167.073 E.07205
G1 X142.645 Y166.804 E.06873
G1 X141.515 Y166.363 E.09524
G1 X140.607 Y165.942 E.07858
G1 X139.875 Y165.556 E.06498
G1 X139.158 Y165.133 E.06536
G1 X138.456 Y164.671 E.06598
G1 X137.773 Y164.174 E.06632
G1 X137.132 Y163.66 E.06451
G1 X136.451 Y163.056 E.07147
G1 X135.826 Y162.442 E.06879
G1 X135.233 Y161.8 E.06862
G1 X134.69 Y161.147 E.06668
G1 X134.112 Y160.38 E.07541
G1 X133.665 Y159.716 E.06285
G1 X133.015 Y158.619 E.10012
G1 X132.717 Y158.058 E.04988
G1 X132.312 Y157.189 E.07528
G1 X131.956 Y156.305 E.07483
G1 X131.662 Y155.444 E.07144
G1 X131.414 Y154.573 E.07111
G1 X131.213 Y153.707 E.0698
G1 X131.058 Y152.831 E.06985
G1 X130.945 Y151.942 E.07036
G1 X130.878 Y151.035 E.07141
G1 X130.856 Y150.139 E.07037
G1 X130.882 Y149.227 E.07164
G1 X130.956 Y148.311 E.07216
G1 X131.077 Y147.4 E.07216
G1 X131.24 Y146.523 E.07004
G1 X131.45 Y145.643 E.07104
G1 X131.696 Y144.806 E.0685
G1 X132.045 Y143.818 E.08227
G1 X132.382 Y143.007 E.06896
G1 X132.771 Y142.192 E.07091
G1 X133.204 Y141.391 E.07149
G1 X133.671 Y140.624 E.07051
G1 X134.171 Y139.89 E.06973
G1 X134.713 Y139.177 E.07032
G1 X135.285 Y138.495 E.06989
G1 X135.78 Y137.968 E.05677
M204 S20000
G1 X136.082 Y138.252 F3600
M204 S1250
G1 F651.923
G1 X136.848 Y137.496 E.0845
G1 X137.531 Y136.903 E.07102
G1 X138.253 Y136.338 E.07198
G1 X138.982 Y135.828 E.06986
G1 X139.73 Y135.361 E.06924
G1 X140.35 Y135.014 E.05579
G1 X141.302 Y134.539 E.08354
G1 X141.897 Y134.283 E.05086
G1 X143.083 Y133.842 E.09935
G1 X143.809 Y133.618 E.05966
G1 X144.667 Y133.399 E.06953
G1 X145.528 Y133.227 E.06894
G1 X146.41 Y133.097 E.07
G1 X147.268 Y133.014 E.06768
G1 X148.133 Y132.975 E.06799
G1 X149.018 Y132.981 E.06949
G1 X149.96 Y133.035 E.07408
G1 X150.808 Y133.13 E.067
G1 X151.663 Y133.269 E.06801
G1 X152.558 Y133.463 E.07191
G1 X153.385 Y133.686 E.06725
G1 X154.233 Y133.963 E.07005
G1 X155.111 Y134.302 E.0739
G1 X155.901 Y134.656 E.06797
G1 X156.663 Y135.044 E.06714
G1 X157.518 Y135.539 E.07757
G1 X158.208 Y135.987 E.06459
G1 X158.869 Y136.465 E.06405
G1 X159.428 Y136.908 E.056
G1 X160.095 Y137.487 E.06935
G1 X160.669 Y138.037 E.06242
G1 X161.221 Y138.619 E.06298
G1 X161.734 Y139.209 E.06139
G1 X162.225 Y139.832 E.06228
G1 X162.69 Y140.481 E.06269
G1 X163.123 Y141.149 E.0625
G1 X163.524 Y141.832 E.06219
G1 X163.895 Y142.541 E.06283
G1 X164.24 Y143.282 E.06418
G1 X164.547 Y144.031 E.06356
G1 X164.856 Y144.913 E.07338
G1 X165.084 Y145.682 E.06298
G1 X165.317 Y146.683 E.0807
G1 X170.396 Y146.247 E.40026
G1 X170.717 Y146.291 E.02544
G1 X171.096 Y146.418 E.03138
G1 X171.348 Y146.559 E.02267
G1 X171.788 Y146.934 E.04539
G1 X171.969 Y147.165 E.02304
G1 X172.144 Y147.502 E.02982
G1 X172.25 Y147.867 E.02984
G1 X172.335 Y149.161 E.10182
G1 X172.356 Y150.174 E.07956
G1 X172.335 Y151.193 E.08003
G1 X172.257 Y152.443 E.09834
G1 X172.147 Y152.847 E.03288
G1 X171.973 Y153.183 E.02971
G1 X171.735 Y153.476 E.02964
G1 X171.348 Y153.797 E.03948
G1 X171.029 Y153.966 E.02834
G1 X170.679 Y154.073 E.02874
G1 X170.313 Y154.11 E.02888
G1 X165.324 Y153.672 E.39323
G1 X165.025 Y154.888 E.09832
G1 X164.705 Y155.893 E.08281
G1 X164.421 Y156.648 E.06334
G1 X164.066 Y157.46 E.06958
G1 X163.666 Y158.262 E.07037
G1 X163.234 Y159.023 E.06871
G1 X162.664 Y159.91 E.08279
G1 X162.235 Y160.509 E.05785
G1 X161.686 Y161.203 E.06948
G1 X161.1 Y161.869 E.06965
G1 X160.473 Y162.512 E.07052
G1 X159.853 Y163.086 E.06634
G1 X159.213 Y163.624 E.06565
G1 X158.342 Y164.273 E.08529
G1 X157.731 Y164.683 E.05777
G1 X156.927 Y165.165 E.0736
G1 X156.193 Y165.556 E.0653
G1 X155.471 Y165.898 E.06273
G1 X154.681 Y166.227 E.06719
G1 X153.935 Y166.494 E.06221
G1 X153.174 Y166.731 E.06258
G1 X152.519 Y166.902 E.05315
G1 X151.608 Y167.097 E.07315
G1 X150.824 Y167.223 E.06235
G1 X150.04 Y167.313 E.06196
G1 X149.263 Y167.366 E.06115
G1 X148.483 Y167.383 E.06126
G1 X147.687 Y167.365 E.06252
G1 X146.868 Y167.307 E.06447
G1 X146.044 Y167.212 E.06513
G1 X145.255 Y167.08 E.06281
G1 X144.467 Y166.91 E.0633
G1 X143.59 Y166.675 E.07129
G1 X142.79 Y166.416 E.06602
G1 X141.672 Y165.979 E.09425
G1 X140.786 Y165.569 E.07665
G1 X140.073 Y165.192 E.06333
G1 X139.373 Y164.779 E.06382
G1 X138.688 Y164.328 E.0644
G1 X138.029 Y163.848 E.06401
G1 X137.403 Y163.347 E.06295
G1 X136.737 Y162.757 E.06986
G1 X136.126 Y162.158 E.06718
G1 X135.541 Y161.523 E.06779
G1 X135.017 Y160.894 E.06428
G1 X134.446 Y160.135 E.07458
G1 X134.018 Y159.5 E.06013
G1 X133.374 Y158.413 E.0992
G1 X133.086 Y157.869 E.04833
G1 X132.694 Y157.029 E.07278
G1 X132.346 Y156.166 E.07306
G1 X132.059 Y155.325 E.06977
G1 X131.816 Y154.474 E.06949
G1 X131.62 Y153.63 E.06803
G1 X131.467 Y152.764 E.06905
G1 X131.357 Y151.895 E.06878
G1 X131.291 Y151.01 E.06968
G1 X131.27 Y150.134 E.0688
G1 X131.296 Y149.244 E.06991
G1 X131.369 Y148.35 E.07043
G1 X131.487 Y147.46 E.07049
G1 X131.646 Y146.604 E.06836
G1 X131.852 Y145.745 E.06936
G1 X132.088 Y144.939 E.06594
G1 X132.433 Y143.961 E.08143
G1 X132.758 Y143.18 E.06642
G1 X133.138 Y142.384 E.06926
G1 X133.561 Y141.601 E.06988
G1 X134.016 Y140.853 E.06874
G1 X134.51 Y140.128 E.06888
G1 X135.039 Y139.431 E.0687
G1 X135.598 Y138.766 E.06821
G1 X136 Y138.339 E.04605
M204 S20000
G1 X136.301 Y138.623 F3600
M204 S1250
G1 F651.923
G1 X137.132 Y137.798 E.09194
G1 X137.791 Y137.226 E.06852
G1 X138.495 Y136.674 E.07024
G1 X139.206 Y136.176 E.06816
G1 X139.937 Y135.719 E.06769
G1 X140.539 Y135.382 E.05417
G1 X141.471 Y134.917 E.08178
G1 X142.047 Y134.67 E.04921
G1 X143.222 Y134.232 E.09846
G1 X143.916 Y134.018 E.05702
G1 X144.754 Y133.804 E.06791
G1 X145.604 Y133.634 E.06806
G1 X146.465 Y133.507 E.06834
G1 X147.302 Y133.427 E.06602
G1 X148.146 Y133.389 E.06634
G1 X149.01 Y133.395 E.06784
G1 X149.919 Y133.447 E.07149
G1 X150.757 Y133.541 E.06621
G1 X151.591 Y133.677 E.06635
G1 X152.465 Y133.867 E.07023
G1 X153.272 Y134.085 E.06563
G1 X154.099 Y134.355 E.06831
G1 X154.946 Y134.682 E.07129
G1 X155.718 Y135.028 E.06643
G1 X156.47 Y135.41 E.06623
G1 X157.297 Y135.889 E.07504
G1 X157.97 Y136.326 E.063
G1 X158.616 Y136.792 E.06254
G1 X159.16 Y137.224 E.05454
G1 X159.813 Y137.789 E.0678
G1 X160.378 Y138.332 E.06153
G1 X160.917 Y138.9 E.06148
G1 X161.418 Y139.477 E.06
G1 X161.897 Y140.084 E.06071
G1 X162.35 Y140.718 E.06118
G1 X162.773 Y141.371 E.06109
G1 X163.164 Y142.037 E.06064
G1 X163.526 Y142.729 E.06132
G1 X163.863 Y143.452 E.06263
G1 X164.161 Y144.182 E.06191
G1 X164.464 Y145.045 E.07182
G1 X164.685 Y145.794 E.06132
G1 X164.995 Y147.127 E.10746
G1 X170.368 Y146.661 E.42346
G1 X170.609 Y146.691 E.01907
G1 X170.917 Y146.791 E.02543
G1 X171.099 Y146.89 E.01627
G1 X171.479 Y147.21 E.03901
G1 X171.611 Y147.375 E.01659
G1 X171.767 Y147.675 E.02655
G1 X171.838 Y147.917 E.0198
G1 X171.921 Y149.174 E.09891
G1 X171.942 Y150.169 E.07814
G1 X171.921 Y151.181 E.07948
G1 X171.845 Y152.396 E.09559
G1 X171.769 Y152.677 E.02286
G1 X171.615 Y152.974 E.02627
G1 X171.455 Y153.17 E.01987
G1 X171.101 Y153.464 E.03613
G1 X170.886 Y153.577 E.01907
G1 X170.612 Y153.664 E.02257
G1 X170.328 Y153.695 E.02243
G1 X164.983 Y153.227 E.42128
G1 X164.826 Y154.011 E.06278
G1 X164.629 Y154.767 E.06134
G1 X164.312 Y155.762 E.08199
G1 X164.039 Y156.487 E.06083
G1 X163.693 Y157.28 E.06793
G1 X163.303 Y158.063 E.06868
G1 X162.883 Y158.804 E.06688
G1 X162.324 Y159.673 E.08113
G1 X161.907 Y160.256 E.05628
G1 X161.371 Y160.934 E.06786
G1 X160.8 Y161.584 E.06793
G1 X160.188 Y162.211 E.06879
G1 X159.582 Y162.772 E.06484
G1 X158.961 Y163.296 E.0638
G1 X158.099 Y163.938 E.08439
