;FLAVOR:Marlin
;TIME:4349
;Filament used: 17.0861m
;Layer height: 0.4
;MINX:121.837
;MINY:123.348
;MINZ:0.4
;MAXX:181.832
;MAXY:176.671
;MAXZ:115.2
;Generated with Cura_SteamEngine 5.4.0
M140 S40
M105
M190 S40
M104 S210
M105
M109 S210
M82 ;absolute extrusion mode
G28 ; home all axes
 M117 Purge extruder
 G92 E0 ; reset extruder
 G1 Z1.0 F3000 ; move z up little to prevent scratching of surface
 G1 X2 Y20 Z0.3 F5000.0 ; move to start-line position
 G1 X2 Y200.0 Z0.3 F1500.0 E15 ; draw 1st line
 G1 X2 Y200.0 Z0.4 F5000.0 ; move to side a little
 G1 X2 Y20 Z0.4 F1500.0 E30 ; draw 2nd line
 G92 E0 ; reset extruder
 G1 Z1.0 F3000 ; move z up little to prevent scratching of surface
G92 E0
G92 E0
G1 F1500 E-2
;LAYER_COUNT:288
;LAYER:0
M107
G0 F6000 X129.879 Y130.906 Z0.4
;TYPE:SKIRT
G1 F1500 E0
G1 F1200 X130.379 Y130.428 E0.09663
G1 X131.344 Y129.581 E0.27599
G1 X132.074 Y128.984 E0.40773
G1 X132.516 Y128.646 E0.48546
G1 X133.245 Y128.124 E0.61071
G1 X134.025 Y127.597 E0.74221
G1 X134.64 Y127.212 E0.84356
G1 X135.339 Y126.805 E0.95655
G1 X136.221 Y126.335 E1.09616
G1 X136.748 Y126.08 E1.17795
G1 X137.829 Y125.593 E1.34357
G1 X138.887 Y125.147 E1.50396
G1 X139.807 Y124.794 E1.64161
G1 X140.91 Y124.439 E1.80348
G1 X142.278 Y124.081 E2.00101
G1 X142.873 Y123.943 E2.08634
G1 X143.867 Y123.746 E2.22789
G1 X144.299 Y123.672 E2.28912
G1 X145.003 Y123.575 E2.38839
G1 X146.568 Y123.415 E2.60815
G1 X147.183 Y123.372 E2.69427
G1 X148.139 Y123.348 E2.82786
G1 X149.387 Y123.374 E3.00223
G1 X150.545 Y123.425 E3.16415
G1 X151.52 Y123.513 E3.30091
G1 X152.795 Y123.688 E3.48069
G1 X153.602 Y123.818 E3.59487
G1 X154.719 Y124.061 E3.75456
G1 X156.111 Y124.443 E3.9562
G1 X156.671 Y124.613 E4.03795
G1 X157.4 Y124.857 E4.14534
G1 X157.946 Y125.057 E4.22657
G1 X158.798 Y125.401 E4.35492
G1 X159.601 Y125.752 E4.47734
G1 X160.232 Y126.053 E4.575
G1 X161.126 Y126.515 E4.71558
G1 X161.557 Y126.748 E4.78402
G1 X162.114 Y127.068 E4.87376
G1 X162.568 Y127.345 E4.94805
G1 X163.362 Y127.854 E5.0798
G1 X163.92 Y128.235 E5.17418
G1 X164.521 Y128.675 E5.27823
G1 X165.338 Y129.313 E5.42304
G1 X165.731 Y129.64 E5.49446
G1 X166.583 Y130.387 E5.65274
G1 X168.423 Y132.069 E6.00099
G1 X170.332 Y133.718 E6.35337
G1 X172.29 Y135.314 E6.70625
G1 X174.241 Y136.816 E7.0502
G1 X176.835 Y138.686 E7.4969
G1 X177.49 Y139.193 E7.61261
G1 X178.23 Y139.84 E7.74992
G1 X178.862 Y140.497 E7.87727
G1 X179.481 Y141.26 E8.01452
G1 X180.067 Y142.133 E8.1614
G1 X180.538 Y142.994 E8.29849
G1 X180.931 Y143.889 E8.43504
G1 X181.19 Y144.636 E8.54548
G1 X181.287 Y144.951 E8.59153
G1 X181.541 Y145.936 E8.73362
G1 X181.693 Y146.835 E8.86099
G1 X181.76 Y147.528 E8.95825
G1 X181.785 Y147.922 E9.0134
G1 X181.806 Y148.484 E9.09196
G1 X181.832 Y150.643 E9.39358
G1 X181.824 Y151.207 E9.47237
G1 X181.785 Y151.998 E9.583
G1 X181.713 Y152.909 E9.71066
G1 X181.597 Y153.849 E9.84297
G1 X181.378 Y154.878 E9.98993
G1 X181.11 Y155.75 E10.11737
G1 X180.742 Y156.662 E10.25475
G1 X180.263 Y157.597 E10.4015
G1 X179.738 Y158.426 E10.53858
G1 X179.187 Y159.153 E10.666
G1 X178.483 Y159.929 E10.81237
G1 X177.908 Y160.468 E10.92246
G1 X177.66 Y160.683 E10.96831
G1 X176.878 Y161.298 E11.10729
G1 X175.696 Y162.14 E11.31002
G1 X173.632 Y163.663 E11.66834
G1 X171.647 Y165.217 E12.02049
G1 X169.747 Y166.791 E12.36516
G1 X166.096 Y170.048 E13.04862
G1 X165.571 Y170.482 E13.14377
G1 X164.503 Y171.307 E13.33229
G1 X163.503 Y172.043 E13.50574
G1 X162.627 Y172.623 E13.6525
G1 X161.574 Y173.244 E13.82328
G1 X161.133 Y173.487 E13.89361
G1 X160.449 Y173.832 E14.00063
G1 X159.373 Y174.323 E14.16585
G1 X157.846 Y174.968 E14.39741
G1 X156.815 Y175.346 E14.55081
G1 X156.335 Y175.495 E14.62101
G1 X155.41 Y175.761 E14.75547
G1 X154.806 Y175.914 E14.84251
G1 X153.572 Y176.178 E15.01879
G1 X152.451 Y176.371 E15.17769
G1 X151.588 Y176.49 E15.29938
G1 X150.954 Y176.559 E15.38847
G1 X150.138 Y176.622 E15.5028
G1 X149.489 Y176.653 E15.59356
G1 X148.474 Y176.671 E15.73537
G1 X147.975 Y176.669 E15.80508
G1 X147.228 Y176.648 E15.90947
G1 X146.475 Y176.601 E16.01486
G1 X145.662 Y176.523 E16.12896
G1 X145.182 Y176.466 E16.19648
G1 X144.426 Y176.355 E16.30322
G1 X143.745 Y176.234 E16.39984
G1 X142.698 Y176.025 E16.54898
G1 X141.835 Y175.821 E16.67286
G1 X141.272 Y175.664 E16.75451
G1 X139.975 Y175.259 E16.94432
G1 X139.363 Y175.049 E17.0347
G1 X138.767 Y174.826 E17.1236
G1 X137.924 Y174.475 E17.25116
G1 X137.182 Y174.14 E17.36488
G1 X136.686 Y173.902 E17.44173
G1 X135.966 Y173.532 E17.55482
G1 X135.292 Y173.154 E17.66277
G1 X134.428 Y172.629 E17.80399
G1 X133.248 Y171.879 E17.99931
G1 X132.185 Y171.106 E18.18291
G1 X131.536 Y170.571 E18.30041
G1 X131.166 Y170.251 E18.36874
G1 X129.964 Y169.166 E18.59494
G1 X129.144 Y168.344 E18.75713
G1 X128.329 Y167.432 E18.92799
G1 X127.738 Y166.735 E19.05565
G1 X127.305 Y166.188 E19.1531
G1 X126.606 Y165.232 E19.31854
G1 X126.154 Y164.568 E19.43075
G1 X125.78 Y163.98 E19.52809
G1 X125.477 Y163.466 E19.61144
G1 X125.209 Y162.986 E19.68824
G1 X124.527 Y161.686 E19.89331
G1 X124.172 Y160.938 E20.00897
G1 X123.689 Y159.793 E20.18257
G1 X123.47 Y159.23 E20.26696
G1 X123.182 Y158.395 E20.39034
G1 X122.869 Y157.346 E20.54326
G1 X122.571 Y156.217 E20.70638
G1 X122.341 Y155.196 E20.85258
G1 X122.233 Y154.658 E20.92923
G1 X122.099 Y153.821 E21.04764
G1 X121.995 Y152.906 E21.17629
G1 X121.892 Y151.718 E21.34286
G1 X121.849 Y151.042 E21.43749
G1 X121.837 Y150.084 E21.57132
G1 X121.889 Y148.66 E21.77038
G1 X121.948 Y147.71 E21.90334
G1 X122.061 Y146.538 E22.06782
G1 X122.126 Y146.029 E22.1395
G1 X122.293 Y145.011 E22.28361
G1 X122.423 Y144.361 E22.37621
G1 X122.621 Y143.537 E22.49459
G1 X122.917 Y142.486 E22.64712
G1 X123.058 Y142.026 E22.71433
G1 X123.43 Y140.921 E22.8772
G1 X123.756 Y140.057 E23.0062
G1 X123.937 Y139.613 E23.07318
G1 X124.207 Y139.005 E23.16611
G1 X124.682 Y138.014 E23.31963
G1 X125.113 Y137.175 E23.45139
G1 X125.569 Y136.381 E23.5793
G1 X126.26 Y135.282 E23.76064
G1 X126.762 Y134.533 E23.8866
G1 X127.256 Y133.87 E24.0021
G1 X128.185 Y132.721 E24.2085
G1 X128.631 Y132.203 E24.30399
G1 X129.238 Y131.553 E24.42823
G1 X129.879 Y130.906 E24.55545
G0 F6000 X130.432 Y131.484
G1 F1200 X130.907 Y131.029 E24.64734
G1 X131.851 Y130.2 E24.82284
G1 X132.561 Y129.619 E24.951
G1 X132.982 Y129.296 E25.02512
G1 X133.693 Y128.787 E25.14727
G1 X134.45 Y128.275 E25.27493
G1 X135.043 Y127.903 E25.37272
G1 X135.716 Y127.511 E25.48152
G1 X136.57 Y127.055 E25.61676
G1 X137.077 Y126.809 E25.69548
G1 X138.14 Y126.33 E25.85835
G1 X139.174 Y125.894 E26.01511
G1 X140.052 Y125.556 E26.14653
G1 X141.155 Y125.201 E26.3084
G1 X142.458 Y124.86 E26.49655
G1 X143.028 Y124.728 E26.57828
G1 X144.002 Y124.535 E26.71699
G1 X144.434 Y124.461 E26.77821
G1 X145.085 Y124.371 E26.87002
G1 X146.625 Y124.213 E27.08627
G1 X147.204 Y124.172 E27.16736
G1 X148.123 Y124.148 E27.29578
G1 X149.352 Y124.173 E27.4675
G1 X150.474 Y124.222 E27.62438
G1 X151.412 Y124.306 E27.75594
G1 X152.669 Y124.478 E27.93317
G1 X153.432 Y124.6 E28.04111
G1 X154.549 Y124.843 E28.20079
G1 X155.879 Y125.209 E28.39349
G1 X156.417 Y125.372 E28.47202
G1 X157.126 Y125.609 E28.57645
G1 X157.647 Y125.799 E28.65392
G1 X158.478 Y126.134 E28.77908
G1 X159.257 Y126.474 E28.89781
G1 X159.865 Y126.764 E28.99191
G1 X160.745 Y127.218 E29.13024
G1 X161.158 Y127.442 E29.19587
G1 X161.715 Y127.762 E29.2856
G1 X162.137 Y128.019 E29.35463
G1 X162.911 Y128.514 E29.48297
G1 X163.448 Y128.881 E29.57383
G1 X164.029 Y129.306 E29.67439
G1 X164.827 Y129.929 E29.81581
G1 X165.204 Y130.242 E29.88426
G1 X166.043 Y130.977 E30.04007
G1 X167.889 Y132.665 E30.3895
G1 X169.826 Y134.338 E30.74704
G1 X171.787 Y135.937 E31.1005
G1 X173.765 Y137.459 E31.44915
G1 X176.346 Y139.319 E31.89356
G1 X176.965 Y139.797 E32.00281
G1 X177.653 Y140.395 E32.13015
G1 X178.285 Y141.052 E32.2575
G1 X178.858 Y141.762 E32.38495
G1 X179.366 Y142.519 E32.5123
G1 X179.806 Y143.318 E32.63972
G1 X180.175 Y144.152 E32.76712
G1 X180.425 Y144.871 E32.87346
G1 X180.522 Y145.186 E32.9195
G1 X180.752 Y146.069 E33.04696
G1 X180.904 Y146.968 E33.17433
G1 X180.962 Y147.579 E33.26006
G1 X180.986 Y147.952 E33.31228
G1 X181.006 Y148.494 E33.38804
G1 X181.032 Y150.633 E33.68687
G1 X181.025 Y151.167 E33.76147
G1 X180.987 Y151.935 E33.86888
G1 X180.915 Y152.846 E33.99654
G1 X180.803 Y153.751 E34.12393
G1 X180.613 Y154.643 E34.25133
G1 X180.345 Y155.515 E34.37876
G1 X180.001 Y156.36 E34.50621
G1 X179.586 Y157.171 E34.63347
G1 X179.1 Y157.943 E34.76091
G1 X178.549 Y158.67 E34.88833
G1 X177.936 Y159.345 E35.01571
G1 X177.361 Y159.884 E35.1258
G1 X177.165 Y160.054 E35.16205
G1 X176.383 Y160.669 E35.30102
G1 X175.232 Y161.488 E35.49836
G1 X173.157 Y163.019 E35.85858
G1 X171.154 Y164.587 E36.21392
G1 X169.214 Y166.194 E36.56583
G1 X165.563 Y169.451 E37.24929
G1 X165.082 Y169.849 E37.3365
G1 X164.029 Y170.663 E37.52243
G1 X163.061 Y171.376 E37.69037
G1 X162.22 Y171.934 E37.83136
G1 X161.187 Y172.544 E37.99894
G1 X160.772 Y172.773 E38.06516
G1 X160.117 Y173.104 E38.16767
G1 X159.062 Y173.586 E38.3297
G1 X157.535 Y174.231 E38.56126
G1 X156.577 Y174.582 E38.70379
G1 X156.114 Y174.726 E38.77152
G1 X155.214 Y174.985 E38.90235
G1 X154.61 Y175.138 E38.98938
G1 X153.436 Y175.39 E39.15712
G1 X152.341 Y175.579 E39.31234
G1 X151.502 Y175.695 E39.43066
G1 X150.891 Y175.761 E39.51651
G1 X150.1 Y175.823 E39.62735
G1 X149.475 Y175.853 E39.71475
G1 X148.477 Y175.871 E39.85419
G1 X147.997 Y175.869 E39.92124
G1 X147.25 Y175.848 E40.02563
G1 X146.551 Y175.805 E40.12346
G1 X145.757 Y175.729 E40.23489
G1 X145.298 Y175.674 E40.29946
G1 X144.566 Y175.567 E40.40281
G1 X143.901 Y175.449 E40.49715
G1 X142.881 Y175.246 E40.64243
G1 X142.049 Y175.05 E40.76184
G1 X141.51 Y174.9 E40.84
G1 X140.235 Y174.502 E41.02658
G1 X139.623 Y174.292 E41.11696
G1 X139.075 Y174.087 E41.1987
G1 X138.232 Y173.736 E41.32626
G1 X137.528 Y173.419 E41.43411
G1 X137.051 Y173.19 E41.50803
G1 X136.357 Y172.834 E41.61698
G1 X135.707 Y172.47 E41.72105
G1 X134.857 Y171.954 E41.85996
G1 X133.718 Y171.231 E42.04841
G1 X132.694 Y170.488 E42.22515
G1 X132.059 Y169.965 E42.34007
G1 X131.702 Y169.657 E42.40593
G1 X130.5 Y168.572 E42.63213
G1 X129.74 Y167.811 E42.78237
G1 X128.939 Y166.915 E42.95026
G1 X128.365 Y166.238 E43.07425
G1 X127.951 Y165.716 E43.16732
G1 X127.267 Y164.781 E43.32915
G1 X126.829 Y164.139 E43.43772
G1 X126.469 Y163.573 E43.53142
G1 X126.175 Y163.076 E43.61208
G1 X125.917 Y162.614 E43.686
G1 X125.25 Y161.343 E43.88652
G1 X124.895 Y160.595 E44.00218
G1 X124.434 Y159.502 E44.16789
G1 X124.226 Y158.969 E44.24781
G1 X123.949 Y158.166 E44.36647
G1 X123.643 Y157.142 E44.51577
G1 X123.345 Y156.013 E44.67888
G1 X123.125 Y155.038 E44.8185
G1 X123.023 Y154.531 E44.89075
G1 X122.894 Y153.73 E45.00408
G1 X122.792 Y152.837 E45.12964
G1 X122.69 Y151.666 E45.29384
G1 X122.649 Y151.032 E45.38259
G1 X122.637 Y150.074 E45.51643
G1 X122.687 Y148.709 E45.70723
G1 X122.744 Y147.787 E45.83628
G1 X122.855 Y146.639 E45.99739
G1 X122.916 Y146.158 E46.06512
G1 X123.078 Y145.167 E46.20539
G1 X123.201 Y144.547 E46.29369
G1 X123.391 Y143.754 E46.4076
G1 X123.682 Y142.72 E46.55766
G1 X123.816 Y142.281 E46.62177
G1 X124.179 Y141.203 E46.78067
G1 X124.497 Y140.358 E46.90679
G1 X124.668 Y139.937 E46.97027
G1 X124.928 Y139.351 E47.05983
G1 X125.394 Y138.38 E47.21028
G1 X125.825 Y137.541 E47.34204
G1 X126.246 Y136.807 E47.46024
G1 X126.925 Y135.727 E47.63845
G1 X127.404 Y135.011 E47.75879
G1 X127.898 Y134.348 E47.87429
G1 X128.791 Y133.243 E48.07275
G1 X129.216 Y132.749 E48.16379
G1 X129.807 Y132.116 E48.28476
G1 X130.432 Y131.484 E48.40893
G1 F1500 E46.40893
;MESH:Floaty_mod.stl
G0 F6000 X132.552 Y152.589
G0 X132.805 Y153.766
G0 X133.276 Y155.407
G0 X133.9 Y156.878
G0 X134.546 Y158.126
G0 X135.721 Y159.873
G0 X137.074 Y161.409
G0 X138.926 Y163.013
G0 X141.183 Y164.391
G0 X142.718 Y165.073
G0 X144.753 Y165.703
G0 X146.929 Y166.072
G0 X147.747 Y166.138
G0 X149.958 Y166.086
G0 X152.369 Y165.684
G0 X153.705 Y165.291
G0 X156.045 Y164.273
G0 X157.185 Y163.623
G0 X159.038 Y162.239
G0 X159.436 Y161.85
G0 X160.464 Y160.842
G0 X159.059 Y159.615
;TYPE:WALL-INNER
G1 F1500 E48.40893
G1 F1200 X159.241 Y159.407 E48.44754
G1 X159.877 Y158.634 E48.58737
G1 X160.033 Y158.418 E48.62459
G1 X160.665 Y157.478 E48.78282
G1 X161.401 Y156.183 E48.9909
G1 X161.509 Y155.856 E49.039
G1 X162.04 Y154.54 E49.23724
G1 X162.419 Y153.17 E49.43581
G1 X162.488 Y152.876 E49.47799
G1 X162.714 Y151.349 E49.69363
G1 X162.859 Y151 E49.74642
G1 X163.088 Y150.748 E49.79399
G1 F1186.7 X163.435 Y150.524 E49.85233
G1 F1148.3 X163.776 Y150.426 E49.90412
G1 F1125.4 X163.99 Y150.426 E49.936
G1 F1098.4 X164.492 Y150.447 E50.01268
G1 F1045.8 X164.995 Y150.469 E50.09339
G1 F997.9 X165.497 Y150.491 E50.17779
G1 F954.3 X166 Y150.513 E50.26624
G1 F914.3 X166.502 Y150.534 E50.35836
G1 F877.5 X167.005 Y150.556 E50.45454
G1 F843.6 X167.507 Y150.578 E50.55439
G1 F812.2 X168.01 Y150.6 E50.6583
G1 F783 X168.512 Y150.622 E50.76587
G1 F769.2 X169.217 Y150.684 E50.9201
G1 X169.187 Y149.929 E51.08476
G1 X169.128 Y149.55 E51.16835
G1 X169.143 Y149.326 E51.21727
G1 X168.511 Y149.38 E51.3555
G1 F783 X168.009 Y149.401 E51.46306
G1 F812.2 X167.506 Y149.423 E51.56697
G1 F843.6 X167.004 Y149.445 E51.66682
G1 F877.5 X166.501 Y149.467 E51.763
G1 F914.3 X165.999 Y149.488 E51.85512
G1 F954.3 X165.496 Y149.51 E51.94357
G1 F997.9 X164.994 Y149.532 E52.02797
G1 F1045.8 X164.491 Y149.554 E52.10868
G1 F1098.4 X163.989 Y149.576 E52.18537
G1 F1125.4 X163.775 Y149.576 E52.21724
G1 F1148.3 X163.435 Y149.478 E52.26889
G1 F1186.7 X163.087 Y149.255 E52.32728
G1 F1200 X162.913 Y149.063 E52.36348
G1 X162.716 Y148.693 E52.42203
G1 X162.598 Y147.799 E52.548
G1 X162.54 Y147.431 E52.60004
G1 X162.089 Y145.584 E52.86564
G1 X161.945 Y145.167 E52.92726
G1 X161.525 Y144.144 E53.08174
G1 X161.27 Y143.599 E53.1658
G1 X160.974 Y143.065 E53.25109
G1 X160.55 Y142.353 E53.36685
G1 X160.21 Y141.851 E53.45154
G1 X160.132 Y141.711 E53.47393
G1 X159.432 Y140.804 E53.63398
G1 X159.115 Y140.448 E53.70057
G1 X158.293 Y139.605 E53.86505
G1 X158.025 Y139.38 E53.91393
G1 X157.843 Y139.194 E53.95028
G1 X157.263 Y138.719 E54.05501
G1 X157.1 Y138.608 E54.08255
G1 X156.719 Y138.315 E54.14969
G1 X156.353 Y138.069 E54.2113
G1 X155.726 Y137.683 E54.31415
G1 X154.801 Y137.184 E54.46097
G1 X154.108 Y136.866 E54.56748
G1 X153.866 Y136.765 E54.60412
G1 X153.202 Y136.515 E54.70323
G1 X152.248 Y136.222 E54.84264
G1 X151.464 Y136.023 E54.95563
G1 X149.885 Y135.798 E55.17843
G1 X148.018 Y135.733 E55.4394
G1 X146.523 Y135.863 E55.64903
G1 X145.376 Y136.077 E55.81202
G1 X144.341 Y136.365 E55.96209
G1 X144.113 Y136.411 E55.99458
G1 X143.545 Y136.621 E56.07918
G1 X141.797 Y137.399 E56.34645
G1 X141.368 Y137.631 E56.41458
G1 X140.726 Y138.021 E56.51952
G1 X139.73 Y138.726 E56.68998
G1 X138.943 Y139.385 E56.83337
G1 X138.505 Y139.804 E56.91804
G1 X137.773 Y140.567 E57.06575
G1 X137.35 Y141.08 E57.15863
G1 X137.01 Y141.525 E57.23686
G1 X136.919 Y141.628 E57.25606
G1 X136.406 Y142.413 E57.38706
G1 X136.079 Y142.946 E57.47441
G1 X135.459 Y144.172 E57.66633
G1 X134.923 Y145.572 E57.87574
G1 X134.556 Y146.886 E58.06632
G1 X134.403 Y147.719 E58.18463
G1 X134.367 Y147.99 E58.22282
G1 X134.296 Y148.769 E58.33209
G1 X134.221 Y150.368 E58.55571
G1 X134.274 Y151.112 E58.6599
G1 X134.397 Y152.3 E58.82674
G1 X134.618 Y153.325 E58.97322
G1 X134.948 Y154.51 E59.14505
G1 X135.071 Y154.875 E59.19886
G1 X135.489 Y155.899 E59.35336
G1 X136.008 Y156.913 E59.51249
G1 X136.164 Y157.198 E59.55787
G1 X136.567 Y157.856 E59.66566
G1 X137.18 Y158.711 E59.81262
G1 X138.279 Y159.981 E60.04724
G1 X138.69 Y160.367 E60.126
G1 X139.934 Y161.441 E60.35558
G1 X140.228 Y161.638 E60.40502
G1 X141.904 Y162.669 E60.6799
G1 X142.916 Y163.13 E60.83524
G1 X143.387 Y163.333 E60.90689
G1 X144.639 Y163.747 E61.0911
G1 X145.154 Y163.88 E61.1654
G1 X145.441 Y163.928 E61.20605
G1 X146.45 Y164.13 E61.34979
G1 X147.119 Y164.216 E61.44402
G1 X147.816 Y164.273 E61.54171
G1 X148.599 Y164.279 E61.65109
G1 X148.774 Y164.289 E61.67558
G1 X149.803 Y164.227 E61.81958
G1 X150.538 Y164.135 E61.92306
G1 X150.88 Y164.079 E61.97147
G1 X151.932 Y163.869 E62.12132
G1 X153.048 Y163.539 E62.28389
