;FLAVOR:Marlin
;TIME:1653
;Filament used: 1.05498m
;Layer height: 0.25
;MINX:99.391
;MINY:168.369
;MINZ:0.2
;MAXX:197.261
;MAXY:237.325
;MAXZ:1.95
;TARGET_MACHINE.NAME:Artillery Sidewinder X1
;Generated with Cura_SteamEngine 5.8.1
M140 S60
M105
M190 S60
M104 S195
M105
M109 S195
M82 ;absolute extrusion mode
G28 ; home all axes
 M117 Purge extruder
 G92 E0 ; reset extruder
 G1 Z1.0 F3000 ; move z up little to prevent scratching of surface
 G1 X2 Y20 Z0.3 F5000.0 ; move to start-line position
 G1 X2 Y200.0 Z0.3 F1500.0 E15 ; draw 1st line
 G1 X2 Y200.0 Z0.4 F5000.0 ; move to side a little
 G1 X2 Y20 Z0.4 F1500.0 E30 ; draw 2nd line
 G92 E0 ; reset extruder
 G1 Z1.0 F3000 ; move z up little to prevent scratching of surface
G92 E0
G92 E0
G1 F2400 E-6
;LAYER_COUNT:8
;LAYER:0
M107
M204 S3500
G0 F6000 X106.823 Y170.597 Z0.2
M204 S2500
;TYPE:SKIRT
G1 F2400 E0
G1 F1200 X107.098 Y170.436 E0.01007
G1 X107.755 Y170.078 E0.03371
G1 X108.06 Y169.926 E0.04448
G1 X108.798 Y169.59 E0.0701
G1 X109.111 Y169.461 E0.0808
G1 X109.854 Y169.189 E0.1058
G1 X110.196 Y169.079 E0.11715
G1 X110.969 Y168.86 E0.14253
G1 X111.337 Y168.772 E0.15449
G1 X112.173 Y168.603 E0.18144
G1 X112.606 Y168.535 E0.19529
G1 X113.588 Y168.421 E0.22653
G1 X114.167 Y168.396 E0.24484
G1 X115.711 Y168.369 E0.29363
G1 X176.091 Y168.371 E2.20146
G1 X177.48 Y168.402 E2.24536
G1 X178.673 Y168.498 E2.28318
G1 X179.081 Y168.554 E2.29619
G1 X179.873 Y168.696 E2.32162
G1 X180.231 Y168.774 E2.3332
G1 X180.988 Y168.967 E2.35788
G1 X181.286 Y169.056 E2.36771
G1 X182.033 Y169.306 E2.3926
G1 X182.359 Y169.429 E2.40361
G1 X183.114 Y169.744 E2.42945
G1 X183.408 Y169.882 E2.43972
G1 X184.193 Y170.283 E2.46757
G1 X184.976 Y170.744 E2.49628
G1 X185.331 Y170.975 E2.50966
G1 X186.101 Y171.523 E2.53952
G1 X186.362 Y171.726 E2.54997
G1 X186.95 Y172.22 E2.57424
G1 X187.222 Y172.465 E2.5858
G1 X187.803 Y173.032 E2.61146
G1 X188.031 Y173.27 E2.62187
G1 X188.544 Y173.848 E2.64629
G1 X188.752 Y174.099 E2.65659
G1 X189.251 Y174.754 E2.68261
G1 X189.471 Y175.067 E2.69469
G1 X189.96 Y175.825 E2.7232
G1 X190.461 Y176.726 E2.75577
G1 X190.619 Y177.041 E2.76691
G1 X190.965 Y177.801 E2.79329
G1 X191.08 Y178.084 E2.80294
G1 X191.358 Y178.842 E2.82845
G1 X191.469 Y179.181 E2.83972
G1 X191.682 Y179.932 E2.86439
G1 X191.771 Y180.287 E2.87595
G1 X191.921 Y181.006 E2.89916
G1 X192.016 Y181.568 E2.91717
G1 X192.488 Y184.091 E2.99827
G1 X193.019 Y186.555 E3.07792
G1 X193.612 Y188.961 E3.15621
G1 X194.102 Y190.701 E3.21333
G1 X194.364 Y191.671 E3.24508
G1 X194.561 Y192.456 E3.27065
G1 X194.731 Y193.288 E3.29748
G1 X194.78 Y193.597 E3.30737
G1 X194.891 Y194.514 E3.33656
G1 X195.041 Y196.453 E3.39801
G1 X195.301 Y198.956 E3.47752
G1 X195.634 Y201.48 E3.55796
G1 X196.034 Y203.968 E3.63758
G1 X196.473 Y206.317 E3.71309
G1 X196.579 Y206.942 E3.73312
G1 X196.7 Y207.929 E3.76454
G1 X196.73 Y208.581 E3.78516
G1 X196.76 Y210.325 E3.84028
G1 X196.755 Y211.505 E3.87756
G1 X196.815 Y214.004 E3.95655
G1 X196.942 Y216.445 E4.03378
G1 X197.212 Y219.693 E4.13676
G1 X197.246 Y220.406 E4.15932
G1 X197.261 Y221.628 E4.19793
G1 X197.243 Y222.517 E4.22603
G1 X197.161 Y223.656 E4.26211
G1 X197.111 Y224.06 E4.27497
G1 X196.971 Y224.897 E4.30178
G1 X196.897 Y225.245 E4.31303
G1 X196.602 Y226.352 E4.34922
G1 X196.407 Y226.957 E4.36931
G1 X195.883 Y228.287 E4.41448
G1 X195.734 Y228.607 E4.42563
G1 X195.371 Y229.31 E4.45063
G1 X195.203 Y229.609 E4.46147
G1 X194.838 Y230.213 E4.48377
G1 X194.66 Y230.485 E4.49404
G1 X194.135 Y231.221 E4.5226
G1 X193.918 Y231.499 E4.53375
G1 X193.418 Y232.096 E4.55835
G1 X193.165 Y232.376 E4.57028
G1 X192.562 Y232.994 E4.59756
G1 X192.335 Y233.209 E4.60744
G1 X191.745 Y233.728 E4.63227
G1 X191.471 Y233.951 E4.64343
G1 X190.798 Y234.459 E4.67007
G1 X190.5 Y234.667 E4.68155
G1 X189.814 Y235.106 E4.70729
G1 X189.557 Y235.256 E4.71669
G1 X188.917 Y235.605 E4.73972
G1 X188.6 Y235.763 E4.75091
G1 X187.83 Y236.113 E4.77764
G1 X187.512 Y236.243 E4.78849
G1 X186.753 Y236.52 E4.81402
G1 X186.435 Y236.622 E4.82458
G1 X185.692 Y236.833 E4.84898
G1 X185.321 Y236.922 E4.86104
G1 X184.472 Y237.092 E4.8884
G1 X183.362 Y237.244 E4.9238
G1 X182.398 Y237.3 E4.95431
G1 X180.94 Y237.325 E5.00038
G1 X120.592 Y237.323 E6.90721
G1 X119.278 Y237.297 E6.94873
G1 X118.144 Y237.216 E6.98465
G1 X117.727 Y237.162 E6.99794
G1 X116.755 Y236.995 E7.0291
G1 X116.397 Y236.917 E7.04068
G1 X115.678 Y236.733 E7.06413
G1 X115.365 Y236.639 E7.07446
G1 X114.599 Y236.382 E7.09999
G1 X114.277 Y236.261 E7.11085
G1 X113.543 Y235.952 E7.13602
G1 X113.234 Y235.807 E7.1468
G1 X112.424 Y235.392 E7.17556
G1 X111.672 Y234.947 E7.20317
G1 X111.308 Y234.71 E7.21689
G1 X110.539 Y234.163 E7.24671
G1 X110.28 Y233.961 E7.25709
G1 X109.708 Y233.481 E7.28069
G1 X109.44 Y233.24 E7.29207
G1 X108.83 Y232.645 E7.319
G1 X108.6 Y232.403 E7.32955
G1 X108.059 Y231.789 E7.3554
G1 X107.834 Y231.511 E7.36671
G1 X107.368 Y230.9 E7.39099
G1 X107.196 Y230.654 E7.40047
G1 X106.729 Y229.932 E7.42764
G1 X106.551 Y229.631 E7.43869
G1 X106.174 Y228.939 E7.46359
G1 X106.021 Y228.632 E7.47443
G1 X105.694 Y227.912 E7.49941
G1 X105.564 Y227.595 E7.51024
G1 X105.283 Y226.825 E7.53614
G1 X104.979 Y225.803 E7.56983
G1 X104.891 Y225.452 E7.58126
G1 X104.712 Y224.581 E7.60936
G1 X104.64 Y224.129 E7.62382
G1 X104.524 Y223.146 E7.6551
G1 X104.497 Y222.529 E7.67461
G1 X104.469 Y220.809 E7.72896
G1 X104.474 Y219.642 E7.76584
G1 X104.414 Y217.144 E7.84479
G1 X104.286 Y214.681 E7.92272
G1 X104.058 Y211.878 E8.01158
G1 X103.997 Y211.246 E8.03164
G1 X103.805 Y208.906 E8.10583
G1 X103.53 Y206.428 E8.1846
G1 X103.188 Y203.967 E8.26311
G1 X102.763 Y201.458 E8.34352
G1 X102.492 Y200.041 E8.3891
G1 X102.245 Y198.639 E8.43409
G1 X101.759 Y196.093 E8.51598
G1 X101.21 Y193.604 E8.59652
G1 X100.612 Y191.212 E8.67443
G1 X99.88 Y188.591 E8.76041
G1 X99.625 Y187.447 E8.79745
G1 X99.551 Y186.986 E8.8122
G1 X99.434 Y186.001 E8.84354
G1 X99.406 Y185.359 E8.86384
G1 X99.391 Y183.983 E8.90733
G1 X99.414 Y183.049 E8.93685
G1 X99.51 Y181.871 E8.97419
G1 X99.567 Y181.463 E8.98721
G1 X99.692 Y180.743 E9.0103
G1 X99.761 Y180.422 E9.02067
G1 X99.952 Y179.652 E9.04574
G1 X100.241 Y178.73 E9.07627
G1 X100.382 Y178.34 E9.08937
G1 X100.753 Y177.442 E9.12007
G1 X100.902 Y177.122 E9.13123
G1 X101.317 Y176.314 E9.15993
G1 X101.754 Y175.578 E9.18697
G1 X101.982 Y175.226 E9.20022
G1 X102.5 Y174.494 E9.22856
G1 X102.705 Y174.229 E9.23915
G1 X103.257 Y173.571 E9.26628
G1 X103.517 Y173.286 E9.27847
G1 X104.069 Y172.72 E9.30345
G1 X104.297 Y172.502 E9.31342
G1 X104.907 Y171.964 E9.33912
G1 X105.189 Y171.736 E9.35058
G1 X105.83 Y171.252 E9.37596
G1 X106.126 Y171.046 E9.38735
G1 X106.823 Y170.597 E9.41355
M204 S3500
G0 F6000 X107.025 Y170.942
M204 S2500
G1 F1200 X107.29 Y170.787 E9.42325
G1 X107.933 Y170.436 E9.4464
G1 X108.226 Y170.29 E9.45674
G1 X108.951 Y169.96 E9.48191
G1 X109.249 Y169.837 E9.4921
G1 X109.977 Y169.57 E9.5166
G1 X110.305 Y169.464 E9.52749
G1 X111.062 Y169.249 E9.55235
G1 X111.416 Y169.164 E9.56386
G1 X112.236 Y168.998 E9.59029
G1 X112.652 Y168.932 E9.6036
G1 X113.606 Y168.821 E9.63395
G1 X114.174 Y168.796 E9.65191
G1 X115.711 Y168.769 E9.70049
G1 X176.082 Y168.771 E11.60804
G1 X177.448 Y168.801 E11.65121
G1 X178.641 Y168.897 E11.68903
G1 X179.011 Y168.948 E11.70083
G1 X179.788 Y169.087 E11.72577
G1 X180.133 Y169.162 E11.73692
G1 X180.874 Y169.35 E11.76108
G1 X181.159 Y169.435 E11.77048
G1 X181.892 Y169.68 E11.7949
G1 X182.205 Y169.798 E11.80547
G1 X182.944 Y170.106 E11.83076
G1 X183.226 Y170.238 E11.8406
G1 X184.011 Y170.639 E11.86845
G1 X184.758 Y171.08 E11.89586
G1 X185.099 Y171.301 E11.9087
G1 X185.855 Y171.839 E11.93802
G1 X186.116 Y172.042 E11.94847
G1 X186.682 Y172.517 E11.97182
G1 X186.943 Y172.752 E11.98291
G1 X187.514 Y173.308 E12.0081
G1 X187.732 Y173.536 E12.01806
G1 X188.236 Y174.103 E12.04203
G1 X188.434 Y174.342 E12.05184
G1 X188.924 Y174.984 E12.07736
G1 X189.135 Y175.284 E12.08895
G1 X189.614 Y176.026 E12.11685
G1 X189.772 Y176.297 E12.12676
G1 X190.104 Y176.906 E12.14868
G1 X190.255 Y177.206 E12.15929
G1 X190.594 Y177.952 E12.18518
G1 X190.709 Y178.235 E12.19484
G1 X190.978 Y178.967 E12.21948
G1 X191.084 Y179.29 E12.23022
G1 X191.297 Y180.041 E12.25488
G1 X191.379 Y180.369 E12.26557
G1 X191.529 Y181.088 E12.28877
G1 X191.623 Y181.642 E12.30653
G1 X192.097 Y184.175 E12.38795
G1 X192.631 Y186.651 E12.46799
G1 X193.227 Y189.069 E12.54668
G1 X193.716 Y190.805 E12.60366
G1 X193.976 Y191.768 E12.63518
G1 X194.169 Y192.536 E12.6602
G1 X194.336 Y193.351 E12.68649
G1 X194.383 Y193.645 E12.6959
G1 X194.492 Y194.545 E12.72454
G1 X194.643 Y196.494 E12.78631
G1 X194.904 Y199.008 E12.86617
G1 X195.237 Y201.532 E12.94661
G1 X195.639 Y204.033 E13.02665
G1 X196.079 Y206.384 E13.10223
G1 X196.182 Y206.991 E13.12168
G1 X196.3 Y207.948 E13.15215
G1 X196.33 Y208.588 E13.17239
G1 X196.36 Y210.323 E13.22722
G1 X196.355 Y211.503 E13.26451
G1 X196.415 Y214.014 E13.34387
G1 X196.543 Y216.478 E13.42183
G1 X196.812 Y219.712 E13.52437
G1 X196.846 Y220.411 E13.54648
G1 X196.861 Y221.62 E13.58468
G1 X196.844 Y222.488 E13.61212
G1 X196.764 Y223.607 E13.64756
G1 X196.716 Y223.994 E13.65988
G1 X196.576 Y224.831 E13.6867
G1 X196.51 Y225.142 E13.69674
G1 X196.221 Y226.229 E13.73228
G1 X196.026 Y226.834 E13.75237
G1 X195.521 Y228.118 E13.79596
G1 X195.378 Y228.424 E13.80664
G1 X195.023 Y229.113 E13.83113
G1 X194.86 Y229.402 E13.84161
G1 X194.503 Y229.994 E13.86345
G1 X194.334 Y230.253 E13.87323
G1 X193.819 Y230.975 E13.90125
G1 X193.611 Y231.242 E13.91194
G1 X193.121 Y231.828 E13.93608
G1 X192.879 Y232.097 E13.94751
G1 X192.287 Y232.704 E13.9743
G1 X192.071 Y232.909 E13.98371
G1 X191.493 Y233.418 E14.00805
G1 X191.23 Y233.632 E14.01876
G1 X190.569 Y234.131 E14.04493
G1 X190.284 Y234.33 E14.05591
G1 X189.611 Y234.761 E14.08116
G1 X189.366 Y234.905 E14.09014
G1 X188.738 Y235.247 E14.11274
G1 X188.435 Y235.399 E14.12345
G1 X187.678 Y235.743 E14.14972
G1 X187.375 Y235.867 E14.16007
G1 X186.63 Y236.139 E14.18513
G1 X186.326 Y236.237 E14.19522
G1 X185.598 Y236.444 E14.21913
G1 X185.242 Y236.53 E14.23071
G1 X184.417 Y236.696 E14.2573
G1 X183.339 Y236.845 E14.29168
G1 X182.391 Y236.9 E14.32169
G1 X180.94 Y236.925 E14.36754
G1 X120.6 Y236.923 E16.27411
G1 X119.306 Y236.898 E16.315
G1 X118.195 Y236.819 E16.3502
G1 X117.795 Y236.768 E16.36294
G1 X116.84 Y236.604 E16.39356
G1 X116.496 Y236.529 E16.40468
G1 X115.777 Y236.345 E16.42813
G1 X115.492 Y236.26 E16.43753
G1 X114.739 Y236.007 E16.46263
G1 X114.432 Y235.892 E16.47299
G1 X113.713 Y235.59 E16.49763
G1 X113.416 Y235.451 E16.50799
G1 X112.628 Y235.048 E16.53595
G1 X111.89 Y234.611 E16.56305
G1 X111.54 Y234.384 E16.57624
G1 X110.785 Y233.847 E16.60551
G1 X110.537 Y233.654 E16.61544
G1 X109.975 Y233.183 E16.63861
G1 X109.719 Y232.953 E16.64948
G1 X109.12 Y232.37 E16.67589
G1 X108.9 Y232.138 E16.686
G1 X108.37 Y231.537 E16.71132
G1 X108.152 Y231.268 E16.72226
G1 X107.696 Y230.67 E16.74602
G1 X107.532 Y230.436 E16.75505
G1 X107.073 Y229.728 E16.78171
G1 X106.902 Y229.44 E16.79229
G1 X106.532 Y228.761 E16.81672
G1 X106.385 Y228.466 E16.82714
G1 X106.064 Y227.76 E16.85164
G1 X105.94 Y227.458 E16.86196
G1 X105.659 Y226.688 E16.88786
G1 X105.367 Y225.706 E16.92023
G1 X105.283 Y225.371 E16.93114
G1 X105.107 Y224.517 E16.95869
G1 X105.037 Y224.082 E16.97261
G1 X104.924 Y223.128 E17.00297
G1 X104.897 Y222.522 E17.02214
G1 X104.869 Y220.811 E17.07621
G1 X104.874 Y219.644 E17.11308
G1 X104.814 Y217.134 E17.19241
G1 X104.685 Y214.649 E17.27104
G1 X104.457 Y211.846 E17.3599
G1 X104.396 Y211.213 E17.37999
G1 X104.204 Y208.873 E17.45417
G1 X103.928 Y206.384 E17.5333
G1 X103.584 Y203.912 E17.61216
G1 X103.156 Y201.383 E17.69321
G1 X102.886 Y199.972 E17.7386
G1 X102.639 Y198.57 E17.78358
G1 X102.152 Y196.018 E17.86567
G1 X101.601 Y193.518 E17.94656
G1 X101 Y191.115 E18.02483
G1 X100.27 Y188.504 E18.11049
G1 X100.02 Y187.383 E18.14678
G1 X99.948 Y186.939 E18.16099
G1 X99.834 Y185.983 E18.19142
G1 X99.806 Y185.355 E18.21128
G1 X99.791 Y183.993 E18.25432
G1 X99.813 Y183.081 E18.28314
G1 X99.909 Y181.903 E18.32049
G1 X99.961 Y181.531 E18.33235
G1 X100.083 Y180.827 E18.35493
G1 X100.149 Y180.518 E18.36491
G1 X100.334 Y179.771 E18.38923
G1 X100.617 Y178.866 E18.41919
G1 X100.752 Y178.492 E18.43175
G1 X101.115 Y177.611 E18.46186
G1 X101.258 Y177.305 E18.47253
G1 X101.673 Y176.497 E18.50124
G1 X102.09 Y175.795 E18.52704
G1 X102.308 Y175.457 E18.53974
G1 X102.817 Y174.738 E18.56758
G1 X103.011 Y174.486 E18.57763
G1 X103.553 Y173.84 E18.60427
G1 X103.803 Y173.565 E18.61601
G1 X104.346 Y173.009 E18.64057
G1 X104.562 Y172.802 E18.65002
G1 X105.159 Y172.275 E18.67519
G1 X105.43 Y172.055 E18.68622
G1 X106.059 Y171.58 E18.71112
G1 X106.343 Y171.382 E18.72206
G1 X107.025 Y170.942 E18.7477
M204 S3500
G0 F6000 X107.228 Y171.287
M204 S2500
G1 F1200 X107.481 Y171.138 E18.75698
G1 X108.112 Y170.794 E18.77969
G1 X108.392 Y170.654 E18.78958
G1 X109.103 Y170.33 E18.81427
G1 X109.387 Y170.213 E18.82397
G1 X110.115 Y169.946 E18.84848
G1 X110.414 Y169.849 E18.85841
G1 X111.156 Y169.638 E18.88278
G1 X111.495 Y169.556 E18.8938
G1 X112.299 Y169.393 E18.91972
G1 X112.698 Y169.329 E18.93249
G1 X113.624 Y169.221 E18.96195
G1 X114.181 Y169.196 E18.97957
G1 X115.711 Y169.169 E19.02792
G1 X176.073 Y169.171 E20.93518
G1 X177.416 Y169.2 E20.97763
G1 X178.609 Y169.296 E21.01545
G1 X178.941 Y169.342 E21.02604
G1 X179.703 Y169.478 E21.05049
G1 X180.035 Y169.55 E21.06123
G1 X180.761 Y169.734 E21.08489
G1 X181.032 Y169.814 E21.09382
G1 X181.751 Y170.054 E21.11777
G1 X182.051 Y170.167 E21.1279
G1 X182.775 Y170.469 E21.15269
G1 X183.044 Y170.594 E21.16206
G1 X183.808 Y170.984 E21.18916
G1 X184.541 Y171.416 E21.21605
G1 X184.867 Y171.627 E21.22832
G1 X185.609 Y172.154 E21.25707
G1 X185.859 Y172.349 E21.26709
G1 X186.414 Y172.814 E21.28997
G1 X186.664 Y173.039 E21.3006
G1 X187.225 Y173.585 E21.32533
G1 X187.433 Y173.802 E21.33483
G1 X187.928 Y174.358 E21.35835
G1 X188.116 Y174.585 E21.36766
G1 X188.597 Y175.214 E21.39268
G1 X188.799 Y175.501 E21.40377
G1 X189.269 Y176.228 E21.43113
G1 X189.421 Y176.488 E21.44064
G1 X189.747 Y177.086 E21.46216
G1 X189.891 Y177.372 E21.47228
G1 X190.224 Y178.103 E21.49766
G1 X190.334 Y178.373 E21.50687
G1 X190.598 Y179.092 E21.53108
G1 X190.699 Y179.4 E21.54132
G1 X190.909 Y180.137 E21.56553
G1 X190.987 Y180.451 E21.57575
G1 X191.137 Y181.17 E21.59896
G1 X191.23 Y181.716 E21.61646
G1 X191.706 Y184.259 E21.69821
G1 X192.243 Y186.747 E21.77863
G1 X192.842 Y189.178 E21.85774
G1 X193.33 Y190.909 E21.91457
G1 X193.588 Y191.866 E21.94589
G1 X193.777 Y192.616 E21.97033
G1 X193.941 Y193.415 E21.9961
G1 X193.986 Y193.693 E22.005
G1 X194.093 Y194.576 E22.0331
G1 X194.245 Y196.535 E22.09519
G1 X194.507 Y199.06 E22.1754
G1 X194.842 Y201.596 E22.25622
G1 X195.246 Y204.107 E22.33659
G1 X195.685 Y206.451 E22.41194
G1 X195.785 Y207.04 E22.43081
G1 X195.9 Y207.967 E22.46033
G1 X195.93 Y208.595 E22.48019
G1 X195.96 Y210.321 E22.53474
G1 X195.955 Y211.501 E22.57202
G1 X196.015 Y214.024 E22.65177
G1 X196.144 Y216.511 E22.73045
G1 X196.412 Y219.732 E22.83258
G1 X196.446 Y220.416 E22.85422
G1 X196.461 Y221.612 E22.89201
G1 X196.445 Y222.46 E22.91881
G1 X196.367 Y223.558 E22.95359
G1 X196.321 Y223.928 E22.96537
G1 X196.181 Y224.765 E22.99219
G1 X196.123 Y225.039 E23.00104
G1 X195.84 Y226.106 E23.03592
G1 X195.645 Y226.711 E23.056
G1 X195.158 Y227.949 E23.09804
G1 X195.022 Y228.241 E23.10821
G1 X194.674 Y228.917 E23.13224
G1 X194.518 Y229.195 E23.14231
G1 X194.167 Y229.776 E23.16376
G1 X194.008 Y230.021 E23.17299
G1 X193.503 Y230.73 E23.20049
G1 X193.304 Y230.986 E23.21074
G1 X192.824 Y231.561 E23.2344
G1 X192.593 Y231.818 E23.24532
G1 X192.012 Y232.414 E23.27162
G1 X191.806 Y232.609 E23.28058
G1 X191.24 Y233.108 E23.30443
G1 X190.989 Y233.313 E23.31467
G1 X190.341 Y233.803 E23.34034
G1 X190.068 Y233.993 E23.35085
G1 X189.408 Y234.416 E23.37562
G1 X189.163 Y234.56 E23.38459
G1 X188.558 Y234.89 E23.40637
G1 X188.27 Y235.035 E23.41656
G1 X187.526 Y235.373 E23.44238
G1 X187.238 Y235.491 E23.45221
G1 X186.507 Y235.758 E23.4768
G1 X186.216 Y235.852 E23.48647
G1 X185.503 Y236.055 E23.50989
G1 X185.163 Y236.138 E23.52095
