;FLAVOR:Marlin
;TIME:1285
;Filament used: 1.71782m
;Layer height: 0.2
;MINX:93.369
;MINY:92.716
;MINZ:0.2
;MAXX:141.63
;MAXY:137.284
;MAXZ:8
;TARGET_MACHINE.NAME:ELEGOO NEPTUNE 4 Pro
;Generated with Cura_SteamEngine 5.8.1
M82 ;absolute extrusion mode
;ELEGOO NEPTUNE 4 / 4 PRO
M220 S100 ;Set the feed speed to 100%
M221 S100 ;Set the flow rate to 100%
M104 S140 ;Start heating extruder
M190 S30 ;Wait for the bed to reach print temp
G90
G28 ;home
G1 Z10 F300
G1 X67.5 Y0 F6000
G1 Z0 F300
M109 S210.0 ;Wait for extruder to reach print temp
G92 E0 ;Reset Extruder
G1 X67.5 Y0 Z0.4 F300 ;Move to start position
G1 X167.5 E30 F400 ;Draw the first line
G1 Z0.6 F120.0 ;Move to side a little
G1 X162.5 F3000
G92 E0 ;Reset Extruder
G92 E0
G92 E0
G1 F2700 E-0.5
;LAYER_COUNT:39
;LAYER:0
M107
M204 S500
G1 F600 Z0.4
G0 F7200 X95.49 Y94.8 Z0.4
;TYPE:SKIRT
G1 F600 Z0.2
G1 F2700 E0
G1 F3600 X96.043 Y94.303 E0.02337
G1 X96.822 Y93.767 E0.05309
G1 X97.468 Y93.398 E0.07647
G1 X98.282 Y93.102 E0.1037
G1 X99.241 Y92.854 E0.13483
G1 X100.034 Y92.747 E0.15998
G1 X101.539 Y92.716 E0.20729
G1 X134.339 Y92.727 E1.23823
G1 X135.161 Y92.769 E1.2641
G1 X135.765 Y92.857 E1.28328
G1 X136.629 Y93.069 E1.31124
G1 X137.431 Y93.345 E1.3379
G1 X138.259 Y93.811 E1.36776
G1 X139.041 Y94.384 E1.39823
G1 X139.502 Y94.795 E1.41765
G1 X140.14 Y95.521 E1.44802
G1 X140.692 Y96.366 E1.47975
G1 X141.018 Y97.019 E1.50269
G1 X141.276 Y97.714 E1.52599
G1 X141.472 Y98.488 E1.55108
G1 X141.565 Y99.042 E1.56874
G1 X141.62 Y99.785 E1.59216
G1 X141.63 Y100.544 E1.61602
G1 X141.629 Y104.822 E1.75048
G1 X141.62 Y105.481 E1.77119
G1 X141.563 Y106.838 E1.81388
G1 X141.484 Y109.608 E1.90098
G1 X141.484 Y112.333 E1.98663
G1 X141.558 Y114.986 E2.07005
G1 X141.62 Y116.532 E2.11868
G1 X141.628 Y117.162 E2.13848
G1 X141.63 Y129.922 E2.53954
G1 X141.551 Y131.025 E2.5743
G1 X141.441 Y131.675 E2.59502
G1 X141.277 Y132.289 E2.61499
G1 X141.002 Y133.057 E2.64063
G1 X140.631 Y133.742 E2.66512
G1 X140.268 Y134.305 E2.68617
G1 X139.853 Y134.834 E2.7073
G1 X139.237 Y135.475 E2.73525
G1 X138.404 Y136.092 E2.76783
G1 X137.625 Y136.551 E2.79625
G1 X136.831 Y136.87 E2.82314
G1 X136.206 Y137.057 E2.84365
G1 X135.654 Y137.17 E2.86136
G1 X134.998 Y137.259 E2.88216
G1 X133.981 Y137.284 E2.91414
G1 X101.148 Y137.283 E3.94611
G1 X100.28 Y137.266 E3.97339
G1 X99.706 Y137.224 E3.99148
G1 X98.809 Y137.061 E4.02014
G1 X98.141 Y136.865 E4.04202
G1 X97.328 Y136.512 E4.06988
G1 X96.469 Y136.005 E4.10123
G1 X95.95 Y135.613 E4.12167
G1 X95.545 Y135.251 E4.13874
G1 X95.156 Y134.844 E4.15644
G1 X94.768 Y134.361 E4.17591
G1 X94.345 Y133.724 E4.19995
G1 X94.008 Y133.047 E4.22372
G1 X93.761 Y132.405 E4.24534
G1 X93.562 Y131.683 E4.26888
G1 X93.463 Y131.159 E4.28564
G1 X93.392 Y130.368 E4.3106
G1 X93.369 Y129.158 E4.34864
G1 X93.372 Y117.14 E4.72637
G1 X93.382 Y116.449 E4.74809
G1 X93.441 Y115.052 E4.79204
G1 X93.52 Y112.266 E4.87964
G1 X93.52 Y109.556 E4.96482
G1 X93.442 Y106.781 E5.05208
G1 X93.372 Y105.376 E5.09629
G1 X93.37 Y100.451 E5.25109
G1 X93.381 Y99.742 E5.27337
G1 X93.5 Y98.634 E5.3084
G1 X93.716 Y97.736 E5.33743
G1 X93.943 Y97.096 E5.35877
G1 X94.392 Y96.207 E5.39008
G1 X94.862 Y95.49 E5.41702
G1 X95.49 Y94.8 E5.44635
G0 F7200 X95.801 Y95.083
G1 F3600 X96.282 Y94.649 E5.46671
G1 X97.03 Y94.132 E5.49529
G1 X97.676 Y93.763 E5.51867
G1 X98.388 Y93.508 E5.54244
G1 X99.299 Y93.27 E5.57204
G1 X100.043 Y93.167 E5.59565
G1 X101.539 Y93.136 E5.64268
G1 X134.318 Y93.146 E6.67295
G1 X135.1 Y93.185 E6.69756
G1 X135.704 Y93.273 E6.71674
G1 X136.492 Y93.466 E6.74224
G1 X137.258 Y93.73 E6.76771
G1 X138.053 Y94.177 E6.79637
G1 X138.763 Y94.699 E6.82407
G1 X139.188 Y95.074 E6.84189
G1 X139.789 Y95.752 E6.87036
G1 X140.317 Y96.555 E6.90057
G1 X140.625 Y97.166 E6.92208
G1 X140.869 Y97.818 E6.94396
G1 X141.058 Y98.559 E6.96799
G1 X141.146 Y99.074 E6.98441
G1 X141.2 Y99.791 E7.00701
G1 X141.21 Y100.544 E7.03068
G1 X141.209 Y104.816 E7.16496
G1 X141.2 Y105.463 E7.18529
G1 X141.143 Y106.82 E7.22798
G1 X141.064 Y109.596 E7.31527
G1 X141.064 Y112.333 E7.4013
G1 X141.138 Y115.003 E7.48525
G1 X141.2 Y116.537 E7.5335
G1 X141.208 Y117.162 E7.55315
G1 X141.211 Y129.892 E7.95326
G1 X141.132 Y130.995 E7.98802
G1 X141.035 Y131.568 E8.00629
G1 X140.881 Y132.15 E8.02521
G1 X140.632 Y132.858 E8.0488
G1 X140.278 Y133.514 E8.07223
G1 X139.915 Y134.077 E8.09328
G1 X139.548 Y134.545 E8.11198
G1 X138.987 Y135.137 E8.13761
G1 X138.154 Y135.754 E8.17019
G1 X137.468 Y136.161 E8.19526
G1 X136.674 Y136.48 E8.22216
G1 X136.122 Y136.646 E8.24028
G1 X135.596 Y136.754 E8.25715
G1 X134.988 Y136.839 E8.27645
G1 X133.981 Y136.864 E8.30811
G1 X101.156 Y136.863 E9.33983
G1 X100.311 Y136.847 E9.36639
G1 X99.737 Y136.805 E9.38448
G1 X98.925 Y136.657 E9.41042
G1 X98.307 Y136.479 E9.43064
G1 X97.541 Y136.15 E9.45684
G1 X96.682 Y135.643 E9.48819
G1 X96.229 Y135.299 E9.50607
G1 X95.849 Y134.961 E9.52205
G1 X95.46 Y134.554 E9.53975
G1 X95.117 Y134.127 E9.55696
G1 X94.721 Y133.537 E9.5793
G1 X94.384 Y132.86 E9.60307
G1 X94.166 Y132.292 E9.62219
G1 X93.975 Y131.605 E9.6446
G1 X93.876 Y131.081 E9.66136
G1 X93.812 Y130.36 E9.68411
G1 X93.789 Y129.158 E9.7219
G1 X93.792 Y117.146 E10.09945
G1 X93.802 Y116.467 E10.12079
G1 X93.861 Y115.07 E10.16474
G1 X93.94 Y112.278 E10.25253
G1 X93.94 Y109.556 E10.33808
G1 X93.861 Y106.769 E10.42572
G1 X93.792 Y105.376 E10.46955
G1 X93.79 Y100.457 E10.62416
G1 X93.799 Y99.787 E10.64522
G1 X93.918 Y98.679 E10.68025
G1 X94.113 Y97.874 E10.70628
G1 X94.318 Y97.285 E10.72588
G1 X94.745 Y96.435 E10.75578
G1 X95.173 Y95.773 E10.78056
G1 X95.801 Y95.083 E10.80988
G1 F2700 E10.30988
G1 F600 Z0.4
;MESH:klots_small.stl
G0 F7200 X97.713 Y99.239 Z0.4
;TYPE:WALL-INNER
G1 F600 Z0.2
G1 F2700 E10.80988
G1 F3217 X98.047 Y98.482 E10.83898
G1 F2724.3 X98.278 Y98.161 E10.85541
G1 F2615.9 X98.606 Y97.806 E10.87632
G1 F2685.6 X99.194 Y97.363 E10.90733
G1 F2918.9 X99.485 Y97.204 E10.92019
G1 F3532.7 X100.162 Y96.972 E10.94311
G0 F7200 X99.081 Y97.729
G0 X98.612 Y98.159
G0 X98.224 Y98.646
G0 X97.909 Y99.211
G0 X97.713 Y99.745
G0 X97.584 Y100.373
G0 X97.552 Y100.901
G0 X97.73 Y101.971
G0 X98.726 Y104.422
G1 F3968.5 X98.257 Y104.005 E10.961
G1 X98.03 Y103.731 E10.97115
G1 X98.031 Y104.421 E10.99082
G1 X98.726 Y104.422 E11.01064
G0 F7200 X101.32 Y105.149
G0 X100.565 Y104.843
G1 F3761.2 X99.547 Y104.49 E11.04305
G1 F3600 X98.981 Y104.121 E11.06429
G1 X98.48 Y103.668 E11.08552
G1 X97.949 Y102.952 E11.11354
G1 X97.63 Y102.254 E11.13766
G1 X97.631 Y104.821 E11.21834
G1 X99.556 Y104.822 E11.27885
G1 F3761.2 X100.565 Y104.843 E11.30921
G1 F3968.5 X100.693 Y104.871 E11.31294
G0 F7200 X101.32 Y105.149
G0 X101.997 Y105.755
G1 F4223.5 X101.989 Y108.736 E11.39281
G1 F4235.3 X102.001 Y110.036 E11.42754
G1 F4200 X101.998 Y110.777 E11.4475
G1 F3541 X102.009 Y111.283 E11.46368
G0 F7200 X103.148 Y111.796
G0 X103.15 Y111.742
G1 F3600 X102.537 Y111.347 E11.4866
G1 X102.385 Y110.879 E11.50206
G1 X102.393 Y110.031 E11.52872
G1 X102.374 Y108.745 E11.56914
G1 X102.39 Y108.122 E11.58873
G1 X102.39 Y105.456 E11.67252
G1 X102.491 Y105.263 E11.67937
G1 X101.991 Y105.362 E11.69539
G1 X101.559 Y105.348 E11.70898
G1 X101.606 Y105.563 E11.71589
G1 X101.594 Y106.836 E11.75591
G1 X101.606 Y107.477 E11.77606
G1 X101.608 Y110.928 E11.88452
G1 X101.569 Y111.156 E11.8918
G1 X101.073 Y111.742 E11.91593
G1 X103.15 Y111.742 E11.98121
G0 F7200 X103.148 Y111.796
G0 X102.616 Y110.973
G0 X103 Y105.223
G0 X105.344 Y103.995
G1 F3600 X106.935 Y103.995 E12.03121
G1 X107.471 Y103.86 E12.04859
G1 X112.273 Y103.858 E12.19952
G1 X112.786 Y103.956 E12.21593
G1 X112.825 Y103.982 E12.21741
G1 X113.655 Y103.982 E12.24349
G1 X113.268 Y103.454 E12.26407
G1 X112.921 Y102.78 E12.2879
G1 X112.656 Y102.018 E12.31325
G1 X112.531 Y101.132 E12.34138
G1 X112.554 Y100.245 E12.36927
G1 X112.822 Y99.112 E12.40586
G1 X113.191 Y98.345 E12.43261
G1 X113.587 Y97.814 E12.45343
G1 X105.42 Y97.814 E12.71013
G1 X105.785 Y98.333 E12.73007
G1 X106.086 Y98.92 E12.7508
G1 X106.303 Y99.591 E12.77297
G1 X106.372 Y99.948 E12.7844
G1 X106.447 Y101.116 E12.82119
G1 X106.429 Y101.464 E12.83214
G1 X106.297 Y102.144 E12.85391
G1 X105.991 Y102.957 E12.88121
G1 X105.838 Y103.254 E12.89171
G1 X105.344 Y103.995 E12.91971
G0 F7200 X104.358 Y104.408
G1 F3600 X105.637 Y104.418 E12.95991
G1 X107.028 Y104.415 E13.00363
G1 X107.188 Y104.341 E13.00917
G1 X107.493 Y104.279 E13.01895
G1 X112.268 Y104.278 E13.16903
G1 X112.635 Y104.348 E13.18078
G1 X112.717 Y104.402 E13.18386
G1 X114.657 Y104.401 E13.24484
G1 X114.203 Y103.993 E13.26402
G1 X113.691 Y103.355 E13.28973
G1 X113.297 Y102.591 E13.31675
G1 X113.066 Y101.918 E13.33912
G1 X112.952 Y101.108 E13.36483
G1 X112.973 Y100.301 E13.3902
G1 X113.22 Y99.254 E13.42401
G1 X113.552 Y98.563 E13.44811
G1 X114.106 Y97.82 E13.47724
G1 X114.543 Y97.394 E13.49642
G1 X104.428 Y97.394 E13.81434
G1 X104.903 Y97.823 E13.83446
G1 X105.371 Y98.446 E13.85895
G1 X105.696 Y99.081 E13.88137
G1 X105.943 Y99.841 E13.90649
G1 X106.037 Y101.277 E13.95172
G1 X105.897 Y102.016 E13.97536
G1 X105.556 Y102.92 E14.00573
G1 X104.983 Y103.778 E14.03816
G1 X104.358 Y104.408 E14.06605
G1 F2700 E13.56605
G0 F7200 X113.293 Y103.89
G0 X112.897 Y98.715
G0 X115.192 Y97.184
G0 X116.087 Y96.975
G1 F2700 E14.06605
G1 F3600 X102.9 Y96.975 E14.48053
G1 X103.264 Y97.117 E14.49281
G1 X103.897 Y97.479 E14.51573
G1 X104.591 Y98.108 E14.54517
G1 X105.013 Y98.668 E14.56721
G1 X105.308 Y99.245 E14.58757
G1 X105.528 Y99.922 E14.60995
G1 X105.614 Y101.249 E14.65174
G1 X105.497 Y101.888 E14.67216
G1 X105.181 Y102.726 E14.70031
G1 X104.654 Y103.513 E14.73008
G1 X104.184 Y103.988 E14.75108
G1 X103.631 Y104.387 E14.77252
G1 F3907 X103.127 Y104.596 E14.78832
G1 F4176.8 X102.915 Y104.694 E14.79465
G1 F3958.1 X102.055 Y104.944 E14.82025
G1 F3857.1 X100.771 Y104.901 E14.85794
G1 F3742.6 X101.077 Y105.179 E14.87044
G1 F3600 X101.186 Y105.559 E14.88286
G1 X101.174 Y106.844 E14.92325
G1 X101.186 Y107.473 E14.94303
G1 X101.189 Y111.01 E15.0542
G1 F3566 X100.835 Y111.436 E15.07177
G1 F3169.8 X100.566 Y111.592 E15.08287
G1 F2885.5 X99.449 Y111.594 E15.12667
G1 X99.438 Y112.121 E15.14734
G1 F2874.5 X100.623 Y112.109 E15.19399
G1 F3163.2 X100.999 Y112.158 E15.20755
G1 F3566 X102.288 Y112.162 E15.24846
G1 F3183.2 X103.462 Y112.107 E15.29023
G1 F2863.6 X104.558 Y112.121 E15.33354
G1 F2880 X104.548 Y111.598 E15.35409
G1 F2863.6 X103.468 Y111.577 E15.39678
G1 F3183.2 X102.916 Y111.165 E15.42126
G1 F3600 X102.806 Y110.822 E15.43258
G1 X102.813 Y110.024 E15.45767
G1 X102.794 Y108.756 E15.49752
G1 X102.81 Y108.122 E15.51746
G1 X102.81 Y105.473 E15.60072
G1 F3827.8 X103.073 Y105.02 E15.6162
G1 F3876.9 X103.545 Y104.827 E15.63108
G1 F3643.4 X105.637 Y104.838 E15.69606
G1 F3600 X107.157 Y104.834 E15.74383
G1 X107.332 Y104.736 E15.75014
G1 X107.515 Y104.698 E15.75601
G1 X112.263 Y104.698 E15.90524
G1 X112.484 Y104.74 E15.91231
G1 X112.609 Y104.822 E15.91701
G1 X115.41 Y104.822 E16.00505
G1 F3183.2 X116.048 Y104.77 E16.0278
G1 X115.409 Y104.406 E16.05395
G1 F3600 X114.921 Y104.076 E16.07246
G1 X114.507 Y103.702 E16.09
G1 X114.044 Y103.125 E16.11325
G1 X113.672 Y102.403 E16.13878
G1 X113.476 Y101.818 E16.15817
G1 X113.373 Y101.084 E16.18147
G1 X113.392 Y100.35 E16.20454
G1 X113.618 Y99.396 E16.23536
G1 X113.916 Y98.776 E16.25698
G1 X114.477 Y98.025 E16.28644
G1 X114.993 Y97.551 E16.30847
G1 X115.527 Y97.211 E16.32836
G1 X116.087 Y96.975 E16.34746
G0 F7200 X115.192 Y97.184
G0 X114.312 Y97.883
G0 X113.722 Y98.68
G0 X113.405 Y99.361
G0 X113.174 Y100.327
G0 X113.157 Y101.093
G0 X113.261 Y101.859
G0 X113.452 Y102.449
G0 X113.88 Y103.27
G0 X114.348 Y103.852
G0 X115.375 Y104.623
G0 X116.048 Y104.77
G1 F2874.5 X116.263 Y104.834 E16.35629
G0 F7200 X116.777 Y105.149
G0 X117.467 Y105.744
G1 F4032 X117.462 Y106.824 E16.3866
G1 F4064.5 X117.47 Y107.431 E16.4035
G1 F4211.7 X117.459 Y108.736 E16.43856
G1 F4188.4 X117.471 Y110.036 E16.47368
G1 F4153.8 X117.468 Y110.777 E16.49387
G1 F3508.1 X117.479 Y111.282 E16.51016
G0 F7200 X118.62 Y111.796
G0 X118.622 Y111.742
G1 F3600 X118.009 Y111.347 E16.53308
G1 X117.857 Y110.878 E16.54858
G1 X117.865 Y110.03 E16.57523
G1 X117.846 Y108.745 E16.61563
G1 X117.862 Y108.122 E16.63521
G1 X117.862 Y105.285 E16.72438
G1 X117.261 Y105.37 E16.74346
G1 X117.048 Y105.36 E16.75016
G1 X117.075 Y105.45 E16.75312
G1 X117.062 Y106.833 E16.79659
G1 X117.078 Y107.485 E16.81709
G1 X117.07 Y107.994 E16.83309
G1 X117.076 Y110.929 E16.92534
G1 X117.037 Y111.155 E16.93254
G1 X116.541 Y111.742 E16.9567
G1 X118.622 Y111.742 E17.02211
G0 F7200 X118.62 Y111.796
G0 X119.833 Y111.922
G0 X120.03 Y112.121
G1 F2880 X120.02 Y111.598 E17.04266
G1 F2863.6 X118.94 Y111.577 E17.08534
G1 F3183.2 X118.388 Y111.165 E17.10983
G1 F3600 X118.278 Y110.822 E17.12115
G1 X118.285 Y110.024 E17.14623
G1 X118.266 Y108.756 E17.18609
G1 X118.282 Y108.122 E17.20602
G1 X118.282 Y105.418 E17.29101
G1 X118.385 Y105.153 E17.29995
G1 F3360 X118.626 Y104.904 E17.31162
G1 F3000 X118.779 Y104.809 E17.31841
G1 F3189.9 X118.136 Y104.767 E17.34127
G1 F3600 X117.8 Y104.872 E17.35233
G1 X117.243 Y104.95 E17.37001
G1 F3210.2 X116.263 Y104.834 E17.40479
G1 X116.519 Y105.132 E17.41864
G1 F3600 X116.65 Y105.474 E17.43015
G1 X116.642 Y106.844 E17.47321
G1 X116.658 Y107.478 E17.49315
G1 X116.65 Y107.995 E17.5094
G1 X116.657 Y111.01 E17.60416
G1 F3566 X116.303 Y111.436 E17.62174
G1 F3169.8 X116.034 Y111.592 E17.63284
G1 F2885.5 X114.917 Y111.594 E17.67664
G1 X114.906 Y112.121 E17.69731
G1 F2874.5 X116.091 Y112.109 E17.74396
G1 F3163.2 X116.467 Y112.158 E17.75752
G1 F3566 X117.76 Y112.162 E17.79855
G1 F3183.2 X118.934 Y112.107 E17.84032
G1 F2863.6 X120.03 Y112.121 E17.88363
G0 F7200 X119.833 Y111.922
G0 X118.416 Y111.726
G0 X118.094 Y111.054
G0 X118.055 Y105.04
G0 X118.779 Y104.809
G1 F2842.1 X118.924 Y104.77 E17.88961
G0 F7200 X119.634 Y104.617
G0 X121.311 Y103.997
G1 F3600 X122.407 Y103.995 E17.92406
G1 X122.941 Y103.86 E17.94137
G1 X127.553 Y103.858 E18.08633
G1 X128.003 Y103.947 E18.10075
G1 X128.055 Y103.994 E18.10295
G1 X129.657 Y103.991 E18.1533
G1 X129.159 Y103.251 E18.18134
G1 X129.005 Y102.955 E18.19183
G1 X128.708 Y102.17 E18.21821
G1 X128.571 Y101.494 E18.23989
G1 X128.552 Y101.151 E18.25068
G1 X128.624 Y99.955 E18.28834
G1 X128.692 Y99.594 E18.29989
G1 X128.908 Y98.92 E18.32214
G1 X129.216 Y98.328 E18.34311
G1 X129.575 Y97.814 E18.36282
G1 X121.418 Y97.814 E18.6192
G1 X121.809 Y98.39 E18.64108
G1 X122.199 Y99.226 E18.67007
G1 X122.409 Y100.05 E18.6968
G1 X122.466 Y100.841 E18.72173
G1 X122.385 Y101.801 E18.75201
G1 X122.177 Y102.516 E18.77541
G1 X121.73 Y103.465 E18.80838
G1 X121.311 Y103.997 E18.82967
G0 F7200 X120.304 Y104.411
G1 F3600 X122.502 Y104.415 E18.89875
G1 X122.964 Y104.279 E18.91389
G1 X127.538 Y104.278 E19.05765
G1 X127.86 Y104.341 E19.06797
G1 X127.939 Y104.414 E19.07135
G1 X130.643 Y104.405 E19.15634
G1 X130.057 Y103.838 E19.18197
G1 X129.44 Y102.918 E19.21678
G1 X129.105 Y102.035 E19.24647
G1 X128.963 Y101.31 E19.26969
G1 X129.051 Y99.85 E19.31566
G1 X129.299 Y99.078 E19.34115
G1 X129.623 Y98.454 E19.36324
G1 X130.077 Y97.838 E19.3873
G1 X130.567 Y97.395 E19.40806
G1 X120.425 Y97.395 E19.72683
G1 X120.913 Y97.837 E19.74752
G1 X121.382 Y98.47 E19.77229
G1 X121.802 Y99.37 E19.8035
G1 X121.992 Y100.116 E19.8277
G1 X122.046 Y100.842 E19.85058
G1 X121.969 Y101.725 E19.87844
G1 X121.765 Y102.408 E19.90084
G1 X121.37 Y103.245 E19.92993
G1 X120.765 Y104.011 E19.96061
G1 X120.304 Y104.411 E19.9798
G0 F7200 X131.786 Y105.011
G0 X132.999 Y105.75
G1 F4053.6 X133.006 Y106.784 E20.00866
G1 F4075.5 X132.998 Y107.438 E20.02682
G1 F4247.2 X133.006 Y108.727 E20.06116
G1 F4223.5 X132.996 Y110.041 E20.09636
G1 F3500 X133.007 Y111.283 E20.13652
G0 F7200 X134.138 Y111.823
G0 X134.138 Y111.742
G1 F3600 X133.541 Y111.367 E20.15868
G1 X133.442 Y111.14 E20.16646
G1 X133.39 Y110.812 E20.1769
G1 X133.39 Y107.447 E20.28266
G1 X133.405 Y106.78 E20.30363
G1 X133.39 Y105.514 E20.34343
G1 X133.493 Y105.349 E20.34954
G1 X132.936 Y105.347 E20.36705
G1 X132.569 Y105.282 E20.37876
G1 X132.606 Y105.552 E20.38733
G1 X132.606 Y108.135 E20.46851
G1 X132.622 Y108.781 E20.48883
G1 X132.602 Y110.046 E20.52859
