;FLAVOR:Marlin
;TIME:2555
;Filament used: 3.43165m
;Layer height: 0.2
;MINX:94.038
;MINY:82.445
;MINZ:0.2
;MAXX:142.739
;MAXY:166.275
;MAXZ:8
;TARGET_MACHINE.NAME:ELEGOO NEPTUNE 4 Pro
;Generated with Cura_SteamEngine 5.8.1
M82 ;absolute extrusion mode
;ELEGOO NEPTUNE 4 / 4 PRO
M220 S100 ;Set the feed speed to 100%
M221 S100 ;Set the flow rate to 100%
M104 S140 ;Start heating extruder
M190 S30 ;Wait for the bed to reach print temp
G90
G28 ;home
G1 Z10 F300
G1 X67.5 Y0 F6000
G1 Z0 F300
M109 S210.0 ;Wait for extruder to reach print temp
G92 E0 ;Reset Extruder
G1 X67.5 Y0 Z0.4 F300 ;Move to start position
G1 X167.5 E30 F400 ;Draw the first line
G1 Z0.6 F120.0 ;Move to side a little
G1 X162.5 F3000
G92 E0 ;Reset Extruder
G92 E0
G92 E0
G1 F2700 E-0.5
;LAYER_COUNT:39
;LAYER:0
M107
M204 S500
G1 F600 Z0.4
G0 F7200 X95.97 Y85.219 Z0.4
;TYPE:SKIRT
G1 F600 Z0.2
G1 F2700 E0
G1 F3600 X96.598 Y84.529 E0.02932
G1 X97.151 Y84.032 E0.05269
G1 X97.93 Y83.496 E0.08241
G1 X98.576 Y83.127 E0.1058
G1 X99.39 Y82.831 E0.13302
G1 X100.349 Y82.583 E0.16416
G1 X101.142 Y82.476 E0.18931
G1 X102.647 Y82.445 E0.23662
G1 X135.447 Y82.456 E1.26755
G1 X136.269 Y82.498 E1.29342
G1 X136.873 Y82.586 E1.31261
G1 X137.737 Y82.798 E1.34057
G1 X138.539 Y83.074 E1.36723
G1 X139.367 Y83.54 E1.39709
G1 X140.149 Y84.113 E1.42756
G1 X140.61 Y84.524 E1.44697
G1 X141.248 Y85.25 E1.47735
G1 X141.8 Y86.095 E1.50907
G1 X142.126 Y86.748 E1.53201
G1 X142.384 Y87.443 E1.55531
G1 X142.58 Y88.218 E1.58044
G1 X142.673 Y88.777 E1.59825
G1 X142.726 Y89.494 E1.62085
G1 X142.738 Y90.338 E1.64738
G1 X142.736 Y94.562 E1.78014
G1 X142.727 Y95.207 E1.80042
G1 X142.672 Y96.511 E1.84144
G1 X142.592 Y99.298 E1.92907
G1 X142.59 Y102.004 E2.01413
G1 X142.669 Y104.789 E2.1017
G1 X142.728 Y106.261 E2.148
G1 X142.736 Y106.891 E2.1678
G1 X142.739 Y119.264 E2.5567
G1 X142.722 Y119.953 E2.57836
G1 X142.584 Y121.752 E2.63507
G1 X142.413 Y124.481 E2.72101
G1 X142.32 Y127.197 E2.80643
G1 X142.299 Y129.171 E2.86848
G1 X142.298 Y133.812 E3.01435
G1 X142.289 Y134.482 E3.03541
G1 X142.228 Y135.931 E3.08099
G1 X142.149 Y138.717 E3.16859
G1 X142.149 Y141.426 E3.25374
G1 X142.264 Y144.798 E3.35978
G1 X142.297 Y146.485 E3.41282
G1 X142.299 Y158.913 E3.80344
G1 X142.22 Y160.016 E3.8382
G1 X142.11 Y160.666 E3.85892
G1 X141.946 Y161.28 E3.87889
G1 X141.671 Y162.048 E3.90453
G1 X141.3 Y162.733 E3.92902
G1 X140.937 Y163.296 E3.95007
G1 X140.522 Y163.825 E3.97121
G1 X139.906 Y164.466 E3.99915
G1 X139.073 Y165.083 E4.03173
G1 X138.294 Y165.542 E4.06015
G1 X137.5 Y165.861 E4.08704
G1 X136.875 Y166.048 E4.10755
G1 X136.323 Y166.161 E4.12526
G1 X135.667 Y166.25 E4.14606
G1 X134.65 Y166.275 E4.17804
G1 X101.817 Y166.274 E5.21001
G1 X100.949 Y166.257 E5.2373
G1 X100.375 Y166.215 E5.25538
G1 X99.478 Y166.052 E5.28404
G1 X98.81 Y165.856 E5.30592
G1 X97.997 Y165.503 E5.33378
G1 X97.138 Y164.996 E5.36513
G1 X96.619 Y164.604 E5.38557
G1 X96.214 Y164.242 E5.40265
G1 X95.825 Y163.835 E5.42034
G1 X95.437 Y163.352 E5.43981
G1 X95.014 Y162.715 E5.46385
G1 X94.677 Y162.038 E5.48762
G1 X94.43 Y161.396 E5.50924
G1 X94.231 Y160.674 E5.53278
G1 X94.132 Y160.15 E5.54954
G1 X94.061 Y159.359 E5.5745
G1 X94.038 Y158.147 E5.6126
G1 X94.04 Y146.152 E5.98961
G1 X94.05 Y145.423 E6.01253
G1 X94.108 Y144.05 E6.05572
G1 X94.188 Y141.264 E6.14332
G1 X94.188 Y138.557 E6.22841
G1 X94.111 Y135.779 E6.31576
G1 X94.041 Y134.378 E6.35985
G1 X94.039 Y129.436 E6.51518
G1 X94.051 Y128.663 E6.53948
G1 X94.187 Y127.088 E6.58916
G1 X94.36 Y124.34 E6.67571
G1 X94.455 Y121.623 E6.76116
G1 X94.477 Y119.593 E6.82496
G1 X94.479 Y106.89 E7.22423
G1 X94.489 Y106.163 E7.24708
G1 X94.547 Y104.788 E7.29034
G1 X94.627 Y102.002 E7.37794
G1 X94.627 Y99.296 E7.46299
G1 X94.55 Y96.517 E7.55037
G1 X94.48 Y95.116 E7.59446
G1 X94.478 Y90.18 E7.7496
G1 X94.489 Y89.471 E7.77189
G1 X94.608 Y88.363 E7.80692
G1 X94.824 Y87.465 E7.83595
G1 X95.051 Y86.825 E7.85729
G1 X95.5 Y85.936 E7.88859
G1 X95.97 Y85.219 E7.91554
G0 F7200 X96.281 Y85.502
G1 F3600 X96.909 Y84.812 E7.94487
G1 X97.39 Y84.378 E7.96523
G1 X98.138 Y83.861 E7.99381
G1 X98.784 Y83.492 E8.01719
G1 X99.496 Y83.237 E8.04096
G1 X100.407 Y82.999 E8.07056
G1 X101.151 Y82.896 E8.09416
G1 X102.647 Y82.865 E8.14119
G1 X135.426 Y82.875 E9.17147
G1 X136.208 Y82.914 E9.19607
G1 X136.812 Y83.002 E9.21526
G1 X137.6 Y83.195 E9.24076
G1 X138.366 Y83.459 E9.26622
G1 X139.161 Y83.906 E9.29489
G1 X139.871 Y84.428 E9.32259
G1 X140.296 Y84.803 E9.3404
G1 X140.897 Y85.481 E9.36888
G1 X141.425 Y86.284 E9.39909
G1 X141.733 Y86.895 E9.42059
G1 X141.977 Y87.547 E9.44247
G1 X142.166 Y88.288 E9.46651
G1 X142.254 Y88.808 E9.48309
G1 X142.306 Y89.5 E9.5049
G1 X142.318 Y90.338 E9.53124
G1 X142.316 Y94.556 E9.66382
G1 X142.307 Y95.189 E9.68371
G1 X142.252 Y96.493 E9.72474
G1 X142.172 Y99.286 E9.81256
G1 X142.17 Y102.004 E9.89799
G1 X142.249 Y104.806 E9.98609
G1 X142.308 Y106.266 E10.03202
G1 X142.316 Y106.891 E10.05166
G1 X142.319 Y119.254 E10.44024
G1 X142.303 Y119.921 E10.46121
G1 X142.165 Y121.72 E10.51792
G1 X141.993 Y124.467 E10.60443
G1 X141.9 Y127.183 E10.68985
G1 X141.879 Y129.167 E10.75221
G1 X141.878 Y133.806 E10.89802
G1 X141.869 Y134.464 E10.9187
G1 X141.808 Y135.913 E10.96429
G1 X141.729 Y138.705 E11.05208
G1 X141.729 Y141.426 E11.1376
G1 X141.844 Y144.806 E11.2439
G1 X141.877 Y146.485 E11.29668
G1 X141.88 Y158.883 E11.68636
G1 X141.801 Y159.986 E11.72112
G1 X141.704 Y160.559 E11.73938
G1 X141.55 Y161.141 E11.7583
G1 X141.301 Y161.849 E11.78189
G1 X140.947 Y162.505 E11.80532
G1 X140.584 Y163.068 E11.82638
G1 X140.217 Y163.536 E11.84507
G1 X139.656 Y164.128 E11.8707
G1 X138.823 Y164.745 E11.90329
G1 X138.137 Y165.152 E11.92836
G1 X137.343 Y165.471 E11.95525
G1 X136.791 Y165.637 E11.97337
G1 X136.265 Y165.745 E11.99025
G1 X135.657 Y165.83 E12.00954
G1 X134.65 Y165.855 E12.0412
G1 X101.825 Y165.854 E13.07292
G1 X100.98 Y165.838 E13.09948
G1 X100.406 Y165.796 E13.11757
G1 X99.594 Y165.648 E13.14352
G1 X98.976 Y165.47 E13.16373
G1 X98.21 Y165.141 E13.18993
G1 X97.351 Y164.634 E13.22128
G1 X96.898 Y164.29 E13.23916
G1 X96.518 Y163.952 E13.25515
G1 X96.129 Y163.545 E13.27284
G1 X95.786 Y163.118 E13.29006
G1 X95.39 Y162.528 E13.31239
G1 X95.053 Y161.851 E13.33616
G1 X94.835 Y161.283 E13.35528
G1 X94.644 Y160.596 E13.37769
G1 X94.545 Y160.072 E13.39446
G1 X94.481 Y159.351 E13.41721
G1 X94.458 Y158.147 E13.45506
G1 X94.46 Y146.158 E13.83188
G1 X94.47 Y145.441 E13.85442
G1 X94.528 Y144.068 E13.89761
G1 X94.608 Y141.276 E13.9854
G1 X94.608 Y138.557 E14.07086
G1 X94.53 Y135.767 E14.15859
G1 X94.461 Y134.378 E14.2023
G1 X94.459 Y129.443 E14.35741
G1 X94.471 Y128.67 E14.38171
G1 X94.605 Y127.124 E14.43048
G1 X94.78 Y124.355 E14.51769
G1 X94.875 Y121.638 E14.60314
G1 X94.897 Y119.598 E14.66726
G1 X94.899 Y106.896 E15.0665
G1 X94.909 Y106.181 E15.08897
G1 X94.967 Y104.806 E15.13223
G1 X95.047 Y102.014 E15.22002
G1 X95.047 Y99.296 E15.30545
G1 X94.969 Y96.505 E15.39321
G1 X94.9 Y95.116 E15.43692
G1 X94.898 Y90.186 E15.59187
G1 X94.907 Y89.516 E15.61293
G1 X95.026 Y88.408 E15.64796
G1 X95.221 Y87.603 E15.67399
G1 X95.426 Y87.014 E15.69359
G1 X95.853 Y86.164 E15.72349
G1 X96.281 Y85.502 E15.74827
G1 F2700 E15.24827
G1 F600 Z0.4
;MESH:klots_small.stl
G0 F7200 X98.821 Y88.967 Z0.4
;TYPE:WALL-INNER
G1 F600 Z0.2
G1 F2700 E15.74827
G1 F3223.9 X99.155 Y88.212 E15.77724
G1 F2724.3 X99.387 Y87.889 E15.79376
G1 F2611.4 X99.714 Y87.536 E15.81461
G1 F2714.5 X100.067 Y87.253 E15.83347
G1 F2947.4 X100.596 Y86.933 E15.8572
G1 F3524.5 X101.27 Y86.7 E15.8801
G0 F7200 X100.189 Y87.458
G0 X99.72 Y87.888
G0 X99.332 Y88.375
G0 X99.017 Y88.94
G0 X98.821 Y89.474
G0 X98.692 Y90.102
G0 X98.66 Y90.63
G0 X98.838 Y91.7
G0 X99.834 Y94.15
G1 F3968.5 X99.365 Y93.733 E15.89799
G1 X99.138 Y93.459 E15.90814
G1 X99.139 Y94.149 E15.92781
G1 X99.834 Y94.15 E15.94763
G0 F7200 X102.428 Y94.878
G0 X101.672 Y94.572
G1 F3780 X100.655 Y94.218 E15.97986
G1 F3600 X100.089 Y93.849 E16.0011
G1 X99.588 Y93.396 E16.02233
G1 X99.057 Y92.68 E16.05035
G1 X98.738 Y91.982 E16.07447
G1 X98.739 Y94.549 E16.15515
G1 X100.661 Y94.549 E16.21556
G1 F3780 X101.672 Y94.572 E16.24583
G1 F4010.6 X101.8 Y94.601 E16.24953
G0 F7200 X102.428 Y94.878
G0 X103.105 Y95.487
G1 F4223.5 X103.097 Y98.464 E16.32929
G1 F4235.3 X103.109 Y99.768 E16.36413
G1 F4200 X103.106 Y100.505 E16.38399
G1 F3532.7 X103.117 Y101.013 E16.40026
G0 F7200 X104.261 Y101.526
G0 X104.263 Y101.473
G1 F3600 X103.645 Y101.075 E16.42336
G1 X103.493 Y100.667 E16.43705
G1 X103.501 Y99.763 E16.46546
G1 X103.482 Y98.473 E16.50601
G1 X103.498 Y97.85 E16.5256
G1 X103.498 Y95.186 E16.60933
G1 X103.598 Y94.995 E16.61611
G1 X103.099 Y95.094 E16.6321
G1 X102.668 Y95.08 E16.64565
G1 X102.714 Y95.291 E16.65244
G1 X102.702 Y96.564 E16.69245
G1 X102.714 Y97.209 E16.71273
G1 X102.716 Y100.656 E16.82107
G1 X102.676 Y100.885 E16.82838
G1 X102.179 Y101.472 E16.85255
G1 X104.263 Y101.473 E16.91806
G0 F7200 X104.261 Y101.526
G0 X103.724 Y100.702
G0 X104.108 Y94.952
G0 X106.454 Y93.723
G1 F3600 X108.046 Y93.723 E16.96809
G1 X108.58 Y93.592 E16.98538
G1 X113.379 Y93.59 E17.13621
G1 X113.885 Y93.685 E17.15239
G1 X113.924 Y93.71 E17.15385
G1 X114.763 Y93.71 E17.18022
G1 X114.376 Y93.182 E17.2008
G1 X114.03 Y92.509 E17.22458
G1 X113.764 Y91.746 E17.24998
G1 X113.639 Y90.86 E17.2781
G1 X113.662 Y89.97 E17.30609
G1 X113.929 Y88.85 E17.34227
G1 X114.3 Y88.07 E17.36942
G1 X114.694 Y87.544 E17.39008
G1 X106.53 Y87.543 E17.64668
G1 X106.895 Y88.066 E17.66673
G1 X107.195 Y88.657 E17.68756
G1 X107.411 Y89.323 E17.70956
G1 X107.48 Y89.68 E17.72099
G1 X107.555 Y90.844 E17.75765
G1 X107.537 Y91.192 E17.76861
G1 X107.404 Y91.874 E17.79045
G1 X107.099 Y92.685 E17.81768
G1 X106.949 Y92.978 E17.82802
G1 X106.454 Y93.723 E17.85614
G0 F7200 X105.466 Y94.136
G1 F3600 X106.745 Y94.146 E17.89634
G1 X108.139 Y94.143 E17.94015
G1 X108.602 Y94.011 E17.95529
G1 X113.375 Y94.01 E18.10531
G1 X113.736 Y94.077 E18.11685
G1 X113.819 Y94.13 E18.11994
G1 X115.765 Y94.129 E18.18111
G1 X115.311 Y93.721 E18.20029
G1 X114.799 Y93.084 E18.22598
G1 X114.405 Y92.32 E18.253
G1 X114.174 Y91.646 E18.27539
G1 X114.06 Y90.836 E18.3011
G1 X114.081 Y90.026 E18.32657
G1 X114.327 Y88.991 E18.36001
G1 X114.661 Y88.29 E18.38441
G1 X115.214 Y87.548 E18.4135
G1 X115.654 Y87.123 E18.43272
G1 X105.535 Y87.123 E18.75077
G1 X106.012 Y87.552 E18.77094
G1 X106.479 Y88.173 E18.79536
G1 X106.804 Y88.813 E18.81792
G1 X107.052 Y89.577 E18.84317
G1 X107.145 Y91.006 E18.88818
G1 X107.004 Y91.745 E18.91182
G1 X106.663 Y92.649 E18.94219
G1 X106.09 Y93.512 E18.97475
G1 X105.466 Y94.136 E19.00249
G1 F2700 E18.50249
G0 F7200 X114.477 Y93.607
G0 X114.006 Y88.443
G0 X116.3 Y86.913
G0 X117.197 Y86.704
G1 F2700 E19.00249
G1 F3600 X104.008 Y86.703 E19.41703
G1 X104.462 Y86.889 E19.43245
G1 X105.006 Y87.212 E19.45233
G1 X105.698 Y87.835 E19.4816
G1 X106.121 Y88.397 E19.50371
G1 X106.418 Y88.98 E19.52427
G1 X106.636 Y89.656 E19.5466
G1 X106.722 Y90.977 E19.58821
G1 X106.604 Y91.617 E19.60866
G1 X106.289 Y92.452 E19.63671
G1 X105.761 Y93.247 E19.66671
G1 X105.291 Y93.717 E19.6876
G1 X104.737 Y94.117 E19.70908
G1 F3917.1 X104.236 Y94.325 E19.72475
G1 F4200 X104.024 Y94.426 E19.73107
G1 F3837.6 X103.158 Y94.676 E19.75765
G1 F3600 X102.353 Y94.649 E19.78296
G1 F3808.6 X101.8 Y94.601 E19.79946
G1 F4010.6 X101.861 Y94.615 E19.80122
G1 F3780 X102.184 Y94.907 E19.81426
G1 F3600 X102.294 Y95.287 E19.82669
G1 X102.282 Y96.572 E19.86708
G1 X102.294 Y97.205 E19.88698
G1 X102.297 Y100.739 E19.99806
G1 F3566 X101.943 Y101.164 E20.01561
G1 F3163.2 X101.685 Y101.314 E20.02628
G1 F2874.5 X100.554 Y101.324 E20.0708
G1 F2891 X100.544 Y101.851 E20.09143
G1 F2874.5 X101.73 Y101.837 E20.13812
G1 F3163.2 X102.107 Y101.887 E20.15173
G1 F3566 X103.394 Y101.892 E20.19256
G1 F3176.5 X104.57 Y101.837 E20.2345
G1 F2863.6 X105.666 Y101.85 E20.27781
G1 F2880 X105.655 Y101.327 E20.29836
G1 F2863.6 X104.576 Y101.306 E20.341
G1 F3176.5 X104.024 Y100.893 E20.36556
G1 F3600 X103.914 Y100.55 E20.37688
G1 X103.921 Y99.756 E20.40184
G1 X103.902 Y98.484 E20.44182
G1 X103.918 Y97.85 E20.46176
G1 X103.918 Y95.203 E20.54496
G1 F3837.6 X104.18 Y94.748 E20.56044
G1 F3886.9 X104.653 Y94.555 E20.57531
G1 F3643.4 X106.745 Y94.566 E20.64028
G1 F3600 X108.276 Y94.562 E20.6884
G1 X108.443 Y94.466 E20.69445
G1 X108.623 Y94.43 E20.70022
G1 X113.371 Y94.43 E20.84946
G1 X113.587 Y94.47 E20.85636
G1 X113.714 Y94.55 E20.86108
G1 X116.514 Y94.55 E20.94909
G1 F3189.9 X117.154 Y94.499 E20.97186
G1 X116.517 Y94.134 E20.9979
G1 F3600 X116.029 Y93.804 E21.01642
G1 X115.615 Y93.43 E21.03395
G1 X115.152 Y92.853 E21.05721
G1 X114.781 Y92.132 E21.08269
G1 X114.584 Y91.546 E21.10212
G1 X114.481 Y90.812 E21.12542
G1 X114.5 Y90.083 E21.14834
G1 X114.726 Y89.129 E21.17916
G1 X115.023 Y88.506 E21.20085
G1 X115.586 Y87.751 E21.23045
G1 X116.108 Y87.278 E21.25259
G1 X116.635 Y86.943 E21.27222
G1 X117.197 Y86.704 E21.29141
G0 F7200 X116.3 Y86.913
G0 X115.42 Y87.612
G0 X114.83 Y88.409
G0 X114.513 Y89.09
G0 X114.282 Y90.056
G0 X114.265 Y90.822
G0 X114.369 Y91.588
G0 X114.56 Y92.178
G0 X114.988 Y92.999
G0 X115.456 Y93.581
G0 X116.483 Y94.352
G0 X117.154 Y94.499
G1 F2891 X117.366 Y94.562 E21.30007
G0 F7200 X117.885 Y94.878
G0 X118.575 Y95.475
G1 F4032 X118.57 Y96.553 E21.33032
G1 F4064.5 X118.578 Y97.164 E21.34733
G1 F4211.7 X118.567 Y98.464 E21.38226
G1 F4188.4 X118.579 Y99.768 E21.41749
G1 F4153.8 X118.576 Y100.505 E21.43757
G1 F3508.1 X118.587 Y101.011 E21.45389
G0 F7200 X119.733 Y101.526
G0 X119.735 Y101.473
G1 F3600 X119.117 Y101.075 E21.47699
G1 X118.965 Y100.606 E21.49249
G1 X118.973 Y99.762 E21.51902
G1 X118.954 Y98.473 E21.55954
G1 X118.97 Y97.85 E21.57913
G1 X118.97 Y95.013 E21.66829
G1 X118.365 Y95.102 E21.68751
G1 X118.157 Y95.09 E21.69406
G1 X118.182 Y95.291 E21.70043
G1 X118.17 Y96.562 E21.74038
G1 X118.186 Y97.217 E21.76097
G1 X118.178 Y97.722 E21.77685
G1 X118.184 Y100.657 E21.8691
G1 X118.145 Y100.884 E21.87634
G1 X117.647 Y101.472 E21.90056
G1 X119.735 Y101.473 E21.96618
G0 F7200 X119.733 Y101.526
G0 X120.941 Y101.651
G0 X121.138 Y101.85
G1 F2880 X121.127 Y101.327 E21.98674
G1 F2863.6 X120.048 Y101.306 E22.02938
G1 F3176.5 X119.496 Y100.893 E22.05394
G1 F3600 X119.386 Y100.55 E22.06526
G1 X119.393 Y99.756 E22.09021
G1 X119.374 Y98.484 E22.1302
G1 X119.39 Y97.85 E22.15013
G1 X119.39 Y95.144 E22.23518
G1 X119.493 Y94.881 E22.24406
G1 F3360 X119.734 Y94.632 E22.25573
G1 F3000 X119.887 Y94.537 E22.26252
G1 F3189.9 X119.244 Y94.495 E22.28538
G1 F3600 X118.913 Y94.599 E22.29629
G1 F3405.4 X118.249 Y94.697 E22.31859
G1 F3060.7 X117.366 Y94.562 E22.35161
G1 F3223.9 X117.629 Y94.864 E22.36567
G1 F3600 X117.757 Y95.198 E22.37691
G1 X117.75 Y96.573 E22.42013
G1 X117.766 Y97.211 E22.44019
G1 X117.758 Y97.723 E22.45628
G1 X117.765 Y100.738 E22.55104
G1 F3566 X117.411 Y101.164 E22.56862
G1 F3163.2 X117.153 Y101.314 E22.57929
G1 F2874.5 X116.023 Y101.324 E22.62378
G1 F2891 X116.013 Y101.85 E22.64437
G1 F2874.5 X117.198 Y101.837 E22.69102
G1 F3163.2 X117.575 Y101.887 E22.70462
G1 F3566 X118.866 Y101.892 E22.74558
G1 F3176.5 X120.042 Y101.837 E22.78752
G1 F2863.6 X121.138 Y101.85 E22.83083
G0 F7200 X120.941 Y101.651
G0 X119.524 Y101.455
G0 X119.202 Y100.783
G0 X119.163 Y94.769
G0 X119.887 Y94.537
G1 F2842.1 X120.032 Y94.498 E22.83681
G0 F7200 X120.742 Y94.346
G0 X130.77 Y93.724
G1 F3600 X130.269 Y92.986 E22.86484
G1 X130.113 Y92.685 E22.8755
G1 X129.816 Y91.9 E22.90188
G1 X129.68 Y91.229 E22.9234
G1 X129.66 Y90.884 E22.93426
G1 X129.732 Y89.683 E22.97208
G1 X129.8 Y89.322 E22.98362
G1 X130.017 Y88.646 E23.00594
G1 X130.324 Y88.056 E23.02684
G1 X130.682 Y87.546 E23.04643
G1 X122.527 Y87.544 E23.30275
G1 X122.916 Y88.118 E23.32454
G1 X123.307 Y88.953 E23.35352
G1 X123.517 Y89.778 E23.38028
G1 X123.574 Y90.57 E23.40523
G1 X123.492 Y91.528 E23.43546
G1 X123.284 Y92.25 E23.45907
G1 X122.835 Y93.198 E23.49204
G1 X122.421 Y93.725 E23.5131
G1 X123.52 Y93.723 E23.54765
G1 X124.051 Y93.592 E23.56484
G1 X128.656 Y93.591 E23.70958
G1 X129.107 Y93.677 E23.72401
G1 X129.158 Y93.723 E23.72617
G1 X130.77 Y93.724 E23.77683
G0 F7200 X131.755 Y94.137
G1 F3600 X131.166 Y93.565 E23.80264
G1 X130.549 Y92.651 E23.8373
