;FLAVOR:Marlin
;TIME:752
;Filament used: 0.213743m
;Layer height: 0.1
;MINX:207.753
;MINY:201.653
;MINZ:0.1
;MAXX:248.573
;MAXY:242.475
;MAXZ:6
;Generated with Cura_SteamEngine 4.10.0
M140 S60
M105
M190 S60
M104 S225
M105
M109 S225
M82 ;absolute extrusion mode
G28 ; home all axes
 M117 Purge extruder
 G92 E0 ; reset extruder
 G1 Z1.0 F3000 ; move z up little to prevent scratching of surface
 G1 X2 Y20 Z0.3 F5000.0 ; move to start-line position
 G1 X2 Y200.0 Z0.3 F1500.0 E15 ; draw 1st line
 G1 X2 Y200.0 Z0.4 F5000.0 ; move to side a little
 G1 X2 Y20 Z0.4 F1500.0 E30 ; draw 2nd line
 G92 E0 ; reset extruder
 G1 Z1.0 F3000 ; move z up little to prevent scratching of surface
G92 E0
G92 E0
G1 F1500 E-2
;LAYER_COUNT:60
;LAYER:0
M107
G1 F300 Z0.3
G0 F6000 X213.752 Y207.611 Z0.3
;TYPE:SKIRT
G1 F300 Z0.1
G1 F1500 E0
G1 F600 X214.234 Y207.143 E0.00836
G1 X214.61 Y206.801 E0.01468
G1 X215.084 Y206.395 E0.02245
G1 X215.591 Y205.986 E0.03055
G1 X216.122 Y205.585 E0.03883
G1 X216.689 Y205.184 E0.04747
G1 X217.277 Y204.797 E0.05623
G1 X217.722 Y204.525 E0.06272
G1 X218.059 Y204.327 E0.06758
G1 X218.318 Y204.185 E0.07125
G1 X218.878 Y203.887 E0.07915
G1 X219.513 Y203.575 E0.08795
G1 X220.059 Y203.33 E0.09539
G1 X220.662 Y203.082 E0.10351
G1 X221.284 Y202.848 E0.11177
G1 X221.868 Y202.648 E0.11945
G1 X222.396 Y202.484 E0.12633
G1 X223.044 Y202.305 E0.1347
G1 X223.689 Y202.149 E0.14295
G1 X224.366 Y202.009 E0.15155
G1 X224.972 Y201.904 E0.15921
G1 X225.578 Y201.817 E0.16682
G1 X226.096 Y201.758 E0.17331
G1 X226.474 Y201.721 E0.17803
G1 X226.878 Y201.693 E0.18307
G1 X227.473 Y201.664 E0.19048
G1 X228.135 Y201.653 E0.19872
G1 X228.766 Y201.662 E0.20657
G1 X229.428 Y201.692 E0.21482
G1 X230.074 Y201.742 E0.22288
G1 X230.72 Y201.812 E0.23096
G1 X231.242 Y201.885 E0.23752
G1 X231.592 Y201.94 E0.24193
G1 X231.965 Y202.009 E0.24665
G1 X232.519 Y202.122 E0.25368
G1 X233.196 Y202.284 E0.26234
G1 X233.897 Y202.476 E0.27138
G1 X234.512 Y202.665 E0.27939
G1 X235.002 Y202.832 E0.28583
G1 X235.359 Y202.96 E0.29055
G1 X235.69 Y203.091 E0.29498
G1 X236.243 Y203.32 E0.30242
G1 X236.807 Y203.573 E0.31011
G1 X237.331 Y203.827 E0.31736
G1 X237.944 Y204.15 E0.32598
G1 X238.554 Y204.497 E0.33471
G1 X239.094 Y204.826 E0.34258
G1 X239.527 Y205.108 E0.34901
G1 X240.06 Y205.479 E0.35709
G1 X240.733 Y205.981 E0.36753
G1 X241.179 Y206.341 E0.37466
G1 X241.653 Y206.746 E0.38242
G1 X241.94 Y207 E0.38719
G1 X242.165 Y207.211 E0.39103
G1 X242.499 Y207.533 E0.3968
G1 X242.766 Y207.8 E0.4015
G1 X243.019 Y208.068 E0.40608
G1 X243.485 Y208.58 E0.41469
G1 X243.899 Y209.063 E0.42261
G1 X244.238 Y209.484 E0.42933
G1 X244.619 Y209.988 E0.43719
G1 X244.98 Y210.496 E0.44495
G1 X245.142 Y210.73 E0.44849
G1 X245.401 Y211.132 E0.45444
G1 X245.715 Y211.645 E0.46192
G1 X245.912 Y211.981 E0.46677
G1 X246.073 Y212.273 E0.47092
G1 X246.337 Y212.771 E0.47793
G1 X246.631 Y213.37 E0.48623
G1 X246.882 Y213.926 E0.49382
G1 X247.134 Y214.536 E0.50203
G1 X247.371 Y215.163 E0.51037
G1 X247.583 Y215.781 E0.5185
G1 X247.745 Y216.306 E0.52533
G1 X247.844 Y216.646 E0.52974
G1 X247.929 Y216.97 E0.53391
G1 X248.066 Y217.532 E0.5411
G1 X248.206 Y218.205 E0.54966
G1 X248.318 Y218.843 E0.55772
G1 X248.415 Y219.525 E0.56629
G1 X248.486 Y220.178 E0.57446
G1 X248.537 Y220.826 E0.58255
G1 X248.563 Y221.384 E0.58949
G1 X248.573 Y222.021 E0.59742
G1 X248.564 Y222.664 E0.60542
G1 X248.537 Y223.284 E0.61314
G1 X248.496 Y223.845 E0.62014
G1 X248.456 Y224.27 E0.62545
G1 X248.415 Y224.604 E0.62964
G1 X248.332 Y225.196 E0.63708
G1 X248.221 Y225.841 E0.64522
G1 X248.096 Y226.453 E0.65299
G1 X248.021 Y226.792 E0.65731
G1 X247.93 Y227.153 E0.66194
G1 X247.792 Y227.661 E0.66849
G1 X247.679 Y228.05 E0.67353
G1 X247.577 Y228.365 E0.67765
G1 X247.381 Y228.941 E0.68522
G1 X247.142 Y229.576 E0.69366
G1 X246.911 Y230.134 E0.70117
G1 X246.648 Y230.718 E0.70914
G1 X246.362 Y231.305 E0.71727
G1 X246.042 Y231.911 E0.72579
G1 X245.751 Y232.421 E0.7331
G1 X245.418 Y232.966 E0.74104
G1 X245.057 Y233.518 E0.74925
G1 X244.689 Y234.043 E0.75723
G1 X244.371 Y234.47 E0.76385
G1 X243.96 Y234.988 E0.77208
G1 X243.516 Y235.512 E0.78062
G1 X243.048 Y236.028 E0.78929
G1 X242.594 Y236.497 E0.79741
G1 X242.119 Y236.959 E0.80565
G1 X241.716 Y237.326 E0.81244
G1 X241.238 Y237.736 E0.82027
G1 X240.736 Y238.141 E0.82829
G1 X240.204 Y238.542 E0.83658
G1 X239.637 Y238.943 E0.84522
G1 X239.02 Y239.348 E0.85441
G1 X238.524 Y239.649 E0.86162
G1 X238.008 Y239.942 E0.86901
G1 X237.448 Y240.24 E0.8769
G1 X236.813 Y240.552 E0.8857
G1 X236.267 Y240.797 E0.89315
G1 X235.664 Y241.045 E0.90126
G1 X235.05 Y241.276 E0.90942
G1 X234.461 Y241.478 E0.91717
G1 X233.916 Y241.647 E0.92427
G1 X233.513 Y241.763 E0.92948
G1 X233.219 Y241.839 E0.93326
G1 X232.694 Y241.966 E0.93998
G1 X232.025 Y242.105 E0.94848
G1 X231.313 Y242.229 E0.95747
G1 X230.669 Y242.321 E0.96557
G1 X230.201 Y242.373 E0.97143
G1 X229.838 Y242.407 E0.97596
G1 X229.493 Y242.429 E0.98026
G1 X228.799 Y242.463 E0.98891
G1 X228.125 Y242.475 E0.9973
G1 X227.596 Y242.467 E1.00388
G1 X226.928 Y242.435 E1.0122
G1 X226.179 Y242.376 E1.02155
G1 X225.503 Y242.301 E1.03001
G1 X224.99 Y242.227 E1.03646
G1 X224.361 Y242.117 E1.0444
G1 X223.718 Y241.984 E1.05257
G1 X223.088 Y241.833 E1.06063
G1 X222.529 Y241.681 E1.06784
G1 X222.166 Y241.576 E1.07254
G1 X221.79 Y241.454 E1.07746
G1 X221.238 Y241.264 E1.08472
G1 X220.636 Y241.036 E1.09273
G1 X220.083 Y240.807 E1.10017
G1 X219.519 Y240.554 E1.10787
G1 X218.995 Y240.3 E1.11511
G1 X218.382 Y239.977 E1.12373
G1 X217.772 Y239.63 E1.13246
G1 X217.232 Y239.301 E1.14033
G1 X216.799 Y239.019 E1.14676
G1 X216.266 Y238.648 E1.15484
G1 X215.733 Y238.252 E1.1631
G1 X215.521 Y238.091 E1.16641
G1 X215.135 Y237.775 E1.17262
G1 X214.632 Y237.344 E1.18086
G1 X214.148 Y236.903 E1.189
G1 X213.733 Y236.5 E1.1962
G1 X213.279 Y236.031 E1.20432
G1 X212.857 Y235.567 E1.21213
G1 X212.41 Y235.042 E1.2207
G1 X211.999 Y234.526 E1.22891
G1 X211.636 Y234.043 E1.23643
G1 X211.335 Y233.617 E1.24292
G1 X210.957 Y233.043 E1.25147
G1 X210.577 Y232.423 E1.26052
G1 X210.248 Y231.846 E1.26878
G1 X209.985 Y231.349 E1.27578
G1 X209.69 Y230.744 E1.28415
G1 X209.434 Y230.175 E1.29191
G1 X209.191 Y229.59 E1.29979
G1 X208.971 Y229.01 E1.30751
G1 X208.765 Y228.412 E1.31538
G1 X208.584 Y227.832 E1.32294
G1 X208.404 Y227.184 E1.33131
G1 X208.262 Y226.6 E1.33878
G1 X208.123 Y225.936 E1.34722
G1 X208.008 Y225.282 E1.35549
G1 X207.915 Y224.633 E1.36364
G1 X207.847 Y224.027 E1.37123
G1 X207.809 Y223.623 E1.37628
G1 X207.788 Y223.289 E1.38044
G1 X207.765 Y222.804 E1.38648
G1 X207.753 Y222.409 E1.3914
G1 X207.753 Y222.074 E1.39557
G1 X207.764 Y221.386 E1.40413
G1 X207.797 Y220.705 E1.41261
G1 X207.844 Y220.124 E1.41986
G1 X207.912 Y219.509 E1.42756
G1 X207.995 Y218.918 E1.43498
G1 X208.105 Y218.281 E1.44303
G1 X208.226 Y217.687 E1.45057
G1 X208.383 Y217.026 E1.45902
G1 X208.544 Y216.434 E1.46665
G1 X208.672 Y215.999 E1.4723
G1 X208.776 Y215.68 E1.47647
G1 X208.961 Y215.142 E1.48355
G1 X209.192 Y214.532 E1.49166
G1 X209.418 Y213.987 E1.499
G1 X209.686 Y213.393 E1.50711
G1 X209.985 Y212.782 E1.51557
G1 X210.296 Y212.194 E1.52385
G1 X210.568 Y211.717 E1.53068
G1 X210.899 Y211.176 E1.53857
G1 X211.253 Y210.634 E1.54663
G1 X211.628 Y210.097 E1.55478
G1 X211.983 Y209.621 E1.56216
G1 X212.386 Y209.114 E1.57022
G1 X212.777 Y208.652 E1.57775
G1 X213.247 Y208.133 E1.58646
G1 X213.752 Y207.611 E1.5955
G0 F6000 X214.003 Y207.854
G1 F600 X214.47 Y207.402 E1.60358
G1 X214.846 Y207.06 E1.60991
G1 X215.303 Y206.668 E1.6174
G1 X215.81 Y206.259 E1.6255
G1 X216.324 Y205.871 E1.63352
G1 X216.891 Y205.47 E1.64216
G1 X217.459 Y205.095 E1.65062
G1 X217.904 Y204.823 E1.65711
G1 X218.232 Y204.631 E1.66184
G1 X218.482 Y204.494 E1.66539
G1 X219.042 Y204.196 E1.67328
G1 X219.656 Y203.895 E1.68179
G1 X220.202 Y203.65 E1.68923
G1 X220.785 Y203.41 E1.69708
G1 X221.407 Y203.176 E1.70534
G1 X221.972 Y202.982 E1.71278
G1 X222.5 Y202.818 E1.71966
G1 X223.126 Y202.645 E1.72774
G1 X223.771 Y202.489 E1.73599
G1 X224.426 Y202.353 E1.74431
G1 X225.032 Y202.248 E1.75197
G1 X225.618 Y202.164 E1.75933
G1 X226.136 Y202.105 E1.76582
G1 X226.504 Y202.07 E1.77042
G1 X226.895 Y202.043 E1.77529
G1 X227.49 Y202.014 E1.7827
G1 X228.13 Y202.003 E1.79067
G1 X228.761 Y202.012 E1.79852
G1 X229.401 Y202.041 E1.80649
G1 X230.047 Y202.091 E1.81455
G1 X230.671 Y202.159 E1.82236
G1 X231.193 Y202.232 E1.82892
G1 X231.535 Y202.285 E1.83322
G1 X231.896 Y202.352 E1.83779
G1 X232.45 Y202.465 E1.84483
G1 X233.104 Y202.621 E1.85319
G1 X233.805 Y202.813 E1.86223
G1 X234.399 Y202.996 E1.86997
G1 X234.889 Y203.163 E1.87641
G1 X235.236 Y203.288 E1.881
G1 X235.556 Y203.414 E1.88528
G1 X236.109 Y203.643 E1.89272
G1 X236.654 Y203.888 E1.90016
G1 X237.178 Y204.142 E1.9074
G1 X237.771 Y204.454 E1.91574
G1 X238.381 Y204.801 E1.92447
G1 X238.903 Y205.119 E1.93207
G1 X239.336 Y205.401 E1.9385
G1 X239.851 Y205.76 E1.94631
G1 X240.546 Y206.278 E1.9571
G1 X240.952 Y206.607 E1.9636
G1 X241.426 Y207.012 E1.97135
G1 X241.704 Y207.259 E1.97598
G1 X241.922 Y207.463 E1.9797
G1 X242.256 Y207.785 E1.98547
G1 X242.516 Y208.044 E1.99003
G1 X242.76 Y208.303 E1.99446
G1 X243.226 Y208.815 E2.00307
G1 X243.626 Y209.283 E2.01073
G1 X243.965 Y209.704 E2.01746
G1 X244.334 Y210.191 E2.02506
G1 X244.695 Y210.699 E2.03281
G1 X244.852 Y210.926 E2.03625
G1 X245.102 Y211.315 E2.042
G1 X245.416 Y211.828 E2.04948
G1 X245.608 Y212.155 E2.0542
G1 X245.764 Y212.437 E2.05821
G1 X246.028 Y212.935 E2.06522
G1 X246.312 Y213.514 E2.07325
G1 X246.563 Y214.07 E2.08084
G1 X246.807 Y214.659 E2.08877
G1 X247.044 Y215.286 E2.09711
G1 X247.249 Y215.884 E2.10497
G1 X247.411 Y216.409 E2.11181
G1 X247.507 Y216.74 E2.1161
G1 X247.589 Y217.053 E2.12012
G1 X247.726 Y217.615 E2.12732
G1 X247.862 Y218.266 E2.13559
G1 X247.974 Y218.904 E2.14365
G1 X248.067 Y219.563 E2.15193
G1 X248.138 Y220.216 E2.1601
G1 X248.187 Y220.842 E2.16792
G1 X248.213 Y221.4 E2.17487
G1 X248.223 Y222.016 E2.18253
G1 X248.214 Y222.659 E2.19053
G1 X248.188 Y223.259 E2.198
G1 X248.147 Y223.82 E2.205
G1 X248.109 Y224.232 E2.21015
G1 X248.068 Y224.556 E2.21421
G1 X247.985 Y225.148 E2.22165
G1 X247.878 Y225.771 E2.22951
G1 X247.753 Y226.383 E2.23729
G1 X247.68 Y226.713 E2.24149
G1 X247.592 Y227.061 E2.24596
G1 X247.454 Y227.569 E2.25251
G1 X247.344 Y227.947 E2.2574
G1 X247.246 Y228.252 E2.26139
G1 X247.05 Y228.828 E2.26896
G1 X246.818 Y229.442 E2.27713
G1 X246.587 Y230 E2.28464
G1 X246.333 Y230.565 E2.29235
G1 X246.047 Y231.152 E2.30047
G1 X245.738 Y231.738 E2.30871
G1 X245.447 Y232.248 E2.31602
G1 X245.125 Y232.774 E2.32369
G1 X244.764 Y233.326 E2.3319
G1 X244.409 Y233.834 E2.33961
G1 X244.091 Y234.261 E2.34623
G1 X243.693 Y234.762 E2.35419
G1 X243.249 Y235.286 E2.36274
G1 X242.797 Y235.785 E2.37111
G1 X242.343 Y236.254 E2.37923
G1 X241.883 Y236.7 E2.3872
G1 X241.48 Y237.067 E2.39399
G1 X241.018 Y237.463 E2.40156
G1 X240.516 Y237.868 E2.40958
G1 X240.002 Y238.256 E2.41759
G1 X239.435 Y238.657 E2.42623
G1 X238.839 Y239.049 E2.43511
G1 X238.343 Y239.35 E2.44233
G1 X237.844 Y239.633 E2.44946
G1 X237.284 Y239.931 E2.45736
G1 X236.67 Y240.232 E2.46586
G1 X236.124 Y240.477 E2.47331
G1 X235.541 Y240.717 E2.48115
G1 X234.927 Y240.948 E2.48932
G1 X234.358 Y241.143 E2.4968
G1 X233.813 Y241.312 E2.5039
G1 X233.421 Y241.425 E2.50897
G1 X233.136 Y241.499 E2.51264
G1 X232.611 Y241.626 E2.51936
G1 X231.965 Y241.76 E2.52756
G1 X231.253 Y241.884 E2.53656
G1 X230.631 Y241.973 E2.54437
G1 X230.163 Y242.025 E2.55023
G1 X229.809 Y242.058 E2.55466
G1 X229.476 Y242.08 E2.55881
G1 X228.782 Y242.114 E2.56745
G1 X228.13 Y242.125 E2.57557
G1 X227.601 Y242.117 E2.58215
G1 X226.956 Y242.087 E2.59018
G1 X226.207 Y242.028 E2.59953
G1 X225.553 Y241.955 E2.60772
G1 X225.04 Y241.881 E2.61416
G1 X224.432 Y241.774 E2.62184
G1 X223.789 Y241.641 E2.63001
G1 X223.18 Y241.495 E2.63781
G1 X222.621 Y241.343 E2.64501
G1 X222.268 Y241.241 E2.64958
G1 X221.903 Y241.123 E2.65436
G1 X221.351 Y240.933 E2.66162
G1 X220.77 Y240.713 E2.66935
G1 X220.217 Y240.484 E2.6768
G1 X219.672 Y240.239 E2.68423
G1 X219.148 Y239.985 E2.69147
G1 X218.555 Y239.673 E2.69981
G1 X217.945 Y239.326 E2.70854
G1 X217.423 Y239.008 E2.71615
G1 X216.99 Y238.726 E2.72258
G1 X216.475 Y238.367 E2.73039
G1 X215.763 Y237.836 E2.74144
G1 X215.362 Y237.51 E2.74787
G1 X214.859 Y237.079 E2.75611
G1 X214.391 Y236.652 E2.76399
G1 X213.976 Y236.249 E2.77119
G1 X213.538 Y235.795 E2.77903
G1 X213.116 Y235.331 E2.78684
G1 X212.684 Y234.824 E2.79513
G1 X212.273 Y234.308 E2.80333
G1 X211.922 Y233.841 E2.8106
G1 X211.621 Y233.415 E2.81709
G1 X211.256 Y232.86 E2.82535
G1 X210.876 Y232.24 E2.8344
G1 X210.558 Y231.682 E2.84239
G1 X210.295 Y231.185 E2.84939
G1 X210.009 Y230.601 E2.85748
G1 X209.753 Y230.032 E2.86524
G1 X209.518 Y229.466 E2.87287
G1 X209.298 Y228.886 E2.88058
G1 X209.099 Y228.308 E2.88819
G1 X208.918 Y227.728 E2.89575
G1 X208.744 Y227.101 E2.90384
G1 X208.602 Y226.517 E2.91132
G1 X208.468 Y225.875 E2.91948
G1 X208.353 Y225.221 E2.92774
G1 X208.262 Y224.594 E2.93562
G1 X208.194 Y223.988 E2.94321
G1 X208.158 Y223.595 E2.94812
G1 X208.137 Y223.272 E2.95215
G1 X208.114 Y222.787 E2.95819
G1 X208.103 Y222.403 E2.96297
G1 X208.103 Y222.079 E2.967
G1 X208.114 Y221.391 E2.97556
G1 X208.146 Y220.734 E2.98374
G1 X208.193 Y220.153 E2.991
G1 X208.259 Y219.558 E2.99844
G1 X208.342 Y218.967 E3.00587
G1 X208.448 Y218.351 E3.01365
G1 X208.569 Y217.757 E3.02119
G1 X208.721 Y217.118 E3.02936
G1 X208.882 Y216.526 E3.03699
G1 X208.977 Y216.196 E3.04126
G1 X209.107 Y215.793 E3.04653
G1 X209.292 Y215.255 E3.05361
G1 X209.515 Y214.666 E3.06145
G1 X209.741 Y214.121 E3.06879
G1 X210.001 Y213.547 E3.07663
G1 X210.3 Y212.936 E3.08509
G1 X210.6 Y212.368 E3.09308
G1 X210.872 Y211.891 E3.09991
G1 X211.192 Y211.367 E3.10755
G1 X211.546 Y210.825 E3.11561
G1 X211.909 Y210.306 E3.12349
G1 X212.264 Y209.83 E3.13087
G1 X212.653 Y209.34 E3.13866
G1 X213.044 Y208.878 E3.14619
G1 X213.498 Y208.376 E3.15461
G1 X214.003 Y207.854 E3.16364
G1 F1500 E1.16364
G1 F300 Z0.3
;MESH:Vinyl_Record_Player_Weight_Stabilizer_1eurocent_v01.stl 2
G0 F6000 X236.148 Y225.821 Z0.3
;TYPE:WALL-INNER
G1 F300 Z0.1
G1 F1500 E3.16364
G1 F600 X236.368 Y225.313 E3.17017
G1 X236.556 Y224.791 E3.17671
G1 X236.711 Y224.259 E3.18324
G1 X236.832 Y223.718 E3.18977
G1 X236.92 Y223.17 E3.19632
G1 X236.972 Y222.617 E3.20286
G1 X236.988 Y222.063 E3.20939
G1 X236.972 Y221.51 E3.21592
G1 X236.92 Y220.957 E3.22246
G1 X236.832 Y220.409 E3.229
G1 X236.711 Y219.868 E3.23554
G1 X236.556 Y219.336 E3.24207
G1 X236.368 Y218.814 E3.24861
G1 X236.148 Y218.305 E3.25514
G1 X235.896 Y217.812 E3.26167
G1 X235.615 Y217.335 E3.2682
G1 X235.303 Y216.876 E3.27474
G1 X234.962 Y216.438 E3.28128
G1 X234.596 Y216.023 E3.2878
G1 X234.202 Y215.627 E3.29439
G1 X233.785 Y215.261 E3.30093
G1 X233.347 Y214.922 E3.30745
G1 X232.888 Y214.61 E3.314
G1 X232.411 Y214.328 E3.32053
G1 X231.916 Y214.077 E3.32707
G1 X231.407 Y213.857 E3.3336
G1 X230.887 Y213.67 E3.34012
G1 X230.354 Y213.514 E3.34666
G1 X229.812 Y213.394 E3.35321
G1 X229.265 Y213.307 E3.35973
G1 X228.713 Y213.255 E3.36627
G1 X228.159 Y213.238 E3.3728
G1 X227.605 Y213.255 E3.37933
G1 X227.053 Y213.307 E3.38587
G1 X226.505 Y213.395 E3.39241
G1 X225.964 Y213.516 E3.39895
G1 X225.431 Y213.672 E3.40549
G1 X224.91 Y213.859 E3.41202
G1 X224.401 Y214.08 E3.41856
G1 X223.907 Y214.332 E3.42509
G1 X223.432 Y214.614 E3.4316
G1 X222.972 Y214.926 E3.43815
G1 X222.534 Y215.267 E3.4447
G1 X222.121 Y215.63 E3.45118
G1 X221.73 Y216.023 E3.45771
G1 X221.364 Y216.438 E3.46423
G1 X221.023 Y216.876 E3.47078
G1 X220.711 Y217.335 E3.47732
G1 X220.43 Y217.812 E3.48384
G1 X220.178 Y218.305 E3.49037
G1 X219.958 Y218.814 E3.49691
G1 X219.77 Y219.336 E3.50344
G1 X219.615 Y219.868 E3.50998
G1 X219.494 Y220.409 E3.51651
G1 X219.406 Y220.957 E3.52305
G1 X219.354 Y221.51 E3.5296
G1 X219.338 Y222.063 E3.53612
G1 X219.354 Y222.617 E3.54265
G1 X219.406 Y223.17 E3.5492
G1 X219.494 Y223.718 E3.55574
G1 X219.615 Y224.259 E3.56227
G1 X219.77 Y224.791 E3.56881
G1 X219.958 Y225.313 E3.57534
G1 X220.178 Y225.821 E3.58187
G1 X220.43 Y226.315 E3.58841
G1 X220.711 Y226.792 E3.59493
G1 X221.023 Y227.251 E3.60147
