;FLAVOR:Marlin
;TIME:6566
;Filament used: 5.93299m
;Layer height: 0.3
;MINX:60.399
;MINY:187.283
;MINZ:0.3
;MAXX:158.723
;MAXY:285.607
;MAXZ:29.1
;Generated with Cura_SteamEngine 4.10.0
M140 S30
M105
M190 S30
M104 S225
M105
M109 S225
M82 ;absolute extrusion mode
G28 ; home all axes
 M117 Purge extruder
 G92 E0 ; reset extruder
 G1 Z1.0 F3000 ; move z up little to prevent scratching of surface
 G1 X2 Y20 Z0.3 F5000.0 ; move to start-line position
 G1 X2 Y200.0 Z0.3 F1500.0 E15 ; draw 1st line
 G1 X2 Y200.0 Z0.4 F5000.0 ; move to side a little
 G1 X2 Y20 Z0.4 F1500.0 E30 ; draw 2nd line
 G92 E0 ; reset extruder
 G1 Z1.0 F3000 ; move z up little to prevent scratching of surface
G92 E0
G92 E0
G1 F1500 E-2
;LAYER_COUNT:97
;LAYER:0
M107
G1 F300 Z0.5
G0 F6000 X88.626 Y191.963 Z0.5
;TYPE:SKIRT
G1 F300 Z0.3
G1 F1500 E0
G1 F600 X89.713 Y191.471 E0.04453
G1 X90.56 Y191.105 E0.07897
G1 X91.175 Y190.85 E0.10382
G1 X91.463 Y190.735 E0.1154
G1 X92.369 Y190.391 E0.15157
G1 X93.527 Y189.973 E0.19752
G1 X94.036 Y189.798 E0.21761
G1 X94.345 Y189.697 E0.22974
G1 X95.526 Y189.333 E0.27587
G1 X96.479 Y189.058 E0.31289
G1 X97.012 Y188.912 E0.33352
G1 X97.315 Y188.834 E0.34519
G1 X98.347 Y188.584 E0.38483
G1 X99.298 Y188.371 E0.4212
G1 X100.047 Y188.213 E0.44977
G1 X100.376 Y188.149 E0.46228
G1 X101.5 Y187.952 E0.50487
G1 X102.514 Y187.792 E0.54319
G1 X103.035 Y187.717 E0.56283
G1 X103.367 Y187.675 E0.57532
G1 X104.617 Y187.537 E0.62226
G1 X105.61 Y187.444 E0.65949
G1 X106.126 Y187.403 E0.67881
G1 X106.444 Y187.383 E0.6907
G1 X107.694 Y187.323 E0.73741
G1 X108.668 Y187.294 E0.77378
G1 X109.215 Y187.284 E0.7942
G1 X109.562 Y187.283 E0.80715
G1 X110.753 Y187.302 E0.85161
G1 X111.737 Y187.334 E0.88836
G1 X112.326 Y187.361 E0.91036
G1 X112.648 Y187.381 E0.9224
G1 X113.835 Y187.473 E0.96684
G1 X114.851 Y187.57 E1.00493
G1 X115.396 Y187.63 E1.0254
G1 X115.707 Y187.669 E1.0371
G1 X116.895 Y187.837 E1.08188
G1 X117.783 Y187.977 E1.11543
G1 X118.468 Y188.096 E1.14138
G1 X118.765 Y188.152 E1.15266
G1 X119.736 Y188.351 E1.18966
G1 X120.874 Y188.604 E1.23317
G1 X121.439 Y188.738 E1.25484
G1 X121.782 Y188.826 E1.26806
G1 X122.961 Y189.149 E1.31369
G1 X123.89 Y189.419 E1.3498
G1 X124.438 Y189.587 E1.37119
G1 X124.752 Y189.689 E1.38351
G1 X125.725 Y190.021 E1.42188
G1 X126.695 Y190.369 E1.46035
G1 X127.365 Y190.62 E1.48705
G1 X127.668 Y190.739 E1.4992
G1 X128.57 Y191.111 E1.53562
G1 X129.542 Y191.53 E1.57513
G1 X130.165 Y191.808 E1.60059
G1 X130.47 Y191.951 E1.61316
G1 X131.433 Y192.421 E1.65316
G1 X132.472 Y192.95 E1.69667
G1 X132.951 Y193.203 E1.71689
G1 X133.237 Y193.36 E1.72907
G1 X134.113 Y193.858 E1.76668
G1 X135.034 Y194.402 E1.8066
G1 X135.633 Y194.767 E1.83278
G1 X135.892 Y194.931 E1.84423
G1 X136.891 Y195.585 E1.88879
G1 X137.728 Y196.154 E1.92657
G1 X138.191 Y196.479 E1.94768
G1 X138.446 Y196.664 E1.95944
G1 X139.27 Y197.28 E1.99784
G1 X140.261 Y198.047 E2.04461
G1 X140.537 Y198.265 E2.05774
G1 X140.747 Y198.435 E2.06782
G1 X141.177 Y198.793 E2.08871
G1 X141.396 Y198.98 E2.09946
G1 X142.445 Y199.903 E2.15161
G1 X142.95 Y200.36 E2.17703
G1 X143.19 Y200.585 E2.18931
G1 X143.947 Y201.316 E2.22858
G1 X144.689 Y202.057 E2.26772
G1 X145.19 Y202.571 E2.29451
G1 X145.414 Y202.809 E2.30671
G1 X146.178 Y203.648 E2.34907
G1 X146.903 Y204.469 E2.38995
G1 X147.248 Y204.87 E2.40969
G1 X147.577 Y205.266 E2.42891
G1 X147.836 Y205.589 E2.44436
G1 X148.805 Y206.837 E2.50333
G1 X149.114 Y207.246 E2.52246
G1 X149.312 Y207.517 E2.53499
G1 X149.902 Y208.352 E2.57315
G1 X150.642 Y209.438 E2.6222
G1 X150.924 Y209.866 E2.64133
G1 X151.226 Y210.341 E2.66234
G1 X151.399 Y210.624 E2.67472
G1 X152.171 Y211.927 E2.73125
G1 X152.473 Y212.453 E2.75389
G1 X152.639 Y212.755 E2.76675
G1 X153.205 Y213.823 E2.81186
G1 X153.649 Y214.697 E2.84845
G1 X153.9 Y215.208 E2.8697
G1 X154.037 Y215.497 E2.88164
G1 X154.461 Y216.431 E2.91992
G1 X154.542 Y216.614 E2.92739
G1 X154.948 Y217.559 E2.96578
G1 X155.166 Y218.086 E2.98707
G1 X155.278 Y218.368 E2.99839
G1 X155.61 Y219.241 E3.03325
G1 X156.04 Y220.431 E3.08048
G1 X156.201 Y220.899 E3.09895
G1 X156.303 Y221.212 E3.11124
G1 X156.674 Y222.416 E3.15826
G1 X156.957 Y223.394 E3.19626
G1 X157.101 Y223.918 E3.21655
G1 X157.186 Y224.247 E3.22923
G1 X157.44 Y225.31 E3.27002
G1 X157.681 Y226.39 E3.31132
G1 X157.786 Y226.893 E3.3305
G1 X157.847 Y227.211 E3.34259
G1 X158.056 Y228.401 E3.38768
G1 X158.214 Y229.405 E3.42562
G1 X158.289 Y229.926 E3.44526
G1 X158.33 Y230.249 E3.45742
G1 X158.468 Y231.489 E3.50398
G1 X158.56 Y232.471 E3.5408
G1 X158.603 Y233.005 E3.56079
G1 X158.625 Y233.341 E3.57336
G1 X158.675 Y234.374 E3.61196
G1 X158.709 Y235.414 E3.6508
G1 X158.722 Y236.097 E3.6763
G1 X158.723 Y236.445 E3.68929
G1 X158.704 Y237.636 E3.73374
G1 X158.673 Y238.609 E3.77008
G1 X158.647 Y239.191 E3.79182
G1 X158.625 Y239.535 E3.80469
G1 X158.531 Y240.736 E3.84965
G1 X158.436 Y241.722 E3.88662
G1 X158.375 Y242.286 E3.9078
G1 X158.333 Y242.619 E3.92033
G1 X158.173 Y243.749 E3.96292
G1 X158.006 Y244.801 E4.00268
G1 X157.916 Y245.321 E4.02238
G1 X157.855 Y245.645 E4.03468
G1 X157.615 Y246.805 E4.07889
G1 X157.39 Y247.807 E4.11722
G1 X157.259 Y248.357 E4.13833
G1 X157.174 Y248.686 E4.15101
G1 X156.872 Y249.791 E4.19377
G1 X156.586 Y250.775 E4.23201
G1 X156.432 Y251.28 E4.25172
G1 X156.324 Y251.614 E4.26482
G1 X155.932 Y252.757 E4.30992
G1 X155.574 Y253.749 E4.34928
G1 X155.387 Y254.245 E4.36907
G1 X155.269 Y254.544 E4.38107
G1 X154.816 Y255.639 E4.42529
G1 X154.421 Y256.548 E4.46229
G1 X154.199 Y257.043 E4.48254
G1 X154.059 Y257.344 E4.49493
G1 X153.592 Y258.303 E4.53474
G1 X153.112 Y259.245 E4.5742
G1 X152.796 Y259.845 E4.59951
G1 X152.649 Y260.114 E4.61095
G1 X152.163 Y260.972 E4.64776
G1 X152.059 Y261.151 E4.65548
G1 X151.532 Y262.038 E4.69399
G1 X151.239 Y262.517 E4.71495
G1 X151.07 Y262.785 E4.72677
G1 X150.427 Y263.766 E4.77055
G1 X149.859 Y264.6 E4.80822
G1 X149.522 Y265.081 E4.83014
G1 X149.335 Y265.34 E4.84206
G1 X148.751 Y266.122 E4.87849
G1 X148.024 Y267.063 E4.92287
G1 X147.72 Y267.447 E4.94115
G1 X147.571 Y267.631 E4.94999
G1 X147.222 Y268.051 E4.97037
G1 X147.025 Y268.281 E4.98167
G1 X146.007 Y269.435 E5.03911
G1 X145.51 Y269.983 E5.06672
G1 X145.322 Y270.185 E5.07702
G1 X145.062 Y270.457 E5.09107
G1 X144.896 Y270.626 E5.09991
G1 X143.848 Y271.674 E5.15522
G1 X143.498 Y272.015 E5.17346
G1 X143.257 Y272.242 E5.18582
G1 X142.284 Y273.13 E5.23499
G1 X141.395 Y273.912 E5.27918
G1 X141.164 Y274.108 E5.29049
G1 X140.735 Y274.464 E5.31129
G1 X140.417 Y274.72 E5.32653
G1 X139.169 Y275.689 E5.3855
G1 X138.76 Y275.998 E5.40464
G1 X138.483 Y276.2 E5.41743
G1 X137.634 Y276.799 E5.45621
G1 X137.478 Y276.907 E5.46329
G1 X136.518 Y277.558 E5.50659
G1 X136.179 Y277.781 E5.52173
G1 X135.69 Y278.093 E5.54338
G1 X135.397 Y278.273 E5.55622
G1 X133.991 Y279.106 E5.61721
G1 X133.608 Y279.326 E5.6337
G1 X133.309 Y279.491 E5.64645
G1 X132.143 Y280.11 E5.69572
G1 X131.309 Y280.533 E5.73062
G1 X130.798 Y280.784 E5.75187
G1 X130.505 Y280.922 E5.76396
G1 X129.395 Y281.424 E5.80943
G1 X128.446 Y281.832 E5.84798
G1 X127.943 Y282.04 E5.8683
G1 X127.66 Y282.152 E5.87966
G1 X126.549 Y282.573 E5.924
G1 X125.607 Y282.911 E5.96136
G1 X125.09 Y283.09 E5.98178
G1 X124.753 Y283.2 E5.99501
G1 X123.623 Y283.548 E6.03914
G1 X122.66 Y283.826 E6.07655
G1 X122.125 Y283.974 E6.09727
G1 X121.786 Y284.062 E6.11034
G1 X120.635 Y284.338 E6.15452
G1 X119.62 Y284.564 E6.19333
G1 X119.118 Y284.669 E6.21247
G1 X118.787 Y284.733 E6.22506
G1 X117.607 Y284.939 E6.26977
G1 X116.548 Y285.106 E6.30978
G1 X116.073 Y285.174 E6.32769
G1 X115.759 Y285.214 E6.3395
G1 X114.711 Y285.332 E6.37887
G1 X114.518 Y285.352 E6.38611
G1 X113.538 Y285.443 E6.42284
G1 X113.011 Y285.486 E6.44258
G1 X112.663 Y285.509 E6.4556
G1 X111.45 Y285.566 E6.50092
G1 X110.454 Y285.596 E6.53811
G1 X109.911 Y285.606 E6.55838
G1 X109.562 Y285.607 E6.57141
G1 X108.368 Y285.588 E6.61598
G1 X107.388 Y285.556 E6.65258
G1 X106.796 Y285.529 E6.6747
G1 X106.466 Y285.509 E6.68704
G1 X105.468 Y285.432 E6.7244
G1 X104.42 Y285.334 E6.76368
G1 X103.717 Y285.259 E6.79007
G1 X103.386 Y285.217 E6.80252
G1 X102.256 Y285.057 E6.84512
G1 X101.204 Y284.89 E6.88488
G1 X100.684 Y284.8 E6.90457
G1 X100.36 Y284.739 E6.91688
G1 X99.2 Y284.499 E6.96109
G1 X98.341 Y284.307 E6.99394
G1 X97.653 Y284.143 E7.02034
G1 X97.336 Y284.062 E7.03255
G1 X96.187 Y283.748 E7.07701
G1 X95.227 Y283.468 E7.11434
G1 X94.669 Y283.297 E7.13612
G1 X94.354 Y283.195 E7.14848
G1 X93.265 Y282.822 E7.19144
G1 X92.284 Y282.468 E7.23037
G1 X91.72 Y282.255 E7.25287
G1 X91.435 Y282.142 E7.26431
G1 X90.427 Y281.726 E7.30501
G1 X89.418 Y281.289 E7.34605
G1 X88.961 Y281.083 E7.36476
G1 X88.674 Y280.949 E7.37659
G1 X87.679 Y280.464 E7.4179
G1 X86.763 Y279.998 E7.45626
G1 X86.186 Y279.694 E7.4806
G1 X85.894 Y279.535 E7.49301
G1 X84.997 Y279.025 E7.53152
G1 X83.942 Y278.401 E7.57727
G1 X83.496 Y278.128 E7.59679
G1 X83.228 Y277.958 E7.60864
G1 X82.213 Y277.292 E7.65395
G1 X81.418 Y276.751 E7.68984
G1 X80.952 Y276.425 E7.71107
G1 X80.681 Y276.229 E7.72355
G1 X79.689 Y275.485 E7.76983
G1 X78.857 Y274.84 E7.80912
G1 X78.58 Y274.621 E7.8223
G1 X78.385 Y274.463 E7.83167
G1 X77.955 Y274.106 E7.85253
G1 X77.718 Y273.904 E7.86415
G1 X76.672 Y272.982 E7.9162
G1 X76.179 Y272.536 E7.94101
G1 X75.935 Y272.308 E7.95347
G1 X75.028 Y271.431 E8.00056
G1 X74.345 Y270.745 E8.03669
G1 X73.92 Y270.307 E8.05947
G1 X73.707 Y270.081 E8.07106
G1 X72.95 Y269.251 E8.11299
G1 X72.201 Y268.402 E8.15525
G1 X71.907 Y268.058 E8.17214
G1 X71.555 Y267.635 E8.19268
G1 X71.391 Y267.433 E8.20239
G1 X71.211 Y267.205 E8.21323
G1 X70.332 Y266.073 E8.26673
G1 X69.991 Y265.62 E8.28789
G1 X69.804 Y265.363 E8.29975
G1 X69.088 Y264.347 E8.34614
G1 X68.451 Y263.407 E8.38852
G1 X68.21 Y263.041 E8.40488
G1 X67.907 Y262.564 E8.42597
G1 X67.737 Y262.287 E8.4381
G1 X66.94 Y260.941 E8.49649
G1 X66.652 Y260.44 E8.51806
G1 X66.481 Y260.13 E8.53127
G1 X65.92 Y259.07 E8.57603
G1 X65.477 Y258.201 E8.61244
G1 X65.219 Y257.677 E8.63424
G1 X65.076 Y257.375 E8.64671
G1 X64.662 Y256.462 E8.68413
G1 X64.243 Y255.495 E8.72346
G1 X63.968 Y254.835 E8.75015
G1 X63.856 Y254.551 E8.76154
G1 X63.432 Y253.432 E8.80621
G1 X63.093 Y252.487 E8.84368
G1 X62.925 Y252.001 E8.86287
G1 X62.815 Y251.667 E8.876
G1 X62.493 Y250.624 E8.91674
G1 X62.209 Y249.649 E8.95464
G1 X62.024 Y248.981 E8.98051
G1 X61.94 Y248.655 E8.99308
G1 X61.671 Y247.537 E9.036
G1 X61.441 Y246.504 E9.0755
G1 X61.336 Y246.001 E9.09468
G1 X61.273 Y245.673 E9.10714
G1 X61.067 Y244.493 E9.15185
G1 X60.901 Y243.444 E9.19149
G1 X60.834 Y242.98 E9.20899
G1 X60.79 Y242.639 E9.22182
G1 X60.671 Y241.569 E9.26201
G1 X60.574 Y240.553 E9.3001
G1 X60.519 Y239.881 E9.32527
G1 X60.499 Y239.561 E9.33723
G1 X60.439 Y238.311 E9.38394
G1 X60.409 Y237.298 E9.42177
G1 X60.4 Y236.786 E9.44088
G1 X60.399 Y236.446 E9.45357
G1 X60.418 Y235.254 E9.49807
G1 X60.45 Y234.263 E9.53507
G1 X60.477 Y233.673 E9.55712
G1 X60.497 Y233.344 E9.56942
G1 X60.588 Y232.181 E9.61296
G1 X60.672 Y231.29 E9.64636
G1 X60.746 Y230.61 E9.67189
G1 X60.785 Y230.296 E9.6837
G1 X60.955 Y229.094 E9.72901
G1 X61.091 Y228.235 E9.76147
G1 X61.204 Y227.579 E9.78632
G1 X61.263 Y227.265 E9.79824
G1 X61.511 Y226.059 E9.8442
G1 X61.702 Y225.208 E9.87675
G1 X61.861 Y224.54 E9.90238
G1 X61.942 Y224.22 E9.9147
G1 X62.204 Y223.256 E9.95199
G1 X62.257 Y223.068 E9.95928
G1 X62.554 Y222.055 E9.99868
G1 X62.704 Y221.566 E10.01777
G1 X62.805 Y221.254 E10.03001
G1 X63.196 Y220.113 E10.07503
G1 X63.537 Y219.168 E10.11253
G1 X63.733 Y218.647 E10.1333
G1 X63.855 Y218.339 E10.14567
G1 X64.297 Y217.271 E10.18881
G1 X64.704 Y216.331 E10.22704
G1 X64.924 Y215.841 E10.24709
G1 X65.067 Y215.536 E10.25966
G1 X65.537 Y214.573 E10.29966
G1 X66.016 Y213.631 E10.3391
G1 X66.326 Y213.043 E10.36391
G1 X66.479 Y212.764 E10.37579
G1 X66.967 Y211.905 E10.41266
G1 X67.547 Y210.923 E10.45523
G1 X67.9 Y210.345 E10.48051
G1 X68.057 Y210.097 E10.49146
G1 X68.682 Y209.143 E10.53403
G1 X69.258 Y208.295 E10.57229
G1 X69.574 Y207.844 E10.59285
G1 X69.759 Y207.589 E10.6046
G1 X70.409 Y206.718 E10.64517
G1 X70.531 Y206.558 E10.65268
G1 X71.198 Y205.699 E10.69327
G1 X71.363 Y205.49 E10.70321
G1 X71.537 Y205.276 E10.7135
G1 X71.911 Y204.827 E10.73531
G1 X72.096 Y204.61 E10.74596
G1 X73.019 Y203.561 E10.79811
G1 X73.593 Y202.926 E10.83006
G1 X73.811 Y202.693 E10.84197
G1 X74.223 Y202.267 E10.86409
G1 X75.251 Y201.238 E10.91837
G1 X75.629 Y200.87 E10.93806
G1 X75.877 Y200.636 E10.95079
G1 X76.838 Y199.761 E10.9993
G1 X77.39 Y199.275 E11.02675
G1 X78.046 Y198.715 E11.05894
G1 X78.276 Y198.524 E11.0701
G1 X79.1 Y197.863 E11.10953
G1 X79.954 Y197.201 E11.14986
G1 X80.375 Y196.883 E11.16955
G1 X80.649 Y196.683 E11.18221
G1 X81.472 Y196.102 E11.21981
G1 X82.554 Y195.364 E11.2687
G1 X82.982 Y195.082 E11.28783
G1 X83.435 Y194.794 E11.30786
G1 X83.717 Y194.621 E11.32021
G1 X85.069 Y193.821 E11.37885
G1 X85.569 Y193.534 E11.40037
G1 X85.87 Y193.368 E11.4132
G1 X86.779 Y192.885 E11.45161
G1 X87.804 Y192.361 E11.49458
G1 X88.324 Y192.105 E11.51621
G1 X88.626 Y191.963 E11.52867
G0 F6000 X88.77 Y192.282
G1 F600 X89.852 Y191.793 E11.57299
G1 X90.845 Y191.365 E11.61335
G1 X91.309 Y191.173 E11.63209
G1 X91.587 Y191.063 E11.64325
G1 X92.647 Y190.662 E11.68555
G1 X93.641 Y190.304 E11.72498
G1 X94.15 Y190.129 E11.74507
G1 X94.449 Y190.031 E11.75681
G1 X95.447 Y189.722 E11.79581
G1 X96.428 Y189.436 E11.83395
G1 X97.105 Y189.25 E11.86015
G1 X97.397 Y189.174 E11.87141
G1 X98.429 Y188.924 E11.91105
G1 X98.618 Y188.88 E11.91829
G1 X99.494 Y188.686 E11.95178
G1 X100.119 Y188.555 E11.97561
G1 X100.437 Y188.494 E11.9877
G1 X101.555 Y188.298 E12.03006
G1 X102.564 Y188.139 E12.06819
G1 X103.085 Y188.064 E12.08783
G1 X103.406 Y188.023 E12.09991
G1 X104.65 Y187.885 E12.14663
G1 X105.638 Y187.793 E12.18366
G1 X106.154 Y187.752 E12.20298
G1 X106.461 Y187.732 E12.21447
G1 X107.52 Y187.68 E12.25404
G1 X108.546 Y187.647 E12.29235
G1 X109.221 Y187.634 E12.31755
G1 X109.557 Y187.633 E12.33009
G1 X110.742 Y187.652 E12.37433
G1 X111.721 Y187.684 E12.41089
G1 X112.31 Y187.711 E12.4329
G1 X112.621 Y187.73 E12.44452
G1 X113.802 Y187.822 E12.48874
G1 X114.812 Y187.918 E12.52661
G1 X115.357 Y187.978 E12.54707
G1 X115.658 Y188.016 E12.55839
G1 X116.841 Y188.183 E12.60299
G1 X117.729 Y188.323 E12.63654
G1 X118.408 Y188.441 E12.66226
G1 X118.695 Y188.495 E12.67316
G1 X119.834 Y188.73 E12.71657
G1 X120.793 Y188.945 E12.75325
G1 X121.358 Y189.079 E12.77493
G1 X121.69 Y189.163 E12.78771
G1 X122.864 Y189.485 E12.83314
G1 X123.787 Y189.754 E12.86903
G1 X124.335 Y189.922 E12.89042
G1 X124.639 Y190.02 E12.90234
G1 X125.612 Y190.352 E12.94071
G1 X126.577 Y190.698 E12.97898
G1 X127.242 Y190.947 E13.00548
G1 X127.534 Y191.063 E13.01721
G1 X128.596 Y191.502 E13.0601
G1 X129.532 Y191.908 E13.09818
G1 X130.022 Y192.128 E13.11823
G1 X130.317 Y192.266 E13.13038
G1 X131.441 Y192.816 E13.17709
G1 X132.308 Y193.26 E13.21344
G1 X132.787 Y193.513 E13.23366
G1 X133.064 Y193.664 E13.24544
G1 X133.94 Y194.162 E13.28305
G1 X134.856 Y194.703 E13.32276
G1 X135.45 Y195.065 E13.34872
G1 X135.7 Y195.224 E13.35978
G1 X136.694 Y195.875 E13.40413
G1 X137.527 Y196.441 E13.44171
G1 X137.99 Y196.766 E13.46283
G1 X138.236 Y196.945 E13.47418
G1 X139.201 Y197.668 E13.51919
G1 X140.044 Y198.321 E13.55899
G1 X140.32 Y198.539 E13.57212
G1 X140.523 Y198.704 E13.58188
G1 X140.953 Y199.062 E13.60276
G1 X141.164 Y199.243 E13.61314
G1 X142.328 Y200.268 E13.67103
G1 X142.715 Y200.619 E13.69053
G1 X142.947 Y200.837 E13.70241
G1 X143.837 Y201.698 E13.74863
G1 X144.542 Y202.406 E13.78592
G1 X144.939 Y202.815 E13.8072
G1 X145.155 Y203.045 E13.81897
G1 X145.915 Y203.88 E13.86112
G1 X146.638 Y204.698 E13.90186
G1 X146.84 Y204.931 E13.91337
G1 X147.307 Y205.49 E13.94056
G1 X147.562 Y205.807 E13.95574
G1 X148.526 Y207.048 E14.0144
G1 X148.835 Y207.457 E14.03353
G1 X149.026 Y207.719 E14.04563
G1 X149.718 Y208.701 E14.09047
G1 X150.35 Y209.632 E14.13247
G1 X150.628 Y210.054 E14.15133
G1 X150.93 Y210.529 E14.17234
G1 X151.098 Y210.802 E14.1843
G1 X151.867 Y212.102 E14.24068
G1 X152.169 Y212.628 E14.26332
G1 X152.33 Y212.919 E14.27573
G1 X152.812 Y213.826 E14.31406
