;FLAVOR:Marlin
;TIME:5919
;Filament used: 5.3879m
;Layer height: 0.3
;MINX:135.792
;MINY:169.592
;MINZ:0.3
;MAXX:228.734
;MAXY:262.534
;MAXZ:29.1
;Generated with Cura_SteamEngine 4.10.0
M140 S30
M105
M190 S30
M104 S225
M105
M109 S225
M82 ;absolute extrusion mode
G28 ; home all axes
 M117 Purge extruder
 G92 E0 ; reset extruder
 G1 Z1.0 F3000 ; move z up little to prevent scratching of surface
 G1 X2 Y20 Z0.3 F5000.0 ; move to start-line position
 G1 X2 Y200.0 Z0.3 F1500.0 E15 ; draw 1st line
 G1 X2 Y200.0 Z0.4 F5000.0 ; move to side a little
 G1 X2 Y20 Z0.4 F1500.0 E30 ; draw 2nd line
 G92 E0 ; reset extruder
 G1 Z1.0 F3000 ; move z up little to prevent scratching of surface
G92 E0
G92 E0
G1 F1500 E-2
;LAYER_COUNT:97
;LAYER:0
M107
G1 F300 Z0.5
G0 F6000 X152.262 Y180.577 Z0.5
;TYPE:SKIRT
G1 F300 Z0.3
G1 F1500 E0
G1 F600 X153.555 Y179.527 E0.06217
G1 X153.736 Y179.383 E0.0708
G1 X154.26 Y178.978 E0.09552
G1 X154.66 Y178.677 E0.1142
G1 X154.917 Y178.49 E0.12607
G1 X155.921 Y177.782 E0.17192
G1 X156.614 Y177.311 E0.2032
G1 X156.851 Y177.154 E0.21381
G1 X157.132 Y176.974 E0.22626
G1 X158.294 Y176.256 E0.27724
G1 X158.991 Y175.841 E0.30752
G1 X159.53 Y175.53 E0.33075
G1 X159.833 Y175.362 E0.34368
G1 X160.78 Y174.858 E0.38372
G1 X161.74 Y174.368 E0.42395
G1 X162.204 Y174.14 E0.44324
G1 X162.708 Y173.902 E0.46405
G1 X163.011 Y173.764 E0.47647
G1 X164.416 Y173.155 E0.53363
G1 X164.62 Y173.068 E0.54191
G1 X164.863 Y172.968 E0.55171
G1 X165.379 Y172.763 E0.57244
G1 X165.685 Y172.647 E0.58465
G1 X167.071 Y172.147 E0.63965
G1 X167.553 Y171.981 E0.65867
G1 X167.871 Y171.877 E0.67116
G1 X169.07 Y171.508 E0.71798
G1 X169.844 Y171.284 E0.74806
G1 X170.408 Y171.129 E0.76989
G1 X170.715 Y171.05 E0.78172
G1 X171.846 Y170.777 E0.82515
G1 X172.693 Y170.589 E0.85753
G1 X173.18 Y170.487 E0.8761
G1 X173.506 Y170.424 E0.88849
G1 X174.598 Y170.231 E0.92988
G1 X175.41 Y170.101 E0.96058
G1 X176.083 Y170.003 E0.98596
G1 X176.407 Y169.961 E0.99815
G1 X177.647 Y169.823 E1.04472
G1 X178.484 Y169.745 E1.0761
G1 X178.902 Y169.715 E1.09174
G1 X180.463 Y169.632 E1.15008
G1 X180.683 Y169.622 E1.1583
G1 X181.21 Y169.605 E1.17798
G1 X181.891 Y169.593 E1.20341
G1 X182.217 Y169.592 E1.21557
G1 X183.488 Y169.611 E1.26302
G1 X184.324 Y169.639 E1.29424
G1 X184.913 Y169.667 E1.31625
G1 X185.225 Y169.686 E1.32791
G1 X186.143 Y169.757 E1.36228
G1 X187.213 Y169.856 E1.40239
G1 X187.683 Y169.907 E1.42003
G1 X188.011 Y169.948 E1.43237
G1 X189.165 Y170.11 E1.47586
G1 X189.96 Y170.236 E1.50591
G1 X190.668 Y170.358 E1.53272
G1 X190.974 Y170.416 E1.54435
G1 X192.114 Y170.651 E1.58779
G1 X192.962 Y170.842 E1.62023
G1 X193.502 Y170.971 E1.64096
G1 X193.813 Y171.05 E1.65293
G1 X194.786 Y171.314 E1.69056
G1 X195.696 Y171.577 E1.72592
G1 X196.247 Y171.744 E1.74741
G1 X196.577 Y171.851 E1.76036
G1 X197.774 Y172.26 E1.80757
G1 X198.563 Y172.546 E1.83889
G1 X199.101 Y172.749 E1.86035
G1 X199.393 Y172.864 E1.87207
G1 X200.409 Y173.284 E1.9131
G1 X201.084 Y173.576 E1.94055
G1 X201.726 Y173.864 E1.96681
G1 X202.027 Y174.004 E1.9792
G1 X202.987 Y174.472 E2.01907
G1 X203.766 Y174.867 E2.05167
G1 X204.308 Y175.151 E2.07451
G1 X204.604 Y175.313 E2.0871
G1 X205.721 Y175.95 E2.13509
G1 X206.321 Y176.306 E2.16113
G1 X206.919 Y176.672 E2.1873
G1 X207.177 Y176.835 E2.19869
G1 X208.105 Y177.443 E2.2401
G1 X208.727 Y177.865 E2.26815
G1 X209.258 Y178.236 E2.29233
G1 X209.529 Y178.431 E2.30479
G1 X210.432 Y179.106 E2.34687
G1 X211.192 Y179.694 E2.38274
G1 X211.53 Y179.968 E2.39898
G1 X212.743 Y180.992 E2.45823
G1 X212.9 Y181.127 E2.46596
G1 X213.462 Y181.622 E2.49391
G1 X213.825 Y181.952 E2.51222
G1 X214.046 Y182.159 E2.52352
G1 X214.776 Y182.862 E2.56135
G1 X215.469 Y183.553 E2.59787
G1 X215.711 Y183.8 E2.61078
G1 X215.9 Y184.001 E2.62108
G1 X217.004 Y185.204 E2.68202
G1 X217.441 Y185.698 E2.70664
G1 X217.724 Y186.032 E2.72298
G1 X218.772 Y187.321 E2.78498
G1 X218.909 Y187.493 E2.79319
G1 X219.372 Y188.09 E2.82139
G1 X219.637 Y188.443 E2.83786
G1 X219.812 Y188.683 E2.84895
G1 X220.567 Y189.753 E2.89783
G1 X221.042 Y190.454 E2.92943
G1 X221.164 Y190.638 E2.93767
G1 X221.34 Y190.913 E2.94986
G1 X222.156 Y192.233 E3.00778
G1 X222.584 Y192.958 E3.0392
G1 X222.799 Y193.333 E3.05534
G1 X222.958 Y193.621 E3.06762
G1 X223.535 Y194.708 E3.11355
G1 X224.003 Y195.628 E3.15208
G1 X224.176 Y195.981 E3.16675
G1 X224.433 Y196.526 E3.18924
G1 X224.565 Y196.819 E3.20123
G1 X225.221 Y198.33 E3.26271
G1 X225.347 Y198.635 E3.27503
G1 X225.546 Y199.134 E3.29508
G1 X225.64 Y199.378 E3.30484
G1 X225.764 Y199.714 E3.31821
G1 X226.175 Y200.861 E3.36369
G1 X226.339 Y201.335 E3.38241
G1 X226.448 Y201.665 E3.39538
G1 X226.758 Y202.667 E3.43453
G1 X227.005 Y203.511 E3.46735
G1 X227.196 Y204.204 E3.49418
G1 X227.273 Y204.502 E3.50567
G1 X227.546 Y205.633 E3.54909
G1 X227.723 Y206.428 E3.57949
G1 X227.84 Y206.982 E3.60063
G1 X227.908 Y207.337 E3.61412
G1 X228.125 Y208.576 E3.66106
G1 X228.246 Y209.346 E3.69016
G1 X228.321 Y209.865 E3.70973
G1 X228.364 Y210.201 E3.72237
G1 X228.486 Y211.293 E3.76338
G1 X228.58 Y212.278 E3.80032
G1 X228.612 Y212.712 E3.81656
G1 X228.704 Y214.48 E3.88264
G1 X228.721 Y215.007 E3.90232
G1 X228.733 Y215.678 E3.92736
G1 X228.734 Y216.006 E3.93961
G1 X228.719 Y217.099 E3.98041
G1 X228.692 Y217.97 E4.01293
G1 X228.66 Y218.694 E4.03998
G1 X228.64 Y219.009 E4.05176
G1 X228.555 Y220.105 E4.09279
G1 X228.465 Y221.061 E4.12863
G1 X228.42 Y221.473 E4.1441
G1 X228.381 Y221.787 E4.15591
G1 X228.217 Y222.96 E4.20012
G1 X228.09 Y223.763 E4.23046
G1 X227.968 Y224.468 E4.25716
G1 X227.91 Y224.775 E4.26883
G1 X227.719 Y225.708 E4.30437
G1 X227.518 Y226.614 E4.33901
G1 X227.355 Y227.302 E4.3654
G1 X227.276 Y227.613 E4.37738
G1 X227.012 Y228.586 E4.41501
G1 X226.749 Y229.496 E4.45036
G1 X226.581 Y230.048 E4.4719
G1 X226.477 Y230.371 E4.48456
G1 X226.071 Y231.559 E4.53142
G1 X225.782 Y232.357 E4.5631
G1 X225.591 Y232.866 E4.58339
G1 X225.466 Y233.184 E4.59614
G1 X225.099 Y234.073 E4.63204
G1 X224.736 Y234.916 E4.6663
G1 X224.458 Y235.538 E4.69173
G1 X224.319 Y235.836 E4.704
G1 X223.881 Y236.735 E4.74132
G1 X223.456 Y237.572 E4.77636
G1 X223.18 Y238.098 E4.79853
G1 X223.012 Y238.406 E4.81163
G1 X222.376 Y239.521 E4.85954
G1 X222.02 Y240.121 E4.88558
G1 X221.654 Y240.719 E4.91175
G1 X221.49 Y240.978 E4.92319
G1 X220.871 Y241.922 E4.96532
G1 X220.376 Y242.649 E4.99815
G1 X220.09 Y243.058 E5.01678
G1 X219.895 Y243.329 E5.02924
G1 X219.22 Y244.232 E5.07132
G1 X218.632 Y244.992 E5.10718
G1 X218.358 Y245.33 E5.12342
G1 X217.334 Y246.543 E5.18267
G1 X217.199 Y246.7 E5.1904
G1 X216.709 Y247.256 E5.21806
G1 X216.394 Y247.603 E5.23555
G1 X216.175 Y247.837 E5.24751
G1 X215.434 Y248.605 E5.28735
G1 X214.803 Y249.238 E5.32071
G1 X214.336 Y249.694 E5.34507
G1 X214.095 Y249.921 E5.35742
G1 X213.314 Y250.634 E5.3969
G1 X212.579 Y251.283 E5.43349
G1 X212.257 Y251.556 E5.44925
G1 X210.998 Y252.578 E5.50977
G1 X210.833 Y252.709 E5.51764
G1 X210.236 Y253.172 E5.54584
G1 X209.883 Y253.437 E5.56231
G1 X209.643 Y253.612 E5.5734
G1 X208.573 Y254.367 E5.62227
G1 X207.851 Y254.856 E5.65482
G1 X207.663 Y254.98 E5.66323
G1 X207.407 Y255.143 E5.67455
G1 X206.095 Y255.954 E5.73212
G1 X205.382 Y256.375 E5.76303
G1 X204.96 Y256.616 E5.78117
G1 X204.688 Y256.766 E5.79276
G1 X203.768 Y257.256 E5.83167
G1 X202.684 Y257.81 E5.8771
G1 X202.341 Y257.978 E5.89136
G1 X201.788 Y258.238 E5.91417
G1 X201.508 Y258.364 E5.92563
G1 X199.996 Y259.021 E5.98716
G1 X199.691 Y259.147 E5.99947
G1 X199.192 Y259.346 E6.01953
G1 X198.948 Y259.44 E6.02929
G1 X198.612 Y259.564 E6.04265
G1 X197.459 Y259.978 E6.08838
G1 X196.984 Y260.142 E6.10713
G1 X196.662 Y260.247 E6.11977
G1 X195.462 Y260.617 E6.16664
G1 X194.643 Y260.854 E6.19847
G1 X194.116 Y260.998 E6.21886
G1 X193.825 Y261.073 E6.23007
G1 X192.861 Y261.307 E6.2671
G1 X192.668 Y261.352 E6.2745
G1 X191.898 Y261.523 E6.30394
G1 X191.344 Y261.64 E6.32507
G1 X190.989 Y261.708 E6.33856
G1 X189.75 Y261.925 E6.38551
G1 X189.127 Y262.024 E6.40905
G1 X188.457 Y262.121 E6.43432
G1 X188.125 Y262.164 E6.44682
G1 X186.852 Y262.305 E6.49462
G1 X186.046 Y262.381 E6.52484
G1 X185.614 Y262.412 E6.541
G1 X183.846 Y262.504 E6.60708
G1 X183.319 Y262.521 E6.62676
G1 X182.631 Y262.533 E6.65244
G1 X182.306 Y262.534 E6.66457
G1 X181.225 Y262.519 E6.70493
G1 X180.356 Y262.492 E6.73738
G1 X179.632 Y262.46 E6.76443
G1 X179.317 Y262.44 E6.77621
G1 X178.221 Y262.355 E6.81724
G1 X177.265 Y262.265 E6.85308
G1 X176.853 Y262.22 E6.86854
G1 X176.539 Y262.181 E6.88035
G1 X175.366 Y262.017 E6.92456
G1 X174.563 Y261.89 E6.95491
G1 X173.873 Y261.771 E6.98104
G1 X173.556 Y261.711 E6.99308
G1 X172.567 Y261.508 E7.03076
G1 X171.758 Y261.328 E7.0617
G1 X171.014 Y261.152 E7.09023
G1 X170.694 Y261.07 E7.10256
G1 X169.547 Y260.757 E7.14694
G1 X168.734 Y260.52 E7.17855
G1 X168.256 Y260.374 E7.1972
G1 X167.94 Y260.272 E7.20959
G1 X166.755 Y259.867 E7.25634
G1 X165.965 Y259.58 E7.28771
G1 X165.454 Y259.388 E7.30808
G1 X165.141 Y259.265 E7.32063
G1 X164.098 Y258.833 E7.36277
G1 X163.276 Y258.477 E7.3962
G1 X162.812 Y258.269 E7.41518
G1 X162.503 Y258.125 E7.42791
G1 X161.566 Y257.668 E7.46682
G1 X160.786 Y257.272 E7.49947
G1 X160.15 Y256.936 E7.52631
G1 X159.876 Y256.786 E7.53797
G1 X159.017 Y256.298 E7.57485
G1 X158.24 Y255.84 E7.60851
G1 X157.589 Y255.442 E7.63699
G1 X157.347 Y255.289 E7.64768
G1 X156.576 Y254.786 E7.68204
G1 X155.783 Y254.25 E7.71776
G1 X155.63 Y254.145 E7.72469
G1 X155.221 Y253.857 E7.74336
G1 X154.992 Y253.69 E7.75394
G1 X153.972 Y252.928 E7.80146
G1 X153.32 Y252.421 E7.83228
G1 X152.994 Y252.156 E7.84797
G1 X151.785 Y251.136 E7.907
G1 X151.614 Y250.989 E7.91542
G1 X151.084 Y250.52 E7.94184
G1 X150.692 Y250.164 E7.9616
G1 X150.463 Y249.95 E7.9733
G1 X149.741 Y249.254 E8.01073
G1 X149.105 Y248.62 E8.04425
G1 X148.818 Y248.327 E8.05955
G1 X148.608 Y248.106 E8.07093
G1 X147.657 Y247.072 E8.12337
G1 X147.52 Y246.92 E8.13101
G1 X147.084 Y246.427 E8.15557
G1 X146.802 Y246.094 E8.17186
G1 X145.754 Y244.805 E8.23386
G1 X145.617 Y244.633 E8.24207
G1 X145.154 Y244.036 E8.27027
G1 X144.889 Y243.683 E8.28674
G1 X144.714 Y243.443 E8.29783
G1 X143.959 Y242.373 E8.34671
G1 X143.477 Y241.662 E8.37877
G1 X143.352 Y241.473 E8.38722
G1 X143.18 Y241.204 E8.39914
G1 X142.372 Y239.895 E8.45656
G1 X142.036 Y239.328 E8.48116
G1 X141.708 Y238.755 E8.5058
G1 X141.56 Y238.486 E8.51726
G1 X140.988 Y237.409 E8.56277
G1 X140.516 Y236.484 E8.60153
G1 X140.352 Y236.15 E8.61542
G1 X140.098 Y235.611 E8.63766
G1 X139.964 Y235.315 E8.64979
G1 X139.355 Y233.91 E8.70694
G1 X139.268 Y233.706 E8.71522
G1 X139.168 Y233.463 E8.72503
G1 X138.963 Y232.947 E8.74575
G1 X138.867 Y232.697 E8.75575
G1 X138.76 Y232.405 E8.76736
G1 X138.327 Y231.199 E8.81518
G1 X138.172 Y230.747 E8.83302
G1 X138.074 Y230.446 E8.84483
G1 X137.769 Y229.461 E8.88332
G1 X137.52 Y228.61 E8.91641
G1 X137.33 Y227.921 E8.94309
G1 X137.253 Y227.625 E8.9545
G1 X137.019 Y226.661 E8.99153
G1 X136.974 Y226.468 E8.99893
G1 X136.8 Y225.684 E9.0289
G1 X136.68 Y225.112 E9.05071
G1 X136.616 Y224.778 E9.06341
G1 X136.408 Y223.593 E9.10831
G1 X136.276 Y222.754 E9.14001
G1 X136.199 Y222.219 E9.16019
G1 X136.157 Y221.885 E9.17275
G1 X136.027 Y220.711 E9.21684
G1 X135.945 Y219.841 E9.24945
G1 X135.914 Y219.409 E9.26562
G1 X135.822 Y217.643 E9.33162
G1 X135.805 Y217.116 E9.3513
G1 X135.793 Y216.436 E9.37669
G1 X135.792 Y216.11 E9.38886
G1 X135.811 Y214.838 E9.43634
G1 X135.839 Y213.999 E9.46767
G1 X135.866 Y213.435 E9.48874
G1 X135.885 Y213.132 E9.50008
G1 X135.975 Y211.978 E9.54328
G1 X136.053 Y211.162 E9.57387
G1 X136.112 Y210.615 E9.59441
G1 X136.153 Y210.279 E9.60704
G1 X136.308 Y209.176 E9.64862
G1 X136.434 Y208.378 E9.67877
G1 X136.552 Y207.69 E9.70482
G1 X136.614 Y207.361 E9.71732
G1 X136.857 Y206.186 E9.7621
G1 X137.042 Y205.364 E9.79355
G1 X137.171 Y204.824 E9.81427
G1 X137.251 Y204.512 E9.82629
G1 X137.572 Y203.334 E9.87187
G1 X137.814 Y202.506 E9.90406
G1 X137.944 Y202.079 E9.92072
G1 X138.051 Y201.749 E9.93367
G1 X138.46 Y200.552 E9.98088
G1 X138.744 Y199.767 E10.01204
G1 X138.946 Y199.231 E10.03342
G1 X139.065 Y198.931 E10.04547
G1 X139.496 Y197.888 E10.08759
G1 X139.834 Y197.11 E10.11925
G1 X140.067 Y196.591 E10.14048
G1 X140.205 Y196.297 E10.1526
G1 X140.658 Y195.366 E10.19125
G1 X141.051 Y194.593 E10.22361
G1 X141.368 Y193.988 E10.24911
G1 X141.533 Y193.687 E10.26192
G1 X142.143 Y192.618 E10.30786
G1 X142.577 Y191.888 E10.33956
G1 X142.876 Y191.401 E10.36089
G1 X143.036 Y191.149 E10.37203
G1 X143.658 Y190.2 E10.41438
G1 X144.15 Y189.477 E10.44702
G1 X144.436 Y189.068 E10.46565
G1 X144.631 Y188.797 E10.47811
G1 X145.306 Y187.894 E10.52019
G1 X145.894 Y187.134 E10.55605
G1 X146.168 Y186.796 E10.57229
G1 X147.192 Y185.583 E10.63154
G1 X147.327 Y185.426 E10.63927
G1 X147.818 Y184.869 E10.66698
G1 X148.134 Y184.521 E10.68453
G1 X148.355 Y184.284 E10.69662
G1 X149.09 Y183.523 E10.73611
G1 X149.853 Y182.76 E10.77639
G1 X150.2 Y182.423 E10.79444
G1 X150.433 Y182.204 E10.80637
G1 X151.334 Y181.382 E10.8519
G1 X151.943 Y180.846 E10.88218
G1 X152.262 Y180.577 E10.89775
G0 F6000 X152.483 Y180.848
G1 F600 X153.776 Y179.798 E10.95992
G1 X153.95 Y179.66 E10.96821
G1 X154.47 Y179.258 E10.99274
G1 X154.87 Y178.957 E11.01143
G1 X155.119 Y178.775 E11.02294
G1 X155.98 Y178.167 E11.06228
G1 X156.808 Y177.602 E11.09969
G1 X157.045 Y177.445 E11.1103
G1 X157.316 Y177.272 E11.1223
G1 X158.478 Y176.554 E11.17328
G1 X159.17 Y176.142 E11.20334
G1 X159.705 Y175.833 E11.2264
G1 X159.998 Y175.671 E11.2389
G1 X161.107 Y175.082 E11.28577
G1 X161.896 Y174.681 E11.3188
G1 X162.353 Y174.456 E11.33781
G1 X162.857 Y174.218 E11.35862
G1 X163.15 Y174.085 E11.37063
G1 X164.553 Y173.477 E11.4277
G1 X164.992 Y173.293 E11.44546
G1 X165.508 Y173.088 E11.46619
G1 X165.804 Y172.976 E11.478
G1 X167.185 Y172.478 E11.53279
G1 X167.667 Y172.312 E11.55182
G1 X167.974 Y172.211 E11.56388
G1 X168.996 Y171.895 E11.60381
G1 X169.799 Y171.661 E11.63503
G1 X170.501 Y171.467 E11.66221
G1 X170.798 Y171.39 E11.67366
G1 X171.746 Y171.16 E11.71007
G1 X172.629 Y170.961 E11.74386
G1 X173.252 Y170.829 E11.76763
G1 X173.567 Y170.768 E11.7796
G1 X174.659 Y170.575 E11.82099
G1 X175.465 Y170.446 E11.85146
G1 X176.133 Y170.349 E11.87665
G1 X176.446 Y170.309 E11.88843
G1 X177.485 Y170.192 E11.92745
G1 X177.68 Y170.172 E11.93477
G1 X178.517 Y170.094 E11.96615
G1 X178.921 Y170.064 E11.98127
G1 X180.482 Y169.981 E12.03961
G1 X180.694 Y169.972 E12.04753
G1 X181.221 Y169.955 E12.06721
G1 X181.897 Y169.943 E12.09245
G1 X182.213 Y169.942 E12.10424
G1 X183.477 Y169.961 E12.15142
G1 X184.307 Y169.988 E12.18242
G1 X184.896 Y170.016 E12.20443
G1 X185.198 Y170.035 E12.21572
G1 X186.267 Y170.119 E12.25575
G1 X187.176 Y170.204 E12.28982
G1 X187.646 Y170.255 E12.30747
G1 X187.963 Y170.295 E12.31939
G1 X189.312 Y170.486 E12.37024
G1 X190.039 Y170.604 E12.39773
G1 X190.608 Y170.703 E12.41929
G1 X190.904 Y170.759 E12.43053
G1 X192.037 Y170.992 E12.47371
G1 X192.881 Y171.182 E12.506
G1 X193.421 Y171.311 E12.52672
G1 X193.721 Y171.388 E12.53828
G1 X194.873 Y171.702 E12.58285
G1 X195.718 Y171.949 E12.6157
G1 X196.145 Y172.079 E12.63236
G1 X196.464 Y172.182 E12.64488
G1 X197.488 Y172.531 E12.68525
G1 X198.297 Y172.821 E12.71733
G1 X198.977 Y173.076 E12.74444
G1 X199.26 Y173.188 E12.7558
G1 X200.27 Y173.605 E12.79658
G1 X201.073 Y173.954 E12.82926
G1 X201.583 Y174.183 E12.85013
G1 X201.874 Y174.319 E12.86212
G1 X202.834 Y174.787 E12.90198
G1 X203.607 Y175.179 E12.93433
G1 X204.145 Y175.461 E12.957
G1 X204.431 Y175.618 E12.96918
G1 X205.542 Y176.251 E13.0169
G1 X206.266 Y176.682 E13.04835
G1 X206.736 Y176.97 E13.06892
G1 X206.985 Y177.128 E13.07993
G1 X207.909 Y177.733 E13.12115
G1 X208.649 Y178.236 E13.15455
G1 X209.058 Y178.522 E13.17318
G1 X209.319 Y178.711 E13.1852
G1 X210.222 Y179.386 E13.22728
G1 X210.978 Y179.971 E13.26296
G1 X211.305 Y180.235 E13.27865
G1 X212.518 Y181.259 E13.3379
G1 X213.097 Y181.766 E13.36662
G1 X213.589 Y182.211 E13.39138
G1 X213.803 Y182.411 E13.40232
G1 X214.67 Y183.248 E13.4473
G1 X215.334 Y183.914 E13.4824
G1 X215.459 Y184.043 E13.4891
G1 X215.643 Y184.238 E13.49911
G1 X216.612 Y185.292 E13.55255
G1 X216.742 Y185.436 E13.55979
G1 X217.179 Y185.93 E13.5844
