;FLAVOR:Marlin
;TIME:8470
;Filament used: 8.92547m
;Layer height: 0.4
;MINX:62.005
;MINY:12.072
;MINZ:0.4
;MAXX:152.73
;MAXY:102.798
;MAXZ:32.4
;Generated with Cura_SteamEngine 4.10.0
M104 S210
M105
M109 S210
M82 ;absolute extrusion mode
G21 ;metric values
G90 ;absolute positioning
M82 ;set extruder to absolute mode
M107 ;start with the fan off
G28 X0 Y0 ;move X/Y to min endstops
G28 Z0 ;move Z to min endstops
M501
M420 S1 ;Marlin Bed-leveling on
G1 Z15.0 F180.0 ;move the platform down 15mm
G92 E0 ;zero the extruded length
G1 F200 E3 ;extrude 3mm of feed stock
G92 E0 ;zero the extruded length again
G1 F180.0
M117 Printing...
G5
G92 E0
G92 E0
;LAYER_COUNT:81
;LAYER:0
M107
M204 S3000
M205 X10 Y10
G0 F7200 X67.484 Y35.822 Z0.4
M204 S1000
M205 X8 Y8
;TYPE:SKIRT
G1 F1200 X67.717 Y35.4 E0.0633
G1 X68.07 Y34.782 E0.15675
G1 X68.526 Y34.003 E0.27528
G1 X68.827 Y33.515 E0.35057
G1 X69.543 Y32.4 E0.52457
G1 X69.654 Y32.231 E0.55112
G1 X70.209 Y31.421 E0.68005
G1 X70.481 Y31.037 E0.74185
G1 X71.032 Y30.278 E0.865
G1 X71.169 Y30.096 E0.89492
G1 X71.809 Y29.273 E1.03182
G1 X72.361 Y28.584 E1.14775
G1 X72.685 Y28.197 E1.21402
G1 X73.174 Y27.629 E1.31244
G1 X73.842 Y26.876 E1.44461
G1 X74.189 Y26.501 E1.5117
G1 X74.781 Y25.88 E1.62436
G1 X75.361 Y25.288 E1.73319
G1 X75.744 Y24.914 E1.80348
G1 X76.35 Y24.337 E1.91336
G1 X76.965 Y23.768 E2.02338
G1 X77.121 Y23.628 E2.0509
G1 X77.727 Y23.101 E2.15636
G1 X78.486 Y22.456 E2.28715
G1 X78.644 Y22.326 E2.31402
G1 X79.273 Y21.822 E2.41985
G1 X79.702 Y21.488 E2.49125
G1 X80.453 Y20.919 E2.61497
G1 X80.912 Y20.587 E2.68936
G1 X81.361 Y20.273 E2.7613
G1 X81.818 Y19.958 E2.83418
G1 X82.019 Y19.823 E2.86598
G1 X83.172 Y19.078 E3.04624
G1 X83.509 Y18.859 E3.09901
G1 X84.17 Y18.453 E3.20087
G1 X84.626 Y18.187 E3.27019
G1 X85.328 Y17.79 E3.37609
G1 X86.208 Y17.309 E3.50778
G1 X86.558 Y17.128 E3.55952
G1 X87.276 Y16.767 E3.66505
G1 X87.876 Y16.475 E3.75267
G1 X88.064 Y16.387 E3.77993
G1 X89.304 Y15.827 E3.95859
G1 X90.09 Y15.492 E4.07078
G1 X90.619 Y15.28 E4.14562
G1 X91.334 Y15.005 E4.24621
G1 X92.404 Y14.611 E4.39593
G1 X92.695 Y14.512 E4.4363
G1 X93.435 Y14.268 E4.53861
G1 X94.416 Y13.96 E4.67363
G1 X94.935 Y13.811 E4.74453
G1 X95.609 Y13.626 E4.83631
G1 X96.482 Y13.398 E4.95479
G1 X96.98 Y13.279 E5.02202
G1 X97.755 Y13.106 E5.12629
G1 X98.776 Y12.893 E5.26325
G1 X99.229 Y12.81 E5.32372
G1 X99.97 Y12.682 E5.42246
G1 X100.794 Y12.55 E5.53204
G1 X101.391 Y12.469 E5.61115
G1 X102.146 Y12.376 E5.71104
G1 X103.014 Y12.281 E5.8257
G1 X103.614 Y12.229 E5.90478
G1 X104.344 Y12.176 E6.00089
G1 X105.497 Y12.11 E6.15254
G1 X105.744 Y12.102 E6.18499
G1 X106.615 Y12.081 E6.2994
G1 X107.421 Y12.072 E6.40524
G1 X108.132 Y12.08 E6.49861
G1 X108.828 Y12.099 E6.59004
G1 X109.731 Y12.134 E6.7087
G1 X110.245 Y12.166 E6.77632
G1 X111.053 Y12.225 E6.88271
G1 X111.897 Y12.299 E6.99396
G1 X112.425 Y12.356 E7.06369
G1 X113.238 Y12.457 E7.17127
G1 X114.134 Y12.581 E7.29005
G1 X114.688 Y12.67 E7.36372
G1 X115.485 Y12.808 E7.46994
G1 X116.353 Y12.972 E7.58593
G1 X116.823 Y13.071 E7.649
G1 X117.625 Y13.251 E7.75693
G1 X118.499 Y13.459 E7.8749
G1 X118.989 Y13.588 E7.94144
G1 X119.77 Y13.804 E8.04784
G1 X120.67 Y14.066 E8.17093
G1 X120.895 Y14.136 E8.20187
G1 X121.872 Y14.457 E8.33691
G1 X122.938 Y14.827 E8.48508
G1 X123.3 Y14.963 E8.53586
G1 X123.954 Y15.216 E8.62794
G1 X124.816 Y15.562 E8.7499
G1 X125.363 Y15.796 E8.82803
G1 X125.945 Y16.054 E8.91162
G1 X127.042 Y16.561 E9.07031
G1 X127.362 Y16.718 E9.11712
G1 X128.086 Y17.084 E9.22364
G1 X128.861 Y17.487 E9.33834
G1 X129.072 Y17.601 E9.36984
G1 X129.886 Y18.06 E9.49255
G1 X130.784 Y18.586 E9.6292
G1 X131.222 Y18.854 E9.69663
G1 X131.878 Y19.269 E9.79856
G1 X132.668 Y19.784 E9.92239
G1 X133.125 Y20.096 E9.99505
G1 X133.788 Y20.564 E10.10161
G1 X134.468 Y21.058 E10.21198
G1 X134.907 Y21.391 E10.28433
G1 X135.525 Y21.873 E10.38725
G1 X136.227 Y22.436 E10.50541
G1 X136.611 Y22.758 E10.57122
G1 X137.249 Y23.31 E10.682
G1 X138.042 Y24.016 E10.82142
G1 X138.297 Y24.254 E10.86722
G1 X138.854 Y24.783 E10.96809
G1 X139.505 Y25.42 E11.08769
G1 X139.927 Y25.851 E11.16689
G1 X140.402 Y26.35 E11.25736
G1 X141.082 Y27.085 E11.38884
G1 X141.426 Y27.473 E11.45693
G1 X141.928 Y28.057 E11.55805
G1 X142.522 Y28.766 E11.67951
G1 X142.825 Y29.143 E11.74302
G1 X143.325 Y29.785 E11.84987
G1 X143.874 Y30.509 E11.96918
G1 X144.177 Y30.926 E12.03687
G1 X144.626 Y31.564 E12.13931
G1 X145.159 Y32.343 E12.26325
G1 X145.443 Y32.779 E12.33158
G1 X145.86 Y33.437 E12.43387
G1 X146.324 Y34.192 E12.55024
G1 X146.598 Y34.66 E12.62145
G1 X146.965 Y35.306 E12.71901
G1 X147.41 Y36.118 E12.8406
G1 X147.664 Y36.606 E12.91284
G1 X148.049 Y37.372 E13.02541
G1 X148.44 Y38.18 E13.14328
G1 X148.638 Y38.609 E13.20532
G1 X148.965 Y39.348 E13.31144
G1 X149.306 Y40.146 E13.42539
G1 X149.544 Y40.739 E13.50929
G1 X149.737 Y41.242 E13.58004
G1 X150.075 Y42.149 E13.70714
G1 X150.386 Y43.046 E13.8318
G1 X150.526 Y43.472 E13.89069
G1 X150.82 Y44.408 E14.01951
G1 X150.968 Y44.916 E14.08899
G1 X151.169 Y45.647 E14.18854
G1 X151.404 Y46.548 E14.31081
G1 X151.519 Y47.026 E14.37537
G1 X151.68 Y47.743 E14.47186
G1 X151.918 Y48.888 E14.62543
G1 X151.975 Y49.2 E14.66708
G1 X152.121 Y50.042 E14.77929
G1 X152.251 Y50.858 E14.88779
G1 X152.323 Y51.38 E14.95698
G1 X152.428 Y52.238 E15.07049
G1 X152.541 Y53.295 E15.21008
G1 X152.565 Y53.584 E15.24816
G1 X152.63 Y54.461 E15.36363
G1 X152.679 Y55.273 E15.47045
G1 X152.702 Y55.855 E15.54693
G1 X152.721 Y56.646 E15.65083
G1 X152.73 Y57.569 E15.77204
G1 X152.724 Y58.093 E15.84085
G1 X152.705 Y58.874 E15.94343
G1 X152.673 Y59.729 E16.05578
G1 X152.642 Y60.245 E16.12366
G1 X152.573 Y61.164 E16.24467
G1 X152.481 Y62.188 E16.37968
G1 X152.446 Y62.494 E16.42012
G1 X152.34 Y63.349 E16.53325
G1 X152.227 Y64.17 E16.64207
G1 X152.137 Y64.736 E16.71733
G1 X151.999 Y65.528 E16.8229
G1 X151.826 Y66.441 E16.94492
G1 X151.732 Y66.889 E17.00502
G1 X151.552 Y67.691 E17.11296
G1 X151.35 Y68.538 E17.22729
G1 X151.196 Y69.126 E17.30711
G1 X150.996 Y69.846 E17.40523
G1 X150.738 Y70.729 E17.52603
G1 X150.571 Y71.26 E17.59912
G1 X150.343 Y71.948 E17.6943
G1 X150.061 Y72.766 E17.80791
G1 X149.833 Y73.382 E17.89416
G1 X149.573 Y74.053 E17.98866
G1 X149.151 Y75.095 E18.13628
G1 X149.015 Y75.411 E18.18145
G1 X148.712 Y76.091 E18.27921
G1 X148.345 Y76.893 E18.39502
G1 X148.078 Y77.444 E18.47542
G1 X147.741 Y78.112 E18.57366
G1 X147.233 Y79.082 E18.71745
G1 X147.058 Y79.397 E18.76476
G1 X146.665 Y80.089 E18.86926
G1 X146.217 Y80.854 E18.98567
G1 X145.946 Y81.296 E19.05375
G1 X145.549 Y81.921 E19.15098
G1 X145.015 Y82.739 E19.27925
G1 X144.732 Y83.154 E19.34521
G1 X144.256 Y83.83 E19.45378
G1 X143.717 Y84.571 E19.5741
G1 X143.409 Y84.977 E19.64101
G1 X142.945 Y85.572 E19.74009
G1 X142.374 Y86.284 E19.85994
G1 X142.004 Y86.725 E19.93553
G1 X141.553 Y87.25 E20.02641
G1 X140.786 Y88.112 E20.17792
G1 X140.557 Y88.357 E20.22196
G1 X140.02 Y88.922 E20.32431
G1 X139.384 Y89.572 E20.44373
G1 X138.889 Y90.054 E20.53445
G1 X138.454 Y90.468 E20.6133
G1 X137.729 Y91.139 E20.74302
G1 X137.317 Y91.503 E20.81521
G1 X136.767 Y91.977 E20.91055
G1 X136.039 Y92.587 E21.03527
G1 X135.617 Y92.926 E21.10635
G1 X134.995 Y93.41 E21.20984
G1 X134.272 Y93.958 E21.32896
G1 X133.907 Y94.223 E21.38819
G1 X133.197 Y94.723 E21.50222
G1 X132.532 Y95.179 E21.6081
G1 X131.995 Y95.529 E21.69227
G1 X131.358 Y95.932 E21.79125
G1 X130.607 Y96.393 E21.90696
G1 X130.093 Y96.694 E21.98518
G1 X129.574 Y96.984 E22.06324
G1 X128.678 Y97.479 E22.19766
G1 X127.994 Y97.835 E22.29891
G1 X127.463 Y98.101 E22.3769
G1 X126.642 Y98.498 E22.49665
G1 X126.111 Y98.741 E22.57333
G1 X125.433 Y99.041 E22.67068
G1 X124.624 Y99.386 E22.78617
G1 X124.094 Y99.599 E22.86117
G1 X123.399 Y99.867 E22.95898
G1 X122.332 Y100.259 E23.10825
G1 X122.044 Y100.357 E23.1482
G1 X121.308 Y100.6 E23.24997
G1 X120.319 Y100.91 E23.38607
G1 X119.803 Y101.059 E23.45659
G1 X119.127 Y101.244 E23.54863
G1 X118.254 Y101.472 E23.6671
G1 X118.041 Y101.524 E23.6959
G1 X116.957 Y101.77 E23.84186
G1 X116.014 Y101.966 E23.96833
G1 X115.476 Y102.066 E24.04018
G1 X114.831 Y102.175 E24.12608
G1 X113.879 Y102.326 E24.25265
G1 X113.327 Y102.402 E24.32582
G1 X112.583 Y102.493 E24.42424
G1 X111.539 Y102.605 E24.56212
G1 X111.14 Y102.639 E24.6147
G1 X110.32 Y102.698 E24.72265
G1 X109.292 Y102.758 E24.85787
G1 X108.989 Y102.768 E24.89768
G1 X108.121 Y102.789 E25.01169
G1 X107.318 Y102.798 E25.11714
G1 X106.603 Y102.79 E25.21103
G1 X105.904 Y102.77 E25.30286
G1 X104.844 Y102.727 E25.44216
G1 X104.5 Y102.706 E25.48742
G1 X103.684 Y102.645 E25.59487
G1 X102.839 Y102.571 E25.70625
G1 X102.298 Y102.513 E25.77769
G1 X101.481 Y102.412 E25.88579
G1 X100.594 Y102.29 E26.00336
G1 X100.047 Y102.203 E26.07609
G1 X99.242 Y102.062 E26.18341
G1 X98.468 Y101.917 E26.28681
G1 X97.865 Y101.79 E26.36773
G1 X97.138 Y101.626 E26.46559
G1 X96.032 Y101.358 E26.61502
G1 X95.683 Y101.265 E26.66245
G1 X94.964 Y101.065 E26.76045
G1 X94.102 Y100.814 E26.87834
G1 X93.617 Y100.662 E26.94508
G1 X92.816 Y100.397 E27.05586
G1 X91.96 Y100.1 E27.17484
G1 X91.464 Y99.917 E27.24426
G1 X90.761 Y99.645 E27.34324
G1 X89.866 Y99.285 E27.46992
G1 X89.379 Y99.078 E27.5394
G1 X88.704 Y98.777 E27.63645
G1 X87.894 Y98.405 E27.75349
G1 X87.421 Y98.176 E27.8225
G1 X86.702 Y97.814 E27.9282
G1 X85.878 Y97.384 E28.05025
G1 X85.406 Y97.125 E28.12095
G1 X84.755 Y96.757 E28.21914
G1 X83.958 Y96.291 E28.34037
G1 X83.489 Y96.003 E28.41264
G1 X82.84 Y95.591 E28.51359
G1 X82.034 Y95.065 E28.63997
G1 X81.658 Y94.808 E28.69977
G1 X80.969 Y94.322 E28.81049
G1 X80.263 Y93.811 E28.92493
G1 X79.802 Y93.461 E29.00093
G1 X79.225 Y93.011 E29.09702
G1 X78.524 Y92.448 E29.21508
G1 X78.095 Y92.089 E29.28853
G1 X77.531 Y91.602 E29.38638
G1 X76.694 Y90.853 E29.53387
G1 X76.365 Y90.545 E29.59304
G1 X75.871 Y90.075 E29.68258
G1 X75.101 Y89.319 E29.82428
G1 X74.785 Y88.994 E29.8838
G1 X74.34 Y88.524 E29.96879
G1 X73.655 Y87.785 E30.10111
G1 X73.282 Y87.364 E30.17496
G1 X72.785 Y86.788 E30.27486
G1 X72.287 Y86.196 E30.37645
G1 X71.859 Y85.663 E30.46621
G1 X71.412 Y85.09 E30.56163
G1 X70.853 Y84.35 E30.68341
G1 X70.509 Y83.875 E30.76042
G1 X70.09 Y83.278 E30.8562
G1 X69.576 Y82.527 E30.9757
G1 X69.292 Y82.091 E31.04402
G1 X68.874 Y81.431 E31.14661
G1 X68.503 Y80.827 E31.23969
G1 X68.399 Y80.653 E31.26631
G1 X67.732 Y79.492 E31.44213
G1 X67.302 Y78.707 E31.55966
G1 X67.055 Y78.236 E31.62949
G1 X66.69 Y77.509 E31.73631
G1 X66.338 Y76.786 E31.8419
G1 X66.081 Y76.224 E31.92305
G1 X65.886 Y75.784 E31.98625
G1 X65.583 Y75.083 E32.08653
G1 X65.501 Y74.886 E32.11455
G1 X64.905 Y73.384 E32.32673
G1 X64.566 Y72.463 E32.4556
G1 X64.42 Y72.035 E32.51499
G1 X64.191 Y71.341 E32.61095
G1 X63.888 Y70.372 E32.74426
G1 X63.753 Y69.902 E32.80848
G1 X63.558 Y69.189 E32.90554
G1 X63.333 Y68.325 E33.02278
G1 X63.211 Y67.813 E33.09189
G1 X63.03 Y67.009 E33.20011
G1 X62.859 Y66.194 E33.30945
G1 X62.762 Y65.68 E33.37814
G1 X62.642 Y64.99 E33.4701
G1 X62.453 Y63.789 E33.62975
G1 X62.404 Y63.429 E33.67746
G1 X62.309 Y62.66 E33.7792
G1 X62.213 Y61.776 E33.89596
G1 X62.163 Y61.203 E33.97149
G1 X62.109 Y60.459 E34.06944
G1 X62.053 Y59.504 E34.19506
G1 X62.032 Y58.953 E34.26747
G1 X62.014 Y58.219 E34.36388
G1 X62.005 Y57.404 E34.4709
G1 X62.014 Y56.622 E34.57359
G1 X62.03 Y56.038 E34.65031
G1 X62.069 Y55.044 E34.78093
G1 X62.102 Y54.515 E34.85053
G1 X62.157 Y53.772 E34.94836
G1 X62.238 Y52.853 E35.0695
G1 X62.3 Y52.289 E35.14401
G1 X62.393 Y51.543 E35.24273
G1 X62.538 Y50.506 E35.38022
G1 X62.607 Y50.082 E35.43663
G1 X62.733 Y49.359 E35.533
G1 X62.895 Y48.496 E35.6483
G1 X63.003 Y47.978 E35.71778
G1 X63.165 Y47.258 E35.81469
G1 X63.448 Y46.083 E35.97339
G1 X63.53 Y45.778 E36.01486
G1 X63.737 Y45.031 E36.11665
G1 X63.979 Y44.2 E36.2303
G1 X64.169 Y43.596 E36.31344
G1 X64.394 Y42.916 E36.4075
G1 X64.717 Y41.984 E36.53702
G1 X64.878 Y41.551 E36.59768
G1 X65.157 Y40.83 E36.6992
G1 X65.496 Y39.986 E36.81863
G1 X65.729 Y39.44 E36.89658
G1 X66.029 Y38.764 E36.99369
G1 X66.434 Y37.887 E37.12054
G1 X66.65 Y37.443 E37.18538
G1 X66.978 Y36.791 E37.28121
G1 X67.484 Y35.822 E37.42476
M204 S3000
M205 X10 Y10
G0 F7200 X68.155 Y36.35
M204 S1000
M205 X8 Y8
G1 F1200 X68.447 Y35.816 E37.50468
G1 X68.795 Y35.207 E37.59678
G1 X69.331 Y34.294 E37.7358
G1 X69.534 Y33.968 E37.78623
G1 X70.25 Y32.853 E37.96023
G1 X70.348 Y32.705 E37.98354
G1 X70.895 Y31.906 E38.11069
G1 X71.161 Y31.53 E38.17116
G1 X71.712 Y30.771 E38.29432
G1 X71.833 Y30.611 E38.32066
G1 X72.465 Y29.798 E38.45588
G1 X73.017 Y29.109 E38.57181
G1 X73.361 Y28.7 E38.64199
G1 X73.87 Y28.11 E38.74431
G1 X74.572 Y27.321 E38.88298
G1 X74.797 Y27.08 E38.92628
G1 X75.381 Y26.468 E39.03736
G1 X75.961 Y25.876 E39.14618
G1 X76.363 Y25.484 E39.21991
G1 X76.921 Y24.954 E39.32097
G1 X77.536 Y24.385 E39.43099
G1 X77.673 Y24.261 E39.45525
G1 X78.271 Y23.741 E39.55931
G1 X79.03 Y23.096 E39.6901
G1 X79.169 Y22.981 E39.71379
G1 X79.79 Y22.484 E39.81824
G1 X80.21 Y22.157 E39.88813
G1 X80.961 Y21.588 E40.01185
G1 X81.396 Y21.274 E40.0823
G1 X81.83 Y20.97 E40.15188
G1 X82.298 Y20.647 E40.22655
G1 X82.475 Y20.529 E40.25448
G1 X83.611 Y19.795 E40.43208
G1 X83.949 Y19.575 E40.48504
G1 X84.751 Y19.084 E40.60852
G1 X85.04 Y18.917 E40.65235
G1 X85.732 Y18.526 E40.75672
G1 X86.482 Y18.115 E40.86902
G1 X86.935 Y17.878 E40.93615
G1 X87.644 Y17.522 E41.04033
G1 X88.244 Y17.23 E41.12795
G1 X88.409 Y17.153 E41.15186
G1 X89.634 Y16.6 E41.32834
G1 X90.42 Y16.265 E41.44054
G1 X90.979 Y16.041 E41.51961
G1 X91.535 Y15.826 E41.59789
G1 X92.676 Y15.406 E41.75755
G1 X92.96 Y15.31 E41.79691
G1 X93.687 Y15.069 E41.89748
G1 X94.511 Y14.809 E42.01094
G1 X95.068 Y14.646 E42.08715
G1 X95.821 Y14.439 E42.18969
G1 X96.694 Y14.211 E42.30817
G1 X97.165 Y14.099 E42.37175
G1 X97.928 Y13.928 E42.47442
G1 X98.928 Y13.719 E42.60857
G1 X99.373 Y13.638 E42.66796
G1 X100.103 Y13.512 E42.76524
G1 X100.927 Y13.38 E42.87482
G1 X101.441 Y13.309 E42.94295
G1 X102.237 Y13.211 E43.04827
G1 X103.105 Y13.116 E43.16292
G1 X103.675 Y13.067 E43.23805
G1 X104.394 Y13.015 E43.33271
G1 X105.527 Y12.95 E43.48173
G1 X105.765 Y12.942 E43.513
G1 X106.624 Y12.921 E43.62583
G1 X107.43 Y12.912 E43.73167
G1 X108.11 Y12.92 E43.82097
G1 X108.795 Y12.939 E43.91095
G1 X109.865 Y12.982 E44.05157
G1 X110.185 Y13.003 E44.09368
G1 X110.98 Y13.062 E44.19835
G1 X111.824 Y13.136 E44.30961
G1 X112.402 Y13.199 E44.38595
G1 X113.123 Y13.289 E44.48136
G1 X114.019 Y13.413 E44.60014
G1 X114.61 Y13.508 E44.67874
G1 X115.329 Y13.634 E44.77459
G1 X116.197 Y13.798 E44.89059
G1 X116.639 Y13.891 E44.9499
G1 X117.43 Y14.068 E45.05633
G1 X118.304 Y14.276 E45.1743
G1 X118.814 Y14.41 E45.24355
G1 X119.535 Y14.611 E45.34183
G1 X120.435 Y14.873 E45.46492
G1 X120.634 Y14.934 E45.49225
G1 X121.598 Y15.251 E45.6255
G1 X122.509 Y15.566 E45.75207
G1 X122.998 Y15.746 E45.8205
G1 X123.641 Y15.996 E45.91109
G1 X124.503 Y16.342 E46.03305
G1 X125.029 Y16.567 E46.10818
G1 X125.683 Y16.858 E46.20217
G1 X126.672 Y17.315 E46.34523
G1 X126.984 Y17.469 E46.39092
G1 X127.698 Y17.829 E46.49592
G1 X128.473 Y18.232 E46.61062
G1 X128.66 Y18.333 E46.63853
G1 X129.565 Y18.844 E46.775
G1 X130.36 Y19.31 E46.89601
G1 X130.839 Y19.605 E46.96988
G1 X131.42 Y19.973 E47.06018
G1 X132.336 Y20.572 E47.2039
G1 X132.641 Y20.783 E47.2526
G1 X133.294 Y21.243 E47.35748
G1 X133.974 Y21.737 E47.46785
G1 X134.397 Y22.058 E47.53758
G1 X135 Y22.529 E47.63805
G1 X135.702 Y23.092 E47.75621
G1 X136.112 Y23.437 E47.82658
G1 X136.691 Y23.938 E47.92712
G1 X137.471 Y24.632 E48.06421
G1 X137.719 Y24.863 E48.10871
G1 X138.266 Y25.384 E48.20791
G1 X139.023 Y26.127 E48.34719
G1 X139.379 Y26.492 E48.41414
G1 X139.785 Y26.921 E48.4917
G1 X140.465 Y27.656 E48.62319
G1 X140.79 Y28.021 E48.68736
G1 X141.285 Y28.597 E48.78709
G1 X141.879 Y29.306 E48.90854
G1 X142.163 Y29.661 E48.96824
G1 X142.656 Y30.293 E49.07349
G1 X143.297 Y31.141 E49.21308
G1 X143.49 Y31.41 E49.25655
G1 X143.932 Y32.038 E49.35739
G1 X144.557 Y32.954 E49.503
G1 X144.734 Y33.229 E49.54595
G1 X145.144 Y33.877 E49.64664
G1 X145.608 Y34.632 E49.763
G1 X145.871 Y35.081 E49.83133
G1 X146.28 Y35.803 E49.94029
G1 X146.674 Y36.522 E50.04795
G1 X146.947 Y37.047 E50.12565
